;FLAVOR:Marlin
;TIME:2225
;Filament used: 1.62795m
;Layer height: 0.2
;MINX:72.999
;MINY:90.8
;MINZ:0.24
;MAXX:147
;MAXY:129.199
;MAXZ:18.39
;Generated with Cura_SteamEngine master
M140 S70
M105
M190 S70
M104 S200
M105
M109 S200
M82 ;absolute extrusion mode
M201 X500.00 Y500.00 Z100.00 E5000.00 ;Setup machine max acceleration
M203 X500.00 Y500.00 Z10.00 E50.00 ;Setup machine max feedrate
M204 P500.00 R1000.00 T500.00 ;Setup Print/Retract/Travel acceleration
M205 X8.00 Y8.00 Z0.40 E5.00 ;Setup Jerk
M220 S100 ;Reset Feedrate
M221 S100 ;Reset Flowrate

G28 ;Home

G92 E0 ;Reset Extruder
G1 Z2.0 F3000 ;Move Z Axis up
G1 X10.1 Y20 Z0.28 F5000.0 ;Move to start position
G1 X10.1 Y200.0 Z0.28 F1500.0 E15 ;Draw the first line
G1 X10.4 Y200.0 Z0.28 F5000.0 ;Move to side a little
G1 X10.4 Y20 Z0.28 F1500.0 E30 ;Draw the second line
G92 E0 ;Reset Extruder
G1 Z2.0 F3000 ;Move Z Axis up

G92 E0
G92 E0
G1 F2700 E-5
;LAYER_COUNT:86
;LAYER:-6
M107
G0 F12000 X78.447 Y94.493 Z0.24
;TYPE:SUPPORT-INTERFACE
G1 F2700 E0
G1 F1800 X79.138 Y93.939 E0.0707
G1 X79.277 Y93.835 E0.08455
G1 X79.992 Y93.343 E0.15384
G1 X80.176 Y93.226 E0.17124
G1 X80.932 Y92.783 E0.24119
G1 X81.074 Y92.706 E0.25408
G1 X81.906 Y92.297 E0.32809
G1 X82.019 Y92.247 E0.33795
G1 X82.869 Y91.904 E0.41112
G1 X83.042 Y91.842 E0.42579
G1 X83.88 Y91.573 E0.49604
G1 X84.044 Y91.527 E0.50964
G1 X84.916 Y91.315 E0.58127
G1 X85.078 Y91.282 E0.59447
G1 X85.971 Y91.134 E0.66672
G1 X86.148 Y91.111 E0.68097
G1 X87.042 Y91.028 E0.75264
G1 X87.184 Y91.021 E0.76399
G1 X87.925 Y91 E0.82316
G1 X132.086 Y91.001 E4.34829
G1 X133.087 Y91.037 E4.42824
G1 X133.21 Y91.046 E4.43809
G1 X134.127 Y91.148 E4.51174
G1 X134.302 Y91.173 E4.52585
G1 X135.191 Y91.337 E4.59801
G1 X135.314 Y91.365 E4.60808
G1 X136.208 Y91.599 E4.68185
G1 X136.371 Y91.648 E4.69543
G1 X137.213 Y91.934 E4.76642
G1 X137.379 Y91.998 E4.78062
G1 X138.182 Y92.339 E4.85026
G1 X138.371 Y92.427 E4.8669
G1 X139.165 Y92.835 E4.93816
G1 X139.282 Y92.902 E4.94892
G1 X140.061 Y93.376 E5.02171
G1 X140.212 Y93.476 E5.03617
G1 X140.926 Y93.987 E5.10625
G1 X141.074 Y94.1 E5.12112
G1 X141.766 Y94.677 E5.19304
G1 X141.874 Y94.773 E5.20457
G1 X142.385 Y95.256 E5.2607
G1 X142.386 Y95.255 E5.26081
G1 X142.542 Y95.412 E5.27848
G1 X143.188 Y96.108 E5.35428
G1 X143.307 Y96.247 E5.36889
G1 X143.861 Y96.938 E5.43959
G1 X143.965 Y97.077 E5.45344
G1 X144.457 Y97.792 E5.52272
G1 X144.574 Y97.976 E5.54013
G1 X145.014 Y98.725 E5.60947
G1 X145.087 Y98.859 E5.62165
G1 X145.492 Y99.682 E5.69487
G1 X145.553 Y99.819 E5.70684
G1 X145.895 Y100.664 E5.77961
G1 X145.954 Y100.83 E5.79367
G1 X146.225 Y101.672 E5.86428
G1 X146.272 Y101.838 E5.87805
G1 X146.483 Y102.707 E5.94943
G1 X146.517 Y102.87 E5.96273
G1 X146.665 Y103.762 E6.0349
G1 X146.689 Y103.948 E6.04987
G1 X146.77 Y104.832 E6.12073
G1 X146.779 Y104.984 E6.13289
G1 X146.8 Y105.717 E6.19142
G1 X146.8 Y114.269 E6.87408
G1 X146.764 Y115.275 E6.95443
G1 X146.754 Y115.41 E6.96524
G1 X146.652 Y116.327 E7.03889
G1 X146.627 Y116.502 E7.053
G1 X146.465 Y117.38 E7.12427
G1 X146.435 Y117.514 E7.13523
G1 X146.204 Y118.399 E7.20824
G1 X146.152 Y118.571 E7.22259
G1 X145.866 Y119.413 E7.29357
G1 X145.802 Y119.579 E7.30777
G1 X145.461 Y120.382 E7.37741
G1 X145.38 Y120.557 E7.3928
G1 X144.976 Y121.343 E7.46335
G1 X144.898 Y121.482 E7.47607
G1 X144.424 Y122.261 E7.54886
G1 X144.324 Y122.412 E7.56332
G1 X143.813 Y123.126 E7.63341
G1 X143.7 Y123.274 E7.64827
G1 X143.123 Y123.966 E7.72019
G1 X143.027 Y124.074 E7.73173
G1 X142.544 Y124.585 E7.78785
G1 X142.545 Y124.586 E7.78797
G1 X142.388 Y124.742 E7.80563
G1 X141.703 Y125.378 E7.88025
G1 X141.555 Y125.505 E7.89582
G1 X140.862 Y126.061 E7.96674
G1 X140.723 Y126.165 E7.98059
G1 X140.008 Y126.657 E8.04988
G1 X139.824 Y126.774 E8.06728
G1 X139.068 Y127.217 E8.13723
G1 X138.926 Y127.294 E8.15012
G1 X138.098 Y127.701 E8.22377
G1 X137.981 Y127.753 E8.23399
G1 X137.126 Y128.098 E8.30759
G1 X136.963 Y128.156 E8.3214
G1 X136.12 Y128.427 E8.39208
G1 X135.956 Y128.473 E8.40568
G1 X135.084 Y128.685 E8.47731
G1 X134.922 Y128.718 E8.49051
G1 X134.029 Y128.866 E8.56276
G1 X133.852 Y128.889 E8.57701
G1 X132.958 Y128.972 E8.64868
G1 X132.816 Y128.979 E8.66003
G1 X132.075 Y129 E8.7192
G1 X87.914 Y128.999 E12.24432
G1 X86.913 Y128.963 E12.32428
G1 X86.79 Y128.954 E12.33413
G1 X85.873 Y128.852 E12.40778
G1 X85.698 Y128.827 E12.42189
G1 X84.809 Y128.663 E12.49405
G1 X84.686 Y128.635 E12.50412
G1 X83.792 Y128.401 E12.57788
G1 X83.629 Y128.352 E12.59147
G1 X82.787 Y128.066 E12.66245
G1 X82.621 Y128.002 E12.67666
G1 X81.818 Y127.661 E12.7463
G1 X81.629 Y127.573 E12.76294
G1 X80.835 Y127.165 E12.8342
G1 X80.718 Y127.098 E12.84496
G1 X79.939 Y126.624 E12.91775
G1 X79.788 Y126.524 E12.9322
G1 X79.074 Y126.013 E13.00229
G1 X78.926 Y125.9 E13.01716
G1 X78.234 Y125.323 E13.08908
G1 X78.126 Y125.227 E13.10061
G1 X77.615 Y124.744 E13.15674
G1 X77.614 Y124.745 E13.15685
G1 X77.454 Y124.584 E13.17497
G1 X76.81 Y123.89 E13.25055
G1 X76.693 Y123.753 E13.26493
G1 X76.143 Y123.067 E13.33511
G1 X76.027 Y122.911 E13.35063
G1 X75.543 Y122.208 E13.41876
G1 X75.426 Y122.024 E13.43617
G1 X74.983 Y121.268 E13.50611
G1 X74.906 Y121.126 E13.51901
G1 X74.497 Y120.294 E13.59301
G1 X74.447 Y120.181 E13.60288
G1 X74.098 Y119.317 E13.67726
G1 X74.042 Y119.159 E13.69064
G1 X73.77 Y118.311 E13.76173
G1 X73.728 Y118.161 E13.77416
G1 X73.512 Y117.273 E13.84711
G1 X73.483 Y117.13 E13.85876
G1 X73.333 Y116.224 E13.93206
G1 X73.311 Y116.052 E13.94591
G1 X73.228 Y115.153 E14.01797
G1 X73.221 Y115.016 E14.02892
G1 X73.2 Y114.283 E14.08746
G1 X73.2 Y105.731 E14.77012
G1 X73.236 Y104.725 E14.85047
G1 X73.246 Y104.59 E14.86128
G1 X73.347 Y103.675 E14.93476
G1 X73.373 Y103.5 E14.94888
G1 X73.535 Y102.62 E15.02031
G1 X73.565 Y102.486 E15.03127
G1 X73.796 Y101.6 E15.10436
G1 X73.848 Y101.429 E15.11862
G1 X74.134 Y100.587 E15.18961
G1 X74.198 Y100.421 E15.20381
G1 X74.539 Y99.618 E15.27345
G1 X74.62 Y99.443 E15.28884
G1 X75.035 Y98.635 E15.36135
G1 X75.102 Y98.518 E15.37211
G1 X75.576 Y97.739 E15.4449
G1 X75.676 Y97.588 E15.45936
G1 X76.192 Y96.867 E15.53013
G1 X76.3 Y96.726 E15.54431
G1 X76.877 Y96.034 E15.61623
G1 X76.973 Y95.926 E15.62777
G1 X77.456 Y95.415 E15.68389
G1 X77.455 Y95.414 E15.68401
G1 X77.612 Y95.258 E15.70167
G1 X78.308 Y94.612 E15.77748
G1 X78.447 Y94.493 E15.79208
G0 F12000 X78.4 Y94.533
G1 F1800 X78.4 Y125.461 E18.26089
G1 F2700 E13.26089
G1 F300 Z0.74
G0 F12000 X80 Y126.661 Z0.74
G1 F300 Z0.24
G1 F2700 E18.26089
G1 F1800 X80 Y93.337 E20.92095
G1 F2700 E15.92095
G1 F300 Z0.74
G0 F12000 X81.6 Y92.447 Z0.74
G1 F300 Z0.24
G1 F2700 E20.92095
G1 F1800 X81.6 Y127.558 E23.72367
G1 F2700 E18.72367
G1 F300 Z0.74
G0 F12000 X83.2 Y128.206 Z0.74
G1 F300 Z0.24
G1 F2700 E23.72367
G1 F1800 X83.2 Y91.791 E26.63047
G1 F2700 E21.63047
G1 F300 Z0.74
G0 F12000 X84.8 Y91.343 Z0.74
G1 F300 Z0.24
G1 F2700 E26.63047
G1 F1800 X84.8 Y128.66 E29.60927
G1 F2700 E24.60927
G1 F300 Z0.74
G0 F12000 X86.4 Y128.91 Z0.74
G1 F300 Z0.24
G1 F2700 E29.60927
G1 F1800 X86.4 Y91.087 E32.62847
G1 F2700 E27.62847
G1 F300 Z0.74
G0 F12000 X88 Y91.001 Z0.74
G1 F300 Z0.24
G1 F2700 E32.62847
G1 F1800 X88 Y128.999 E35.66163
G1 F2700 E30.66163
G1 F300 Z0.74
G0 F12000 X89.6 Y128.999 Z0.74
G1 F300 Z0.24
G1 F2700 E35.66163
G1 F1800 X89.6 Y91.001 E38.6948
G1 F2700 E33.6948
G1 F300 Z0.74
G0 F12000 X91.2 Y91.001 Z0.74
G1 F300 Z0.24
G1 F2700 E38.6948
G1 F1800 X91.2 Y128.999 E41.72796
G1 F2700 E36.72796
G1 F300 Z0.74
G0 F12000 X92.8 Y128.999 Z0.74
G1 F300 Z0.24
G1 F2700 E41.72796
G1 F1800 X92.8 Y91.001 E44.76113
G1 F2700 E39.76113
G1 F300 Z0.74
G0 F12000 X94.4 Y91.001 Z0.74
G1 F300 Z0.24
G1 F2700 E44.76113
G1 F1800 X94.4 Y128.999 E47.79429
G1 F2700 E42.79429
G1 F300 Z0.74
G0 F12000 X96 Y128.999 Z0.74
G1 F300 Z0.24
G1 F2700 E47.79429
G1 F1800 X96 Y91.001 E50.82746
G1 F2700 E45.82746
G1 F300 Z0.74
G0 F12000 X97.6 Y91.001 Z0.74
G1 F300 Z0.24
G1 F2700 E50.82746
G1 F1800 X97.6 Y128.999 E53.86062
G1 F2700 E48.86062
G1 F300 Z0.74
G0 F12000 X99.2 Y128.999 Z0.74
G1 F300 Z0.24
G1 F2700 E53.86062
G1 F1800 X99.2 Y91.001 E56.89379
G1 F2700 E51.89379
G1 F300 Z0.74
G0 F12000 X100.8 Y91.001 Z0.74
G1 F300 Z0.24
G1 F2700 E56.89379
G1 F1800 X100.8 Y128.999 E59.92695
G1 F2700 E54.92695
G1 F300 Z0.74
G0 F12000 X102.4 Y128.999 Z0.74
G1 F300 Z0.24
G1 F2700 E59.92695
G1 F1800 X102.4 Y91.001 E62.96012
G1 F2700 E57.96012
G1 F300 Z0.74
G0 F12000 X104 Y91.001 Z0.74
G1 F300 Z0.24
G1 F2700 E62.96012
G1 F1800 X104 Y128.999 E65.99328
G1 F2700 E60.99328
G1 F300 Z0.74
G0 F12000 X105.6 Y128.999 Z0.74
G1 F300 Z0.24
G1 F2700 E65.99328
G1 F1800 X105.6 Y91.001 E69.02644
G1 F2700 E64.02644
G1 F300 Z0.74
G0 F12000 X107.2 Y91.001 Z0.74
G1 F300 Z0.24
G1 F2700 E69.02644
G1 F1800 X107.2 Y128.999 E72.05961
G1 F2700 E67.05961
G1 F300 Z0.74
G0 F12000 X108.8 Y128.999 Z0.74
G1 F300 Z0.24
G1 F2700 E72.05961
G1 F1800 X108.8 Y91.001 E75.09277
G1 F2700 E70.09277
G1 F300 Z0.74
G0 F12000 X110.4 Y91.001 Z0.74
G1 F300 Z0.24
G1 F2700 E75.09277
G1 F1800 X110.4 Y128.999 E78.12594
G1 F2700 E73.12594
G1 F300 Z0.74
G0 F12000 X112 Y128.999 Z0.74
G1 F300 Z0.24
G1 F2700 E78.12594
G1 F1800 X112 Y91.001 E81.1591
G1 F2700 E76.1591
G1 F300 Z0.74
G0 F12000 X113.6 Y91.001 Z0.74
G1 F300 Z0.24
G1 F2700 E81.1591
G1 F1800 X113.6 Y128.999 E84.19227
G1 F2700 E79.19227
G1 F300 Z0.74
G0 F12000 X115.2 Y128.999 Z0.74
G1 F300 Z0.24
G1 F2700 E84.19227
G1 F1800 X115.2 Y91.001 E87.22543
G1 F2700 E82.22543
G1 F300 Z0.74
G0 F12000 X116.8 Y91.001 Z0.74
G1 F300 Z0.24
G1 F2700 E87.22543
G1 F1800 X116.8 Y128.999 E90.2586
G1 F2700 E85.2586
G1 F300 Z0.74
G0 F12000 X118.4 Y128.999 Z0.74
G1 F300 Z0.24
G1 F2700 E90.2586
G1 F1800 X118.4 Y91.001 E93.29176
G1 F2700 E88.29176
G1 F300 Z0.74
G0 F12000 X120 Y91.001 Z0.74
G1 F300 Z0.24
G1 F2700 E93.29176
G1 F1800 X120 Y128.999 E96.32493
G1 F2700 E91.32493
G1 F300 Z0.74
G0 F12000 X121.6 Y128.999 Z0.74
G1 F300 Z0.24
G1 F2700 E96.32493
G1 F1800 X121.6 Y91.001 E99.35809
G1 F2700 E94.35809
G1 F300 Z0.74
G0 F12000 X123.2 Y91.001 Z0.74
G1 F300 Z0.24
G1 F2700 E99.35809
G1 F1800 X123.2 Y128.999 E102.39126
G1 F2700 E97.39126
G1 F300 Z0.74
G0 F12000 X124.8 Y128.999 Z0.74
G1 F300 Z0.24
G1 F2700 E102.39126
G1 F1800 X124.8 Y91.001 E105.42442
G1 F2700 E100.42442
G1 F300 Z0.74
G0 F12000 X126.4 Y91.001 Z0.74
G1 F300 Z0.24
G1 F2700 E105.42442
G1 F1800 X126.4 Y128.999 E108.45759
G1 F2700 E103.45759
G1 F300 Z0.74
G0 F12000 X128 Y128.999 Z0.74
G1 F300 Z0.24
G1 F2700 E108.45759
G1 F1800 X128 Y91.001 E111.49075
G1 F2700 E106.49075
G1 F300 Z0.74
G0 F12000 X129.6 Y91.001 Z0.74
G1 F300 Z0.24
G1 F2700 E111.49075
G1 F1800 X129.6 Y128.999 E114.52391
G1 F2700 E109.52391
G1 F300 Z0.74
G0 F12000 X131.2 Y128.999 Z0.74
G1 F300 Z0.24
G1 F2700 E114.52391
G1 F1800 X131.2 Y91.001 E117.55708
G1 F2700 E112.55708
G1 F300 Z0.74
G0 F12000 X132.8 Y91.027 Z0.74
G1 F300 Z0.24
G1 F2700 E117.55708
G1 F1800 X132.8 Y128.98 E120.58665
G1 F2700 E115.58665
G1 F300 Z0.74
G0 F12000 X134.4 Y128.805 Z0.74
G1 F300 Z0.24
G1 F2700 E120.58665
G1 F1800 X134.4 Y91.192 E123.58908
G1 F2700 E118.58908
G1 F300 Z0.74
G0 F12000 X136 Y91.545 Z0.74
G1 F300 Z0.24
G1 F2700 E123.58908
G1 F1800 X136 Y128.461 E126.53588
G1 F2700 E121.53588
G1 F300 Z0.74
G0 F12000 X137.6 Y127.907 Z0.74
G1 F300 Z0.24
G1 F2700 E126.53588
G1 F1800 X137.6 Y92.092 E129.39479
G1 F2700 E124.39479
G1 F300 Z0.74
G0 F12000 X139.2 Y92.856 Z0.74
G1 F300 Z0.24
G1 F2700 E129.39479
G1 F1800 X139.2 Y127.14 E132.13148
G1 F2700 E127.13148
G1 F300 Z0.74
G0 F12000 X140.8 Y126.108 Z0.74
G1 F300 Z0.24
G1 F2700 E132.13148
G1 F1800 X140.8 Y93.897 E134.70271
G1 F2700 E129.70271
G1 F300 Z0.74
G0 F12000 X142.4 Y95.27 Z0.74
G1 F300 Z0.24
G1 F2700 E134.70271
G1 F1800 X142.4 Y124.731 E137.05441
G1 F2700 E132.05441
G1 F300 Z0.74
G0 F12000 X144 Y122.865 Z0.74
G1 F300 Z0.24
G1 F2700 E137.05441
G1 F1800 X144 Y97.128 E139.10885
G1 F2700 E134.10885
G1 F300 Z0.74
G0 F12000 X145.6 Y99.936 Z0.74
G1 F300 Z0.24
G1 F2700 E139.10885
G1 F1800 X145.6 Y120.055 E140.71483
G1 F2700 E135.71483
G1 F300 Z0.74
G0 F12000 X76.8 Y123.878 Z0.74
G1 F300 Z0.24
G1 F2700 E140.71483
G1 F1800 X76.8 Y96.126 E142.93012
G1 F2700 E137.93012
G1 F300 Z0.74
G0 F12000 X75.2 Y98.356 Z0.74
G1 F300 Z0.24
G1 F2700 E142.93012
G1 F1800 X75.2 Y121.638 E144.78859
G1 F2700 E139.78859
G1 F300 Z0.74
G0 F12000 X73.6 Y117.634 Z0.74
G1 F300 Z0.24
G1 F2700 E144.78859
G1 F1800 X73.6 Y102.351 E146.00854
G1 F2700 E141.00854
G1 F300 Z0.74
G0 F12000 X73.2 Y105.727 Z0.74
;TIME_ELAPSED:93.603046
;LAYER:-5
M140 S65
G0 X73.2 Y105.727 Z1.04
;TYPE:SUPPORT
G1 F300 Z0.54
G1 F2700 E146.00854
G1 F1800 X96.471 Y128.998 E149.29233
G1 X97.885 Y128.998 E149.43342
G1 X73.268 Y104.381 E152.90715
G1 X73.346 Y103.674 E152.97812
G1 X73.372 Y103.499 E152.99577
G1 X73.439 Y103.137 E153.03251
G1 X99.299 Y128.998 E156.6817
G1 X100.713 Y128.998 E156.82279
G1 X73.696 Y101.98 E160.63525
G1 X73.795 Y101.599 E160.67453
G1 X73.848 Y101.428 E160.6924
G1 X74.027 Y100.897 E160.74831
G1 X102.128 Y128.998 E164.71366
G1 X103.542 Y128.998 E164.85475
G1 X74.425 Y99.881 E168.96348
G1 X74.538 Y99.617 E168.99213
G1 X74.62 Y99.442 E169.01141
G1 X74.884 Y98.926 E169.06925
G1 X104.956 Y128.998 E173.31273
G1 X106.37 Y128.998 E173.45382
G1 X75.399 Y98.026 E177.82423
G1 X75.576 Y97.738 E177.85796
G1 X75.675 Y97.587 E177.87598
G1 X75.967 Y97.18 E177.92596
G1 X107.784 Y128.998 E182.41575
G1 X109.199 Y128.998 E182.55694
G1 X76.583 Y96.382 E187.15941
G1 X76.876 Y96.033 E187.20488
G1 X76.973 Y95.925 E187.21937
G1 X77.248 Y95.633 E187.25939
G1 X110.614 Y128.998 E191.96762
G1 X112.028 Y128.998 E192.10871
G1 X77.962 Y94.932 E196.91579
G1 X78.307 Y94.61 E196.96288
G1 X78.447 Y94.492 E196.98115
G1 X78.718 Y94.275 E197.01579
G1 X113.442 Y128.998 E201.91565
G1 X114.856 Y128.998 E202.05674
G1 X79.523 Y93.665 E207.04261
G1 X79.992 Y93.342 E207.09943
G1 X80.176 Y93.224 E207.12124
G1 X80.378 Y93.106 E207.14458
G1 X116.27 Y128.998 E212.20933
G1 X117.685 Y128.998 E212.35052
G1 X81.287 Y92.601 E217.4866
G1 X81.906 Y92.296 E217.55546
G1 X82.018 Y92.246 E217.5677
G1 X82.252 Y92.152 E217.59286
G1 X119.099 Y128.998 E222.7923
G1 X120.513 Y128.998 E222.93339
G1 X83.28 Y91.765 E228.18737
G1 X83.88 Y91.572 E228.25025
G1 X84.043 Y91.526 E228.26715
G1 X84.375 Y91.446 E228.30123
G1 X121.927 Y128.998 E233.60022
G1 X123.342 Y128.998 E233.74141
G1 X85.547 Y91.204 E239.07462
G1 X85.971 Y91.133 E239.11752
G1 X86.148 Y91.11 E239.13533
G1 X86.807 Y91.049 E239.20137
G1 X124.756 Y128.998 E244.55638
G1 X126.17 Y128.998 E244.69747
G1 X88.171 Y91 E250.05947
G1 X89.586 Y91 E250.20066
G1 X127.584 Y128.998 E255.56259
G1 X128.998 Y128.998 E255.70367
G1 X91 Y91 E261.0656
G1 X92.414 Y91 E261.20669
G1 X130.413 Y128.998 E266.56869
G1 X131.827 Y128.998 E266.70978
G1 X93.828 Y91 E272.07178
G1 X95.243 Y91 E272.21297
G1 X133.192 Y128.949 E277.56798
G1 X133.851 Y128.888 E277.63402
G1 X134.027 Y128.865 E277.65173
G1 X134.452 Y128.795 E277.69471
G1 X96.657 Y91 E283.02799
G1 X98.071 Y91 E283.16908
G1 X135.623 Y128.552 E288.46807
G1 X135.955 Y128.472 E288.50215
G1 X136.118 Y128.426 E288.51905
G1 X136.719 Y128.233 E288.58203
G1 X99.485 Y91 E293.83608
G1 X100.899 Y91 E293.97717
G1 X137.746 Y127.847 E299.17668
G1 X137.98 Y127.752 E299.20188
G1 X138.097 Y127.701 E299.21462
G1 X138.711 Y127.398 E299.28293
G1 X102.314 Y91 E304.41901
G1 X103.728 Y91 E304.5601
G1 X139.62 Y126.892 E309.62485
G1 X139.823 Y126.774 E309.64828
G1 X140.007 Y126.656 E309.67009
G1 X140.475 Y126.333 E309.72683
G1 X105.142 Y91 E314.7127
G1 X106.556 Y91 E314.85379
G1 X141.28 Y125.724 E319.75372
G1 X141.554 Y125.504 E319.78878
G1 X141.702 Y125.377 E319.80824
G1 X142.037 Y125.066 E319.85385
G1 X107.97 Y91 E324.661
G1 X109.385 Y91 E324.80219
G1 X142.75 Y124.365 E329.51035
G1 X143.025 Y124.073 E329.55038
G1 X143.122 Y123.965 E329.56486
G1 X143.415 Y123.616 E329.61033
G1 X110.8 Y91.001 E334.21266
G1 X112.214 Y91.001 E334.35375
G1 X144.032 Y122.819 E338.84361
G1 X144.323 Y122.411 E338.89362
G1 X144.423 Y122.26 E338.91169
G1 X144.599 Y121.972 E338.94537
G1 X113.628 Y91.001 E343.31571
G1 X115.042 Y91.001 E343.4568
G1 X145.114 Y121.072 E347.70021
G1 X145.379 Y120.556 E347.75809
G1 X145.46 Y120.382 E347.77724
