;FLAVOR:Marlin
;TIME:1659
;Filament used: 1.41402m
;Layer height: 0.2
;MINX:76.185
;MINY:76.187
;MINZ:0.24
;MAXX:143.812
;MAXY:143.812
;MAXZ:6.09
;Generated with Cura_SteamEngine 4.8.0
M140 S70
M105
M190 S70
M104 S200
M105
M109 S200
M82 ;absolute extrusion mode
M201 X500.00 Y500.00 Z100.00 E5000.00 ;Setup machine max acceleration
M203 X500.00 Y500.00 Z10.00 E50.00 ;Setup machine max feedrate
M204 P500.00 R1000.00 T500.00 ;Setup Print/Retract/Travel acceleration
M205 X8.00 Y8.00 Z0.40 E5.00 ;Setup Jerk
M220 S100 ;Reset Feedrate
M221 S100 ;Reset Flowrate

G28 ;Home

G92 E0 ;Reset Extruder
G1 Z2.0 F3000 ;Move Z Axis up
G1 X10.1 Y20 Z0.28 F5000.0 ;Move to start position
G1 X10.1 Y200.0 Z0.28 F1500.0 E15 ;Draw the first line
G1 X10.4 Y200.0 Z0.28 F5000.0 ;Move to side a little
G1 X10.4 Y20 Z0.28 F1500.0 E30 ;Draw the second line
G92 E0 ;Reset Extruder
G1 Z2.0 F3000 ;Move Z Axis up

G92 E0
G92 E0
G1 F2700 E-5
;LAYER_COUNT:25
;LAYER:-6
M107
G0 F12000 X86.204 Y86.259 Z0.24
;TYPE:SUPPORT-INTERFACE
G1 F2700 E0
G1 F1800 X86.259 Y86.204 E0.00621
G1 X86.612 Y85.887 E0.04408
G1 X90.966 Y82.315 E0.49363
G1 X91.247 Y82.103 E0.52173
G1 X91.345 Y82.04 E0.53103
G1 X91.662 Y81.846 E0.5607
G1 X91.799 Y81.769 E0.57324
G1 X96.744 Y79.128 E1.02074
G1 X97.1 Y78.959 E1.0522
G1 X97.186 Y78.926 E1.05955
G1 X97.506 Y78.811 E1.08669
G1 X97.644 Y78.764 E1.09833
G1 X102.945 Y77.156 E1.54052
G1 X103.399 Y77.04 E1.57792
G1 X103.464 Y77.027 E1.58322
G1 X103.861 Y76.968 E1.61525
G1 X103.961 Y76.956 E1.62329
G1 X109.454 Y76.414 E2.0639
G1 X109.596 Y76.404 E2.07526
G1 X110 Y76.386 E2.10754
G1 X110.404 Y76.404 E2.13982
G1 X110.546 Y76.414 E2.15119
G1 X116.039 Y76.956 E2.59179
G1 X116.139 Y76.968 E2.59983
G1 X116.543 Y77.028 E2.63243
G1 X116.98 Y77.135 E2.66835
G1 X122.34 Y78.759 E3.11541
G1 X122.512 Y78.816 E3.12988
G1 X122.815 Y78.925 E3.15558
G1 X122.931 Y78.972 E3.16557
G1 X123.241 Y79.119 E3.19296
G1 X123.333 Y79.166 E3.2012
G1 X128.213 Y81.775 E3.64292
G1 X128.329 Y81.84 E3.65354
G1 X128.65 Y82.036 E3.68356
G1 X128.755 Y82.105 E3.69359
G1 X129.069 Y82.342 E3.72499
G1 X133.388 Y85.887 E4.17102
G1 X133.741 Y86.204 E4.20889
G1 X133.796 Y86.259 E4.2151
G1 X134.113 Y86.612 E4.25297
G1 X137.685 Y90.966 E4.70252
G1 X137.899 Y91.251 E4.73097
G1 X137.951 Y91.33 E4.73852
G1 X138.159 Y91.671 E4.7704
G1 X138.22 Y91.778 E4.78023
G1 X140.834 Y96.667 E5.22278
G1 X140.877 Y96.751 E5.23031
G1 X141.021 Y97.055 E5.25716
G1 X141.069 Y97.172 E5.26726
G1 X141.184 Y97.488 E5.2941
G1 X141.238 Y97.65 E5.30773
G1 X142.844 Y102.945 E5.74941
G1 X142.865 Y103.02 E5.75563
G1 X142.972 Y103.457 E5.79154
G1 X143.032 Y103.861 E5.82415
G1 X143.044 Y103.957 E5.83187
G1 X143.586 Y109.454 E6.27279
G1 X143.596 Y109.596 E6.28415
G1 X143.614 Y109.991 E6.31572
G1 X143.612 Y110.072 E6.32219
G1 X143.596 Y110.404 E6.34872
G1 X143.587 Y110.536 E6.35928
G1 X143.045 Y116.034 E6.80028
G1 X143.032 Y116.139 E6.80873
G1 X142.972 Y116.543 E6.84133
G1 X142.866 Y116.978 E6.87707
G1 X141.241 Y122.34 E7.32431
G1 X141.184 Y122.512 E7.33877
G1 X141.075 Y122.813 E7.36433
G1 X141.021 Y122.945 E7.37571
G1 X140.881 Y123.241 E7.40185
G1 X140.834 Y123.333 E7.4101
G1 X138.225 Y128.213 E7.85182
G1 X138.164 Y128.322 E7.86179
G1 X137.962 Y128.652 E7.89267
G1 X137.895 Y128.755 E7.90248
G1 X137.658 Y129.069 E7.93388
G1 X134.113 Y133.388 E8.37991
G1 X133.796 Y133.741 E8.41778
G1 X133.741 Y133.796 E8.42399
G1 X133.388 Y134.113 E8.46186
G1 X129.034 Y137.685 E8.91141
G1 X128.743 Y137.903 E8.94043
G1 X128.66 Y137.957 E8.94834
G1 X128.329 Y138.159 E8.97929
G1 X128.222 Y138.22 E8.98912
G1 X123.333 Y140.834 E9.43167
G1 X123.249 Y140.877 E9.4392
G1 X122.945 Y141.021 E9.46605
G1 X122.82 Y141.073 E9.47686
G1 X122.512 Y141.184 E9.50299
G1 X122.339 Y141.241 E9.51753
G1 X116.98 Y142.865 E9.96452
G1 X116.536 Y142.974 E10.00101
G1 X116.139 Y143.032 E10.03304
G1 X116.039 Y143.044 E10.04108
G1 X110.546 Y143.586 E10.48168
G1 X110.404 Y143.596 E10.49305
G1 X110 Y143.614 E10.52533
G1 X109.596 Y143.596 E10.55761
G1 X109.454 Y143.586 E10.56897
G1 X103.961 Y143.044 E11.00958
G1 X103.861 Y143.032 E11.01762
G1 X103.457 Y142.972 E11.05022
G1 X103.02 Y142.865 E11.08613
G1 X97.661 Y141.241 E11.53312
G1 X97.488 Y141.184 E11.54766
G1 X97.18 Y141.073 E11.5738
G1 X97.055 Y141.021 E11.5846
G1 X96.751 Y140.877 E11.61146
G1 X96.667 Y140.834 E11.61899
G1 X91.778 Y138.22 E12.06153
G1 X91.671 Y138.159 E12.07136
G1 X91.34 Y137.957 E12.10231
G1 X91.243 Y137.894 E12.11155
G1 X90.925 Y137.653 E12.1434
G1 X86.612 Y134.113 E12.5888
G1 X86.259 Y133.796 E12.62667
G1 X86.204 Y133.741 E12.63288
G1 X85.887 Y133.388 E12.67075
G1 X82.315 Y129.034 E13.1203
G1 X82.103 Y128.753 E13.1484
G1 X82.035 Y128.647 E13.15845
G1 X81.846 Y128.338 E13.18737
G1 X81.769 Y128.201 E13.19991
G1 X79.166 Y123.33 E13.64077
G1 X79.124 Y123.248 E13.64812
G1 X78.961 Y122.905 E13.67844
G1 X78.926 Y122.814 E13.68622
G1 X78.811 Y122.494 E13.71337
G1 X78.764 Y122.356 E13.725
G1 X77.156 Y117.055 E14.16719
G1 X77.131 Y116.963 E14.1748
G1 X77.032 Y116.563 E14.20769
G1 X76.968 Y116.139 E14.24192
G1 X76.955 Y116.034 E14.25037
G1 X76.413 Y110.536 E14.69137
G1 X76.404 Y110.404 E14.70193
G1 X76.386 Y110.009 E14.73349
G1 X76.388 Y109.928 E14.73996
G1 X76.404 Y109.596 E14.76649
G1 X76.413 Y109.464 E14.77706
G1 X76.955 Y103.966 E15.21806
G1 X76.968 Y103.861 E15.2265
G1 X77.028 Y103.457 E15.25911
G1 X77.132 Y103.031 E15.29411
G1 X77.154 Y102.953 E15.30058
G1 X78.759 Y97.66 E15.74209
G1 X78.812 Y97.499 E15.75562
G1 X78.957 Y97.104 E15.7892
G1 X79.119 Y96.759 E15.81963
G1 X79.166 Y96.667 E15.82788
G1 X81.775 Y91.787 E16.2696
G1 X81.835 Y91.681 E16.27932
G1 X82.042 Y91.341 E16.31109
G1 X82.105 Y91.245 E16.32026
G1 X82.342 Y90.931 E16.35166
G1 X85.887 Y86.612 E16.79768
G1 X86.204 Y86.259 E16.83556
G1 F2700 E11.83556
G1 F300 Z0.74
G0 F12000 X94.081 Y94.288 Z0.74
G1 F300 Z0.24
G1 F2700 E16.83556
G1 F1800 X93.829 Y94.573 E16.86592
G1 X91.707 Y97.162 E17.13314
G1 X91.319 Y97.702 E17.18622
G1 X91.132 Y98.023 E17.21587
G1 X89.556 Y100.971 E17.48271
G1 X89.281 Y101.575 E17.53568
G1 X89.158 Y101.933 E17.5659
G1 X88.189 Y105.133 E17.83279
G1 X88.036 Y105.779 E17.88579
G1 X87.987 Y106.149 E17.91558
G1 X87.658 Y109.474 E18.18229
G1 X87.635 Y110.139 E18.23541
G1 X87.658 Y110.515 E18.26548
G1 X87.987 Y113.856 E18.53346
G1 X88.094 Y114.512 E18.58652
G1 X88.19 Y114.874 E18.61641
G1 X89.16 Y118.073 E18.88325
G1 X89.392 Y118.696 E18.93632
G1 X89.559 Y119.035 E18.96648
G1 X91.133 Y121.979 E19.23297
G1 X91.482 Y122.543 E19.28591
G1 X91.71 Y122.842 E19.31592
G1 X93.837 Y125.433 E19.58351
G1 X94.29 Y125.918 E19.63649
G1 X94.572 Y126.167 E19.66652
G1 X97.163 Y128.293 E19.93406
G1 X97.702 Y128.681 E19.98707
G1 X98.026 Y128.869 E20.01697
G1 X100.97 Y130.444 E20.28349
G1 X101.576 Y130.72 E20.33665
G1 X101.934 Y130.842 E20.36684
G1 X105.133 Y131.811 E20.63365
G1 X105.779 Y131.964 E20.68665
G1 X106.149 Y132.013 E20.71644
G1 X109.475 Y132.342 E20.98323
G1 X110.14 Y132.365 E21.03634
G1 X110.516 Y132.342 E21.06641
G1 X113.856 Y132.013 E21.33432
G1 X114.512 Y131.906 E21.38737
G1 X114.874 Y131.81 E21.41727
G1 X118.073 Y130.84 E21.68411
G1 X118.696 Y130.608 E21.73718
G1 X119.035 Y130.441 E21.76734
G1 X121.979 Y128.867 E22.03382
G1 X122.543 Y128.518 E22.08677
G1 X122.842 Y128.29 E22.11678
G1 X125.434 Y126.161 E22.38453
G1 X125.921 Y125.708 E22.43763
G1 X126.168 Y125.427 E22.46749
G1 X128.293 Y122.839 E22.73479
G1 X128.682 Y122.3 E22.78785
G1 X128.871 Y121.975 E22.81786
G1 X130.445 Y119.031 E23.08435
G1 X130.721 Y118.425 E23.1375
G1 X130.843 Y118.067 E23.16769
G1 X131.812 Y114.868 E23.43451
G1 X131.965 Y114.222 E23.4875
G1 X132.014 Y113.851 E23.51737
G1 X132.343 Y110.52 E23.78456
G1 X132.366 Y109.856 E23.8376
G1 X132.343 Y109.478 E23.86783
G1 X132.013 Y106.142 E24.13542
G1 X131.906 Y105.486 E24.18848
G1 X131.81 Y105.126 E24.21822
G1 X130.841 Y101.93 E24.4848
G1 X130.609 Y101.308 E24.5378
G1 X130.442 Y100.968 E24.56803
G1 X128.864 Y98.016 E24.83523
G1 X128.514 Y97.452 E24.88821
G1 X128.288 Y97.155 E24.918
G1 X126.165 Y94.566 E25.18527
G1 X125.712 Y94.081 E25.23824
G1 X125.428 Y93.83 E25.2685
G1 X122.837 Y91.705 E25.53599
G1 X122.298 Y91.317 E25.589
G1 X121.975 Y91.13 E25.61879
G1 X119.031 Y89.555 E25.88531
G1 X118.425 Y89.279 E25.93847
G1 X118.067 Y89.157 E25.96866
G1 X114.868 Y88.188 E26.23547
G1 X114.222 Y88.035 E26.28847
G1 X113.851 Y87.986 E26.31834
G1 X110.519 Y87.657 E26.58561
G1 X109.854 Y87.634 E26.63872
G1 X109.478 Y87.657 E26.66879
G1 X106.146 Y87.986 E26.93606
G1 X105.49 Y88.093 E26.98912
G1 X105.13 Y88.189 E27.01886
G1 X101.924 Y89.161 E27.28628
G1 X101.3 Y89.393 E27.33942
G1 X100.961 Y89.56 E27.36958
G1 X98.019 Y91.133 E27.63589
G1 X97.455 Y91.482 E27.68883
G1 X97.158 Y91.709 E27.71867
G1 X94.566 Y93.835 E27.98627
G1 X94.081 Y94.288 E28.03925
G0 F12000 X94.4 Y93.991
G1 F1800 X94.4 Y80.379 E29.12582
G1 F2700 E24.12582
G1 F300 Z0.74
G0 F12000 X96 Y79.525 Z0.74
G1 F300 Z0.24
G1 F2700 E29.12582
G1 F1800 X96 Y92.659 E30.17423
G1 F2700 E25.17423
G1 F300 Z0.74
G0 F12000 X97.6 Y91.393 Z0.74
G1 F300 Z0.24
G1 F2700 E30.17423
G1 F1800 X97.6 Y78.778 E31.18121
G1 F2700 E26.18121
G1 F300 Z0.74
G0 F12000 X99.2 Y78.292 Z0.74
G1 F300 Z0.24
G1 F2700 E31.18121
G1 F1800 X99.2 Y90.502 E32.15587
G1 F2700 E27.15587
G1 F300 Z0.74
G0 F12000 X100.8 Y89.647 Z0.74
G1 F300 Z0.24
G1 F2700 E32.15587
G1 F1800 X100.8 Y77.806 E33.10107
G1 F2700 E28.10107
G1 F300 Z0.74
G0 F12000 X102.4 Y77.321 Z0.74
G1 F300 Z0.24
G1 F2700 E33.10107
G1 F1800 X102.4 Y89.017 E34.03469
G1 F2700 E29.03469
G1 F300 Z0.74
G0 F12000 X104 Y88.532 Z0.74
G1 F300 Z0.24
G1 F2700 E34.03469
G1 F1800 X104 Y76.952 E34.95906
G1 F2700 E29.95906
G1 F300 Z0.74
G0 F12000 X105.6 Y76.794 Z0.74
G1 F300 Z0.24
G1 F2700 E34.95906
G1 F1800 X105.6 Y88.076 E35.85964
G1 F2700 E30.85964
G1 F300 Z0.74
G0 F12000 X107.2 Y87.882 Z0.74
G1 F300 Z0.24
G1 F2700 E35.85964
G1 F1800 X107.2 Y76.636 E36.75734
G1 F2700 E31.75734
G1 F300 Z0.74
G0 F12000 X108.8 Y76.478 Z0.74
G1 F300 Z0.24
G1 F2700 E36.75734
G1 F1800 X108.8 Y87.724 E37.65504
G1 F2700 E32.65504
G1 F300 Z0.74
G0 F12000 X110.4 Y87.652 Z0.74
G1 F300 Z0.24
G1 F2700 E37.65504
G1 F1800 X110.4 Y76.404 E38.55291
G1 F2700 E33.55291
G1 F300 Z0.74
G0 F12000 X112 Y76.558 Z0.74
G1 F300 Z0.24
G1 F2700 E38.55291
G1 F1800 X112 Y87.803 E39.45053
G1 F2700 E34.45053
G1 F300 Z0.74
G0 F12000 X113.6 Y87.961 Z0.74
G1 F300 Z0.24
G1 F2700 E39.45053
G1 F1800 X113.6 Y76.716 E40.34816
G1 F2700 E35.34816
G1 F300 Z0.74
G0 F12000 X115.2 Y76.874 Z0.74
G1 F300 Z0.24
G1 F2700 E40.34816
G1 F1800 X115.2 Y88.288 E41.25927
G1 F2700 E36.25927
G1 F300 Z0.74
G0 F12000 X116.8 Y88.773 Z0.74
G1 F300 Z0.24
G1 F2700 E41.25927
G1 F1800 X116.8 Y77.091 E42.19178
G1 F2700 E37.19178
G1 F300 Z0.74
G0 F12000 X118.4 Y77.566 Z0.74
G1 F300 Z0.24
G1 F2700 E42.19178
G1 F1800 X118.4 Y89.27 E43.12604
G1 F2700 E38.12604
G1 F300 Z0.74
G0 F12000 X120 Y90.073 Z0.74
G1 F300 Z0.24
G1 F2700 E43.12604
G1 F1800 X120 Y78.051 E44.08569
G1 F2700 E39.08569
G1 F300 Z0.74
G0 F12000 X121.6 Y78.535 Z0.74
G1 F300 Z0.24
G1 F2700 E44.08569
G1 F1800 X121.6 Y90.929 E45.07503
G1 F2700 E40.07503
G1 F300 Z0.74
G0 F12000 X123.2 Y92.002 Z0.74
G1 F300 Z0.24
G1 F2700 E45.07503
G1 F1800 X123.2 Y79.1 E46.10493
G1 F2700 E41.10493
G1 F300 Z0.74
G0 F12000 X124.8 Y79.951 Z0.74
G1 F300 Z0.24
G1 F2700 E46.10493
G1 F1800 X124.8 Y93.314 E47.17162
G1 F2700 E42.17162
G1 F300 Z0.74
G0 F12000 X126.4 Y94.852 Z0.74
G1 F300 Z0.24
G1 F2700 E47.17162
G1 F1800 X126.4 Y80.806 E48.29283
G1 F2700 E43.29283
G1 F300 Z0.74
G0 F12000 X128 Y81.662 Z0.74
G1 F300 Z0.24
G1 F2700 E48.29283
G1 F1800 X128 Y96.803 E49.50145
G1 F2700 E44.50145
G1 F300 Z0.74
G0 F12000 X129.6 Y99.392 Z0.74
G1 F300 Z0.24
G1 F2700 E49.50145
G1 F1800 X129.6 Y82.778 E50.82765
G1 F2700 E45.82765
G1 F300 Z0.74
G0 F12000 X131.2 Y84.092 Z0.74
G1 F300 Z0.24
G1 F2700 E50.82765
G1 F1800 X131.2 Y103.114 E52.34607
G1 F2700 E47.34607
G1 F300 Z0.74
G0 F12000 X142.4 Y101.482 Z0.74
G1 F300 Z0.24
G1 F2700 E52.34607
G1 F1800 X142.4 Y118.516 E53.7058
G1 F2700 E48.7058
G1 F300 Z0.74
G0 F12000 X140.8 Y123.397 Z0.74
G1 F300 Z0.24
G1 F2700 E53.7058
G1 F1800 X140.8 Y96.604 E55.84453
G1 F2700 E50.84453
G1 F300 Z0.74
G0 F12000 X139.2 Y93.611 Z0.74
G1 F300 Z0.24
G1 F2700 E55.84453
G1 F1800 X139.2 Y126.39 E58.46109
G1 F2700 E53.46109
G1 F300 Z0.74
G0 F12000 X137.6 Y129.14 Z0.74
G1 F300 Z0.24
G1 F2700 E58.46109
G1 F1800 X137.6 Y90.863 E61.51653
G1 F2700 E56.51653
G1 F300 Z0.74
G0 F12000 X136 Y88.913 Z0.74
G1 F300 Z0.24
G1 F2700 E61.51653
G1 F1800 X136 Y131.09 E64.88328
G1 F2700 E59.88328
G1 F300 Z0.74
G0 F12000 X134.4 Y133.039 Z0.74
G1 F300 Z0.24
G1 F2700 E64.88328
G1 F1800 X134.4 Y86.962 E68.56135
G1 F2700 E63.56135
G1 F300 Z0.74
G0 F12000 X132.8 Y85.405 Z0.74
G1 F300 Z0.24
G1 F2700 E68.56135
G1 F1800 X132.8 Y134.596 E72.48798
G1 F2700 E67.48798
G1 F300 Z0.74
G0 F12000 X131.2 Y135.909 Z0.74
G1 F300 Z0.24
G1 F2700 E72.48798
G1 F1800 X131.2 Y116.888 E74.00632
G1 F2700 E69.00632
G1 F300 Z0.74
G0 F12000 X129.6 Y120.611 Z0.74
G1 F300 Z0.24
G1 F2700 E74.00632
G1 F1800 X129.6 Y137.221 E75.33221
G1 F2700 E70.33221
G1 F300 Z0.74
G0 F12000 X128 Y138.339 Z0.74
G1 F300 Z0.24
G1 F2700 E75.33221
G1 F1800 X128 Y123.195 E76.54106
G1 F2700 E71.54106
G1 F300 Z0.74
G0 F12000 X126.4 Y125.144 Z0.74
G1 F300 Z0.24
G1 F2700 E76.54106
G1 F1800 X126.4 Y139.195 E77.66268
G1 F2700 E72.66268
G1 F300 Z0.74
G0 F12000 X124.8 Y140.05 Z0.74
G1 F300 Z0.24
G1 F2700 E77.66268
G1 F1800 X124.8 Y126.681 E78.72985
G1 F2700 E73.72985
G1 F300 Z0.74
G0 F12000 X123.2 Y127.995 Z0.74
G1 F300 Z0.24
G1 F2700 E78.72985
G1 F1800 X123.2 Y140.901 E79.76006
G1 F2700 E74.76006
G1 F300 Z0.74
G0 F12000 X121.6 Y141.465 Z0.74
G1 F300 Z0.24
G1 F2700 E79.76006
G1 F1800 X121.6 Y129.069 E80.74956
G1 F2700 E75.74956
G1 F300 Z0.74
G0 F12000 X120 Y129.925 Z0.74
G1 F300 Z0.24
G1 F2700 E80.74956
G1 F1800 X120 Y141.95 E81.70945
G1 F2700 E76.70945
G1 F300 Z0.74
G0 F12000 X118.4 Y142.435 Z0.74
G1 F300 Z0.24
G1 F2700 E81.70945
G1 F1800 X118.4 Y130.718 E82.64475
G1 F2700 E77.64475
G1 F300 Z0.74
G0 F12000 X116.8 Y131.225 Z0.74
G1 F300 Z0.24
G1 F2700 E82.64475
G1 F1800 X116.8 Y142.91 E83.5775
G1 F2700 E78.5775
G1 F300 Z0.74
G0 F12000 X115.2 Y143.127 Z0.74
G1 F300 Z0.24
G1 F2700 E83.5775
G1 F1800 X115.2 Y131.711 E84.48877
G1 F2700 E79.48877
G1 F300 Z0.74
G0 F12000 X113.6 Y132.038 Z0.74
G1 F300 Z0.24
G1 F2700 E84.48877
G1 F1800 X113.6 Y143.285 E85.38656
G1 F2700 E80.38656
G1 F300 Z0.74
G0 F12000 X112 Y143.443 Z0.74
G1 F300 Z0.24
G1 F2700 E85.38656
G1 F1800 X112 Y132.195 E86.28442
G1 F2700 E81.28442
G1 F300 Z0.74
G0 F12000 X110.4 Y132.349 Z0.74
G1 F300 Z0.24
G1 F2700 E86.28442
G1 F1800 X110.4 Y143.597 E87.18229
G1 F2700 E82.18229
G1 F300 Z0.74
G0 F12000 X108.8 Y143.521 Z0.74
G1 F300 Z0.24
G1 F2700 E87.18229
G1 F1800 X108.8 Y132.276 E88.07991
G1 F2700 E83.07991
G1 F300 Z0.74
G0 F12000 X107.2 Y132.117 Z0.74
G1 F300 Z0.24
G1 F2700 E88.07991
G1 F1800 X107.2 Y143.363 E88.97761
G1 F2700 E83.97761
G1 F300 Z0.74
G0 F12000 X105.6 Y143.205 Z0.74
G1 F300 Z0.24
G1 F2700 E88.97761
G1 F1800 X105.6 Y131.922 E89.87827
G1 F2700 E84.87827
G1 F300 Z0.74
G0 F12000 X104 Y131.468 Z0.74
G1 F300 Z0.24
G1 F2700 E89.87827
G1 F1800 X104 Y143.047 E90.80256
G1 F2700 E85.80256
G1 F300 Z0.74
G0 F12000 X102.4 Y142.677 Z0.74
G1 F300 Z0.24
G1 F2700 E90.80256
G1 F1800 X102.4 Y130.984 E91.73594
G1 F2700 E86.73594
G1 F300 Z0.74
G0 F12000 X100.8 Y130.354 Z0.74
G1 F300 Z0.24
G1 F2700 E91.73594
G1 F1800 X100.8 Y142.192 E92.6809
G1 F2700 E87.6809
G1 F300 Z0.74
G0 F12000 X99.2 Y141.707 Z0.74
G1 F300 Z0.24
G1 F2700 E92.6809
G1 F1800 X99.2 Y129.498 E93.65548
G1 F2700 E88.65548
G1 F300 Z0.74
G0 F12000 X97.6 Y128.608 Z0.74
G1 F300 Z0.24
G1 F2700 E93.65548
G1 F1800 X97.6 Y141.22 E94.66222
G1 F2700 E89.66222
G1 F300 Z0.74
G0 F12000 X96 Y140.477 Z0.74
G1 F300 Z0.24
G1 F2700 E94.66222
G1 F1800 X96 Y127.339 E95.71096
G1 F2700 E90.71096
G1 F300 Z0.74
G0 F12000 X94.4 Y126.016 Z0.74
G1 F300 Z0.24
G1 F2700 E95.71096
G1 F1800 X94.4 Y139.621 E96.79697
G1 F2700 E91.79697
G1 F300 Z0.74
G0 F12000 X92.8 Y138.766 Z0.74
G1 F300 Z0.24
G1 F2700 E96.79697
G1 F1800 X92.8 Y124.17 E97.96208
G1 F2700 E92.96208
G1 F300 Z0.74
G0 F12000 X91.2 Y122.088 Z0.74
