;FLAVOR:Marlin
;TIME:6132
;Filament used: 3.58413m
;Layer height: 0.2
;MINX:76.216
;MINY:52.199
;MINZ:0.24
;MAXX:143.785
;MAXY:167.797
;MAXZ:15.59
;Generated with Cura_SteamEngine 4.8.0
M140 S70
M105
M190 S70
M104 S200
M105
M109 S200
M82 ;absolute extrusion mode
M201 X500.00 Y500.00 Z100.00 E5000.00 ;Setup machine max acceleration
M203 X500.00 Y500.00 Z10.00 E50.00 ;Setup machine max feedrate
M204 P500.00 R1000.00 T500.00 ;Setup Print/Retract/Travel acceleration
M205 X8.00 Y8.00 Z0.40 E5.00 ;Setup Jerk
M220 S100 ;Reset Feedrate
M221 S100 ;Reset Flowrate

G28 ;Home

G92 E0 ;Reset Extruder
G1 Z2.0 F3000 ;Move Z Axis up
G1 X10.1 Y20 Z0.28 F5000.0 ;Move to start position
G1 X10.1 Y200.0 Z0.28 F1500.0 E15 ;Draw the first line
G1 X10.4 Y200.0 Z0.28 F5000.0 ;Move to side a little
G1 X10.4 Y20 Z0.28 F1500.0 E30 ;Draw the second line
G92 E0 ;Reset Extruder
G1 Z2.0 F3000 ;Move Z Axis up

G92 E0
G92 E0
G1 F2700 E-5
;LAYER_COUNT:70
;LAYER:-6
M107
G0 F12000 X102.871 Y55.022 Z0.24
;TYPE:SUPPORT-INTERFACE
G1 F2700 E0
G1 F1800 X103.01 Y54.772 E0.02283
G1 X103.162 Y54.534 E0.04538
G1 X103.352 Y54.278 E0.07082
G1 X103.656 Y53.924 E0.10807
G1 X103.773 Y53.796 E0.12191
G1 X103.867 Y53.709 E0.13214
G1 X104.162 Y53.45 E0.16347
G1 X104.377 Y53.283 E0.18521
G1 X104.608 Y53.127 E0.20746
G1 X104.876 Y52.969 E0.23229
G1 X105.133 Y52.839 E0.25528
G1 X105.403 Y52.723 E0.27874
G1 X105.659 Y52.631 E0.30045
G1 X105.951 Y52.547 E0.32471
G1 X106.212 Y52.491 E0.34601
G1 X106.532 Y52.443 E0.37184
G1 X107 Y52.407 E0.40931
G1 X107.192 Y52.4 E0.42465
G1 X112.325 Y52.4 E0.83439
G1 X112.451 Y52.404 E0.84445
G1 X112.828 Y52.428 E0.8746
G1 X113.126 Y52.465 E0.89857
G1 X113.41 Y52.52 E0.92167
G1 X113.701 Y52.596 E0.94567
G1 X113.959 Y52.68 E0.96733
G1 X114.238 Y52.791 E0.9913
G1 X114.496 Y52.913 E1.01408
G1 X114.755 Y53.057 E1.03774
G1 X114.974 Y53.196 E1.05844
G1 X115.24 Y53.394 E1.08491
G1 X115.594 Y53.698 E1.12216
G1 X115.722 Y53.815 E1.136
G1 X115.809 Y53.909 E1.14623
G1 X116.068 Y54.204 E1.17756
G1 X116.235 Y54.419 E1.19929
G1 X116.391 Y54.65 E1.22155
G1 X116.549 Y54.918 E1.24638
G1 X116.681 Y55.177 E1.26958
G1 X116.784 Y55.416 E1.29036
G1 X116.889 Y55.708 E1.31513
G1 X116.97 Y55.99 E1.33855
G1 X117.026 Y56.244 E1.35931
G1 X117.075 Y56.574 E1.38594
G1 X117.111 Y57.035 E1.42285
G1 X117.118 Y57.22 E1.43763
G1 X117.118 Y80.126 E3.26609
G1 X117.16 Y80.794 E3.31951
G1 X117.289 Y81.465 E3.37406
G1 X117.502 Y82.114 E3.42858
G1 X117.794 Y82.731 E3.48307
G1 X118.165 Y83.311 E3.53803
G1 X118.814 Y84.042 E3.61606
G1 X123.625 Y88.547 E4.14218
G1 X123.738 Y88.66 E4.15494
G1 X123.993 Y88.928 E4.18447
G1 X124.177 Y89.151 E4.20754
G1 X124.33 Y89.362 E4.22835
G1 X124.518 Y89.666 E4.25688
G1 X124.731 Y90.069 E4.29327
G1 X124.804 Y90.22 E4.30666
G1 X124.954 Y90.635 E4.34188
G1 X125.035 Y90.92 E4.36553
G1 X125.092 Y91.181 E4.38686
G1 X125.141 Y91.518 E4.41404
G1 X125.175 Y91.964 E4.44974
G1 X125.183 Y92.157 E4.46516
G1 X125.183 Y100.91 E5.16387
G1 X125.225 Y101.578 E5.21729
G1 X125.354 Y102.249 E5.27184
G1 X125.567 Y102.898 E5.32636
G1 X125.859 Y103.515 E5.38085
G1 X126.227 Y104.09 E5.43534
G1 X126.665 Y104.614 E5.48986
G1 X127.165 Y105.078 E5.54431
G1 X127.72 Y105.476 E5.59883
G1 X128.586 Y106.015 E5.68025
G1 X128.846 Y106.187 E5.70514
G1 X128.985 Y106.285 E5.71871
G1 X130.649 Y107.499 E5.88313
G1 X130.845 Y107.652 E5.90298
G1 X132.415 Y108.978 E6.06702
G1 X132.515 Y109.065 E6.0776
G1 X132.728 Y109.258 E6.10055
G1 X134.275 Y110.774 E6.27345
G1 X134.522 Y111.038 E6.3023
G1 X135.864 Y112.556 E6.46404
G1 X136.097 Y112.84 E6.49336
G1 X137.322 Y114.448 E6.65473
G1 X137.505 Y114.705 E6.67991
G1 X137.595 Y114.839 E6.69279
G1 X138.744 Y116.608 E6.86118
G1 X138.927 Y116.918 E6.88991
G1 X139.863 Y118.615 E7.04461
G1 X140.024 Y118.926 E7.07257
G1 X140.09 Y119.063 E7.08471
G1 X140.95 Y120.93 E7.24879
G1 X141.077 Y121.235 E7.27516
G1 X141.806 Y123.179 E7.44089
G1 X141.916 Y123.509 E7.46866
G1 X142.487 Y125.442 E7.62955
G1 X142.524 Y125.578 E7.6408
G1 X142.613 Y125.934 E7.67009
G1 X143.05 Y127.962 E7.83569
G1 X143.109 Y128.295 E7.86269
G1 X143.39 Y130.279 E8.02264
G1 X143.425 Y130.598 E8.04826
G1 X143.434 Y130.709 E8.05715
G1 X143.575 Y132.821 E8.22611
G1 X143.585 Y133.212 E8.25733
G1 X143.574 Y135.252 E8.42018
G1 X143.563 Y135.509 E8.44071
G1 X143.553 Y135.667 E8.45335
G1 X143.402 Y137.586 E8.607
G1 X143.389 Y137.725 E8.61815
G1 X143.35 Y138.055 E8.64467
G1 X143.043 Y140.08 E8.80816
G1 X142.977 Y140.429 E8.83652
G1 X142.505 Y142.496 E9.00576
G1 X142.406 Y142.859 E9.0358
G1 X141.794 Y144.856 E9.20252
G1 X141.711 Y145.096 E9.22279
G1 X141.676 Y145.191 E9.23088
G1 X140.97 Y147.014 E9.38693
G1 X140.909 Y147.165 E9.39993
G1 X140.779 Y147.46 E9.42566
G1 X139.919 Y149.278 E9.5862
G1 X139.777 Y149.558 E9.61126
G1 X139.707 Y149.688 E9.62304
G1 X138.739 Y151.397 E9.77983
G1 X138.672 Y151.512 E9.79045
G1 X138.49 Y151.803 E9.81785
G1 X137.41 Y153.425 E9.9734
G1 X137.204 Y153.714 E10.00173
G1 X137.136 Y153.806 E10.01086
G1 X135.897 Y155.4 E10.17202
G1 X135.684 Y155.656 E10.1986
G1 X135.628 Y155.721 E10.20545
G1 X134.211 Y157.293 E10.37439
G1 X134.037 Y157.472 E10.39432
G1 X133.963 Y157.545 E10.40262
G1 X132.456 Y158.987 E10.56911
G1 X132.2 Y159.215 E10.59647
G1 X130.598 Y160.542 E10.76253
G1 X130.388 Y160.704 E10.7837
G1 X130.301 Y160.768 E10.79232
G1 X128.66 Y161.936 E10.9531
G1 X128.362 Y162.135 E10.98171
G1 X128.304 Y162.172 E10.9872
G1 X126.51 Y163.261 E11.15472
G1 X126.222 Y163.421 E11.18102
G1 X124.338 Y164.383 E11.34988
G1 X124.093 Y164.497 E11.37145
G1 X123.967 Y164.553 E11.38246
G1 X122.061 Y165.357 E11.54759
G1 X121.753 Y165.473 E11.57386
G1 X119.871 Y166.113 E11.73254
G1 X119.529 Y166.218 E11.76109
G1 X119.44 Y166.243 E11.76847
G1 X117.418 Y166.767 E11.93521
G1 X117.053 Y166.848 E11.96506
G1 X115.064 Y167.212 E12.12646
G1 X114.67 Y167.27 E12.15825
G1 X112.631 Y167.492 E12.32198
G1 X112.227 Y167.523 E12.35432
G1 X110.147 Y167.597 E12.52046
G1 X109.882 Y167.596 E12.54161
G1 X109.75 Y167.593 E12.55215
G1 X107.67 Y167.514 E12.71831
G1 X107.384 Y167.494 E12.74119
G1 X105.266 Y167.261 E12.91128
G1 X104.905 Y167.206 E12.94043
G1 X102.925 Y166.84 E13.10116
G1 X102.805 Y166.816 E13.11093
G1 X102.567 Y166.762 E13.13041
G1 X100.561 Y166.242 E13.29583
G1 X100.447 Y166.21 E13.30528
G1 X100.132 Y166.114 E13.33157
G1 X98.219 Y165.462 E13.4929
G1 X98.106 Y165.422 E13.50247
G1 X97.771 Y165.29 E13.53121
G1 X95.893 Y164.491 E13.69412
G1 X95.556 Y164.332 E13.72387
G1 X93.73 Y163.395 E13.8877
G1 X93.411 Y163.215 E13.91693
G1 X91.618 Y162.121 E14.0846
G1 X91.385 Y161.967 E14.10689
G1 X89.665 Y160.741 E14.2755
G1 X89.606 Y160.698 E14.28133
G1 X89.377 Y160.522 E14.30438
G1 X87.764 Y159.185 E14.47162
G1 X87.521 Y158.969 E14.49757
G1 X87.435 Y158.889 E14.50695
G1 X86.026 Y157.533 E14.66304
G1 X85.913 Y157.42 E14.6758
G1 X85.771 Y157.273 E14.69212
G1 X85.679 Y157.174 E14.7029
G1 X84.287 Y155.623 E14.86926
G1 X84.062 Y155.351 E14.89744
G1 X82.844 Y153.781 E15.05606
G1 X82.608 Y153.451 E15.08844
G1 X81.478 Y151.751 E15.25139
G1 X81.426 Y151.67 E15.25907
G1 X81.254 Y151.388 E15.28544
G1 X80.268 Y149.643 E15.44543
G1 X80.222 Y149.559 E15.45307
G1 X80.117 Y149.355 E15.47139
G1 X80.061 Y149.24 E15.4816
G1 X79.187 Y147.388 E15.64507
G1 X79.048 Y147.063 E15.67328
G1 X78.304 Y145.135 E15.83825
G1 X78.204 Y144.849 E15.86243
G1 X78.154 Y144.693 E15.87551
G1 X77.565 Y142.759 E16.03689
G1 X77.492 Y142.483 E16.05968
G1 X77.024 Y140.419 E16.22862
G1 X76.949 Y140.03 E16.26024
G1 X76.646 Y138.019 E16.42258
G1 X76.635 Y137.942 E16.42879
G1 X76.594 Y137.565 E16.45906
G1 X76.436 Y135.479 E16.62605
G1 X76.424 Y135.132 E16.65377
G1 X76.417 Y133.05 E16.81996
G1 X76.426 Y132.78 E16.84153
G1 X76.432 Y132.669 E16.8504
G1 X76.573 Y130.622 E17.01419
G1 X76.605 Y130.31 E17.03922
G1 X76.9 Y128.249 E17.20542
G1 X76.913 Y128.165 E17.2122
G1 X76.98 Y127.81 E17.24104
G1 X77.412 Y125.831 E17.40273
G1 X77.501 Y125.486 E17.43117
G1 X78.085 Y123.51 E17.59565
G1 X78.211 Y123.13 E17.62761
G1 X78.946 Y121.178 E17.79411
G1 X79.083 Y120.854 E17.82219
G1 X79.955 Y118.967 E17.98812
G1 X80.095 Y118.691 E18.01282
G1 X80.149 Y118.588 E18.02211
G1 X81.113 Y116.846 E18.18103
G1 X81.349 Y116.459 E18.21722
G1 X82.495 Y114.707 E18.38433
G1 X82.658 Y114.478 E18.40677
G1 X83.921 Y112.822 E18.57301
G1 X84.146 Y112.546 E18.60144
G1 X85.527 Y110.986 E18.76775
G1 X85.604 Y110.902 E18.77685
G1 X85.808 Y110.689 E18.80039
G1 X87.309 Y109.223 E18.96787
G1 X87.549 Y109.006 E18.9937
G1 X89.117 Y107.683 E19.15746
G1 X89.389 Y107.469 E19.18509
G1 X91.056 Y106.256 E19.34966
G1 X91.166 Y106.179 E19.36037
G1 X91.435 Y105.999 E19.38621
G1 X92.271 Y105.48 E19.46476
G1 X92.817 Y105.092 E19.51823
G1 X93.32 Y104.629 E19.5728
G1 X93.759 Y104.107 E19.62724
G1 X94.13 Y103.534 E19.68173
G1 X94.425 Y102.918 E19.73625
G1 X94.641 Y102.27 E19.79078
G1 X94.771 Y101.6 E19.84526
G1 X94.817 Y100.909 E19.90054
G1 X94.817 Y92.119 E20.60219
G1 X94.821 Y91.993 E20.61226
G1 X94.845 Y91.616 E20.64241
G1 X94.882 Y91.321 E20.66614
G1 X94.937 Y91.033 E20.68955
G1 X95.008 Y90.761 E20.71199
G1 X95.145 Y90.346 E20.74687
G1 X95.18 Y90.253 E20.75481
G1 X95.208 Y90.191 E20.76024
G1 X95.385 Y89.828 E20.79247
G1 X95.533 Y89.567 E20.81642
G1 X95.672 Y89.356 E20.83659
G1 X95.876 Y89.085 E20.86367
G1 X96.146 Y88.773 E20.89661
G1 X96.25 Y88.662 E20.90875
G1 X100.788 Y84.118 E21.42137
G1 X101.23 Y83.615 E21.47483
G1 X101.613 Y83.049 E21.52938
G1 X101.921 Y82.44 E21.58385
G1 X102.15 Y81.797 E21.63834
G1 X102.297 Y81.127 E21.69309
G1 X102.358 Y80.326 E21.75722
G1 X102.358 Y57.193 E23.60379
G1 X102.362 Y57.067 E23.61386
G1 X102.386 Y56.69 E23.64401
G1 X102.423 Y56.392 E23.66798
G1 X102.478 Y56.108 E23.69107
G1 X102.554 Y55.817 E23.71508
G1 X102.638 Y55.559 E23.73674
G1 X102.749 Y55.28 E23.76071
G1 X102.871 Y55.022 E23.78349
G1 F2700 E18.78349
G1 F300 Z0.74
G0 F12000 X95.897 Y116.611 Z0.74
G1 F300 Z0.24
G1 F2700 E23.78349
G1 F1800 X94.895 Y117.473 E23.889
G1 X94.606 Y117.741 E23.92046
G1 X93.707 Y118.643 E24.02212
G1 X93.448 Y118.923 E24.05256
G1 X92.619 Y119.885 E24.15393
G1 X92.37 Y120.198 E24.18586
G1 X91.592 Y121.257 E24.29076
G1 X91.378 Y121.569 E24.32096
G1 X90.709 Y122.633 E24.42128
G1 X90.514 Y122.972 E24.4525
G1 X89.9 Y124.134 E24.55741
G1 X89.73 Y124.486 E24.58861
G1 X89.233 Y125.627 E24.68796
G1 X89.089 Y125.996 E24.71958
G1 X88.656 Y127.242 E24.82487
G1 X88.545 Y127.602 E24.85494
G1 X88.216 Y128.831 E24.9565
G1 X88.128 Y129.213 E24.98779
G1 X87.89 Y130.477 E25.09046
G1 X87.831 Y130.859 E25.12132
G1 X87.686 Y132.153 E25.22526
G1 X87.657 Y132.543 E25.25648
G1 X87.609 Y133.826 E25.35896
G1 X87.61 Y134.218 E25.39025
G1 X87.659 Y135.483 E25.49131
G1 X87.687 Y135.866 E25.52196
G1 X87.83 Y137.142 E25.62445
G1 X87.89 Y137.531 E25.65587
G1 X88.13 Y138.797 E25.75873
G1 X88.217 Y139.175 E25.78969
G1 X88.555 Y140.432 E25.8936
G1 X88.668 Y140.799 E25.92425
G1 X89.089 Y142.003 E26.02606
G1 X89.232 Y142.369 E26.05743
G1 X89.748 Y143.55 E26.16031
G1 X89.916 Y143.897 E26.19108
G1 X90.508 Y145.018 E26.29228
G1 X90.707 Y145.36 E26.32386
G1 X91.402 Y146.464 E26.428
G1 X91.617 Y146.779 E26.45844
G1 X92.367 Y147.797 E26.55937
G1 X92.611 Y148.103 E26.59062
G1 X93.473 Y149.105 E26.69612
G1 X93.741 Y149.394 E26.72759
G1 X94.642 Y150.293 E26.82919
G1 X94.925 Y150.554 E26.85992
G1 X95.893 Y151.386 E26.96181
G1 X96.201 Y151.632 E26.99327
G1 X97.255 Y152.408 E27.09775
G1 X97.567 Y152.62 E27.12786
G1 X98.63 Y153.289 E27.22812
G1 X98.978 Y153.489 E27.26016
G1 X100.125 Y154.093 E27.36364
G1 X100.464 Y154.257 E27.3937
G1 X101.639 Y154.77 E27.49604
G1 X102.009 Y154.916 E27.52779
G1 X103.232 Y155.343 E27.6312
G1 X103.603 Y155.457 E27.66218
G1 X104.842 Y155.788 E27.76455
G1 X105.219 Y155.874 E27.79541
G1 X106.454 Y156.107 E27.89574
G1 X106.84 Y156.166 E27.92691
G1 X108.154 Y156.313 E28.03245
G1 X108.542 Y156.342 E28.06351
G1 X109.826 Y156.39 E28.16607
G1 X110.216 Y156.389 E28.19721
G1 X111.491 Y156.34 E28.29906
G1 X111.877 Y156.311 E28.32996
G1 X113.148 Y156.168 E28.43205
G1 X113.533 Y156.11 E28.46313
G1 X114.788 Y155.873 E28.56508
G1 X115.17 Y155.785 E28.59637
G1 X116.43 Y155.446 E28.70053
G1 X116.798 Y155.332 E28.73128
G1 X118.015 Y154.906 E28.83421
G1 X118.38 Y154.763 E28.8655
G1 X119.542 Y154.255 E28.96673
G1 X119.891 Y154.086 E28.99769
G1 X121.033 Y153.482 E29.10081
G1 X121.37 Y153.288 E29.13185
G1 X122.464 Y152.599 E29.23505
G1 X122.781 Y152.382 E29.26572
G1 X123.795 Y151.634 E29.3663
G1 X124.103 Y151.389 E29.39772
G1 X125.106 Y150.525 E29.50339
G1 X125.391 Y150.261 E29.5344
G1 X126.29 Y149.36 E29.636
G1 X126.553 Y149.076 E29.6669
G1 X127.381 Y148.114 E29.76822
G1 X127.626 Y147.806 E29.79963
G1 X128.413 Y146.736 E29.90566
G1 X128.631 Y146.417 E29.9365
G1 X129.29 Y145.367 E30.03546
G1 X129.484 Y145.03 E30.0665
G1 X130.099 Y143.865 E30.17165
G1 X130.267 Y143.515 E30.20264
G1 X130.766 Y142.371 E30.30227
G1 X130.908 Y142.009 E30.33331
G1 X131.341 Y140.771 E30.438
G1 X131.456 Y140.398 E30.46916
G1 X131.786 Y139.161 E30.57136
G1 X131.873 Y138.785 E30.60217
G1 X132.111 Y137.524 E30.7046
G1 X132.17 Y137.135 E30.73601
G1 X132.314 Y135.841 E30.83994
G1 X132.343 Y135.455 E30.87084
G1 X132.391 Y134.173 E30.97324
G1 X132.39 Y133.782 E31.00445
G1 X132.341 Y132.514 E31.10575
G1 X132.312 Y132.129 E31.13657
G1 X132.169 Y130.858 E31.23866
G1 X132.11 Y130.471 E31.26991
G1 X131.871 Y129.208 E31.37252
G1 X131.783 Y128.827 E31.40373
G1 X131.443 Y127.564 E31.50814
G1 X131.332 Y127.201 E31.53844
G1 X130.912 Y125.998 E31.64015
G1 X130.765 Y125.626 E31.67208
G1 X130.25 Y124.448 E31.77471
G1 X130.083 Y124.103 E31.80531
G1 X129.488 Y122.977 E31.90697
G1 X129.295 Y122.643 E31.93776
G1 X128.605 Y121.544 E32.04134
G1 X128.383 Y121.219 E32.07276
G1 X127.628 Y120.197 E32.17419
G1 X127.386 Y119.893 E32.2052
G1 X126.526 Y118.894 E32.31043
G1 X126.259 Y118.606 E32.34178
G1 X125.358 Y117.707 E32.44338
G1 X125.075 Y117.446 E32.47411
G1 X124.107 Y116.614 E32.576
G1 X123.799 Y116.368 E32.60746
G1 X122.745 Y115.592 E32.71194
G1 X122.433 Y115.38 E32.74205
G1 X121.37 Y114.711 E32.84231
G1 X121.022 Y114.511 E32.87435
G1 X119.875 Y113.907 E32.97783
G1 X119.536 Y113.743 E33.00789
G1 X118.361 Y113.23 E33.11023
G1 X117.991 Y113.084 E33.14198
G1 X116.768 Y112.657 E33.24539
G1 X116.397 Y112.543 E33.27637
G1 X115.158 Y112.212 E33.37874
G1 X114.781 Y112.126 E33.4096
G1 X113.546 Y111.893 E33.50993
G1 X113.16 Y111.834 E33.5411
G1 X111.846 Y111.687 E33.64664
G1 X111.458 Y111.658 E33.6777
G1 X110.174 Y111.61 E33.78026
G1 X109.784 Y111.611 E33.8114
G1 X108.509 Y111.66 E33.91325
G1 X108.123 Y111.689 E33.94415
G1 X106.852 Y111.832 E34.04624
G1 X106.467 Y111.89 E34.07732
G1 X105.212 Y112.127 E34.17927
G1 X104.83 Y112.215 E34.21056
G1 X103.57 Y112.554 E34.31472
G1 X103.202 Y112.668 E34.34547
G1 X101.985 Y113.094 E34.4484
G1 X101.62 Y113.237 E34.47969
G1 X100.458 Y113.745 E34.58092
G1 X100.112 Y113.912 E34.61159
G1 X98.976 Y114.512 E34.71414
G1 X98.634 Y114.711 E34.74573
G1 X97.53 Y115.406 E34.84986
G1 X97.214 Y115.622 E34.88042
G1 X96.202 Y116.368 E34.98077
G1 X95.897 Y116.611 E35.0119
G0 F12000 X96 Y116.529
G1 F1800 X96 Y88.941 E37.2141
G1 F2700 E32.2141
G1 F300 Z0.74
G0 F12000 X97.6 Y87.31 Z0.74
G1 F300 Z0.24
G1 F2700 E37.2141
G1 F1800 X97.6 Y115.362 E39.45333
G1 F2700 E34.45333
G1 F300 Z0.74
G0 F12000 X99.2 Y114.394 Z0.74
G1 F300 Z0.24
G1 F2700 E39.45333
G1 F1800 X99.2 Y85.708 E41.74317
G1 F2700 E36.74317
G1 F300 Z0.74
G0 F12000 X100.8 Y84.104 Z0.74
G1 F300 Z0.24
G1 F2700 E41.74317
G1 F1800 X100.8 Y113.596 E44.09735
G1 F2700 E39.09735
G1 F300 Z0.74
G0 F12000 X102.4 Y112.949 Z0.74
G1 F300 Z0.24
G1 F2700 E44.09735
G1 F1800 X102.4 Y56.577 E48.59721
G1 F2700 E43.59721
G1 F300 Z0.74
G0 F12000 X104 Y53.592 Z0.74
G1 F300 Z0.24
G1 F2700 E48.59721
G1 F1800 X104 Y112.439 E53.29463
G1 F2700 E48.29463
G1 F300 Z0.74
G0 F12000 X105.6 Y112.054 Z0.74
G1 F300 Z0.24
G1 F2700 E53.29463
G1 F1800 X105.6 Y52.652 E58.03635
G1 F2700 E53.03635
G1 F300 Z0.74
G0 F12000 X107.2 Y52.4 Z0.74
G1 F300 Z0.24
G1 F2700 E58.03635
G1 F1800 X107.2 Y111.793 E62.77736
G1 F2700 E57.77736
G1 F300 Z0.74
G0 F12000 X108.8 Y111.649 Z0.74
G1 F300 Z0.24
G1 F2700 E62.77736
G1 F1800 X108.8 Y52.4 E67.50687
G1 F2700 E62.50687
