;FLAVOR:Marlin
;TIME:6610
;Filament used: 4.27921m
;Layer height: 0.2
;MINX:71.215
;MINY:47.199
;MINZ:0.24
;MAXX:148.785
;MAXY:172.793
;MAXZ:15.59
;Generated with Cura_SteamEngine 4.8.0
M140 S70
M105
M190 S70
M104 S200
M105
M109 S200
M82 ;absolute extrusion mode
M201 X500.00 Y500.00 Z100.00 E5000.00 ;Setup machine max acceleration
M203 X500.00 Y500.00 Z10.00 E50.00 ;Setup machine max feedrate
M204 P500.00 R1000.00 T500.00 ;Setup Print/Retract/Travel acceleration
M205 X8.00 Y8.00 Z0.40 E5.00 ;Setup Jerk
M220 S100 ;Reset Feedrate
M221 S100 ;Reset Flowrate

G28 ;Home

G92 E0 ;Reset Extruder
G1 Z2.0 F3000 ;Move Z Axis up
G1 X10.1 Y20 Z0.28 F5000.0 ;Move to start position
G1 X10.1 Y200.0 Z0.28 F1500.0 E15 ;Draw the first line
G1 X10.4 Y200.0 Z0.28 F5000.0 ;Move to side a little
G1 X10.4 Y20 Z0.28 F1500.0 E30 ;Draw the second line
G92 E0 ;Reset Extruder
G1 Z2.0 F3000 ;Move Z Axis up

G92 E0
G92 E0
G1 F2700 E-5
;LAYER_COUNT:70
;LAYER:-6
M107
G0 F12000 X98.348 Y52.883 Z0.24
;TYPE:SUPPORT-INTERFACE
G1 F2700 E0
G1 F1800 X98.659 Y52.301 E0.05267
G1 X98.768 Y52.118 E0.06968
G1 X99.11 Y51.598 E0.11936
G1 X99.259 Y51.391 E0.13972
G1 X99.645 Y50.904 E0.18932
G1 X99.776 Y50.752 E0.20534
G1 X100.132 Y50.368 E0.24714
G1 X100.287 Y50.212 E0.26469
G1 X100.838 Y49.709 E0.32425
G1 X101.015 Y49.561 E0.34266
G1 X101.515 Y49.18 E0.39284
G1 X101.698 Y49.053 E0.41062
G1 X102.245 Y48.708 E0.46225
G1 X102.412 Y48.613 E0.47758
G1 X103.004 Y48.311 E0.53063
G1 X103.185 Y48.228 E0.54653
G1 X103.786 Y47.986 E0.59825
G1 X104.003 Y47.91 E0.6166
G1 X104.593 Y47.732 E0.66579
G1 X104.83 Y47.671 E0.68533
G1 X105.443 Y47.545 E0.73528
G1 X105.671 Y47.508 E0.75372
G1 X106.316 Y47.434 E0.80555
G1 X106.492 Y47.421 E0.81963
G1 X107.112 Y47.4 E0.86915
G1 X112.325 Y47.4 E1.28528
G1 X112.45 Y47.403 E1.29526
G1 X113.167 Y47.435 E1.35255
G1 X113.353 Y47.451 E1.36745
G1 X114.003 Y47.54 E1.41982
G1 X114.215 Y47.578 E1.43701
G1 X114.838 Y47.72 E1.48802
G1 X115.044 Y47.776 E1.50506
G1 X115.673 Y47.98 E1.55784
G1 X115.85 Y48.046 E1.57292
G1 X116.455 Y48.303 E1.62539
G1 X116.635 Y48.39 E1.64135
G1 X117.224 Y48.705 E1.69467
G1 X117.4 Y48.81 E1.71103
G1 X117.92 Y49.152 E1.76071
G1 X118.127 Y49.301 E1.78107
G1 X118.626 Y49.697 E1.83192
G1 X118.766 Y49.818 E1.84669
G1 X119.213 Y50.236 E1.89554
G1 X119.306 Y50.329 E1.90604
G1 X119.809 Y50.88 E1.9656
G1 X119.957 Y51.057 E1.98401
G1 X120.334 Y51.551 E2.03362
G1 X120.465 Y51.74 E2.05198
G1 X120.803 Y52.275 E2.10249
G1 X120.908 Y52.46 E2.11947
G1 X121.207 Y53.046 E2.17198
G1 X121.29 Y53.227 E2.18788
G1 X121.532 Y53.828 E2.2396
G1 X121.609 Y54.049 E2.25828
G1 X121.786 Y54.635 E2.30714
G1 X121.848 Y54.878 E2.32716
G1 X121.974 Y55.49 E2.37704
G1 X122.01 Y55.713 E2.39507
G1 X122.084 Y56.358 E2.44689
G1 X122.097 Y56.529 E2.46058
G1 X122.118 Y57.147 E2.50994
G1 X122.118 Y77.957 E4.17109
G1 X122.16 Y78.625 E4.22452
G1 X122.289 Y79.296 E4.27906
G1 X122.502 Y79.945 E4.33358
G1 X122.794 Y80.562 E4.38807
G1 X123.165 Y81.142 E4.44303
G1 X123.814 Y81.873 E4.52106
G1 X127.122 Y84.972 E4.88289
G1 X127.644 Y85.508 E4.94262
G1 X127.776 Y85.657 E4.95851
G1 X128.17 Y86.139 E5.0082
G1 X128.326 Y86.348 E5.02902
G1 X128.667 Y86.852 E5.07759
G1 X128.778 Y87.031 E5.09441
G1 X129.109 Y87.63 E5.14904
G1 X129.19 Y87.789 E5.16328
G1 X129.389 Y88.225 E5.20154
G1 X129.415 Y88.288 E5.20698
G1 X129.674 Y88.976 E5.26566
G1 X129.732 Y89.15 E5.2803
G1 X129.913 Y89.805 E5.33454
G1 X129.956 Y89.99 E5.34971
G1 X130.074 Y90.639 E5.40236
G1 X130.102 Y90.836 E5.41824
G1 X130.167 Y91.531 E5.47396
G1 X130.173 Y91.649 E5.4834
G1 X130.183 Y92.046 E5.5151
G1 X130.183 Y98.239 E6.00945
G1 X130.225 Y98.907 E6.06288
G1 X130.354 Y99.578 E6.11742
G1 X130.567 Y100.227 E6.17194
G1 X130.859 Y100.844 E6.22643
G1 X131.227 Y101.419 E6.28093
G1 X131.669 Y101.947 E6.33589
G1 X132.39 Y102.581 E6.41253
G1 X133.531 Y103.411 E6.52516
G1 X134.081 Y103.841 E6.58089
G1 X135.637 Y105.154 E6.74341
G1 X135.741 Y105.245 E6.75444
G1 X136.191 Y105.654 E6.80298
G1 X136.261 Y105.72 E6.81066
G1 X137.755 Y107.185 E6.97769
G1 X138.19 Y107.642 E7.02805
G1 X138.268 Y107.727 E7.03726
G1 X139.616 Y109.252 E7.19973
G1 X140.064 Y109.798 E7.25611
G1 X141.321 Y111.448 E7.42168
G1 X141.78 Y112.103 E7.48553
G1 X142.924 Y113.863 E7.65309
G1 X143.249 Y114.404 E7.70347
G1 X143.305 Y114.501 E7.71241
G1 X144.292 Y116.291 E7.87558
G1 X144.585 Y116.872 E7.92752
G1 X144.624 Y116.953 E7.93469
G1 X145.438 Y118.719 E8.08992
G1 X145.509 Y118.88 E8.10396
G1 X145.748 Y119.454 E8.1536
G1 X146.472 Y121.382 E8.31799
G1 X146.703 Y122.067 E8.3757
G1 X147.286 Y124.038 E8.53977
G1 X147.315 Y124.143 E8.54846
G1 X147.492 Y124.838 E8.60571
G1 X147.933 Y126.884 E8.77278
G1 X148.055 Y127.567 E8.82817
G1 X148.344 Y129.608 E8.99271
G1 X148.421 Y130.368 E9.05369
G1 X148.558 Y132.402 E9.21642
G1 X148.564 Y132.52 E9.22585
G1 X148.585 Y133.179 E9.27848
G1 X148.574 Y135.275 E9.4458
G1 X148.548 Y135.924 E9.49765
G1 X148.385 Y137.998 E9.66371
G1 X148.375 Y138.11 E9.67269
G1 X148.297 Y138.778 E9.72637
G1 X147.979 Y140.867 E9.89505
G1 X147.862 Y141.48 E9.94486
G1 X147.838 Y141.595 E9.95424
G1 X147.392 Y143.552 E10.11446
G1 X147.219 Y144.211 E10.16885
G1 X146.602 Y146.236 E10.33783
G1 X146.573 Y146.325 E10.3453
G1 X146.379 Y146.886 E10.39268
G1 X146.33 Y147.021 E10.40415
G1 X145.633 Y148.82 E10.55815
G1 X145.572 Y148.971 E10.57115
G1 X145.359 Y149.465 E10.6141
G1 X145.284 Y149.631 E10.62864
G1 X144.419 Y151.461 E10.79021
G1 X144.087 Y152.101 E10.84776
G1 X143.091 Y153.859 E11.00905
G1 X143.007 Y154 E11.02215
G1 X142.674 Y154.541 E11.07286
G1 X141.509 Y156.289 E11.24055
G1 X141.157 Y156.776 E11.28851
G1 X141.089 Y156.867 E11.29758
G1 X139.796 Y158.528 E11.46561
G1 X139.399 Y159.003 E11.51502
G1 X139.318 Y159.097 E11.52493
G1 X137.928 Y160.638 E11.69058
G1 X137.417 Y161.162 E11.74901
G1 X135.999 Y162.519 E11.90568
G1 X135.879 Y162.63 E11.91873
G1 X135.389 Y163.066 E11.97108
G1 X133.79 Y164.39 E12.1368
G1 X133.286 Y164.778 E12.18757
G1 X133.199 Y164.842 E12.19619
G1 X131.562 Y166.007 E12.35658
G1 X131.446 Y166.086 E12.36778
G1 X130.901 Y166.444 E12.41983
G1 X129.172 Y167.495 E12.58135
G1 X128.578 Y167.829 E12.63574
G1 X128.457 Y167.894 E12.64671
G1 X126.665 Y168.81 E12.80736
G1 X126.039 Y169.104 E12.86257
G1 X125.933 Y169.151 E12.87182
G1 X124.118 Y169.918 E13.02911
G1 X124.001 Y169.965 E13.03917
G1 X123.356 Y170.21 E13.09425
G1 X121.396 Y170.876 E13.25949
G1 X120.698 Y171.081 E13.31756
G1 X118.669 Y171.607 E13.48488
G1 X117.939 Y171.767 E13.54453
G1 X115.967 Y172.129 E13.70458
G1 X115.211 Y172.24 E13.76557
G1 X113.18 Y172.461 E13.92865
G1 X112.413 Y172.518 E13.99005
G1 X110.329 Y172.593 E14.15651
G1 X109.689 Y172.593 E14.20759
G1 X109.559 Y172.59 E14.21797
G1 X107.548 Y172.515 E14.37861
G1 X106.778 Y172.458 E14.44025
G1 X104.817 Y172.242 E14.59773
G1 X104.675 Y172.224 E14.60915
G1 X103.979 Y172.121 E14.66532
G1 X102.032 Y171.76 E14.82338
G1 X101.887 Y171.73 E14.8352
G1 X101.218 Y171.581 E14.88991
G1 X99.313 Y171.084 E15.04707
G1 X99.19 Y171.05 E15.05726
G1 X98.603 Y170.873 E15.1062
G1 X98.507 Y170.842 E15.11425
G1 X96.614 Y170.197 E15.27389
G1 X96.487 Y170.151 E15.28467
G1 X95.948 Y169.945 E15.33073
G1 X95.815 Y169.893 E15.34213
G1 X93.939 Y169.094 E15.5049
G1 X93.275 Y168.782 E15.56346
G1 X91.533 Y167.889 E15.71972
G1 X91.402 Y167.818 E15.73161
G1 X90.899 Y167.536 E15.77764
G1 X90.801 Y167.479 E15.78669
G1 X89.023 Y166.396 E15.95288
G1 X88.467 Y166.029 E16.00606
G1 X86.785 Y164.829 E16.17099
G1 X86.697 Y164.764 E16.17972
G1 X86.162 Y164.352 E16.23362
G1 X84.571 Y163.032 E16.39864
G1 X84.053 Y162.57 E16.45405
G1 X83.98 Y162.503 E16.46196
G1 X82.55 Y161.126 E16.62043
G1 X82.454 Y161.03 E16.63126
G1 X82.052 Y160.615 E16.67738
G1 X81.976 Y160.536 E16.68613
G1 X80.629 Y159.036 E16.84706
G1 X80.577 Y158.978 E16.85328
G1 X80.164 Y158.482 E16.9048
G1 X78.859 Y156.799 E17.0748
G1 X78.488 Y156.283 E17.12553
G1 X78.416 Y156.179 E17.13563
G1 X77.271 Y154.452 E17.30103
G1 X76.906 Y153.855 E17.35689
G1 X75.913 Y152.101 E17.51778
G1 X75.596 Y151.49 E17.57273
G1 X75.54 Y151.375 E17.58294
G1 X74.688 Y149.57 E17.74227
G1 X74.641 Y149.466 E17.75138
G1 X74.381 Y148.858 E17.80416
G1 X73.627 Y146.903 E17.97142
G1 X73.414 Y146.286 E18.02353
G1 X73.373 Y146.158 E18.03425
G1 X72.811 Y144.316 E18.18798
G1 X72.774 Y144.186 E18.19877
G1 X72.615 Y143.586 E18.24832
G1 X72.594 Y143.503 E18.25515
G1 X72.133 Y141.451 E18.42304
G1 X72.008 Y140.784 E18.47721
G1 X71.702 Y138.761 E18.64053
G1 X71.686 Y138.647 E18.64972
G1 X71.612 Y137.981 E18.70321
G1 X71.459 Y135.987 E18.86284
G1 X71.451 Y135.863 E18.87276
G1 X71.424 Y135.152 E18.92956
G1 X71.416 Y133.127 E19.0912
G1 X71.436 Y132.493 E19.14184
G1 X71.444 Y132.313 E19.15622
G1 X71.575 Y130.405 E19.30888
G1 X71.59 Y130.227 E19.32314
G1 X71.662 Y129.559 E19.37677
G1 X71.956 Y127.505 E19.54241
G1 X72.074 Y126.849 E19.59561
G1 X72.098 Y126.729 E19.60538
G1 X72.507 Y124.851 E19.7588
G1 X72.533 Y124.739 E19.76798
G1 X72.706 Y124.07 E19.82314
G1 X73.291 Y122.092 E19.98779
G1 X73.324 Y121.988 E19.9965
G1 X73.542 Y121.342 E20.05093
G1 X74.274 Y119.399 E20.21667
G1 X74.534 Y118.78 E20.27026
G1 X75.419 Y116.866 E20.43859
G1 X75.723 Y116.266 E20.49228
G1 X75.777 Y116.163 E20.50156
G1 X76.746 Y114.414 E20.66117
G1 X77.087 Y113.846 E20.71405
G1 X77.165 Y113.722 E20.72575
G1 X78.221 Y112.103 E20.88004
G1 X78.312 Y111.969 E20.89297
G1 X78.64 Y111.505 E20.93833
G1 X78.733 Y111.378 E20.95089
G1 X79.928 Y109.812 E21.10814
G1 X79.997 Y109.725 E21.117
G1 X80.434 Y109.194 E21.1719
G1 X81.759 Y107.699 E21.33136
G1 X81.855 Y107.594 E21.34272
G1 X82.292 Y107.135 E21.39331
G1 X83.748 Y105.71 E21.55593
G1 X84.297 Y105.209 E21.61526
G1 X85.889 Y103.866 E21.78152
G1 X85.984 Y103.789 E21.79128
G1 X86.448 Y103.425 E21.83836
G1 X87.601 Y102.585 E21.95223
G1 X88.118 Y102.158 E22.00575
G1 X88.584 Y101.659 E22.06025
G1 X88.985 Y101.106 E22.11478
G1 X89.312 Y100.506 E22.16933
G1 X89.561 Y99.87 E22.22385
G1 X89.728 Y99.202 E22.27881
G1 X89.817 Y98.242 E22.35577
G1 X89.817 Y92.099 E22.84613
G1 X89.82 Y91.99 E22.85484
G1 X89.852 Y91.277 E22.91181
G1 X89.867 Y91.098 E22.92615
G1 X89.957 Y90.441 E22.97908
G1 X89.995 Y90.229 E22.99627
G1 X90.138 Y89.602 E23.04761
G1 X90.195 Y89.4 E23.06436
G1 X90.522 Y88.442 E23.14517
G1 X90.554 Y88.357 E23.15242
G1 X90.601 Y88.25 E23.16174
G1 X90.883 Y87.641 E23.21532
G1 X90.983 Y87.449 E23.2326
G1 X91.306 Y86.893 E23.28392
G1 X91.42 Y86.714 E23.30087
G1 X91.775 Y86.208 E23.35021
G1 X91.935 Y86.005 E23.37084
G1 X92.607 Y85.241 E23.45206
G1 X92.716 Y85.125 E23.46476
G1 X95.788 Y82.049 E23.81178
G1 X96.23 Y81.546 E23.86524
G1 X96.613 Y80.98 E23.91979
G1 X96.921 Y80.371 E23.97426
G1 X97.15 Y79.728 E24.02875
G1 X97.297 Y79.058 E24.0835
G1 X97.358 Y78.257 E24.14763
G1 X97.358 Y57.193 E25.82905
G1 X97.361 Y57.068 E25.83903
G1 X97.393 Y56.351 E25.89632
G1 X97.408 Y56.172 E25.91066
G1 X97.498 Y55.515 E25.96359
G1 X97.536 Y55.303 E25.98078
G1 X97.677 Y54.683 E26.03154
G1 X97.732 Y54.481 E26.04825
G1 X97.938 Y53.845 E26.10162
G1 X98.003 Y53.668 E26.11667
G1 X98.258 Y53.069 E26.16863
G1 X98.348 Y52.883 E26.18513
G1 F2700 E21.18513
G1 F300 Z0.74
G0 F12000 X99.012 Y120.528 Z0.74
G1 F300 Z0.24
G1 F2700 E26.18513
G1 F1800 X98.314 Y121.128 E26.2586
G1 X98.028 Y121.393 E26.28973
G1 X97.373 Y122.047 E26.36361
G1 X97.106 Y122.337 E26.39508
G1 X96.52 Y123.02 E26.46691
G1 X96.279 Y123.322 E26.49776
G1 X95.732 Y124.065 E26.57141
G1 X95.513 Y124.385 E26.60236
G1 X95.049 Y125.123 E26.67194
G1 X94.854 Y125.461 E26.70309
G1 X94.413 Y126.297 E26.77854
G1 X94.244 Y126.647 E26.80957
G1 X93.892 Y127.455 E26.87992
G1 X93.75 Y127.819 E26.91111
G1 X93.438 Y128.713 E26.98669
G1 X93.325 Y129.08 E27.01735
G1 X93.093 Y129.948 E27.08907
G1 X93.005 Y130.329 E27.12028
G1 X92.836 Y131.228 E27.1933
G1 X92.777 Y131.61 E27.22415
G1 X92.675 Y132.522 E27.29741
G1 X92.646 Y132.919 E27.32918
G1 X92.614 Y133.802 E27.39971
G1 X92.614 Y134.177 E27.42965
G1 X92.649 Y135.12 E27.50497
G1 X92.679 Y135.515 E27.53659
G1 X92.779 Y136.402 E27.60785
G1 X92.838 Y136.787 E27.63894
G1 X93.009 Y137.692 E27.71246
G1 X93.096 Y138.071 E27.7435
G1 X93.329 Y138.938 E27.81516
G1 X93.444 Y139.31 E27.84624
G1 X93.75 Y140.181 E27.91993
G1 X93.888 Y140.535 E27.95026
G1 X94.25 Y141.367 E28.02269
G1 X94.423 Y141.725 E28.05443
G1 X94.841 Y142.515 E28.12577
G1 X95.035 Y142.849 E28.15661
G1 X95.533 Y143.642 E28.23136
G1 X95.749 Y143.96 E28.26204
G1 X96.278 Y144.677 E28.33317
G1 X96.528 Y144.991 E28.36521
G1 X97.141 Y145.7 E28.44002
G1 X97.399 Y145.978 E28.4703
G1 X98.047 Y146.625 E28.54339
G1 X98.331 Y146.889 E28.57434
G1 X99.018 Y147.48 E28.64668
G1 X99.328 Y147.726 E28.67827
G1 X100.068 Y148.27 E28.75159
G1 X100.385 Y148.487 E28.78225
G1 X101.123 Y148.95 E28.8518
G1 X101.462 Y149.147 E28.88309
G1 X102.297 Y149.587 E28.95844
G1 X102.643 Y149.753 E28.98907
G1 X103.446 Y150.104 E29.05902
G1 X103.815 Y150.248 E29.09064
G1 X104.727 Y150.566 E29.16774
G1 X105.092 Y150.678 E29.19822
G1 X105.946 Y150.907 E29.2688
G1 X106.327 Y150.995 E29.30001
G1 X107.21 Y151.161 E29.37173
G1 X107.595 Y151.22 E29.40282
G1 X108.527 Y151.324 E29.47768
G1 X108.918 Y151.353 E29.50898
G1 X109.811 Y151.386 E29.58031
G1 X110.197 Y151.385 E29.61112
G1 X111.111 Y151.35 E29.68413
G1 X111.495 Y151.322 E29.71487
G1 X112.392 Y151.222 E29.78691
G1 X112.787 Y151.161 E29.81882
G1 X113.691 Y150.989 E29.89227
G1 X114.059 Y150.904 E29.92242
G1 X114.956 Y150.664 E29.99654
G1 X115.327 Y150.55 E30.02752
G1 X116.168 Y150.256 E30.09864
G1 X116.54 Y150.111 E30.13051
G1 X117.396 Y149.735 E30.20514
G1 X117.734 Y149.572 E30.2351
G1 X118.503 Y149.167 E30.30447
G1 X118.851 Y148.965 E30.33659
G1 X119.651 Y148.461 E30.41207
G1 X119.964 Y148.247 E30.44234
G1 X120.681 Y147.718 E30.51346
G1 X120.988 Y147.474 E30.54476
G1 X121.691 Y146.869 E30.6188
G1 X121.98 Y146.6 E30.65032
G1 X122.63 Y145.948 E30.72381
G1 X122.887 Y145.669 E30.75409
G1 X123.479 Y144.982 E30.82648
G1 X123.727 Y144.671 E30.85823
G1 X124.264 Y143.94 E30.93063
G1 X124.479 Y143.626 E30.96101
G1 X124.956 Y142.867 E31.03257
G1 X125.151 Y142.528 E31.06379
G1 X125.582 Y141.712 E31.13745
G1 X125.751 Y141.363 E31.16841
G1 X126.113 Y140.533 E31.24069
G1 X126.256 Y140.166 E31.27213
G1 X126.559 Y139.297 E31.34559
G1 X126.673 Y138.927 E31.3765
G1 X126.909 Y138.043 E31.44953
G1 X126.995 Y137.67 E31.48009
G1 X127.164 Y136.774 E31.55287
G1 X127.223 Y136.387 E31.58412
G1 X127.325 Y135.474 E31.65745
G1 X127.354 Y135.078 E31.68915
G1 X127.386 Y134.193 E31.75984
G1 X127.386 Y133.817 E31.78985
G1 X127.351 Y132.879 E31.86478
G1 X127.321 Y132.485 E31.89632
G1 X127.221 Y131.598 E31.96757
G1 X127.162 Y131.21 E31.9989
G1 X126.991 Y130.313 E32.07179
G1 X126.905 Y129.938 E32.10251
G1 X126.667 Y129.052 E32.17574
G1 X126.553 Y128.681 E32.20672
G1 X126.252 Y127.822 E32.27938
G1 X126.11 Y127.46 E32.31042
G1 X125.746 Y126.626 E32.38305
G1 X125.578 Y126.279 E32.41383
G1 X125.158 Y125.484 E32.4856
G1 X124.962 Y125.143 E32.517
G1 X124.464 Y124.352 E32.59161
G1 X124.246 Y124.033 E32.62245
G1 X123.726 Y123.329 E32.69232
G1 X123.481 Y123.022 E32.72367
G1 X122.861 Y122.303 E32.79945
G1 X122.601 Y122.023 E32.82995
G1 X121.953 Y121.375 E32.90311
G1 X121.669 Y121.111 E32.93406
G1 X120.982 Y120.52 E33.0064
G1 X120.672 Y120.274 E33.03799
G1 X119.932 Y119.73 E33.1113
G1 X119.615 Y119.513 E33.14197
G1 X118.877 Y119.05 E33.21151
G1 X118.538 Y118.853 E33.24281
G1 X117.703 Y118.413 E33.31815
G1 X117.357 Y118.247 E33.34878
G1 X116.554 Y117.896 E33.41874
G1 X116.185 Y117.752 E33.45036
G1 X115.273 Y117.434 E33.52746
G1 X114.908 Y117.322 E33.55793
G1 X114.054 Y117.093 E33.62851
G1 X113.673 Y117.005 E33.65972
G1 X112.79 Y116.839 E33.73144
G1 X112.405 Y116.78 E33.76254
G1 X111.473 Y116.676 E33.83739
G1 X111.082 Y116.647 E33.86869
G1 X110.189 Y116.614 E33.94002
G1 X109.803 Y116.615 E33.97083
G1 X108.889 Y116.65 E34.04385
G1 X108.505 Y116.678 E34.07458
G1 X107.608 Y116.778 E34.14663
G1 X107.213 Y116.839 E34.17853
G1 X106.309 Y117.011 E34.25199
G1 X105.941 Y117.096 E34.28214
G1 X105.044 Y117.336 E34.35626
G1 X104.673 Y117.45 E34.38724
G1 X103.832 Y117.744 E34.45835
G1 X103.46 Y117.889 E34.49023
G1 X102.603 Y118.265 E34.56493
