;FLAVOR:Marlin
;TIME:6538
;Filament used: 4.05603m
;Layer height: 0.2
;MINX:74.215
;MINY:50.199
;MINZ:0.24
;MAXX:145.785
;MAXY:169.795
;MAXZ:20.59
;Generated with Cura_SteamEngine 4.8.0
M140 S70
M105
M190 S70
M104 S200
M105
M109 S200
M82 ;absolute extrusion mode
M201 X500.00 Y500.00 Z100.00 E5000.00 ;Setup machine max acceleration
M203 X500.00 Y500.00 Z10.00 E50.00 ;Setup machine max feedrate
M204 P500.00 R1000.00 T500.00 ;Setup Print/Retract/Travel acceleration
M205 X8.00 Y8.00 Z0.40 E5.00 ;Setup Jerk
M220 S100 ;Reset Feedrate
M221 S100 ;Reset Flowrate

G28 ;Home

G92 E0 ;Reset Extruder
G1 Z2.0 F3000 ;Move Z Axis up
G1 X10.1 Y20 Z0.28 F5000.0 ;Move to start position
G1 X10.1 Y200.0 Z0.28 F1500.0 E15 ;Draw the first line
G1 X10.4 Y200.0 Z0.28 F5000.0 ;Move to side a little
G1 X10.4 Y20 Z0.28 F1500.0 E30 ;Draw the second line
G92 E0 ;Reset Extruder
G1 Z2.0 F3000 ;Move Z Axis up

G92 E0
G92 E0
G1 F2700 E-5
;LAYER_COUNT:95
;LAYER:-6
M107
G0 F12000 X101.226 Y53.858 Z0.24
;TYPE:SUPPORT-INTERFACE
G1 F2700 E0
G1 F1800 X101.341 Y53.663 E0.01807
G1 X101.593 Y53.285 E0.05434
G1 X101.76 Y53.066 E0.07632
G1 X102.245 Y52.505 E0.13552
G1 X102.367 Y52.374 E0.14981
G1 X102.44 Y52.305 E0.15782
G1 X102.845 Y51.941 E0.20129
G1 X103.035 Y51.788 E0.22076
G1 X103.411 Y51.517 E0.25776
G1 X103.614 Y51.388 E0.27696
G1 X103.997 Y51.169 E0.31218
G1 X104.238 Y51.047 E0.33374
G1 X104.661 Y50.863 E0.37056
G1 X104.864 Y50.788 E0.38784
G1 X105.335 Y50.64 E0.42725
G1 X105.561 Y50.582 E0.44587
G1 X105.982 Y50.497 E0.48016
G1 X106.261 Y50.46 E0.50262
G1 X106.99 Y50.407 E0.56097
G1 X107.187 Y50.4 E0.5767
G1 X112.335 Y50.4 E0.98764
G1 X112.442 Y50.403 E0.99618
G1 X112.976 Y50.431 E1.03887
G1 X113.229 Y50.458 E1.05918
G1 X113.672 Y50.53 E1.095
G1 X113.923 Y50.584 E1.1155
G1 X114.372 Y50.708 E1.15268
G1 X114.597 Y50.782 E1.17159
G1 X115.012 Y50.944 E1.20715
G1 X115.252 Y51.054 E1.22822
G1 X115.658 Y51.267 E1.26482
G1 X115.858 Y51.385 E1.28336
G1 X116.233 Y51.635 E1.31933
G1 X116.46 Y51.807 E1.34207
G1 X117.001 Y52.276 E1.39922
G1 X117.144 Y52.409 E1.41481
G1 X117.213 Y52.482 E1.42283
G1 X117.577 Y52.887 E1.4663
G1 X117.734 Y53.083 E1.48634
G1 X118.001 Y53.453 E1.52276
G1 X118.133 Y53.66 E1.54236
G1 X118.349 Y54.039 E1.57718
G1 X118.473 Y54.284 E1.5991
G1 X118.653 Y54.699 E1.63521
G1 X118.728 Y54.898 E1.65219
G1 X118.878 Y55.377 E1.69225
G1 X118.936 Y55.603 E1.71088
G1 X119.021 Y56.024 E1.74516
G1 X119.058 Y56.297 E1.76715
G1 X119.111 Y57.03 E1.82582
G1 X119.118 Y57.215 E1.8406
G1 X119.118 Y79.259 E3.60024
G1 X119.16 Y79.927 E3.65367
G1 X119.289 Y80.598 E3.70822
G1 X119.502 Y81.247 E3.76274
G1 X119.794 Y81.864 E3.81723
G1 X120.165 Y82.444 E3.87219
G1 X120.814 Y83.175 E3.95022
G1 X124.997 Y87.091 E4.40761
G1 X125.101 Y87.194 E4.41929
G1 X125.466 Y87.575 E4.46141
G1 X125.615 Y87.747 E4.47958
G1 X125.917 Y88.138 E4.51901
G1 X126.049 Y88.329 E4.53755
G1 X126.292 Y88.726 E4.5747
G1 X126.398 Y88.919 E4.59228
G1 X126.626 Y89.391 E4.63412
G1 X126.667 Y89.495 E4.64304
G1 X126.845 Y89.979 E4.68421
G1 X126.926 Y90.244 E4.70633
G1 X127.03 Y90.661 E4.74064
G1 X127.081 Y90.926 E4.76218
G1 X127.145 Y91.392 E4.79972
G1 X127.163 Y91.599 E4.81631
G1 X127.179 Y91.961 E4.84524
G1 X127.183 Y92.122 E4.85809
G1 X127.183 Y99.8 E5.47098
G1 X127.225 Y100.468 E5.52441
G1 X127.354 Y101.139 E5.57895
G1 X127.567 Y101.788 E5.63348
G1 X127.859 Y102.405 E5.68797
G1 X128.227 Y102.98 E5.74246
G1 X128.665 Y103.504 E5.79698
G1 X129.164 Y103.967 E5.85131
G1 X129.661 Y104.328 E5.90035
G1 X130.072 Y104.603 E5.93982
G1 X131.753 Y105.827 E6.10581
G1 X131.83 Y105.884 E6.11346
G1 X132.136 Y106.126 E6.1446
G1 X132.245 Y106.215 E6.15583
G1 X133.706 Y107.451 E6.30859
G1 X133.806 Y107.538 E6.31917
G1 X134.128 Y107.83 E6.35387
G1 X135.657 Y109.328 E6.52474
G1 X136.003 Y109.695 E6.565
G1 X137.362 Y111.232 E6.72877
G1 X137.692 Y111.635 E6.77035
G1 X138.913 Y113.237 E6.93113
G1 X139.181 Y113.615 E6.96812
G1 X139.262 Y113.733 E6.97955
G1 X140.361 Y115.421 E7.14033
G1 X140.415 Y115.507 E7.14844
G1 X140.68 Y115.954 E7.18992
G1 X141.614 Y117.648 E7.34433
G1 X141.685 Y117.781 E7.35637
G1 X141.849 Y118.106 E7.38543
G1 X141.906 Y118.224 E7.39589
G1 X142.719 Y119.986 E7.55079
G1 X142.761 Y120.081 E7.55908
G1 X142.949 Y120.533 E7.59816
G1 X143.666 Y122.446 E7.76123
G1 X143.702 Y122.546 E7.76972
G1 X143.81 Y122.872 E7.79713
G1 X143.853 Y123.008 E7.80852
G1 X144.433 Y124.978 E7.97244
G1 X144.554 Y125.454 E8.01165
G1 X145.003 Y127.528 E8.18104
G1 X145.085 Y127.987 E8.21826
G1 X145.37 Y129.999 E8.38047
G1 X145.42 Y130.463 E8.41772
G1 X145.43 Y130.586 E8.42757
G1 X145.565 Y132.607 E8.58926
G1 X145.571 Y132.721 E8.59837
G1 X145.585 Y133.165 E8.63383
G1 X145.574 Y135.261 E8.80114
G1 X145.554 Y135.742 E8.83957
G1 X145.395 Y137.749 E9.00028
G1 X145.382 Y137.892 E9.01174
G1 X145.329 Y138.339 E9.04767
G1 X145.022 Y140.368 E9.21148
G1 X144.926 Y140.874 E9.25259
G1 X144.457 Y142.927 E9.42069
G1 X144.317 Y143.45 E9.46391
G1 X143.733 Y145.357 E9.62312
G1 X143.708 Y145.435 E9.62965
G1 X143.577 Y145.815 E9.66174
G1 X143.543 Y145.908 E9.66964
G1 X142.795 Y147.837 E9.8348
G1 X142.635 Y148.21 E9.86719
G1 X142.587 Y148.317 E9.87656
G1 X141.676 Y150.238 E10.04627
G1 X141.473 Y150.629 E10.08143
G1 X140.473 Y152.395 E10.24344
G1 X140.219 Y152.81 E10.28227
G1 X140.163 Y152.899 E10.29067
G1 X139.064 Y154.551 E10.44905
G1 X138.765 Y154.967 E10.48995
G1 X137.448 Y156.662 E10.66129
G1 X137.113 Y157.061 E10.70288
G1 X135.767 Y158.557 E10.86352
G1 X135.697 Y158.632 E10.87171
G1 X135.421 Y158.916 E10.90332
G1 X135.342 Y158.994 E10.91218
G1 X133.922 Y160.354 E11.06913
G1 X133.814 Y160.454 E11.08088
G1 X133.485 Y160.746 E11.11599
G1 X131.874 Y162.081 E11.28301
G1 X131.489 Y162.377 E11.32177
G1 X129.819 Y163.565 E11.48537
G1 X129.416 Y163.833 E11.524
G1 X129.323 Y163.892 E11.53279
G1 X127.617 Y164.93 E11.6922
G1 X127.179 Y165.176 E11.7323
G1 X125.31 Y166.133 E11.89991
G1 X124.892 Y166.33 E11.9368
G1 X124.749 Y166.394 E11.94931
G1 X122.862 Y167.191 E12.11282
G1 X122.384 Y167.372 E12.15362
G1 X120.503 Y168.011 E12.3122
G1 X120.407 Y168.042 E12.32025
G1 X119.933 Y168.181 E12.35968
G1 X117.885 Y168.712 E12.52856
G1 X117.428 Y168.812 E12.56591
G1 X115.412 Y169.182 E12.72952
G1 X114.947 Y169.25 E12.76703
G1 X112.865 Y169.478 E12.93422
G1 X112.379 Y169.515 E12.97313
G1 X112.276 Y169.521 E12.98136
G1 X110.219 Y169.595 E13.14567
G1 X109.801 Y169.595 E13.17904
G1 X109.671 Y169.592 E13.18942
G1 X107.587 Y169.513 E13.35589
G1 X107.171 Y169.482 E13.38919
G1 X105.042 Y169.248 E13.56016
G1 X104.65 Y169.19 E13.59179
G1 X104.499 Y169.166 E13.60399
G1 X102.467 Y168.789 E13.76896
G1 X101.983 Y168.68 E13.80857
G1 X100.086 Y168.185 E13.96506
G1 X99.923 Y168.139 E13.97858
G1 X99.592 Y168.04 E14.00616
G1 X99.471 Y168.001 E14.01631
G1 X97.581 Y167.357 E14.1757
G1 X97.094 Y167.174 E14.21722
G1 X95.187 Y166.365 E14.38258
G1 X95.061 Y166.309 E14.39359
G1 X94.758 Y166.167 E14.4203
G1 X94.609 Y166.094 E14.43354
G1 X92.822 Y165.177 E14.59387
G1 X92.367 Y164.92 E14.63559
G1 X90.62 Y163.856 E14.79887
G1 X90.2 Y163.58 E14.83899
G1 X88.528 Y162.387 E15.00294
G1 X88.438 Y162.321 E15.01185
G1 X88.038 Y162.011 E15.05225
G1 X86.493 Y160.729 E15.21251
G1 X86.135 Y160.409 E15.25084
G1 X86.055 Y160.335 E15.25953
G1 X84.64 Y158.974 E15.41625
G1 X84.535 Y158.869 E15.42811
G1 X84.277 Y158.603 E15.45769
G1 X84.206 Y158.529 E15.46587
G1 X82.871 Y157.043 E15.62533
G1 X82.536 Y156.645 E15.66686
G1 X81.282 Y155.03 E15.83007
G1 X81.215 Y154.94 E15.83903
G1 X80.927 Y154.537 E15.87857
G1 X79.759 Y152.774 E16.04738
G1 X79.507 Y152.363 E16.08586
G1 X78.523 Y150.622 E16.2455
G1 X78.304 Y150.201 E16.28338
G1 X77.41 Y148.311 E16.45028
G1 X77.368 Y148.219 E16.45835
G1 X77.181 Y147.782 E16.49629
G1 X76.413 Y145.789 E16.66678
G1 X76.249 Y145.306 E16.7075
G1 X75.684 Y143.45 E16.86237
G1 X75.637 Y143.29 E16.87568
G1 X75.526 Y142.864 E16.91082
G1 X75.061 Y140.803 E17.07947
G1 X74.974 Y140.335 E17.11747
G1 X74.657 Y138.242 E17.28645
G1 X74.61 Y137.822 E17.32018
G1 X74.449 Y135.743 E17.48664
G1 X74.442 Y135.632 E17.49551
G1 X74.424 Y135.141 E17.53473
G1 X74.416 Y133.117 E17.6963
G1 X74.429 Y132.696 E17.72992
G1 X74.437 Y132.515 E17.74438
G1 X74.576 Y130.495 E17.90601
G1 X74.626 Y130.027 E17.94358
G1 X74.919 Y127.981 E18.10857
G1 X75.002 Y127.503 E18.14729
G1 X75.031 Y127.357 E18.15918
G1 X75.436 Y125.5 E18.3109
G1 X75.466 Y125.371 E18.32147
G1 X75.556 Y125.015 E18.35078
G1 X76.171 Y122.929 E18.52438
G1 X76.312 Y122.505 E18.56005
G1 X76.358 Y122.376 E18.57098
G1 X77.046 Y120.548 E18.72689
G1 X77.252 Y120.049 E18.76998
G1 X78.125 Y118.159 E18.93617
G1 X78.346 Y117.721 E18.97533
G1 X78.399 Y117.619 E18.98451
G1 X79.369 Y115.871 E19.14408
G1 X79.403 Y115.811 E19.14959
G1 X79.608 Y115.471 E19.18128
G1 X80.741 Y113.732 E19.34696
G1 X81.048 Y113.291 E19.38985
G1 X82.314 Y111.631 E19.5565
G1 X82.372 Y111.557 E19.564
G1 X82.684 Y111.179 E19.60313
G1 X84.033 Y109.658 E19.76541
G1 X84.111 Y109.571 E19.77474
G1 X84.432 Y109.238 E19.81166
G1 X85.846 Y107.854 E19.9696
G1 X85.928 Y107.777 E19.97858
G1 X86.26 Y107.477 E20.0143
G1 X87.827 Y106.156 E20.1779
G1 X88.218 Y105.847 E20.21768
G1 X89.906 Y104.619 E20.38431
G1 X89.971 Y104.573 E20.39066
G1 X90.361 Y104.312 E20.42812
G1 X90.899 Y103.913 E20.48159
G1 X91.393 Y103.44 E20.53618
G1 X91.822 Y102.91 E20.59061
G1 X92.181 Y102.329 E20.64513
G1 X92.465 Y101.708 E20.69964
G1 X92.667 Y101.055 E20.7542
G1 X92.784 Y100.384 E20.80857
G1 X92.817 Y99.796 E20.85558
G1 X92.817 Y92.109 E21.46919
G1 X92.82 Y92.002 E21.47774
G1 X92.848 Y91.468 E21.52042
G1 X92.876 Y91.208 E21.5413
G1 X92.948 Y90.766 E21.57704
G1 X93 Y90.525 E21.59672
G1 X93.132 Y90.046 E21.63639
G1 X93.193 Y89.855 E21.65239
G1 X93.319 Y89.516 E21.68126
G1 X93.354 Y89.436 E21.68823
G1 X93.595 Y88.93 E21.73297
G1 X93.711 Y88.718 E21.75226
G1 X93.951 Y88.328 E21.78881
G1 X94.091 Y88.124 E21.80856
G1 X94.389 Y87.739 E21.84743
G1 X94.52 Y87.584 E21.86363
G1 X94.745 Y87.341 E21.89006
G1 X98.788 Y83.291 E22.34686
G1 X99.23 Y82.788 E22.40032
G1 X99.613 Y82.222 E22.45487
G1 X99.921 Y81.613 E22.50934
G1 X100.15 Y80.97 E22.56383
G1 X100.297 Y80.3 E22.61858
G1 X100.358 Y79.499 E22.68271
G1 X100.358 Y57.183 E24.46407
G1 X100.361 Y57.076 E24.47261
G1 X100.389 Y56.542 E24.5153
G1 X100.417 Y56.282 E24.53617
G1 X100.489 Y55.84 E24.57192
G1 X100.541 Y55.599 E24.5916
G1 X100.667 Y55.142 E24.62944
G1 X100.741 Y54.917 E24.64835
G1 X100.902 Y54.506 E24.68358
G1 X101.015 Y54.259 E24.70526
G1 X101.226 Y53.858 E24.74143
G1 F2700 E19.74143
G1 F300 Z0.74
G0 F12000 X96.987 Y118.305 Z0.74
G1 F300 Z0.24
G1 F2700 E24.74143
G1 F1800 X96.135 Y119.053 E24.83194
G1 X95.854 Y119.318 E24.86277
G1 X95.043 Y120.144 E24.95517
G1 X94.774 Y120.441 E24.98716
G1 X94.029 Y121.326 E25.0795
G1 X93.789 Y121.634 E25.11067
G1 X93.132 Y122.547 E25.20046
G1 X92.916 Y122.873 E25.23167
G1 X92.307 Y123.869 E25.32486
G1 X92.111 Y124.217 E25.35675
G1 X91.587 Y125.244 E25.44878
G1 X91.425 Y125.594 E25.47957
G1 X90.991 Y126.627 E25.56901
G1 X90.851 Y127 E25.60081
G1 X90.475 Y128.131 E25.69595
G1 X90.367 Y128.505 E25.72702
G1 X90.092 Y129.598 E25.81699
G1 X90.01 Y129.987 E25.84872
G1 X89.818 Y131.111 E25.93975
G1 X89.766 Y131.496 E25.97076
G1 X89.656 Y132.647 E26.06305
G1 X89.634 Y133.05 E26.09527
G1 X89.614 Y134.208 E26.18772
G1 X89.621 Y134.594 E26.21854
G1 X89.686 Y135.734 E26.30969
G1 X89.724 Y136.128 E26.34128
G1 X89.879 Y137.288 E26.4347
G1 X89.946 Y137.68 E26.46645
G1 X90.181 Y138.786 E26.5567
G1 X90.276 Y139.159 E26.58743
G1 X90.603 Y140.281 E26.68072
G1 X90.729 Y140.659 E26.71252
G1 X91.129 Y141.722 E26.80318
G1 X91.283 Y142.087 E26.83481
G1 X91.76 Y143.11 E26.92491
G1 X91.934 Y143.451 E26.95547
G1 X92.507 Y144.475 E27.04914
G1 X92.721 Y144.825 E27.08188
G1 X93.358 Y145.779 E27.17345
G1 X93.58 Y146.086 E27.20369
G1 X94.275 Y146.979 E27.29402
G1 X94.534 Y147.286 E27.32608
G1 X95.333 Y148.163 E27.42079
G1 X95.606 Y148.441 E27.45189
G1 X96.417 Y149.207 E27.54094
G1 X96.713 Y149.467 E27.57238
G1 X97.602 Y150.188 E27.66375
G1 X97.92 Y150.426 E27.69546
G1 X98.872 Y151.083 E27.78779
G1 X99.204 Y151.295 E27.81924
G1 X100.211 Y151.884 E27.91236
G1 X100.55 Y152.066 E27.94307
G1 X101.569 Y152.564 E28.03361
G1 X101.936 Y152.725 E28.0656
G1 X103.03 Y153.16 E28.15958
G1 X103.398 Y153.29 E28.19073
G1 X104.468 Y153.624 E28.28021
G1 X104.852 Y153.729 E28.31199
G1 X105.985 Y153.99 E28.4048
G1 X106.369 Y154.062 E28.43598
G1 X107.5 Y154.235 E28.52731
G1 X107.89 Y154.279 E28.55864
G1 X109.042 Y154.366 E28.65086
G1 X109.438 Y154.381 E28.6825
G1 X110.589 Y154.38 E28.77437
G1 X110.981 Y154.364 E28.80569
G1 X112.109 Y154.278 E28.89599
G1 X112.497 Y154.235 E28.92716
G1 X113.673 Y154.055 E29.02212
G1 X114.064 Y153.98 E29.0539
G1 X115.144 Y153.73 E29.14239
G1 X115.52 Y153.627 E29.17351
G1 X116.65 Y153.274 E29.26801
G1 X117.021 Y153.143 E29.29942
G1 X118.053 Y152.732 E29.38809
G1 X118.415 Y152.572 E29.41968
G1 X119.468 Y152.057 E29.51325
G1 X119.816 Y151.87 E29.54479
G1 X120.819 Y151.281 E29.63764
G1 X121.148 Y151.071 E29.66879
G1 X122.068 Y150.433 E29.75816
G1 X122.385 Y150.195 E29.7898
G1 X123.296 Y149.456 E29.88344
G1 X123.592 Y149.196 E29.91489
G1 X124.426 Y148.406 E30.00659
G1 X124.698 Y148.13 E30.03752
G1 X125.464 Y147.287 E30.12844
G1 X125.723 Y146.98 E30.16051
G1 X126.435 Y146.064 E30.25312
G1 X126.66 Y145.752 E30.28382
G1 X127.292 Y144.801 E30.37497
G1 X127.499 Y144.463 E30.40661
G1 X128.059 Y143.465 E30.49796
G1 X128.24 Y143.11 E30.52977
G1 X128.731 Y142.051 E30.62294
G1 X128.88 Y141.698 E30.65353
G1 X129.279 Y140.639 E30.74386
G1 X129.408 Y140.251 E30.7765
G1 X129.73 Y139.138 E30.86899
G1 X129.823 Y138.767 E30.89952
G1 X130.06 Y137.645 E30.99106
G1 X130.128 Y137.252 E31.0229
G1 X130.278 Y136.119 E31.11413
G1 X130.314 Y135.729 E31.14539
G1 X130.38 Y134.558 E31.23902
G1 X130.387 Y134.168 E31.27015
G1 X130.366 Y133.033 E31.36077
G1 X130.343 Y132.635 E31.39259
G1 X130.233 Y131.492 E31.48425
G1 X130.183 Y131.106 E31.51532
G1 X129.99 Y129.984 E31.6062
G1 X129.907 Y129.594 E31.63803
G1 X129.62 Y128.457 E31.73164
G1 X129.511 Y128.082 E31.76281
G1 X129.158 Y127.024 E31.85184
G1 X129.019 Y126.655 E31.88331
G1 X128.553 Y125.547 E31.97926
G1 X128.389 Y125.194 E32.01033
G1 X127.879 Y124.197 E32.09973
G1 X127.683 Y123.849 E32.13161
G1 X127.092 Y122.884 E32.22194
G1 X126.875 Y122.559 E32.25313
G1 X126.184 Y121.602 E32.34736
G1 X125.944 Y121.294 E32.37853
G1 X125.21 Y120.423 E32.46945
G1 X124.945 Y120.132 E32.50087
G1 X124.136 Y119.309 E32.59299
G1 X123.853 Y119.039 E32.62421
G1 X122.994 Y118.287 E32.71534
G1 X122.683 Y118.035 E32.74729
G1 X121.76 Y117.344 E32.83933
G1 X121.438 Y117.122 E32.87055
G1 X120.466 Y116.502 E32.96258
G1 X120.127 Y116.305 E32.99388
G1 X119.119 Y115.765 E33.08516
G1 X118.763 Y115.59 E33.11682
G1 X117.713 Y115.127 E33.20843
G1 X117.351 Y114.983 E33.23953
G1 X116.255 Y114.595 E33.33233
G1 X115.878 Y114.478 E33.36384
G1 X114.752 Y114.173 E33.45696
G1 X114.367 Y114.084 E33.48851
G1 X113.278 Y113.877 E33.57699
G1 X112.891 Y113.817 E33.60825
G1 X111.715 Y113.684 E33.70273
G1 X111.326 Y113.655 E33.73386
G1 X110.21 Y113.612 E33.82301
G1 X109.811 Y113.612 E33.85486
G1 X108.649 Y113.657 E33.94769
G1 X108.258 Y113.686 E33.97899
G1 X107.098 Y113.818 E34.07218
G1 X106.707 Y113.879 E34.10377
G1 X105.605 Y114.091 E34.19335
G1 X105.227 Y114.178 E34.22431
G1 X104.098 Y114.484 E34.31768
G1 X103.714 Y114.605 E34.34982
G1 X102.641 Y114.987 E34.44074
G1 X102.282 Y115.129 E34.47156
G1 X101.212 Y115.602 E34.56494
G1 X100.857 Y115.776 E34.5965
G1 X99.882 Y116.299 E34.68482
G1 X99.538 Y116.501 E34.71666
G1 X98.54 Y117.139 E34.81121
G1 X98.221 Y117.361 E34.84224
G1 X97.296 Y118.055 E34.93455
G1 X96.987 Y118.305 E34.96627
G0 F12000 X97.6 Y117.827
G1 F1800 X97.6 Y84.481 E37.6281
G1 F2700 E32.6281
G1 F300 Z0.74
G0 F12000 X96 Y86.083 Z0.74
G1 F300 Z0.24
G1 F2700 E37.6281
G1 F1800 X96 Y119.181 E40.27012
G1 F2700 E35.27012
G1 F300 Z0.74
G0 F12000 X94.4 Y120.886 Z0.74
G1 F300 Z0.24
G1 F2700 E40.27012
G1 F1800 X94.4 Y87.725 E42.91718
G1 F2700 E37.91718
G1 F300 Z0.74
G0 F12000 X99.2 Y82.822 Z0.74
G1 F300 Z0.24
G1 F2700 E42.91718
G1 F1800 X99.2 Y116.718 E45.6229
G1 F2700 E40.6229
G1 F300 Z0.74
