;FLAVOR:Marlin
;TIME:3715
;Filament used: 3.04067m
;Layer height: 0.2
;MINX:71.204
;MINY:52.208
;MINZ:0.24
;MAXX:148.795
;MAXY:167.791
;MAXZ:10.59
;Generated with Cura_SteamEngine 4.8.0
M140 S70
M105
M190 S70
M104 S200
M105
M109 S200
M82 ;absolute extrusion mode
M201 X500.00 Y500.00 Z100.00 E5000.00 ;Setup machine max acceleration
M203 X500.00 Y500.00 Z10.00 E50.00 ;Setup machine max feedrate
M204 P500.00 R1000.00 T500.00 ;Setup Print/Retract/Travel acceleration
M205 X8.00 Y8.00 Z0.40 E5.00 ;Setup Jerk
M220 S100 ;Reset Feedrate
M221 S100 ;Reset Flowrate

G28 ;Home

G92 E0 ;Reset Extruder
G1 Z2.0 F3000 ;Move Z Axis up
G1 X10.1 Y20 Z0.28 F5000.0 ;Move to start position
G1 X10.1 Y200.0 Z0.28 F1500.0 E15 ;Draw the first line
G1 X10.4 Y200.0 Z0.28 F5000.0 ;Move to side a little
G1 X10.4 Y20 Z0.28 F1500.0 E30 ;Draw the second line
G92 E0 ;Reset Extruder
G1 Z2.0 F3000 ;Move Z Axis up

G92 E0
G92 E0
G1 F2700 E-5
;LAYER_COUNT:45
;LAYER:-6
M107
G0 F12000 X98.659 Y57.31 Z0.24
;TYPE:SUPPORT-INTERFACE
G1 F2700 E0
G1 F1800 X98.768 Y57.127 E0.017
G1 X99.11 Y56.607 E0.06668
G1 X99.259 Y56.4 E0.08704
G1 X99.645 Y55.913 E0.13665
G1 X99.776 Y55.761 E0.15267
G1 X100.132 Y55.377 E0.19446
G1 X100.287 Y55.221 E0.21202
G1 X100.838 Y54.718 E0.27157
G1 X101.015 Y54.57 E0.28999
G1 X101.515 Y54.189 E0.34017
G1 X101.698 Y54.062 E0.35795
G1 X102.245 Y53.717 E0.40957
G1 X102.412 Y53.622 E0.42491
G1 X103.004 Y53.32 E0.47796
G1 X103.185 Y53.237 E0.49385
G1 X103.786 Y52.995 E0.54557
G1 X104.003 Y52.919 E0.56393
G1 X104.593 Y52.741 E0.61312
G1 X104.83 Y52.68 E0.63265
G1 X105.443 Y52.554 E0.68261
G1 X105.671 Y52.517 E0.70105
G1 X106.316 Y52.443 E0.75287
G1 X106.492 Y52.43 E0.76696
G1 X107.112 Y52.409 E0.81648
G1 X112.325 Y52.409 E1.2326
G1 X112.45 Y52.412 E1.24258
G1 X113.167 Y52.444 E1.29987
G1 X113.353 Y52.46 E1.31478
G1 X114.003 Y52.549 E1.36715
G1 X114.215 Y52.587 E1.38434
G1 X114.838 Y52.729 E1.43534
G1 X115.044 Y52.785 E1.45239
G1 X115.673 Y52.989 E1.50517
G1 X115.85 Y53.055 E1.52025
G1 X116.455 Y53.312 E1.57272
G1 X116.635 Y53.399 E1.58868
G1 X117.224 Y53.714 E1.642
G1 X117.4 Y53.819 E1.65835
G1 X117.92 Y54.161 E1.70804
G1 X118.127 Y54.31 E1.7284
G1 X118.626 Y54.706 E1.77925
G1 X118.766 Y54.827 E1.79402
G1 X119.213 Y55.245 E1.84287
G1 X119.306 Y55.338 E1.85337
G1 X119.809 Y55.889 E1.91292
G1 X119.957 Y56.066 E1.93134
G1 X120.334 Y56.56 E1.98094
G1 X120.465 Y56.749 E1.9993
G1 X120.803 Y57.284 E2.04982
G1 X120.908 Y57.469 E2.0668
G1 X121.207 Y58.055 E2.11931
G1 X121.29 Y58.236 E2.1352
G1 X121.532 Y58.837 E2.18692
G1 X121.609 Y59.058 E2.2056
G1 X121.786 Y59.644 E2.25447
G1 X121.848 Y59.887 E2.27449
G1 X121.974 Y60.499 E2.32436
G1 X122.01 Y60.722 E2.34239
G1 X122.084 Y61.367 E2.39422
G1 X122.097 Y61.538 E2.40791
G1 X122.118 Y62.156 E2.45727
G1 X122.118 Y72.966 E3.32017
G1 X122.16 Y73.634 E3.3736
G1 X122.289 Y74.305 E3.42814
G1 X122.502 Y74.954 E3.48267
G1 X122.794 Y75.571 E3.53715
G1 X123.165 Y76.151 E3.59211
G1 X123.814 Y76.882 E3.67014
G1 X127.122 Y79.981 E4.03198
G1 X127.644 Y80.517 E4.0917
G1 X127.776 Y80.666 E4.10759
G1 X128.17 Y81.148 E4.15728
G1 X128.326 Y81.357 E4.1781
G1 X128.667 Y81.861 E4.22668
G1 X128.778 Y82.04 E4.24349
G1 X129.109 Y82.639 E4.29812
G1 X129.19 Y82.798 E4.31236
G1 X129.389 Y83.234 E4.35062
G1 X129.415 Y83.297 E4.35606
G1 X129.674 Y83.985 E4.41474
G1 X129.732 Y84.159 E4.42938
G1 X129.913 Y84.814 E4.48363
G1 X129.956 Y84.999 E4.49879
G1 X130.074 Y85.648 E4.55144
G1 X130.102 Y85.845 E4.56733
G1 X130.167 Y86.54 E4.62305
G1 X130.173 Y86.658 E4.63248
G1 X130.183 Y87.055 E4.66418
G1 X130.183 Y93.246 E5.15837
G1 X130.225 Y93.914 E5.2118
G1 X130.354 Y94.585 E5.26634
G1 X130.567 Y95.234 E5.32087
G1 X130.859 Y95.851 E5.37535
G1 X131.227 Y96.426 E5.42985
G1 X131.665 Y96.95 E5.48436
G1 X132.161 Y97.41 E5.53836
G1 X132.449 Y97.63 E5.56729
G1 X133.237 Y98.192 E5.64455
G1 X133.731 Y98.57 E5.69421
G1 X135.299 Y99.862 E5.85639
G1 X135.802 Y100.306 E5.90994
G1 X137.241 Y101.671 E6.06827
G1 X137.33 Y101.758 E6.0782
G1 X137.75 Y102.184 E6.12596
G1 X139.076 Y103.63 E6.28257
G1 X139.154 Y103.717 E6.29189
G1 X139.576 Y104.213 E6.34388
G1 X140.841 Y105.805 E6.50619
G1 X141.216 Y106.311 E6.55647
G1 X142.383 Y108.009 E6.72093
G1 X142.749 Y108.586 E6.77548
G1 X143.74 Y110.27 E6.93145
G1 X144.066 Y110.866 E6.98568
G1 X144.115 Y110.96 E6.99414
G1 X144.981 Y112.702 E7.14943
G1 X145.276 Y113.349 E7.20619
G1 X146.026 Y115.166 E7.3631
G1 X146.26 Y115.79 E7.4163
G1 X146.312 Y115.938 E7.42882
G1 X146.9 Y117.703 E7.57732
G1 X146.938 Y117.825 E7.58752
G1 X147.107 Y118.396 E7.63506
G1 X147.139 Y118.51 E7.64451
G1 X147.606 Y120.336 E7.79496
G1 X147.634 Y120.451 E7.80441
G1 X147.773 Y121.087 E7.85637
G1 X148.133 Y123.057 E8.01623
G1 X148.222 Y123.659 E8.06481
G1 X148.24 Y123.801 E8.07623
G1 X148.458 Y125.754 E8.2331
G1 X148.512 Y126.481 E8.29129
G1 X148.588 Y128.365 E8.4418
G1 X148.591 Y128.504 E8.4529
G1 X148.595 Y129.052 E8.49665
G1 X148.593 Y129.183 E8.5071
G1 X148.537 Y131.088 E8.65923
G1 X148.532 Y131.208 E8.66882
G1 X148.487 Y131.866 E8.72147
G1 X148.297 Y133.79 E8.8758
G1 X148.285 Y133.893 E8.88408
G1 X148.209 Y134.451 E8.92903
G1 X148.189 Y134.585 E8.93984
G1 X147.868 Y136.458 E9.09153
G1 X147.845 Y136.579 E9.10137
G1 X147.71 Y137.226 E9.15412
G1 X147.25 Y139.106 E9.30862
G1 X147.237 Y139.158 E9.3129
G1 X147.044 Y139.836 E9.36917
G1 X146.429 Y141.759 E9.53033
G1 X146.209 Y142.37 E9.58217
G1 X145.477 Y144.207 E9.74002
G1 X145.197 Y144.845 E9.79564
G1 X144.33 Y146.644 E9.95505
G1 X143.994 Y147.285 E10.01282
G1 X143.019 Y148.989 E10.16953
G1 X142.654 Y149.582 E10.22512
G1 X142.602 Y149.664 E10.23287
G1 X141.484 Y151.333 E10.39322
G1 X141.155 Y151.788 E10.43804
G1 X141.061 Y151.914 E10.45059
G1 X139.831 Y153.497 E10.61061
G1 X139.403 Y154.009 E10.66388
G1 X138.114 Y155.45 E10.81821
G1 X138.054 Y155.516 E10.82533
G1 X137.651 Y155.936 E10.8718
G1 X137.57 Y156.017 E10.88094
G1 X136.208 Y157.339 E11.03246
G1 X136.104 Y157.436 E11.04381
G1 X135.68 Y157.821 E11.08952
G1 X134.12 Y159.137 E11.25244
G1 X134.08 Y159.171 E11.25663
G1 X133.59 Y159.556 E11.30637
G1 X131.988 Y160.728 E11.46482
G1 X131.391 Y161.135 E11.5225
G1 X129.724 Y162.183 E11.67968
G1 X129.095 Y162.55 E11.73781
G1 X129.03 Y162.587 E11.74378
G1 X127.249 Y163.535 E11.90483
G1 X126.648 Y163.828 E11.9582
G1 X124.889 Y164.615 E12.11203
G1 X124.779 Y164.662 E12.12157
G1 X124.169 Y164.909 E12.17411
G1 X122.239 Y165.612 E12.33807
G1 X121.692 Y165.79 E12.38399
G1 X121.582 Y165.824 E12.39318
G1 X119.776 Y166.344 E12.5432
G1 X119.636 Y166.381 E12.55476
G1 X119.116 Y166.511 E12.59754
G1 X118.97 Y166.546 E12.60953
G1 X117.021 Y166.961 E12.76859
G1 X116.443 Y167.063 E12.81544
G1 X116.293 Y167.087 E12.82757
G1 X114.466 Y167.344 E12.97485
G1 X114.322 Y167.361 E12.98642
G1 X113.773 Y167.419 E13.03049
G1 X111.683 Y167.567 E13.19774
G1 X110.978 Y167.591 E13.25405
G1 X108.971 Y167.59 E13.41425
G1 X108.246 Y167.563 E13.47217
G1 X106.233 Y167.421 E13.63325
G1 X105.557 Y167.347 E13.68754
G1 X103.603 Y167.07 E13.84507
G1 X102.91 Y166.946 E13.90127
G1 X100.95 Y166.527 E14.06126
G1 X100.284 Y166.361 E14.11605
G1 X98.34 Y165.801 E14.27754
G1 X97.736 Y165.603 E14.32828
G1 X95.859 Y164.918 E14.48777
G1 X95.741 Y164.872 E14.49788
G1 X95.239 Y164.669 E14.54111
G1 X95.111 Y164.614 E14.55223
G1 X93.294 Y163.8 E14.71116
G1 X92.68 Y163.499 E14.76574
G1 X90.906 Y162.55 E14.92634
G1 X90.38 Y162.245 E14.97488
G1 X90.299 Y162.196 E14.98243
G1 X88.58 Y161.116 E15.14448
G1 X88.11 Y160.796 E15.18987
G1 X87.987 Y160.709 E15.2019
G1 X86.396 Y159.544 E15.35931
G1 X85.93 Y159.177 E15.40666
G1 X85.854 Y159.115 E15.41448
G1 X84.388 Y157.879 E15.56755
G1 X83.892 Y157.433 E15.62079
G1 X83.784 Y157.331 E15.63265
G1 X82.438 Y156.024 E15.78242
G1 X82.333 Y155.919 E15.79427
G1 X81.887 Y155.453 E15.84576
G1 X80.612 Y154.025 E15.99857
G1 X80.52 Y153.92 E16.00972
G1 X80.098 Y153.409 E16.06262
G1 X78.911 Y151.878 E16.21726
G1 X78.849 Y151.795 E16.22553
G1 X78.522 Y151.34 E16.27025
G1 X77.388 Y149.649 E16.43278
G1 X77.048 Y149.101 E16.48426
G1 X76.973 Y148.976 E16.49589
G1 X76.04 Y147.346 E16.64581
G1 X75.975 Y147.228 E16.65657
G1 X75.659 Y146.624 E16.71098
G1 X74.82 Y144.88 E16.86547
G1 X74.782 Y144.798 E16.87268
G1 X74.529 Y144.217 E16.92327
G1 X73.771 Y142.315 E17.0867
G1 X73.558 Y141.717 E17.13738
G1 X73.548 Y141.691 E17.1396
G1 X72.927 Y139.739 E17.30311
G1 X72.755 Y139.126 E17.35393
G1 X72.277 Y137.169 E17.51474
G1 X72.148 Y136.551 E17.56514
G1 X71.809 Y134.576 E17.7251
G1 X71.791 Y134.457 E17.7347
G1 X71.697 Y133.739 E17.79251
G1 X71.508 Y131.817 E17.94667
G1 X71.469 Y131.209 E17.9953
G1 X71.461 Y131.045 E18.00841
G1 X71.407 Y129.175 E18.15774
G1 X71.405 Y129.048 E18.16788
G1 X71.409 Y128.495 E18.21203
G1 X71.412 Y128.373 E18.22177
G1 X71.494 Y126.398 E18.37956
G1 X71.539 Y125.794 E18.4279
G1 X71.76 Y123.801 E18.58797
G1 X71.778 Y123.659 E18.59939
G1 X71.865 Y123.064 E18.64739
G1 X72.228 Y121.081 E18.80832
G1 X72.391 Y120.342 E18.86872
G1 X72.873 Y118.469 E19.02311
G1 X72.894 Y118.392 E19.02948
G1 X73.064 Y117.816 E19.07742
G1 X73.102 Y117.695 E19.08754
G1 X73.724 Y115.835 E19.2441
G1 X73.95 Y115.226 E19.29595
G1 X74.695 Y113.418 E19.45204
G1 X75.006 Y112.729 E19.51239
G1 X75.89 Y110.954 E19.67067
G1 X76.205 Y110.369 E19.72371
G1 X76.25 Y110.289 E19.73104
G1 X77.248 Y108.591 E19.88826
G1 X77.613 Y108.015 E19.94269
G1 X78.735 Y106.381 E20.10091
G1 X78.806 Y106.281 E20.1107
G1 X79.163 Y105.799 E20.15858
G1 X80.408 Y104.232 E20.31834
G1 X80.878 Y103.679 E20.37627
G1 X82.255 Y102.179 E20.53881
G1 X82.673 Y101.755 E20.58634
G1 X82.768 Y101.662 E20.59695
G1 X84.163 Y100.339 E20.75042
G1 X84.714 Y99.851 E20.80917
G1 X86.242 Y98.592 E20.96721
G1 X86.764 Y98.191 E21.01976
G1 X86.862 Y98.119 E21.02946
G1 X87.557 Y97.625 E21.09753
G1 X88.078 Y97.203 E21.15105
G1 X88.55 Y96.709 E21.20559
G1 X88.956 Y96.159 E21.26016
G1 X89.289 Y95.564 E21.31459
G1 X89.543 Y94.93 E21.3691
G1 X89.717 Y94.27 E21.42359
G1 X89.805 Y93.599 E21.47761
G1 X89.817 Y93.239 E21.50636
G1 X89.817 Y87.108 E21.99577
G1 X89.82 Y86.999 E22.00447
G1 X89.852 Y86.286 E22.06144
G1 X89.867 Y86.107 E22.07578
G1 X89.957 Y85.45 E22.12871
G1 X89.995 Y85.238 E22.14591
G1 X90.138 Y84.611 E22.19724
G1 X90.195 Y84.409 E22.214
G1 X90.522 Y83.451 E22.2948
G1 X90.554 Y83.366 E22.30205
G1 X90.601 Y83.259 E22.31138
G1 X90.883 Y82.65 E22.36495
G1 X90.983 Y82.458 E22.38223
G1 X91.306 Y81.902 E22.43356
G1 X91.42 Y81.723 E22.4505
G1 X91.775 Y81.217 E22.49984
G1 X91.935 Y81.014 E22.52047
G1 X92.607 Y80.25 E22.60169
G1 X92.716 Y80.134 E22.6144
G1 X95.788 Y77.058 E22.96142
G1 X96.23 Y76.555 E23.01487
G1 X96.613 Y75.989 E23.06942
G1 X96.921 Y75.38 E23.1239
G1 X97.15 Y74.737 E23.17838
G1 X97.297 Y74.067 E23.23314
G1 X97.358 Y73.266 E23.29726
G1 X97.358 Y62.202 E24.18044
G1 X97.361 Y62.077 E24.19042
G1 X97.393 Y61.36 E24.24771
G1 X97.408 Y61.181 E24.26205
G1 X97.498 Y60.524 E24.31498
G1 X97.536 Y60.312 E24.33218
G1 X97.677 Y59.692 E24.38293
G1 X97.732 Y59.49 E24.39964
G1 X97.938 Y58.854 E24.45301
G1 X98.003 Y58.677 E24.46806
G1 X98.258 Y58.078 E24.52003
G1 X98.348 Y57.892 E24.53652
G1 X98.659 Y57.31 E24.58919
G1 F2700 E19.58919
G1 F300 Z0.74
G0 F12000 X98.638 Y115.848 Z0.74
G1 F300 Z0.24
G1 F2700 E24.58919
G1 F1800 X98.359 Y116.094 E24.61889
G1 X97.725 Y116.695 E24.68862
G1 X97.46 Y116.964 E24.71876
G1 X96.863 Y117.619 E24.78951
G1 X96.623 Y117.901 E24.81907
G1 X96.095 Y118.57 E24.8871
G1 X95.87 Y118.875 E24.91735
G1 X95.357 Y119.632 E24.99035
G1 X95.157 Y119.951 E25.0204
G1 X94.727 Y120.697 E25.08913
G1 X94.553 Y121.025 E25.11877
G1 X94.17 Y121.815 E25.18885
G1 X94.016 Y122.162 E25.21916
G1 X93.691 Y122.98 E25.28942
G1 X93.566 Y123.33 E25.31909
G1 X93.296 Y124.179 E25.3902
G1 X93.195 Y124.548 E25.42074
G1 X92.99 Y125.407 E25.49123
G1 X92.919 Y125.762 E25.52013
G1 X92.777 Y126.616 E25.58924
G1 X92.728 Y126.998 E25.61998
G1 X92.648 Y127.889 E25.69139
G1 X92.628 Y128.257 E25.72081
G1 X92.612 Y129.115 E25.78931
G1 X92.618 Y129.496 E25.81973
G1 X92.667 Y130.396 E25.89168
G1 X92.701 Y130.773 E25.92189
G1 X92.812 Y131.641 E25.99174
G1 X92.871 Y132 E26.02079
G1 X93.041 Y132.849 E26.0899
G1 X93.131 Y133.227 E26.12092
G1 X93.374 Y134.1 E26.19325
G1 X93.485 Y134.448 E26.22241
G1 X93.777 Y135.267 E26.29182
G1 X93.921 Y135.63 E26.32299
G1 X94.271 Y136.419 E26.39189
G1 X94.427 Y136.742 E26.42053
G1 X94.842 Y137.527 E26.49141
G1 X95.032 Y137.856 E26.52173
G1 X95.517 Y138.631 E26.59471
G1 X95.731 Y138.946 E26.62511
G1 X96.228 Y139.624 E26.69221
G1 X96.455 Y139.912 E26.72149
G1 X97.033 Y140.593 E26.79279
G1 X97.289 Y140.875 E26.82319
G1 X97.911 Y141.508 E26.89403
G1 X98.189 Y141.77 E26.92452
G1 X98.842 Y142.344 E26.99392
G1 X99.128 Y142.578 E27.02342
G1 X99.827 Y143.109 E27.09349
G1 X100.127 Y143.321 E27.12282
G1 X100.881 Y143.814 E27.19473
G1 X101.211 Y144.012 E27.22545
G1 X101.962 Y144.427 E27.29394
G1 X102.289 Y144.594 E27.32325
G1 X103.103 Y144.971 E27.39486
G1 X103.456 Y145.119 E27.42541
G1 X104.262 Y145.423 E27.49417
G1 X104.617 Y145.542 E27.52406
G1 X105.48 Y145.798 E27.59592
G1 X105.845 Y145.893 E27.62602
G1 X106.697 Y146.08 E27.69565
G1 X107.058 Y146.146 E27.72495
G1 X107.939 Y146.275 E27.79602
G1 X108.321 Y146.316 E27.82669
G1 X109.172 Y146.377 E27.89479
G1 X109.545 Y146.391 E27.92459
G1 X110.455 Y146.391 E27.99723
G1 X110.828 Y146.377 E28.02702
G1 X111.679 Y146.316 E28.09513
G1 X112.061 Y146.275 E28.1258
G1 X112.942 Y146.146 E28.19687
G1 X113.303 Y146.08 E28.22617
G1 X114.155 Y145.893 E28.2958
G1 X114.52 Y145.798 E28.3259
G1 X115.383 Y145.542 E28.39776
G1 X115.738 Y145.423 E28.42765
G1 X116.544 Y145.119 E28.49641
G1 X116.897 Y144.971 E28.52696
G1 X117.711 Y144.594 E28.59857
G1 X118.038 Y144.427 E28.62788
G1 X118.789 Y144.012 E28.69637
G1 X119.119 Y143.814 E28.72709
G1 X119.873 Y143.321 E28.799
G1 X120.173 Y143.109 E28.82833
G1 X120.872 Y142.578 E28.8984
G1 X121.158 Y142.344 E28.92789
G1 X121.811 Y141.77 E28.9973
G1 X122.089 Y141.508 E29.02779
G1 X122.711 Y140.875 E29.09863
G1 X122.967 Y140.593 E29.12903
G1 X123.545 Y139.912 E29.20033
G1 X123.772 Y139.624 E29.2296
G1 X124.269 Y138.946 E29.29671
G1 X124.483 Y138.631 E29.32711
G1 X124.968 Y137.856 E29.40009
G1 X125.158 Y137.527 E29.43041
G1 X125.573 Y136.742 E29.50129
G1 X125.729 Y136.419 E29.52993
G1 X126.079 Y135.63 E29.59883
G1 X126.223 Y135.267 E29.63
G1 X126.515 Y134.448 E29.69941
G1 X126.626 Y134.1 E29.72856
G1 X126.869 Y133.227 E29.8009
G1 X126.959 Y132.849 E29.83192
G1 X127.129 Y132 E29.90103
G1 X127.188 Y131.641 E29.93007
G1 X127.299 Y130.773 E29.99993
G1 X127.333 Y130.396 E30.03014
G1 X127.382 Y129.496 E30.10209
G1 X127.388 Y129.115 E30.13251
G1 X127.372 Y128.257 E30.20101
G1 X127.352 Y127.889 E30.23043
G1 X127.272 Y126.998 E30.30184
G1 X127.223 Y126.616 E30.33258
G1 X127.081 Y125.762 E30.40169
G1 X127.01 Y125.407 E30.43058
G1 X126.805 Y124.548 E30.50108
G1 X126.704 Y124.179 E30.53162
G1 X126.434 Y123.33 E30.60273
G1 X126.309 Y122.98 E30.6324
G1 X125.984 Y122.162 E30.70266
G1 X125.83 Y121.815 E30.73297
G1 X125.447 Y121.025 E30.80305
G1 X125.273 Y120.697 E30.83268
G1 X124.843 Y119.951 E30.90142
G1 X124.643 Y119.632 E30.93147
G1 X124.13 Y118.875 E31.00447
G1 X123.905 Y118.57 E31.03472
G1 X123.377 Y117.901 E31.10275
G1 X123.137 Y117.619 E31.13231
G1 X122.54 Y116.964 E31.20306
G1 X122.275 Y116.695 E31.2332
G1 X121.641 Y116.094 E31.30293
G1 X121.362 Y115.848 E31.33262
G1 X120.662 Y115.274 E31.40489
G1 X120.361 Y115.044 E31.43512
G1 X119.64 Y114.537 E31.50548
G1 X119.32 Y114.329 E31.53595
G1 X118.583 Y113.887 E31.60455
G1 X118.263 Y113.709 E31.63378
G1 X117.486 Y113.314 E31.70335
G1 X117.147 Y113.157 E31.73318
G1 X116.329 Y112.813 E31.80401
G1 X115.97 Y112.677 E31.83466
G1 X115.133 Y112.396 E31.90513
G1 X114.773 Y112.29 E31.93509
G1 X113.913 Y112.069 E32.00597
G1 X113.555 Y111.99 E32.03523
G1 X112.674 Y111.828 E32.10674
G1 X112.3 Y111.773 E32.13691
G1 X111.46 Y111.682 E32.20436
G1 X111.085 Y111.655 E32.23437
G1 X110.188 Y111.622 E32.30602
G1 X109.812 Y111.622 E32.33603
G1 X108.915 Y111.655 E32.40769
G1 X108.54 Y111.682 E32.4377
G1 X107.7 Y111.773 E32.50514
G1 X107.326 Y111.828 E32.53532
G1 X106.445 Y111.99 E32.60682
G1 X106.087 Y112.069 E32.63609
