;FLAVOR:Marlin
;TIME:3041
;Filament used: 2.05899m
;Layer height: 0.2
;MINX:76.258
;MINY:65.195
;MINZ:0.24
;MAXX:143.841
;MAXY:154.781
;MAXZ:10.59
;Generated with Cura_SteamEngine 4.8.0
M140 S70
M105
M190 S70
M104 S200
M105
M109 S200
M82 ;absolute extrusion mode
M201 X500.00 Y500.00 Z100.00 E5000.00 ;Setup machine max acceleration
M203 X500.00 Y500.00 Z10.00 E50.00 ;Setup machine max feedrate
M204 P500.00 R1000.00 T500.00 ;Setup Print/Retract/Travel acceleration
M205 X8.00 Y8.00 Z0.40 E5.00 ;Setup Jerk
M220 S100 ;Reset Feedrate
M221 S100 ;Reset Flowrate

G28 ;Home

G92 E0 ;Reset Extruder
G1 Z2.0 F3000 ;Move Z Axis up
G1 X10.1 Y20 Z0.28 F5000.0 ;Move to start position
G1 X10.1 Y200.0 Z0.28 F1500.0 E15 ;Draw the first line
G1 X10.4 Y200.0 Z0.28 F5000.0 ;Move to side a little
G1 X10.4 Y20 Z0.28 F1500.0 E30 ;Draw the second line
G92 E0 ;Reset Extruder
G1 Z2.0 F3000 ;Move Z Axis up

G92 E0
G92 E0
G1 F2700 E-5
;LAYER_COUNT:45
;LAYER:-6
M107
G0 F12000 X85.506 Y76.037 Z0.24
;TYPE:SUPPORT-INTERFACE
G1 F2700 E0
G1 F1800 X85.674 Y75.859 E0.01954
G1 X85.781 Y75.749 E0.03179
G1 X87.086 Y74.456 E0.17843
G1 X87.329 Y74.231 E0.20487
G1 X88.681 Y73.055 E0.3479
G1 X88.918 Y72.861 E0.37235
G1 X89.008 Y72.79 E0.3815
G1 X90.463 Y71.684 E0.52739
G1 X90.658 Y71.545 E0.54651
G1 X92.199 Y70.522 E0.69416
G1 X92.33 Y70.437 E0.70662
G1 X92.547 Y70.304 E0.72694
G1 X94.112 Y69.406 E0.87097
G1 X94.47 Y69.217 E0.90328
G1 X96.15 Y68.393 E1.05265
G1 X96.432 Y68.268 E1.07727
G1 X98.172 Y67.553 E1.22744
G1 X98.493 Y67.436 E1.25471
G1 X100.14 Y66.88 E1.39347
G1 X100.433 Y66.79 E1.41793
G1 X100.55 Y66.756 E1.42766
G1 X102.267 Y66.298 E1.56951
G1 X102.65 Y66.209 E1.6009
G1 X104.382 Y65.868 E1.74181
G1 X104.655 Y65.819 E1.76395
G1 X104.82 Y65.795 E1.77726
G1 X106.642 Y65.557 E1.92393
G1 X106.944 Y65.529 E1.94814
G1 X108.724 Y65.412 E2.09054
G1 X109.086 Y65.397 E2.11946
G1 X110.952 Y65.396 E2.26841
G1 X111.227 Y65.403 E2.29037
G1 X113.12 Y65.526 E2.4418
G1 X113.235 Y65.535 E2.451
G1 X113.557 Y65.568 E2.47684
G1 X115.36 Y65.806 E2.62201
G1 X115.668 Y65.857 E2.64693
G1 X117.516 Y66.224 E2.79733
G1 X117.803 Y66.291 E2.82086
G1 X119.65 Y66.784 E2.97345
G1 X119.941 Y66.873 E2.99774
G1 X121.71 Y67.473 E3.14686
G1 X122.034 Y67.596 E3.17452
G1 X123.759 Y68.308 E3.32348
G1 X124.052 Y68.443 E3.34924
G1 X125.629 Y69.216 E3.48943
G1 X125.947 Y69.383 E3.5181
G1 X127.573 Y70.316 E3.66774
G1 X127.881 Y70.508 E3.69672
G1 X129.323 Y71.465 E3.83487
G1 X129.469 Y71.565 E3.84899
G1 X129.693 Y71.724 E3.87092
G1 X131.148 Y72.833 E4.01695
G1 X131.426 Y73.06 E4.0456
G1 X132.845 Y74.299 E4.19598
G1 X133.062 Y74.503 E4.21975
G1 X134.383 Y75.814 E4.36831
G1 X134.578 Y76.021 E4.39101
G1 X135.793 Y77.397 E4.53754
G1 X136.02 Y77.666 E4.56564
G1 X137.147 Y79.12 E4.71249
G1 X137.206 Y79.196 E4.72017
G1 X137.382 Y79.443 E4.74438
G1 X138.428 Y80.996 E4.89384
G1 X138.636 Y81.334 E4.92552
G1 X139.524 Y82.857 E5.06625
G1 X139.687 Y83.157 E5.0935
G1 X140.504 Y84.792 E5.2394
G1 X140.614 Y85.032 E5.26048
G1 X140.681 Y85.185 E5.27381
G1 X141.338 Y86.746 E5.409
G1 X141.395 Y86.887 E5.42114
G1 X141.483 Y87.119 E5.44095
G1 X142.108 Y88.925 E5.5935
G1 X142.195 Y89.214 E5.61759
G1 X142.675 Y90.962 E5.76229
G1 X142.742 Y91.235 E5.78473
G1 X142.761 Y91.319 E5.7916
G1 X143.132 Y93.117 E5.93815
G1 X143.192 Y93.47 E5.96673
G1 X143.441 Y95.267 E6.11155
G1 X143.479 Y95.618 E6.13973
G1 X143.613 Y97.464 E6.28747
G1 X143.626 Y97.787 E6.31328
G1 X143.641 Y99.65 E6.462
G1 X143.635 Y99.904 E6.48228
G1 X143.631 Y100.024 E6.49186
G1 X143.53 Y101.769 E6.63139
G1 X143.501 Y102.123 E6.65974
G1 X143.278 Y103.936 E6.80555
G1 X143.231 Y104.255 E6.83129
G1 X143.21 Y104.376 E6.84109
G1 X142.883 Y106.097 E6.98093
G1 X142.802 Y106.469 E7.01132
G1 X142.326 Y108.306 E7.1628
G1 X142.262 Y108.526 E7.18109
G1 X142.223 Y108.651 E7.19154
G1 X141.681 Y110.302 E7.33025
G1 X141.556 Y110.648 E7.35962
G1 X141.536 Y110.702 E7.36421
G1 X140.834 Y112.44 E7.51384
G1 X140.727 Y112.682 E7.53496
G1 X139.908 Y114.387 E7.68595
G1 X139.765 Y114.66 E7.71055
G1 X138.876 Y116.236 E7.85499
G1 X138.818 Y116.335 E7.86415
G1 X138.678 Y116.565 E7.88564
G1 X137.662 Y118.121 E8.03398
G1 X137.446 Y118.428 E8.06394
G1 X136.334 Y119.909 E8.21178
G1 X136.135 Y120.157 E8.23716
G1 X134.922 Y121.567 E8.38563
G1 X134.784 Y121.718 E8.40196
G1 X134.689 Y121.818 E8.41297
G1 X133.572 Y122.963 E8.54066
G1 X133.368 Y123.167 E8.56369
G1 X133.171 Y123.355 E8.58542
G1 X131.79 Y124.595 E8.73358
G1 X131.562 Y124.787 E8.75737
G1 X130.095 Y125.941 E8.90636
G1 X129.78 Y126.173 E8.93759
G1 X128.245 Y127.225 E9.08613
G1 X128.051 Y127.35 E9.10456
G1 X127.871 Y127.458 E9.12131
G1 X127.318 Y127.835 E9.17474
G1 X126.806 Y128.287 E9.22926
G1 X126.356 Y128.8 E9.28373
G1 X125.974 Y129.366 E9.33824
G1 X125.666 Y129.975 E9.39271
G1 X125.438 Y130.619 E9.44725
G1 X125.293 Y131.289 E9.50197
G1 X125.233 Y132.083 E9.56553
G1 X125.233 Y140.788 E10.2604
G1 X125.229 Y140.914 E10.27046
G1 X125.205 Y141.291 E10.30062
G1 X125.168 Y141.589 E10.32459
G1 X125.113 Y141.873 E10.34768
G1 X125.037 Y142.164 E10.37169
G1 X124.953 Y142.422 E10.39334
G1 X124.842 Y142.701 E10.41731
G1 X124.72 Y142.959 E10.44009
G1 X124.576 Y143.218 E10.46375
G1 X124.437 Y143.437 E10.48445
G1 X124.239 Y143.703 E10.51092
G1 X123.935 Y144.057 E10.54817
G1 X123.818 Y144.185 E10.56201
G1 X123.724 Y144.272 E10.57224
G1 X123.431 Y144.529 E10.60335
G1 X123.214 Y144.698 E10.62531
G1 X122.983 Y144.854 E10.64756
G1 X122.715 Y145.012 E10.67239
G1 X122.458 Y145.142 E10.69538
G1 X122.189 Y145.257 E10.71873
G1 X121.932 Y145.35 E10.74055
G1 X121.555 Y145.458 E10.77185
G1 X120.924 Y145.683 E10.82533
G1 X120.315 Y145.99 E10.87977
G1 X119.749 Y146.373 E10.93432
G1 X119.236 Y146.824 E10.98885
G1 X118.784 Y147.336 E11.04336
G1 X118.401 Y147.901 E11.09785
G1 X118.092 Y148.509 E11.15229
G1 X117.862 Y149.153 E11.20688
G1 X117.716 Y149.816 E11.26107
G1 X117.665 Y150.283 E11.29857
G1 X117.627 Y150.589 E11.32318
G1 X117.572 Y150.873 E11.34628
G1 X117.496 Y151.164 E11.37028
G1 X117.412 Y151.422 E11.39194
G1 X117.301 Y151.701 E11.41591
G1 X117.179 Y151.959 E11.43869
G1 X117.035 Y152.218 E11.46235
G1 X116.896 Y152.437 E11.48305
G1 X116.698 Y152.703 E11.50952
G1 X116.394 Y153.057 E11.54677
G1 X116.277 Y153.185 E11.56061
G1 X116.183 Y153.272 E11.57084
G1 X115.89 Y153.529 E11.60195
G1 X115.673 Y153.698 E11.6239
G1 X115.442 Y153.854 E11.64615
G1 X115.174 Y154.012 E11.67099
G1 X114.917 Y154.142 E11.69398
G1 X114.648 Y154.257 E11.71733
G1 X114.391 Y154.35 E11.73915
G1 X114.099 Y154.434 E11.7634
G1 X113.838 Y154.49 E11.78471
G1 X113.518 Y154.538 E11.81054
G1 X113.05 Y154.574 E11.84801
G1 X112.858 Y154.581 E11.86334
G1 X107.725 Y154.581 E12.27308
G1 X107.599 Y154.577 E12.28314
G1 X107.222 Y154.553 E12.3133
G1 X106.924 Y154.516 E12.33727
G1 X106.64 Y154.461 E12.36036
G1 X106.349 Y154.385 E12.38437
G1 X106.089 Y154.3 E12.4062
G1 X105.812 Y154.19 E12.42999
G1 X105.553 Y154.067 E12.45288
G1 X105.295 Y153.924 E12.47643
G1 X105.076 Y153.785 E12.49713
G1 X104.81 Y153.587 E12.5236
G1 X104.456 Y153.283 E12.56085
G1 X104.328 Y153.166 E12.57469
G1 X104.241 Y153.072 E12.58492
G1 X103.982 Y152.777 E12.61625
G1 X103.815 Y152.562 E12.63799
G1 X103.656 Y152.326 E12.6607
G1 X103.501 Y152.063 E12.68507
G1 X103.371 Y151.806 E12.70806
G1 X103.255 Y151.536 E12.73152
G1 X103.163 Y151.28 E12.75323
G1 X103.079 Y150.988 E12.77749
G1 X103.023 Y150.727 E12.79879
G1 X102.973 Y150.393 E12.82575
G1 X102.969 Y150.345 E12.8296
G1 X102.876 Y149.681 E12.88312
G1 X102.696 Y149.022 E12.93765
G1 X102.435 Y148.391 E12.99216
G1 X102.096 Y147.798 E13.04668
G1 X101.685 Y147.254 E13.10111
G1 X101.209 Y146.765 E13.15558
G1 X100.674 Y146.339 E13.21017
G1 X100.091 Y145.985 E13.26462
G1 X99.463 Y145.705 E13.3195
G1 X99.05 Y145.591 E13.3537
G1 X99.05 Y145.582 E13.35442
G1 X98.719 Y145.499 E13.38166
G1 X98.606 Y145.467 E13.39104
G1 X98.577 Y145.462 E13.39339
G1 X98.28 Y145.384 E13.4179
G1 X98.024 Y145.3 E13.4394
G1 X97.747 Y145.19 E13.46319
G1 X97.488 Y145.067 E13.48608
G1 X97.23 Y144.924 E13.50963
G1 X97.011 Y144.785 E13.53033
G1 X96.745 Y144.587 E13.5568
G1 X96.391 Y144.283 E13.59405
G1 X96.263 Y144.166 E13.60789
G1 X96.176 Y144.072 E13.61812
G1 X95.917 Y143.777 E13.64945
G1 X95.75 Y143.562 E13.67119
G1 X95.591 Y143.326 E13.6939
G1 X95.436 Y143.063 E13.71827
G1 X95.306 Y142.806 E13.74126
G1 X95.19 Y142.536 E13.76472
G1 X95.098 Y142.28 E13.78643
G1 X95.014 Y141.988 E13.81069
G1 X94.958 Y141.727 E13.83199
G1 X94.91 Y141.407 E13.85782
G1 X94.873 Y140.929 E13.89609
G1 X94.867 Y140.761 E13.90951
G1 X94.867 Y132.085 E14.60207
G1 X94.825 Y131.417 E14.6555
G1 X94.696 Y130.746 E14.71004
G1 X94.483 Y130.097 E14.76456
G1 X94.191 Y129.48 E14.81905
G1 X93.823 Y128.905 E14.87355
G1 X93.385 Y128.381 E14.92806
G1 X92.883 Y127.915 E14.98274
G1 X92.231 Y127.46 E15.0462
G1 X92.042 Y127.345 E15.06386
G1 X91.761 Y127.164 E15.09055
G1 X90.296 Y126.156 E15.2325
G1 X89.987 Y125.929 E15.2631
G1 X88.536 Y124.787 E15.4105
G1 X88.297 Y124.586 E15.43543
G1 X86.888 Y123.32 E15.58663
G1 X86.666 Y123.105 E15.6113
G1 X85.391 Y121.8 E15.75694
G1 X85.249 Y121.647 E15.7736
G1 X85.092 Y121.471 E15.79242
G1 X83.936 Y120.121 E15.9343
G1 X83.717 Y119.846 E15.96236
G1 X82.642 Y118.412 E16.10542
G1 X82.434 Y118.117 E16.13423
G1 X81.394 Y116.522 E16.28623
G1 X81.258 Y116.298 E16.30715
G1 X80.327 Y114.646 E16.45852
G1 X80.22 Y114.438 E16.47719
G1 X80.162 Y114.324 E16.4874
G1 X79.359 Y112.653 E16.63539
G1 X79.225 Y112.344 E16.66227
G1 X78.561 Y110.696 E16.8041
G1 X78.457 Y110.414 E16.82809
G1 X78.416 Y110.296 E16.83806
G1 X77.874 Y108.645 E16.97677
G1 X77.835 Y108.52 E16.98722
G1 X77.769 Y108.293 E17.00609
G1 X77.31 Y106.521 E17.15221
G1 X77.243 Y106.232 E17.17589
G1 X76.891 Y104.383 E17.32614
G1 X76.865 Y104.234 E17.33821
G1 X76.83 Y104.01 E17.35631
G1 X76.599 Y102.13 E17.50751
G1 X76.57 Y101.769 E17.53642
G1 X76.47 Y100.024 E17.67594
G1 X76.459 Y99.598 E17.70996
G1 X76.473 Y97.783 E17.85484
G1 X76.488 Y97.425 E17.88344
G1 X76.627 Y95.545 E18.03392
G1 X76.648 Y95.356 E18.0491
G1 X76.659 Y95.256 E18.05713
G1 X76.91 Y93.446 E18.203
G1 X76.976 Y93.077 E18.23292
G1 X77.355 Y91.24 E18.38265
G1 X77.433 Y90.929 E18.40824
G1 X77.919 Y89.161 E18.5546
G1 X78.006 Y88.878 E18.57824
G1 X78.619 Y87.105 E18.72799
G1 X78.758 Y86.751 E18.75834
G1 X79.446 Y85.12 E18.89965
G1 X79.564 Y84.86 E18.92244
G1 X80.416 Y83.151 E19.07487
G1 X80.549 Y82.902 E19.09741
G1 X81.52 Y81.236 E19.25133
G1 X81.7 Y80.951 E19.27824
G1 X82.745 Y79.405 E19.4272
G1 X82.947 Y79.127 E19.45463
G1 X84.042 Y77.712 E19.59745
G1 X84.223 Y77.491 E19.62025
G1 X84.301 Y77.4 E19.62982
G1 X85.506 Y76.037 E19.77504
G1 F2700 E14.77504
G1 F300 Z0.74
G0 F12000 X93.426 Y83.979 Z0.74
G1 F300 Z0.24
G1 F2700 E19.77504
G1 F1800 X93.185 Y84.25 E19.80399
G1 X92.449 Y85.139 E19.89612
G1 X92.237 Y85.413 E19.92377
G1 X91.566 Y86.343 E20.01532
G1 X91.369 Y86.634 E20.04337
G1 X90.734 Y87.653 E20.13921
G1 X90.559 Y87.957 E20.16721
G1 X90.023 Y88.962 E20.25813
G1 X89.867 Y89.28 E20.2864
G1 X89.402 Y90.314 E20.3769
G1 X89.269 Y90.639 E20.40493
G1 X88.857 Y91.753 E20.49975
G1 X88.744 Y92.09 E20.52812
G1 X88.408 Y93.231 E20.62306
G1 X88.323 Y93.561 E20.65027
G1 X88.078 Y94.652 E20.73952
G1 X88.012 Y95.007 E20.76835
G1 X87.834 Y96.173 E20.8625
G1 X87.793 Y96.515 E20.89
G1 X87.695 Y97.665 E20.98213
G1 X87.677 Y98.024 E21.01082
G1 X87.659 Y99.159 E21.10143
G1 X87.664 Y99.505 E21.12905
G1 X87.725 Y100.703 E21.22481
G1 X87.754 Y101.047 E21.25236
G1 X87.887 Y102.175 E21.34303
G1 X87.942 Y102.532 E21.37186
G1 X88.163 Y103.706 E21.46722
G1 X88.238 Y104.042 E21.4947
G1 X88.523 Y105.147 E21.5858
G1 X88.624 Y105.489 E21.61426
G1 X88.996 Y106.605 E21.70816
G1 X89.116 Y106.93 E21.73582
G1 X89.552 Y107.997 E21.82783
G1 X89.696 Y108.316 E21.85577
G1 X90.205 Y109.355 E21.94812
G1 X90.371 Y109.669 E21.97647
G1 X90.951 Y110.673 E22.06903
G1 X91.138 Y110.972 E22.09718
G1 X91.791 Y111.943 E22.19059
G1 X91.994 Y112.225 E22.21832
G1 X92.705 Y113.143 E22.31101
G1 X92.93 Y113.414 E22.33913
G1 X93.701 Y114.282 E22.4318
G1 X93.944 Y114.538 E22.45998
G1 X94.764 Y115.344 E22.55176
G1 X95.025 Y115.583 E22.58001
G1 X95.925 Y116.355 E22.67466
G1 X96.193 Y116.57 E22.70208
G1 X97.095 Y117.245 E22.79201
G1 X97.386 Y117.448 E22.82034
G1 X98.377 Y118.09 E22.91459
G1 X98.679 Y118.27 E22.94266
G1 X99.7 Y118.837 E23.03588
G1 X100.011 Y118.996 E23.06376
G1 X101.059 Y119.489 E23.15621
G1 X101.383 Y119.628 E23.18435
G1 X102.461 Y120.048 E23.27671
G1 X102.794 Y120.165 E23.30488
G1 X103.911 Y120.515 E23.39832
G1 X104.249 Y120.608 E23.4263
G1 X105.371 Y120.878 E23.51842
G1 X105.712 Y120.949 E23.54623
G1 X106.868 Y121.146 E23.63983
G1 X107.215 Y121.193 E23.66778
G1 X108.353 Y121.31 E23.7591
G1 X108.71 Y121.334 E23.78767
G1 X109.877 Y121.372 E23.88087
G1 X110.22 Y121.372 E23.90825
G1 X111.388 Y121.334 E24.00153
G1 X111.746 Y121.31 E24.03017
G1 X112.886 Y121.193 E24.12165
G1 X113.231 Y121.146 E24.14945
G1 X114.383 Y120.95 E24.24273
G1 X114.731 Y120.878 E24.27109
G1 X115.858 Y120.606 E24.36364
G1 X116.19 Y120.514 E24.39114
G1 X117.307 Y120.164 E24.48458
G1 X117.642 Y120.046 E24.51293
G1 X118.713 Y119.628 E24.6047
G1 X119.037 Y119.49 E24.63281
G1 X120.109 Y118.986 E24.72737
G1 X120.414 Y118.829 E24.75475
G1 X121.405 Y118.281 E24.84515
G1 X121.708 Y118.099 E24.87336
G1 X122.704 Y117.455 E24.96804
G1 X123 Y117.249 E24.99683
G1 X123.913 Y116.565 E25.08789
G1 X124.18 Y116.351 E25.1152
G1 X125.068 Y115.588 E25.20866
G1 X125.328 Y115.35 E25.2368
G1 X126.152 Y114.541 E25.32897
G1 X126.397 Y114.284 E25.35732
G1 X127.187 Y113.393 E25.45237
G1 X127.408 Y113.126 E25.48004
G1 X128.107 Y112.224 E25.57113
G1 X128.315 Y111.936 E25.59949
G1 X128.962 Y110.971 E25.69223
G1 X129.144 Y110.679 E25.71969
G1 X129.725 Y109.676 E25.81222
G1 X129.892 Y109.362 E25.84061
G1 X130.4 Y108.327 E25.93264
G1 X130.546 Y108 E25.96123
G1 X130.984 Y106.927 E26.05374
G1 X131.103 Y106.605 E26.08114
G1 X131.475 Y105.489 E26.17505
G1 X131.576 Y105.147 E26.20351
G1 X131.861 Y104.042 E26.2946
G1 X131.936 Y103.708 E26.32193
G1 X132.158 Y102.531 E26.41754
G1 X132.213 Y102.171 E26.44661
G1 X132.348 Y101.023 E26.53888
G1 X132.377 Y100.683 E26.56612
G1 X132.436 Y99.532 E26.65812
G1 X132.441 Y99.181 E26.68614
G1 X132.422 Y98.022 E26.77867
G1 X132.404 Y97.667 E26.80704
G1 X132.306 Y96.513 E26.89949
G1 X132.264 Y96.167 E26.92731
G1 X132.087 Y95.012 E27.02059
G1 X132.023 Y94.669 E27.04844
G1 X131.774 Y93.551 E27.13987
G1 X131.685 Y93.205 E27.16839
G1 X131.348 Y92.068 E27.26305
G1 X131.238 Y91.739 E27.29074
G1 X130.839 Y90.66 E27.38257
G1 X130.706 Y90.333 E27.41075
G1 X130.229 Y89.273 E27.50354
G1 X130.073 Y88.956 E27.53174
G1 X129.53 Y87.938 E27.62384
G1 X129.357 Y87.638 E27.65148
G1 X128.743 Y86.652 E27.7442
G1 X128.546 Y86.359 E27.77238
G1 X127.871 Y85.424 E27.86444
G1 X127.654 Y85.143 E27.89278
G1 X126.896 Y84.23 E27.9875
G1 X126.666 Y83.97 E28.01521
G1 X125.879 Y83.142 E28.1064
G1 X125.625 Y82.894 E28.13473
G1 X124.762 Y82.101 E28.22829
G1 X124.5 Y81.875 E28.25591
G1 X123.599 Y81.153 E28.34807
G1 X123.314 Y80.94 E28.37648
G1 X122.36 Y80.276 E28.46926
G1 X122.066 Y80.086 E28.4972
G1 X121.072 Y79.49 E28.58972
G1 X120.765 Y79.319 E28.61777
G1 X119.735 Y78.792 E28.71012
G1 X119.415 Y78.641 E28.73837
G1 X118.331 Y78.177 E28.83249
G1 X118.007 Y78.051 E28.86024
G1 X116.924 Y77.67 E28.95188
G1 X116.592 Y77.566 E28.97966
G1 X115.483 Y77.258 E29.07153
G1 X115.132 Y77.173 E29.10036
G1 X113.98 Y76.937 E29.19423
G1 X113.637 Y76.879 E29.222
G1 X112.475 Y76.721 E29.31561
G1 X112.128 Y76.686 E29.34344
G1 X110.986 Y76.608 E29.43482
G1 X110.632 Y76.596 E29.46309
G1 X109.467 Y76.596 E29.55609
G1 X109.112 Y76.608 E29.58444
G1 X107.974 Y76.686 E29.67549
G1 X107.63 Y76.721 E29.70309
G1 X106.445 Y76.882 E29.79856
G1 X106.102 Y76.94 E29.82632
G1 X104.978 Y77.169 E29.91789
G1 X104.629 Y77.254 E29.94656
G1 X103.517 Y77.562 E30.03867
G1 X103.182 Y77.667 E30.06669
G1 X102.086 Y78.053 E30.15945
G1 X101.759 Y78.181 E30.18748
G1 X100.678 Y78.645 E30.28138
G1 X100.361 Y78.794 E30.30934
G1 X99.335 Y79.319 E30.40134
G1 X99.029 Y79.488 E30.42925
G1 X98.04 Y80.081 E30.5213
G1 X97.746 Y80.272 E30.54928
G1 X96.786 Y80.939 E30.64259
