;FLAVOR:Marlin
;TIME:4185
;Filament used: 3.61635m
;Layer height: 0.2
;MINX:76.8
;MINY:48.328
;MINZ:0.24
;MAXX:143.199
;MAXY:171.672
;MAXZ:21.79
;Generated with Cura_SteamEngine master
M140 S70
M105
M190 S70
M104 S200
M105
M109 S200
M82 ;absolute extrusion mode
M201 X500.00 Y500.00 Z100.00 E5000.00 ;Setup machine max acceleration
M203 X500.00 Y500.00 Z10.00 E50.00 ;Setup machine max feedrate
M204 P500.00 R1000.00 T500.00 ;Setup Print/Retract/Travel acceleration
M205 X8.00 Y8.00 Z0.40 E5.00 ;Setup Jerk
M220 S100 ;Reset Feedrate
M221 S100 ;Reset Flowrate

G28 ;Home

G92 E0 ;Reset Extruder
G1 Z2.0 F3000 ;Move Z Axis up
G1 X10.1 Y20 Z0.28 F5000.0 ;Move to start position
G1 X10.1 Y200.0 Z0.28 F1500.0 E15 ;Draw the first line
G1 X10.4 Y200.0 Z0.28 F5000.0 ;Move to side a little
G1 X10.4 Y20 Z0.28 F1500.0 E30 ;Draw the second line
G92 E0 ;Reset Extruder
G1 Z2.0 F3000 ;Move Z Axis up

G92 E0
G92 E0
G1 F2700 E-5
;LAYER_COUNT:101
;LAYER:-6
M107
G0 F12000 X81.028 Y67.69 Z0.24
;TYPE:SUPPORT-INTERFACE
G1 F2700 E0
G1 F1800 X81.558 Y67.057 E0.0659
G1 X81.94 Y66.629 E0.1117
G1 X82.575 Y65.963 E0.18515
G1 X82.682 Y65.858 E0.19712
G1 X83.275 Y65.314 E0.26135
G1 X83.642 Y64.997 E0.30006
G1 X83.724 Y64.929 E0.30857
G1 X84.446 Y64.351 E0.38239
G1 X84.574 Y64.255 E0.39517
G1 X85.224 Y63.801 E0.45846
G1 X85.654 Y63.518 E0.49955
G1 X86.464 Y63.024 E0.57528
G1 X86.615 Y62.939 E0.58911
G1 X87.224 Y62.62 E0.64399
G1 X87.71 Y62.381 E0.68722
G1 X88.671 Y61.953 E0.7712
G1 X88.786 Y61.907 E0.78108
G1 X89.641 Y61.596 E0.85371
G1 X90.159 Y61.428 E0.89718
G1 X90.861 Y61.226 E0.95549
G1 X91.492 Y60.999 E1.00902
G1 X92.101 Y60.689 E1.06357
G1 X92.665 Y60.305 E1.11803
G1 X93.177 Y59.853 E1.17255
G1 X93.627 Y59.34 E1.22702
G1 X94.007 Y58.778 E1.28118
G1 X94.201 Y58.415 E1.31403
G1 X94.241 Y58.334 E1.32124
G1 X94.738 Y57.405 E1.40534
G1 X94.826 Y57.247 E1.41978
G1 X94.984 Y56.981 E1.44448
G1 X95.057 Y56.864 E1.45549
G1 X95.549 Y56.096 E1.52829
G1 X95.644 Y55.961 E1.54147
G1 X96.376 Y55.002 E1.63777
G1 X96.456 Y54.902 E1.64799
G1 X96.72 Y54.591 E1.68056
G1 X97.351 Y53.89 E1.75585
G1 X97.472 Y53.767 E1.76962
G1 X98.328 Y52.96 E1.86353
G1 X98.405 Y52.89 E1.87183
G1 X98.67 Y52.662 E1.89974
G1 X98.757 Y52.59 E1.90875
G1 X99.464 Y52.024 E1.98105
G1 X99.619 Y51.909 E1.99645
G1 X100.585 Y51.256 E2.08953
G1 X100.982 Y51.012 E2.12672
G1 X101.774 Y50.56 E2.19952
G1 X101.97 Y50.459 E2.21712
G1 X103.077 Y49.942 E2.31464
G1 X103.41 Y49.804 E2.34342
G1 X104.384 Y49.44 E2.42642
G1 X104.552 Y49.385 E2.44053
G1 X105.683 Y49.065 E2.53436
G1 X105.822 Y49.03 E2.5458
G1 X106.134 Y48.957 E2.57138
G1 X107.145 Y48.758 E2.65363
G1 X107.364 Y48.724 E2.67132
G1 X108.455 Y48.601 E2.75896
G1 X108.597 Y48.588 E2.77034
G1 X109.008 Y48.56 E2.80322
G1 X110.006 Y48.529 E2.88293
G1 X110.132 Y48.53 E2.89298
G1 X110.921 Y48.558 E2.95601
G1 X111.406 Y48.589 E2.9948
G1 X112.403 Y48.691 E3.0748
G1 X112.605 Y48.719 E3.09108
G1 X113.771 Y48.937 E3.18577
G1 X113.848 Y48.952 E3.19203
G1 X114.194 Y49.034 E3.22041
G1 X114.313 Y49.064 E3.23021
G1 X115.193 Y49.304 E3.30302
G1 X115.368 Y49.359 E3.31766
G1 X116.445 Y49.749 E3.4091
G1 X116.573 Y49.799 E3.42007
G1 X116.927 Y49.945 E3.45063
G1 X117.78 Y50.332 E3.5254
G1 X117.978 Y50.432 E3.54311
G1 X118.98 Y50.99 E3.63466
G1 X119.045 Y51.028 E3.64067
G1 X119.423 Y51.261 E3.67612
G1 X120.222 Y51.795 E3.75283
G1 X120.397 Y51.922 E3.77009
G1 X121.275 Y52.617 E3.85947
G1 X121.371 Y52.696 E3.8694
G1 X121.692 Y52.976 E3.9034
G1 X122.434 Y53.667 E3.98434
G1 X122.479 Y53.714 E3.98953
G1 X123.337 Y54.658 E4.09136
G1 X123.415 Y54.748 E4.10087
G1 X123.609 Y54.983 E4.12519
G1 X123.719 Y55.121 E4.13928
G1 X124.271 Y55.84 E4.21163
G1 X124.361 Y55.968 E4.22413
G1 X125.032 Y57.006 E4.32279
G1 X125.262 Y57.399 E4.35914
G1 X125.723 Y58.255 E4.43674
G1 X125.796 Y58.406 E4.45013
G1 X126.127 Y58.989 E4.50365
G1 X126.536 Y59.536 E4.55817
G1 X127.01 Y60.026 E4.61259
G1 X127.544 Y60.454 E4.66722
G1 X128.126 Y60.81 E4.72168
G1 X128.707 Y61.07 E4.77249
G1 X128.7 Y61.084 E4.77374
G1 X129.951 Y61.46 E4.87801
G1 X130.415 Y61.615 E4.91706
G1 X130.481 Y61.638 E4.92264
G1 X131.385 Y61.976 E4.99968
G1 X131.516 Y62.029 E5.01096
G1 X132.291 Y62.381 E5.0789
G1 X132.839 Y62.652 E5.12771
G1 X133.698 Y63.117 E5.20568
G1 X133.814 Y63.185 E5.21641
G1 X134.446 Y63.582 E5.27599
G1 X134.877 Y63.869 E5.31732
G1 X135.658 Y64.43 E5.39408
G1 X135.779 Y64.523 E5.40626
G1 X136.349 Y64.989 E5.46503
G1 X136.761 Y65.348 E5.50865
G1 X137.472 Y66.009 E5.58615
G1 X137.557 Y66.095 E5.5958
G1 X138.101 Y66.674 E5.65922
G1 X138.457 Y67.075 E5.70202
G1 X139.122 Y67.883 E5.78555
G1 X139.219 Y68.011 E5.79837
G1 X139.693 Y68.677 E5.86363
G1 X139.928 Y69.026 E5.89721
G1 X140.001 Y69.139 E5.90795
G1 X140.49 Y69.928 E5.98205
G1 X140.574 Y70.074 E5.99549
G1 X140.943 Y70.769 E6.0583
G1 X141.162 Y71.21 E6.09761
G1 X141.573 Y72.121 E6.17739
G1 X141.63 Y72.258 E6.18923
G1 X141.888 Y72.95 E6.24818
G1 X141.938 Y73.09 E6.26005
G1 X142.092 Y73.545 E6.2984
G1 X142.363 Y74.451 E6.37388
G1 X142.408 Y74.623 E6.38807
G1 X142.576 Y75.35 E6.44764
G1 X142.67 Y75.819 E6.48582
G1 X142.69 Y75.929 E6.49474
G1 X142.839 Y76.84 E6.56843
G1 X142.86 Y76.999 E6.58123
G1 X142.937 Y77.801 E6.64554
G1 X142.971 Y78.326 E6.68754
G1 X142.999 Y79.326 E6.7674
G1 X142.998 Y79.472 E6.77905
G1 X142.971 Y80.241 E6.84047
G1 X142.94 Y80.719 E6.87871
G1 X142.934 Y80.796 E6.88487
G1 X142.837 Y81.755 E6.96182
G1 X142.817 Y81.907 E6.97405
G1 X142.698 Y82.61 E7.03097
G1 X142.597 Y83.127 E7.07302
G1 X142.575 Y83.231 E7.0815
G1 X142.348 Y84.187 E7.15994
G1 X142.317 Y84.298 E7.16914
G1 X142.065 Y85.111 E7.23708
G1 X141.896 Y85.605 E7.27876
G1 X141.544 Y86.519 E7.35694
G1 X141.486 Y86.657 E7.36889
G1 X141.185 Y87.312 E7.42643
G1 X140.989 Y87.714 E7.46213
G1 X140.502 Y88.626 E7.54466
G1 X140.423 Y88.762 E7.55722
G1 X140.01 Y89.424 E7.6195
G1 X139.699 Y89.89 E7.66422
G1 X139.125 Y90.689 E7.74275
G1 X139.039 Y90.8 E7.75396
G1 X138.482 Y91.471 E7.82357
G1 X138.136 Y91.863 E7.86531
G1 X137.469 Y92.565 E7.94261
G1 X137.346 Y92.686 E7.95638
G1 X137.246 Y92.778 E7.96723
G1 X136.782 Y93.263 E8.02081
G1 X136.377 Y93.813 E8.07533
G1 X136.043 Y94.409 E8.12986
G1 X135.788 Y95.042 E8.18434
G1 X135.616 Y95.703 E8.23886
G1 X135.526 Y96.385 E8.29377
G1 X135.549 Y97.334 E8.36955
G1 X142.023 Y153.982 E12.92087
G1 X142.104 Y154.999 E13.00231
G1 X142.111 Y155.175 E13.01637
G1 X142.115 Y156.075 E13.08821
G1 X142.11 Y156.241 E13.10147
G1 X142.054 Y157.097 E13.16994
G1 X142.042 Y157.205 E13.17862
G1 X141.922 Y158.099 E13.25062
G1 X141.886 Y158.307 E13.26747
G1 X141.704 Y159.173 E13.33811
G1 X141.672 Y159.308 E13.34918
G1 X141.505 Y159.919 E13.39975
G1 X141.407 Y160.242 E13.42669
G1 X141.106 Y161.123 E13.50101
G1 X141.043 Y161.292 E13.5154
G1 X140.865 Y161.735 E13.55351
G1 X140.414 Y162.694 E13.63811
G1 X140.368 Y162.787 E13.64639
G1 X140.141 Y163.204 E13.68429
G1 X139.954 Y163.531 E13.71436
G1 X139.464 Y164.325 E13.78884
G1 X139.371 Y164.465 E13.80225
G1 X138.804 Y165.247 E13.87936
G1 X138.772 Y165.287 E13.88345
G1 X137.889 Y166.318 E13.9918
G1 X137.735 Y166.482 E14.00976
G1 X136.76 Y167.431 E14.11837
G1 X136.678 Y167.507 E14.12729
G1 X135.919 Y168.129 E14.20563
G1 X135.824 Y168.201 E14.21514
G1 X135.065 Y168.739 E14.28941
G1 X134.825 Y168.897 E14.31234
G1 X134.028 Y169.385 E14.38694
G1 X133.868 Y169.475 E14.40159
G1 X133.09 Y169.876 E14.47146
G1 X132.908 Y169.962 E14.48753
G1 X132.056 Y170.326 E14.56149
G1 X131.772 Y170.437 E14.58583
G1 X131.713 Y170.459 E14.59085
G1 X130.809 Y170.769 E14.66714
G1 X130.636 Y170.822 E14.68158
G1 X129.739 Y171.059 E14.75564
G1 X128.636 Y171.265 E14.84521
G1 X128.305 Y171.316 E14.87194
G1 X127.266 Y171.43 E14.95538
G1 X127.137 Y171.439 E14.9657
G1 X126.18 Y171.472 E15.04214
G1 X124.854 Y171.413 E15.14809
G1 X124.736 Y171.405 E15.15753
G1 X124.454 Y171.376 E15.18016
G1 X123.307 Y171.219 E15.27257
G1 X123.192 Y171.2 E15.28188
G1 X122.259 Y170.995 E15.35813
G1 X122.079 Y170.949 E15.37296
G1 X121.329 Y170.731 E15.43531
G1 X121.1 Y170.657 E15.45452
G1 X120.145 Y170.31 E15.53563
G1 X119.994 Y170.252 E15.54854
G1 X119.528 Y170.051 E15.58905
G1 X118.583 Y169.58 E15.67333
G1 X118.484 Y169.527 E15.6823
G1 X117.913 Y169.198 E15.7349
G1 X117.665 Y169.045 E15.75816
G1 X116.869 Y168.521 E15.83423
G1 X116.742 Y168.432 E15.84661
G1 X116.325 Y168.121 E15.88814
G1 X116.275 Y168.08 E15.8933
G1 X115.131 Y167.087 E16.01422
G1 X115.043 Y167.006 E16.02377
G1 X114.935 Y166.901 E16.03579
G1 X114.841 Y166.805 E16.04652
G1 X113.962 Y165.856 E16.14977
G1 X113.476 Y165.395 E16.20324
G1 X112.926 Y164.991 E16.25772
G1 X112.329 Y164.659 E16.31225
G1 X111.695 Y164.405 E16.36677
G1 X111.035 Y164.234 E16.42119
G1 X110.358 Y164.146 E16.47569
G1 X109.674 Y164.146 E16.53029
G1 X108.997 Y164.231 E16.58475
G1 X108.336 Y164.401 E16.63923
G1 X107.702 Y164.654 E16.69372
G1 X107.103 Y164.984 E16.74831
G1 X106.549 Y165.389 E16.80309
G1 X106.31 Y165.625 E16.8299
G1 X106.288 Y165.606 E16.83222
G1 X105.902 Y166.025 E16.8777
G1 X105.13 Y166.836 E16.96708
G1 X104.949 Y167.015 E16.9874
G1 X104.847 Y167.108 E16.99842
G1 X103.753 Y168.057 E17.11402
G1 X103.67 Y168.126 E17.12264
G1 X102.903 Y168.679 E17.19812
G1 X102.74 Y168.789 E17.21381
G1 X102.198 Y169.131 E17.26497
G1 X101.922 Y169.294 E17.29056
G1 X100.733 Y169.928 E17.39812
G1 X99.82 Y170.324 E17.47756
G1 X99.677 Y170.38 E17.48982
G1 X98.897 Y170.658 E17.55592
G1 X98.726 Y170.713 E17.57026
G1 X98.579 Y170.757 E17.58251
G1 X97.697 Y171.006 E17.65566
G1 X97.551 Y171.042 E17.66767
G1 X96.66 Y171.227 E17.74031
G1 X96.601 Y171.236 E17.74507
G1 X95.31 Y171.399 E17.84894
G1 X95.072 Y171.419 E17.86801
G1 X94.924 Y171.428 E17.87984
G1 X93.811 Y171.472 E17.96876
G1 X92.811 Y171.435 E18.04864
G1 X92.69 Y171.426 E18.05832
G1 X91.655 Y171.312 E18.14144
G1 X91.423 Y171.278 E18.16016
G1 X90.176 Y171.038 E18.26152
G1 X90.11 Y171.024 E18.26691
G1 X89.164 Y170.762 E18.34527
G1 X89.019 Y170.716 E18.35741
G1 X88.196 Y170.425 E18.42709
G1 X87.952 Y170.33 E18.44799
G1 X86.68 Y169.766 E18.55906
G1 X85.817 Y169.296 E18.6375
G1 X85.659 Y169.203 E18.65214
G1 X84.971 Y168.763 E18.71733
G1 X84.726 Y168.596 E18.741
G1 X84.651 Y168.543 E18.74833
G1 X83.882 Y167.973 E18.82474
G1 X83.794 Y167.904 E18.83366
G1 X83.313 Y167.501 E18.88375
G1 X83.242 Y167.434 E18.89155
G1 X82.238 Y166.453 E19.0036
G1 X82.183 Y166.397 E19.00986
G1 X81.977 Y166.17 E19.03433
G1 X81.386 Y165.484 E19.10661
G1 X81.266 Y165.337 E19.12176
G1 X80.989 Y164.977 E19.15802
G1 X80.401 Y164.116 E19.24124
G1 X80.326 Y164 E19.25227
G1 X80.029 Y163.504 E19.29842
G1 X79.895 Y163.268 E19.32008
G1 X79.444 Y162.409 E19.39753
G1 X79.388 Y162.293 E19.40781
G1 X79.086 Y161.614 E19.46713
G1 X79.04 Y161.501 E19.47687
G1 X78.593 Y160.238 E19.58381
G1 X78.554 Y160.118 E19.59388
G1 X78.48 Y159.86 E19.61531
G1 X78.246 Y158.961 E19.68946
G1 X78.212 Y158.81 E19.70182
G1 X78.049 Y157.919 E19.77412
G1 X78.022 Y157.734 E19.78905
G1 X77.953 Y157.166 E19.83472
G1 X77.942 Y157.049 E19.8441
G1 X77.887 Y156.136 E19.91711
G1 X77.882 Y155.962 E19.93101
G1 X77.894 Y155.062 E20.00286
G1 X77.901 Y154.903 E20.01556
G1 X77.972 Y154.018 E20.08643
G1 X84.452 Y97.334 E24.64066
G1 X84.486 Y96.664 E24.69421
G1 X84.434 Y95.983 E24.74873
G1 X84.297 Y95.315 E24.80317
G1 X84.075 Y94.669 E24.85769
G1 X83.775 Y94.055 E24.91224
G1 X83.398 Y93.482 E24.96699
G1 X82.809 Y92.823 E25.03755
G1 X82.431 Y92.465 E25.0791
G1 X82.318 Y92.351 E25.09192
G1 X81.84 Y91.836 E25.14801
G1 X81.457 Y91.4 E25.19433
G1 X80.836 Y90.636 E25.27292
G1 X80.736 Y90.505 E25.28608
G1 X80.276 Y89.855 E25.34964
G1 X79.978 Y89.406 E25.39266
G1 X79.457 Y88.556 E25.47224
G1 X79.389 Y88.437 E25.48318
G1 X78.996 Y87.685 E25.55091
G1 X78.766 Y87.209 E25.59311
G1 X78.386 Y86.35 E25.66809
G1 X78.317 Y86.179 E25.68281
G1 X78.053 Y85.459 E25.74402
G1 X77.891 Y84.977 E25.78461
G1 X77.621 Y84.069 E25.86023
G1 X77.587 Y83.94 E25.87088
G1 X77.411 Y83.164 E25.9344
G1 X77.316 Y82.68 E25.97377
G1 X77.296 Y82.569 E25.98277
G1 X77.149 Y81.65 E26.05706
G1 X77.131 Y81.503 E26.06889
G1 X77.056 Y80.669 E26.13573
G1 X77.028 Y80.2 E26.17323
G1 X77.001 Y79.187 E26.25412
G1 X77.002 Y79.019 E26.26753
G1 X77.03 Y78.307 E26.32441
G1 X77.065 Y77.802 E26.36482
G1 X77.077 Y77.659 E26.37628
G1 X77.175 Y76.738 E26.45021
G1 X77.191 Y76.617 E26.45995
G1 X77.325 Y75.837 E26.52313
G1 X77.432 Y75.312 E26.5659
G1 X77.664 Y74.348 E26.64504
G1 X77.707 Y74.193 E26.65788
G1 X77.946 Y73.429 E26.72178
G1 X78.11 Y72.955 E26.76182
G1 X78.466 Y72.026 E26.84124
G1 X78.513 Y71.915 E26.85086
G1 X78.828 Y71.232 E26.9109
G1 X79.085 Y70.713 E26.95713
G1 X79.571 Y69.821 E27.03821
G1 X79.641 Y69.702 E27.04923
G1 X80.067 Y69.032 E27.11261
G1 X80.354 Y68.606 E27.15361
G1 X80.829 Y67.956 E27.21788
G0 F1620 X80.951 Y67.788
G0 X81.028 Y67.69
G0 F12000 X81.6 Y67.009
G1 F1800 X81.6 Y91.562 E29.1778
G1 F2700 E24.1778
G1 F300 Z0.74
G0 F12000 X83.2 Y93.26 Z0.74
G1 F300 Z0.24
G1 F2700 E29.1778
G1 F1800 X83.2 Y65.382 E31.40315
G1 F2700 E26.40315
G1 F300 Z0.74
G0 F12000 X84.8 Y64.097 Z0.74
G1 F300 Z0.24
G1 F2700 E31.40315
G1 F1800 X84.8 Y168.646 E39.7487
G1 F2700 E34.7487
G1 F300 Z0.74
G0 F12000 X86.4 Y169.613 Z0.74
G1 F300 Z0.24
G1 F2700 E39.7487
G1 F1800 X86.4 Y63.063 E48.25398
G1 F2700 E43.25398
G1 F300 Z0.74
G0 F12000 X88 Y62.251 Z0.74
G1 F300 Z0.24
G1 F2700 E48.25398
G1 F1800 X88 Y170.348 E56.88275
G1 F2700 E51.88275
G1 F300 Z0.74
G0 F12000 X89.6 Y170.882 Z0.74
G1 F300 Z0.24
G1 F2700 E56.88275
G1 F1800 X89.6 Y61.61 E65.60532
G1 F2700 E60.60532
G1 F300 Z0.74
G0 F12000 X91.2 Y61.104 Z0.74
G1 F300 Z0.24
G1 F2700 E65.60532
G1 F1800 X91.2 Y171.235 E74.39645
G1 F2700 E69.39645
G1 F300 Z0.74
G0 F12000 X92.8 Y171.434 Z0.74
G1 F300 Z0.24
G1 F2700 E74.39645
G1 F1800 X92.8 Y60.185 E83.27682
G1 F2700 E78.27682
G1 F300 Z0.74
G0 F12000 X94.4 Y58.036 Z0.74
G1 F300 Z0.24
G1 F2700 E83.27682
G1 F1800 X94.4 Y171.449 E92.32994
G1 F2700 E87.32994
G1 F300 Z0.74
G0 F12000 X96 Y171.312 Z0.74
G1 F300 Z0.24
G1 F2700 E92.32994
G1 F1800 X96 Y55.494 E101.57503
G1 F2700 E96.57503
G1 F300 Z0.74
G0 F12000 X97.6 Y53.646 Z0.74
G1 F300 Z0.24
G1 F2700 E101.57503
G1 F1800 X97.6 Y171.03 E110.94513
G1 F2700 E105.94513
G1 F300 Z0.74
G0 F12000 X99.2 Y170.551 Z0.74
G1 F300 Z0.24
G1 F2700 E110.94513
G1 F1800 X99.2 Y52.235 E120.38963
G1 F2700 E115.38963
G1 F300 Z0.74
G0 F12000 X100.8 Y51.123 Z0.74
G1 F300 Z0.24
G1 F2700 E120.38963
G1 F1800 X100.8 Y169.893 E129.87036
G1 F2700 E124.87036
G1 F300 Z0.74
G0 F12000 X102.4 Y169.004 Z0.74
G1 F300 Z0.24
G1 F2700 E129.87036
G1 F1800 X102.4 Y50.258 E139.34918
G1 F2700 E134.34918
G1 F300 Z0.74
G0 F12000 X104 Y49.583 Z0.74
G1 F300 Z0.24
G1 F2700 E139.34918
G1 F1800 X104 Y167.843 E148.78921
G1 F2700 E143.78921
G1 F300 Z0.74
G0 F12000 X105.6 Y166.343 Z0.74
G1 F300 Z0.24
G1 F2700 E148.78921
G1 F1800 X105.6 Y49.088 E158.14901
G1 F2700 E153.14901
G1 F300 Z0.74
G0 F12000 X107.2 Y48.749 Z0.74
G1 F300 Z0.24
G1 F2700 E158.14901
G1 F1800 X107.2 Y164.931 E167.42316
G1 F2700 E162.42316
G1 F300 Z0.74
G0 F12000 X108.8 Y164.282 Z0.74
G1 F300 Z0.24
G1 F2700 E167.42316
G1 F1800 X108.8 Y48.574 E176.65947
G1 F2700 E171.65947
G1 F300 Z0.74
G0 F12000 X110.4 Y48.54 Z0.74
G1 F300 Z0.24
G1 F2700 E176.65947
G1 F1800 X110.4 Y164.151 E185.88804
G1 F2700 E180.88804
G1 F300 Z0.74
G0 F12000 X112 Y164.527 Z0.74
G1 F300 Z0.24
G1 F2700 E185.88804
G1 F1800 X112 Y48.65 E195.13784
G1 F2700 E190.13784
G1 F300 Z0.74
G0 F12000 X113.6 Y48.906 Z0.74
G1 F300 Z0.24
G1 F2700 E195.13784
G1 F1800 X113.6 Y165.512 E204.44584
G1 F2700 E199.44584
G1 F300 Z0.74
G0 F12000 X115.2 Y167.146 Z0.74
G1 F300 Z0.24
G1 F2700 E204.44584
G1 F1800 X115.2 Y49.307 E213.85226
G1 F2700 E208.85226
G1 F300 Z0.74
G0 F12000 X116.8 Y49.893 Z0.74
G1 F300 Z0.24
G1 F2700 E213.85226
G1 F1800 X116.8 Y168.472 E223.31774
G1 F2700 E218.31774
G1 F300 Z0.74
G0 F12000 X118.4 Y169.478 Z0.74
G1 F300 Z0.24
G1 F2700 E223.31774
G1 F1800 X118.4 Y50.668 E232.80167
G1 F2700 E227.80167
G1 F300 Z0.74
G0 F12000 X120 Y51.647 Z0.74
G1 F300 Z0.24
G1 F2700 E232.80167
G1 F1800 X120 Y170.254 E242.2694
G1 F2700 E237.2694
G1 F300 Z0.74
G0 F12000 X121.6 Y170.809 Z0.74
G1 F300 Z0.24
G1 F2700 E242.2694
G1 F1800 X121.6 Y52.896 E251.68172
