;FLAVOR:Marlin
;TIME:5319
;Filament used: 4.82607m
;Layer height: 0.2
;MINX:76.811
;MINY:29.577
;MINZ:0.24
;MAXX:143.187
;MAXY:190.413
;MAXZ:21.79
;Generated with Cura_SteamEngine master
M140 S70
M105
M190 S70
M104 S200
M105
M109 S200
M82 ;absolute extrusion mode
M201 X500.00 Y500.00 Z100.00 E5000.00 ;Setup machine max acceleration
M203 X500.00 Y500.00 Z10.00 E50.00 ;Setup machine max feedrate
M204 P500.00 R1000.00 T500.00 ;Setup Print/Retract/Travel acceleration
M205 X8.00 Y8.00 Z0.40 E5.00 ;Setup Jerk
M220 S100 ;Reset Feedrate
M221 S100 ;Reset Flowrate

G28 ;Home

G92 E0 ;Reset Extruder
G1 Z2.0 F3000 ;Move Z Axis up
G1 X10.1 Y20 Z0.28 F5000.0 ;Move to start position
G1 X10.1 Y200.0 Z0.28 F1500.0 E15 ;Draw the first line
G1 X10.4 Y200.0 Z0.28 F5000.0 ;Move to side a little
G1 X10.4 Y20 Z0.28 F1500.0 E30 ;Draw the second line
G92 E0 ;Reset Extruder
G1 Z2.0 F3000 ;Move Z Axis up

G92 E0
G92 E0
G1 F2700 E-5
;LAYER_COUNT:101
;LAYER:-6
M107
G0 F12000 X80.502 Y55.072 Z0.24
;TYPE:SUPPORT-INTERFACE
G1 F2700 E0
G1 F1800 X81.05 Y54.271 E0.07747
G1 X81.116 Y54.181 E0.08638
G1 X81.551 Y53.624 E0.14279
G1 X81.927 Y53.167 E0.19003
G1 X82.615 Y52.391 E0.27282
G1 X82.708 Y52.293 E0.2836
G1 X83.27 Y51.739 E0.3466
G1 X83.672 Y51.365 E0.39043
G1 X83.792 Y51.258 E0.40326
G1 X84.469 Y50.675 E0.47458
G1 X84.612 Y50.56 E0.48922
G1 X85.447 Y49.941 E0.5722
G1 X85.819 Y49.687 E0.60815
G1 X85.922 Y49.618 E0.61805
G1 X86.696 Y49.127 E0.69122
G1 X86.858 Y49.033 E0.70617
G1 X87.937 Y48.468 E0.80339
G1 X88.057 Y48.409 E0.81406
G1 X88.526 Y48.191 E0.85535
G1 X89.232 Y47.887 E0.91671
G1 X89.548 Y47.773 E0.94352
G1 X90.163 Y47.507 E0.99701
G1 X90.751 Y47.159 E1.05155
G1 X91.289 Y46.74 E1.10598
G1 X91.771 Y46.258 E1.1604
G1 X92.189 Y45.716 E1.21503
G1 X92.535 Y45.128 E1.26949
G1 X92.802 Y44.502 E1.32382
G1 X92.954 Y43.995 E1.36607
G1 X93.111 Y43.356 E1.41859
G1 X93.266 Y42.798 E1.46482
G1 X93.299 Y42.688 E1.47399
G1 X93.595 Y41.761 E1.55167
G1 X93.64 Y41.637 E1.5622
G1 X93.886 Y41.005 E1.61633
G1 X94.089 Y40.522 E1.65816
G1 X94.136 Y40.415 E1.66748
G1 X94.532 Y39.56 E1.7427
G1 X94.61 Y39.409 E1.75627
G1 X94.99 Y38.717 E1.81928
G1 X95.061 Y38.592 E1.83076
G1 X95.324 Y38.149 E1.87188
G1 X95.855 Y37.324 E1.9502
G1 X95.945 Y37.195 E1.96276
G1 X96.628 Y36.295 E2.05294
G1 X96.903 Y35.96 E2.08754
G1 X97.592 Y35.178 E2.17074
G1 X97.708 Y35.056 E2.18417
G1 X98.665 Y34.143 E2.28975
G1 X99.095 Y33.771 E2.33514
G1 X99.934 Y33.102 E2.4208
G1 X100.029 Y33.03 E2.43031
G1 X100.845 Y32.476 E2.50904
G1 X100.956 Y32.405 E2.51956
G1 X101.364 Y32.159 E2.55759
G1 X101.805 Y31.907 E2.59814
G1 X102.686 Y31.442 E2.67766
G1 X102.767 Y31.402 E2.68487
G1 X103.385 Y31.123 E2.73899
G1 X103.471 Y31.089 E2.74637
G1 X104.511 Y30.702 E2.83495
G1 X104.611 Y30.666 E2.84344
G1 X104.993 Y30.543 E2.87547
G1 X105.939 Y30.272 E2.95402
G1 X106.112 Y30.228 E2.96827
G1 X106.902 Y30.06 E3.03274
G1 X106.994 Y30.045 E3.04018
G1 X108.149 Y29.888 E3.13323
G1 X108.301 Y29.87 E3.14545
G1 X108.585 Y29.844 E3.16821
G1 X108.701 Y29.836 E3.17749
G1 X110 Y29.778 E3.28129
G1 X111.299 Y29.836 E3.38508
G1 X111.415 Y29.844 E3.39437
G1 X111.699 Y29.871 E3.41714
G1 X111.851 Y29.887 E3.42934
G1 X113.006 Y30.045 E3.52239
G1 X113.105 Y30.061 E3.5304
G1 X114.068 Y30.273 E3.60911
G1 X114.201 Y30.307 E3.62007
G1 X114.967 Y30.531 E3.68378
G1 X115.389 Y30.666 E3.71914
G1 X116.529 Y31.089 E3.81621
G1 X116.637 Y31.134 E3.82554
G1 X117.492 Y31.532 E3.90083
G1 X117.64 Y31.606 E3.91404
G1 X118.218 Y31.919 E3.9665
G1 X118.672 Y32.182 E4.00839
G1 X119.459 Y32.673 E4.08243
G1 X119.598 Y32.768 E4.09587
G1 X120.346 Y33.315 E4.16984
G1 X120.456 Y33.4 E4.18094
G1 X120.881 Y33.751 E4.22494
G1 X121.242 Y34.06 E4.26287
G1 X122.066 Y34.822 E4.35246
G1 X122.144 Y34.904 E4.36149
G1 X123.027 Y35.879 E4.46649
G1 X123.089 Y35.951 E4.47408
G1 X123.424 Y36.36 E4.51628
G1 X123.99 Y37.105 E4.59097
G1 X124.11 Y37.275 E4.60758
G1 X124.652 Y38.113 E4.68724
G1 X124.935 Y38.586 E4.73124
G1 X125.008 Y38.713 E4.74293
G1 X125.452 Y39.53 E4.81716
G1 X125.522 Y39.668 E4.82951
G1 X125.89 Y40.472 E4.90009
G1 X126.132 Y41.053 E4.95033
G1 X126.469 Y41.948 E5.02667
G1 X126.525 Y42.109 E5.04028
G1 X126.73 Y42.778 E5.09613
G1 X126.894 Y43.372 E5.14532
G1 X127.042 Y43.983 E5.1955
G1 X127.242 Y44.623 E5.24903
G1 X127.526 Y45.244 E5.30354
G1 X127.887 Y45.825 E5.35814
G1 X128.316 Y46.354 E5.41251
G1 X128.81 Y46.826 E5.46705
G1 X129.365 Y47.235 E5.52208
G1 X130.24 Y47.69 E5.6008
G1 X131.381 Y48.153 E5.6991
G1 X131.516 Y48.21 E5.71079
G1 X131.864 Y48.371 E5.7414
G1 X132 Y48.436 E5.75343
G1 X132.818 Y48.85 E5.82662
G1 X132.967 Y48.933 E5.84023
G1 X134.022 Y49.582 E5.9391
G1 X134.13 Y49.652 E5.94938
G1 X134.547 Y49.936 E5.98965
G1 X135.079 Y50.318 E6.04193
G1 X136.243 Y51.291 E6.16303
G1 X136.338 Y51.374 E6.1731
G1 X136.686 Y51.698 E6.21106
G1 X136.792 Y51.8 E6.2228
G1 X137.427 Y52.438 E6.29466
G1 X137.547 Y52.566 E6.30866
G1 X138.043 Y53.133 E6.36879
G1 X138.405 Y53.571 E6.41415
G1 X138.515 Y53.71 E6.4283
G1 X139.05 Y54.411 E6.49869
G1 X139.165 Y54.572 E6.51449
G1 X139.571 Y55.181 E6.57291
G1 X139.909 Y55.719 E6.62363
G1 X140.415 Y56.594 E6.70432
G1 X140.468 Y56.693 E6.71328
G1 X140.718 Y57.187 E6.75747
G1 X140.979 Y57.73 E6.80557
G1 X141.021 Y57.822 E6.81364
G1 X141.601 Y59.22 E6.93446
G1 X141.638 Y59.317 E6.94274
G1 X141.833 Y59.867 E6.98932
G1 X141.867 Y59.973 E6.99821
G1 X142.254 Y61.273 E7.10648
G1 X142.286 Y61.388 E7.11601
G1 X142.433 Y61.992 E7.16563
G1 X142.703 Y63.378 E7.27835
G1 X142.714 Y63.44 E7.28338
G1 X142.807 Y64.087 E7.33555
G1 X142.822 Y64.209 E7.34536
G1 X142.946 Y65.499 E7.44881
G1 X142.953 Y65.602 E7.45705
G1 X142.986 Y66.326 E7.51491
G1 X142.987 Y67.621 E7.61828
G1 X142.985 Y67.724 E7.6265
G1 X142.948 Y68.474 E7.68644
G1 X142.828 Y69.756 E7.78923
G1 X142.818 Y69.839 E7.7959
G1 X142.727 Y70.481 E7.84766
G1 X142.713 Y70.567 E7.85461
G1 X142.46 Y71.882 E7.96151
G1 X142.43 Y72.02 E7.97278
G1 X142.291 Y72.591 E8.01969
G1 X142.262 Y72.699 E8.02862
G1 X141.878 Y73.993 E8.13636
G1 X141.846 Y74.094 E8.14482
G1 X141.645 Y74.665 E8.19314
G1 X141.606 Y74.765 E8.20171
G1 X141.052 Y76.107 E8.3176
G1 X140.999 Y76.227 E8.32807
G1 X140.722 Y76.804 E8.37917
G1 X140.272 Y77.669 E8.457
G1 X140.202 Y77.791 E8.46823
G1 X139.895 Y78.305 E8.51602
G1 X139.559 Y78.84 E8.56645
G1 X139.01 Y79.647 E8.64436
G1 X138.909 Y79.786 E8.65807
G1 X138.446 Y80.38 E8.71819
G1 X138.125 Y80.771 E8.75857
G1 X138.036 Y80.876 E8.76956
G1 X137.408 Y81.586 E8.84523
G1 X137.317 Y81.682 E8.85578
G1 X136.781 Y82.214 E8.91607
G1 X136.404 Y82.574 E8.95768
G1 X136.421 Y82.591 E8.9596
G1 X136.264 Y82.758 E8.97789
G1 X135.863 Y83.311 E9.03242
G1 X135.535 Y83.909 E9.08686
G1 X135.286 Y84.544 E9.14131
G1 X135.117 Y85.206 E9.19585
G1 X135.035 Y85.885 E9.25044
G1 X135.043 Y86.626 E9.3096
G1 X142.077 Y172.808 E16.21189
G1 X142.12 Y173.77 E16.28876
G1 X142.121 Y173.932 E16.30169
G1 X142.093 Y174.941 E16.38227
G1 X141.99 Y175.953 E16.46347
G1 X141.97 Y176.095 E16.47491
G1 X141.788 Y177.113 E16.55746
G1 X141.719 Y177.434 E16.58367
G1 X141.471 Y178.42 E16.66483
G1 X141.413 Y178.611 E16.68076
G1 X140.969 Y179.884 E16.78838
G1 X140.929 Y179.991 E16.7975
G1 X140.821 Y180.255 E16.82027
G1 X140.779 Y180.352 E16.82871
G1 X140.202 Y181.585 E16.93737
G1 X140.171 Y181.648 E16.94298
G1 X139.507 Y182.772 E17.04719
G1 X139.428 Y182.899 E17.05913
G1 X139.253 Y183.164 E17.08448
G1 X138.694 Y183.952 E17.1616
G1 X138.605 Y184.068 E17.17327
G1 X138.013 Y184.788 E17.24768
G1 X137.969 Y184.836 E17.25287
G1 X137.125 Y185.711 E17.34992
G1 X136.868 Y185.958 E17.37837
G1 X136.822 Y186.001 E17.3834
G1 X136.096 Y186.64 E17.4606
G1 X135.984 Y186.732 E17.47217
G1 X135.256 Y187.287 E17.54524
G1 X134.432 Y187.832 E17.6241
G1 X134.312 Y187.907 E17.6354
G1 X133.719 Y188.246 E17.68992
G1 X133.437 Y188.397 E17.71546
G1 X132.603 Y188.813 E17.78985
G1 X132.471 Y188.872 E17.8014
G1 X131.475 Y189.276 E17.88719
G1 X131.367 Y189.317 E17.89641
G1 X130.453 Y189.607 E17.97296
G1 X130.284 Y189.655 E17.98698
G1 X129.381 Y189.868 E18.06104
G1 X129.233 Y189.901 E18.07315
G1 X128.97 Y189.95 E18.0945
G1 X128.064 Y190.096 E18.16775
G1 X127.901 Y190.115 E18.18085
G1 X126.718 Y190.207 E18.27557
G1 X126.592 Y190.213 E18.28564
G1 X125.662 Y190.209 E18.35988
G1 X125.464 Y190.201 E18.3757
G1 X124.368 Y190.111 E18.46348
G1 X124.181 Y190.089 E18.47851
G1 X123.158 Y189.931 E18.56114
G1 X122.997 Y189.9 E18.57422
G1 X121.96 Y189.654 E18.6593
G1 X121.025 Y189.36 E18.73754
G1 X120.851 Y189.297 E18.75231
G1 X119.905 Y188.918 E18.83366
G1 X119.796 Y188.871 E18.84313
G1 X119.559 Y188.764 E18.86389
G1 X118.696 Y188.338 E18.94071
G1 X118.541 Y188.255 E18.95475
G1 X117.808 Y187.827 E19.02251
G1 X116.989 Y187.274 E19.10139
G1 X116.849 Y187.171 E19.11526
G1 X116.143 Y186.618 E19.18685
G1 X115.88 Y186.396 E19.21432
G1 X115.166 Y185.753 E19.29102
G1 X115.05 Y185.641 E19.30389
G1 X114.399 Y184.96 E19.3791
G1 X114.343 Y184.899 E19.38571
G1 X114.18 Y184.7 E19.40624
G1 X113.725 Y184.208 E19.45973
G1 X113.203 Y183.769 E19.51418
G1 X112.628 Y183.4 E19.56872
G1 X112.011 Y183.106 E19.62327
G1 X111.363 Y182.892 E19.67775
G1 X110.693 Y182.762 E19.73223
G1 X110.012 Y182.717 E19.78671
G1 X109.33 Y182.759 E19.84125
G1 X108.66 Y182.887 E19.8957
G1 X108.011 Y183.097 E19.95015
G1 X107.393 Y183.388 E20.00468
G1 X106.817 Y183.755 E20.05919
G1 X106.291 Y184.192 E20.11378
G1 X105.82 Y184.699 E20.16902
G1 X105.657 Y184.898 E20.18956
G1 X105.596 Y184.966 E20.19685
G1 X104.972 Y185.617 E20.26883
G1 X104.833 Y185.753 E20.28435
G1 X104.082 Y186.43 E20.36506
G1 X103.886 Y186.593 E20.38541
G1 X103.762 Y186.693 E20.39813
G1 X103.074 Y187.227 E20.46765
G1 X102.936 Y187.328 E20.4813
G1 X102.2 Y187.822 E20.55206
G1 X101.333 Y188.322 E20.63195
G1 X101.179 Y188.404 E20.64588
G1 X100.383 Y188.791 E20.71653
G1 X100.113 Y188.91 E20.74008
G1 X99.235 Y189.268 E20.81577
G1 X99.083 Y189.322 E20.82865
G1 X98.029 Y189.658 E20.91695
G1 X97.063 Y189.887 E20.9962
G1 X96.91 Y189.917 E21.00864
G1 X95.817 Y190.09 E21.09698
G1 X95.529 Y190.121 E21.1201
G1 X94.607 Y190.197 E21.19395
G1 X94.42 Y190.206 E21.20889
G1 X93.402 Y190.213 E21.29016
G1 X93.282 Y190.208 E21.29974
G1 X92.388 Y190.146 E21.37128
G1 X92.183 Y190.124 E21.38774
G1 X91.014 Y189.947 E21.48211
G1 X90.894 Y189.926 E21.49184
G1 X90.647 Y189.875 E21.51197
G1 X89.712 Y189.654 E21.58866
G1 X89.581 Y189.617 E21.59953
G1 X88.609 Y189.309 E21.68092
G1 X88.568 Y189.295 E21.68438
G1 X87.68 Y188.94 E21.76072
G1 X87.537 Y188.876 E21.77322
G1 X86.532 Y188.381 E21.86265
G1 X86.279 Y188.245 E21.88558
G1 X85.362 Y187.703 E21.97061
G1 X85.27 Y187.644 E21.97933
G1 X84.756 Y187.296 E22.02888
G1 X83.919 Y186.653 E22.11313
G1 X83.814 Y186.565 E22.12407
G1 X83.19 Y186.011 E22.19068
G1 X82.97 Y185.804 E22.21479
G1 X82.875 Y185.711 E22.2254
G1 X82.031 Y184.836 E22.32245
G1 X81.971 Y184.77 E22.32957
G1 X81.364 Y184.028 E22.40609
G1 X81.273 Y183.908 E22.41811
G1 X80.714 Y183.116 E22.49549
G1 X80.572 Y182.899 E22.51619
G1 X80.493 Y182.772 E22.52813
G1 X79.829 Y181.648 E22.63234
G1 X79.797 Y181.585 E22.63798
G1 X79.221 Y180.352 E22.74662
G1 X79.179 Y180.255 E22.75505
G1 X79.033 Y179.894 E22.78614
G1 X78.721 Y179.038 E22.85886
G1 X78.653 Y178.823 E22.87687
G1 X78.308 Y177.544 E22.98261
G1 X78.276 Y177.414 E22.9933
G1 X78.204 Y177.072 E23.02119
G1 X78.028 Y176.084 E23.1013
G1 X78.012 Y175.968 E23.11065
G1 X77.909 Y174.962 E23.19137
G1 X77.878 Y173.972 E23.27044
G1 X77.879 Y173.798 E23.28433
G1 X77.92 Y172.873 E23.35824
G1 X77.931 Y172.703 E23.37184
G1 X84.958 Y86.627 E30.26565
G1 X84.97 Y85.957 E30.31914
G1 X84.897 Y85.278 E30.37366
G1 X84.738 Y84.614 E30.42816
G1 X84.496 Y83.975 E30.4827
G1 X84.176 Y83.372 E30.53719
G1 X83.781 Y82.812 E30.5919
G1 X83.569 Y82.586 E30.61663
G1 X83.586 Y82.569 E30.61855
G1 X83.204 Y82.199 E30.661
G1 X82.518 Y81.508 E30.73873
G1 X82.421 Y81.403 E30.75014
G1 X81.895 Y80.797 E30.81419
G1 X81.536 Y80.356 E30.85958
G1 X81.429 Y80.221 E30.87333
G1 X80.876 Y79.49 E30.9465
G1 X80.804 Y79.386 E30.9566
G1 X80.385 Y78.753 E31.01719
G1 X80.054 Y78.221 E31.06721
G1 X79.554 Y77.348 E31.14752
G1 X79.501 Y77.25 E31.15641
G1 X79.235 Y76.719 E31.20382
G1 X78.985 Y76.191 E31.25045
G1 X78.934 Y76.076 E31.26049
G1 X78.351 Y74.654 E31.38317
G1 X78.152 Y74.082 E31.43152
G1 X78.108 Y73.946 E31.44293
G1 X77.729 Y72.661 E31.54987
G1 X77.695 Y72.537 E31.56013
G1 X77.558 Y71.967 E31.60693
G1 X77.53 Y71.837 E31.61754
G1 X77.289 Y70.577 E31.71995
G1 X77.271 Y70.465 E31.729
G1 X77.182 Y69.841 E31.77932
G1 X77.171 Y69.749 E31.78671
G1 X77.047 Y68.408 E31.89421
G1 X77.015 Y67.704 E31.95047
G1 X77.012 Y67.58 E31.96037
G1 X77.015 Y66.287 E32.06358
G1 X77.049 Y65.588 E32.11944
G1 X77.059 Y65.444 E32.13097
G1 X77.184 Y64.17 E32.23315
G1 X77.195 Y64.072 E32.24102
G1 X77.301 Y63.353 E32.29904
G1 X77.555 Y62.051 E32.40493
G1 X77.579 Y61.937 E32.41423
G1 X77.718 Y61.375 E32.46044
G1 X77.755 Y61.238 E32.47177
G1 X78.143 Y59.941 E32.57983
G1 X78.171 Y59.856 E32.58698
G1 X78.36 Y59.323 E32.63212
G1 X78.421 Y59.159 E32.64609
G1 X78.757 Y58.311 E32.7189
G1 X78.82 Y58.164 E32.73166
G1 X79.013 Y57.745 E32.76849
G1 X79.331 Y57.091 E32.82654
G1 X79.787 Y56.232 E32.90417
G1 X79.848 Y56.124 E32.91407
G1 X80.14 Y55.642 E32.95906
G1 X80.324 Y55.352 E32.98647
G0 F1620 X80.502 Y55.072
G0 F12000 X80 Y55.873
G1 F1800 X80 Y78.126 E34.7628
G1 F2700 E29.7628
G1 F300 Z0.74
G0 F12000 X81.6 Y80.434 Z0.74
G1 F300 Z0.24
G1 F2700 E34.7628
G1 F1800 X81.6 Y53.564 E36.90768
G1 F2700 E31.90768
G1 F300 Z0.74
G0 F12000 X83.2 Y51.808 Z0.74
G1 F300 Z0.24
G1 F2700 E36.90768
G1 F1800 X83.2 Y82.194 E39.33322
G1 F2700 E34.33322
G1 F300 Z0.74
G0 F12000 X84.8 Y84.872 Z0.74
G1 F300 Z0.24
G1 F2700 E39.33322
G1 F1800 X84.8 Y50.42 E42.08333
G1 F2700 E37.08333
G1 F300 Z0.74
G0 F12000 X86.4 Y49.314 Z0.74
G1 F300 Z0.24
G1 F2700 E42.08333
G1 F1800 X86.4 Y188.31 E53.17859
G1 F2700 E48.17859
G1 F300 Z0.74
G0 F12000 X88 Y189.067 Z0.74
G1 F300 Z0.24
G1 F2700 E53.17859
G1 F1800 X88 Y48.437 E64.40429
G1 F2700 E59.40429
G1 F300 Z0.74
G0 F12000 X89.6 Y47.75 Z0.74
G1 F300 Z0.24
G1 F2700 E64.40429
G1 F1800 X89.6 Y189.622 E75.72912
G1 F2700 E70.72912
G1 F300 Z0.74
G0 F12000 X91.2 Y189.975 Z0.74
G1 F300 Z0.24
G1 F2700 E75.72912
G1 F1800 X91.2 Y46.809 E87.15725
G1 F2700 E82.15725
G1 F300 Z0.74
G0 F12000 X92.8 Y44.506 Z0.74
G1 F300 Z0.24
G1 F2700 E87.15725
G1 F1800 X92.8 Y190.174 E98.7851
G1 F2700 E93.7851
G1 F300 Z0.74
G0 F12000 X94.4 Y190.207 Z0.74
G1 F300 Z0.24
G1 F2700 E98.7851
G1 F1800 X94.4 Y39.845 E110.78765
G1 F2700 E105.78765
G1 F300 Z0.74
G0 F12000 X96 Y37.122 Z0.74
G1 F300 Z0.24
G1 F2700 E110.78765
G1 F1800 X96 Y190.062 E122.99598
G1 F2700 E117.99598
G1 F300 Z0.74
G0 F12000 X97.6 Y189.76 Z0.74
G1 F300 Z0.24
G1 F2700 E122.99598
G1 F1800 X97.6 Y35.169 E135.3361
G1 F2700 E130.3361
G1 F300 Z0.74
G0 F12000 X99.2 Y33.687 Z0.74
G1 F300 Z0.24
G1 F2700 E135.3361
G1 F1800 X99.2 Y189.281 E147.75629
G1 F2700 E142.75629
G1 F300 Z0.74
G0 F12000 X100.8 Y188.589 Z0.74
G1 F300 Z0.24
G1 F2700 E147.75629
G1 F1800 X100.8 Y32.506 E160.21551
G1 F2700 E155.21551
G1 F300 Z0.74
G0 F12000 X102.4 Y31.592 Z0.74
G1 F300 Z0.24
G1 F2700 E160.21551
G1 F1800 X102.4 Y187.688 E172.67576
G1 F2700 E167.67576
G1 F300 Z0.74
G0 F12000 X104 Y186.499 Z0.74
G1 F300 Z0.24
G1 F2700 E172.67576
G1 F1800 X104 Y30.892 E185.09699
G1 F2700 E180.09699
G1 F300 Z0.74
G0 F12000 X105.6 Y30.369 Z0.74
G1 F300 Z0.24
G1 F2700 E185.09699
G1 F1800 X105.6 Y184.962 E197.43727
G1 F2700 E192.43727
G1 F300 Z0.74
G0 F12000 X107.2 Y183.511 Z0.74
G1 F300 Z0.24
G1 F2700 E197.43727
G1 F1800 X107.2 Y30.016 E209.6899
G1 F2700 E204.6899
G1 F300 Z0.74
G0 F12000 X108.8 Y29.831 Z0.74
G1 F300 Z0.24
G1 F2700 E209.6899
G1 F1800 X108.8 Y182.861 E221.90542
G1 F2700 E216.90542
G1 F300 Z0.74
G0 F12000 X110.4 Y182.742 Z0.74
G1 F300 Z0.24
G1 F2700 E221.90542
G1 F1800 X110.4 Y29.796 E234.11423
G1 F2700 E229.11423
G1 F300 Z0.74
G0 F12000 X112 Y29.908 Z0.74
G1 F300 Z0.24
G1 F2700 E234.11423
G1 F1800 X112 Y183.102 E246.34284
G1 F2700 E241.34284
G1 F300 Z0.74
G0 F12000 X113.6 Y184.102 Z0.74
G1 F300 Z0.24
G1 F2700 E246.34284
G1 F1800 X113.6 Y30.17 E258.63036
G1 F2700 E253.63036
G1 F300 Z0.74
