;FLAVOR:Marlin
;TIME:5918
;Filament used: 3.66801m
;Layer height: 0.2
;MINX:53.943
;MINY:78.467
;MINZ:0.2
;MAXX:166.057
;MAXY:141.533
;MAXZ:5
;Generated with Cura_SteamEngine master
M140 S50
M105
M190 S50
M104 S200
M105
M109 S200
M82 ;absolute extrusion mode
M201 X500.00 Y500.00 Z100.00 E5000.00 ;Setup machine max acceleration
M203 X500.00 Y500.00 Z10.00 E50.00 ;Setup machine max feedrate
M204 P500.00 R1000.00 T500.00 ;Setup Print/Retract/Travel acceleration
M205 X8.00 Y8.00 Z0.40 E5.00 ;Setup Jerk
M220 S100 ;Reset Feedrate
M221 S100 ;Reset Flowrate

G28 ;Home

G92 E0 ;Reset Extruder
G1 Z2.0 F3000 ;Move Z Axis up
G1 X10.1 Y20 Z0.28 F5000.0 ;Move to start position
G1 X10.1 Y200.0 Z0.28 F1500.0 E15 ;Draw the first line
G1 X10.4 Y200.0 Z0.28 F5000.0 ;Move to side a little
G1 X10.4 Y20 Z0.28 F1500.0 E30 ;Draw the second line
G92 E0 ;Reset Extruder
G1 Z2.0 F3000 ;Move Z Axis up

G92 E0
G92 E0
G1 F2700 E-5
;LAYER_COUNT:25
;LAYER:0
M107
G0 F6000 X84.616 Y104.067 Z0.2
;TYPE:SKIRT
G1 F2700 E0
G1 F1200 X84.616 Y106.15 E0.06928
G1 X84.576 Y106.7 E0.08762
G1 X84.457 Y107.238 E0.10595
G1 X84.261 Y107.753 E0.12428
G1 X83.993 Y108.234 E0.14259
G1 X83.503 Y108.837 E0.16843
G1 X83.386 Y108.954 E0.17394
G1 X82.969 Y109.314 E0.19226
G1 X82.505 Y109.611 E0.21058
G1 X82.002 Y109.837 E0.22892
G1 X81.472 Y109.988 E0.24725
G1 X80.699 Y110.067 E0.2731
G1 X79.995 Y110.067 E0.29651
G1 X79.957 Y110.238 E0.30234
G1 X79.761 Y110.753 E0.32067
G1 X79.493 Y111.234 E0.33898
G1 X79.003 Y111.837 E0.36482
G1 X78.886 Y111.954 E0.37033
G1 X78.469 Y112.314 E0.38865
G1 X78.005 Y112.611 E0.40697
G1 X77.502 Y112.837 E0.42531
G1 X77.157 Y112.935 E0.43724
G1 X77.676 Y112.973 E0.45455
G1 X78.214 Y113.092 E0.47288
G1 X78.729 Y113.288 E0.4912
G1 X78.751 Y113.3 E0.49204
G1 X79.057 Y113.163 E0.50319
G1 X79.544 Y113.024 E0.52003
G1 X79.602 Y112.762 E0.52896
G1 X79.798 Y112.247 E0.54729
G1 X80.066 Y111.766 E0.5656
G1 X80.556 Y111.163 E0.59144
G1 X80.673 Y111.046 E0.59695
G1 X81.09 Y110.686 E0.61527
G1 X81.554 Y110.389 E0.63359
G1 X82.057 Y110.163 E0.65193
G1 X82.587 Y110.012 E0.67026
G1 X83.36 Y109.933 E0.69611
G1 X88.957 Y109.933 E0.88226
G1 X88.844 Y109.908 E0.88611
G1 X88.329 Y109.712 E0.90444
G1 X87.848 Y109.444 E0.92275
G1 X87.245 Y108.954 E0.9486
G1 X87.128 Y108.837 E0.9541
G1 X86.768 Y108.42 E0.97242
G1 X86.471 Y107.956 E0.99075
G1 X86.245 Y107.453 E1.00909
G1 X86.094 Y106.923 E1.02742
G1 X86.015 Y106.15 E1.05326
G1 X86.015 Y104.067 E1.12254
G1 X84.616 Y104.067 E1.16907
G0 F6000 X84.216 Y103.667
G1 F1200 X84.216 Y106.15 E1.25166
G1 X84.176 Y106.67 E1.269
G1 X84.057 Y107.177 E1.28632
G1 X83.862 Y107.66 E1.30365
G1 X83.596 Y108.108 E1.32098
G1 X83.22 Y108.554 E1.34038
G1 X83.103 Y108.671 E1.34588
G1 X82.707 Y109.01 E1.36322
G1 X82.265 Y109.285 E1.38054
G1 X81.785 Y109.489 E1.39788
G1 X81.28 Y109.617 E1.41521
G1 X80.699 Y109.667 E1.43461
G1 X79.676 Y109.667 E1.46863
G1 X79.557 Y110.177 E1.48605
G1 X79.362 Y110.66 E1.50337
G1 X79.096 Y111.108 E1.5207
G1 X78.72 Y111.554 E1.5401
G1 X78.603 Y111.671 E1.54561
G1 X78.207 Y112.01 E1.56295
G1 X77.765 Y112.285 E1.58026
G1 X77.285 Y112.489 E1.59761
G1 X76.78 Y112.617 E1.61493
G1 X76.199 Y112.667 E1.63433
G1 X71.933 Y112.667 E1.77622
G1 X71.413 Y112.627 E1.79356
G1 X70.906 Y112.508 E1.81089
G1 X70.423 Y112.313 E1.82821
G1 X69.975 Y112.047 E1.84554
G1 X69.529 Y111.671 E1.86494
G1 X69.412 Y111.554 E1.87044
G1 X69.073 Y111.158 E1.88778
G1 X68.798 Y110.716 E1.9051
G1 X68.594 Y110.236 E1.92244
G1 X68.466 Y109.731 E1.93977
G1 X68.416 Y109.15 E1.95917
G1 X68.416 Y106.384 E2.05116
G1 X68.456 Y105.864 E2.06851
G1 X68.575 Y105.357 E2.08583
G1 X68.77 Y104.874 E2.10316
G1 X69.036 Y104.426 E2.12049
G1 X69.412 Y103.98 E2.13989
G1 X69.529 Y103.863 E2.14539
G1 X69.925 Y103.524 E2.16273
G1 X70.342 Y103.265 E2.17906
G1 X69.975 Y103.047 E2.19325
G1 X69.529 Y102.671 E2.21266
G1 X69.412 Y102.554 E2.21816
G1 X69.073 Y102.158 E2.2355
G1 X68.798 Y101.716 E2.25281
G1 X68.594 Y101.236 E2.27016
G1 X68.466 Y100.731 E2.28748
G1 X68.457 Y100.63 E2.29086
G1 X68.413 Y100.627 E2.29232
G1 X67.906 Y100.508 E2.30965
G1 X67.423 Y100.313 E2.32697
G1 X66.975 Y100.047 E2.3443
G1 X66.529 Y99.671 E2.3637
G1 X66.412 Y99.554 E2.3692
G1 X66.073 Y99.158 E2.38654
G1 X65.798 Y98.716 E2.40386
G1 X65.594 Y98.236 E2.4212
G1 X65.466 Y97.731 E2.43853
G1 X65.457 Y97.63 E2.4419
G1 X65.413 Y97.627 E2.44337
G1 X64.906 Y97.508 E2.46069
G1 X64.423 Y97.313 E2.47802
G1 X63.975 Y97.047 E2.49535
G1 X63.529 Y96.671 E2.51475
G1 X63.412 Y96.554 E2.52025
G1 X63.073 Y96.158 E2.53759
G1 X62.798 Y95.716 E2.5549
G1 X62.594 Y95.236 E2.57225
G1 X62.466 Y94.731 E2.58958
G1 X62.416 Y94.15 E2.60897
G1 X62.416 Y85.384 E2.90053
G1 X62.456 Y84.864 E2.91788
G1 X62.575 Y84.357 E2.9352
G1 X62.77 Y83.874 E2.95252
G1 X63.036 Y83.426 E2.96985
G1 X63.412 Y82.98 E2.98925
G1 X63.529 Y82.863 E2.99476
G1 X63.925 Y82.524 E3.0121
G1 X64.367 Y82.249 E3.02941
G1 X64.847 Y82.045 E3.04676
G1 X65.352 Y81.917 E3.06408
G1 X65.933 Y81.867 E3.08348
G1 X68.699 Y81.867 E3.17548
G1 X69.219 Y81.907 E3.19282
G1 X69.726 Y82.026 E3.21014
G1 X70.209 Y82.221 E3.22747
G1 X70.313 Y82.283 E3.2315
G1 X70.367 Y82.249 E3.23362
G1 X70.847 Y82.045 E3.25097
G1 X71.352 Y81.917 E3.26829
G1 X71.453 Y81.908 E3.27167
G1 X71.456 Y81.864 E3.27313
G1 X71.575 Y81.357 E3.29045
G1 X71.77 Y80.874 E3.30778
G1 X72.036 Y80.426 E3.32511
G1 X72.412 Y79.98 E3.34451
G1 X72.529 Y79.863 E3.35001
G1 X72.925 Y79.524 E3.36735
G1 X73.367 Y79.249 E3.38466
G1 X73.847 Y79.045 E3.40201
G1 X74.352 Y78.917 E3.41934
G1 X74.933 Y78.867 E3.43873
G1 X83.698 Y78.867 E3.73026
G1 X84.218 Y78.907 E3.74761
G1 X84.725 Y79.026 E3.76493
G1 X85.208 Y79.221 E3.78225
G1 X85.312 Y79.283 E3.78628
G1 X85.366 Y79.249 E3.7884
G1 X85.846 Y79.045 E3.80575
G1 X86.351 Y78.917 E3.82308
G1 X86.932 Y78.867 E3.84247
G1 X95.698 Y78.867 E4.13403
G1 X96.218 Y78.907 E4.15138
G1 X96.725 Y79.026 E4.1687
G1 X97.208 Y79.221 E4.18602
G1 X97.656 Y79.487 E4.20335
G1 X98.102 Y79.863 E4.22275
G1 X98.219 Y79.98 E4.22826
G1 X98.558 Y80.376 E4.24559
G1 X98.833 Y80.818 E4.26291
G1 X99.037 Y81.298 E4.28026
G1 X99.165 Y81.803 E4.29758
G1 X99.174 Y81.904 E4.30096
G1 X99.218 Y81.907 E4.30242
G1 X99.725 Y82.026 E4.31974
G1 X100.208 Y82.221 E4.33707
G1 X100.312 Y82.283 E4.34109
G1 X100.366 Y82.249 E4.34322
G1 X100.846 Y82.045 E4.36056
G1 X101.351 Y81.917 E4.37789
G1 X101.932 Y81.867 E4.39729
G1 X104.698 Y81.867 E4.48928
G1 X105.218 Y81.907 E4.50663
G1 X105.725 Y82.026 E4.52395
G1 X106.208 Y82.221 E4.54128
G1 X106.656 Y82.487 E4.55861
G1 X107.102 Y82.863 E4.57801
G1 X107.219 Y82.98 E4.58351
G1 X107.558 Y83.376 E4.60085
G1 X107.833 Y83.818 E4.61816
G1 X108.037 Y84.298 E4.63551
G1 X108.165 Y84.803 E4.65284
G1 X108.215 Y85.384 E4.67223
G1 X108.215 Y94.15 E4.96379
G1 X108.175 Y94.67 E4.98114
G1 X108.056 Y95.177 E4.99846
G1 X107.861 Y95.66 E5.01578
G1 X107.595 Y96.108 E5.03311
G1 X107.219 Y96.554 E5.05252
G1 X107.102 Y96.671 E5.05802
G1 X106.706 Y97.01 E5.07536
G1 X106.264 Y97.285 E5.09267
G1 X105.784 Y97.489 E5.11002
G1 X105.279 Y97.617 E5.12734
G1 X105.178 Y97.626 E5.13072
G1 X105.175 Y97.67 E5.13218
G1 X105.056 Y98.177 E5.14951
G1 X104.861 Y98.66 E5.16683
G1 X104.595 Y99.108 E5.18416
G1 X104.219 Y99.554 E5.20356
G1 X104.102 Y99.671 E5.20906
G1 X103.706 Y100.01 E5.2264
G1 X103.264 Y100.285 E5.24372
G1 X102.784 Y100.489 E5.26106
G1 X102.279 Y100.617 E5.27839
G1 X102.178 Y100.626 E5.28176
G1 X102.175 Y100.67 E5.28323
G1 X102.056 Y101.177 E5.30055
G1 X101.861 Y101.66 E5.31788
G1 X101.595 Y102.108 E5.33521
G1 X101.219 Y102.554 E5.35461
G1 X101.102 Y102.671 E5.36011
G1 X100.706 Y103.01 E5.37745
G1 X100.289 Y103.269 E5.39378
G1 X100.656 Y103.487 E5.40797
G1 X101.102 Y103.863 E5.42738
G1 X101.219 Y103.98 E5.43288
G1 X101.558 Y104.376 E5.45022
G1 X101.833 Y104.818 E5.46753
G1 X102.037 Y105.298 E5.48488
G1 X102.165 Y105.803 E5.50221
G1 X102.215 Y106.384 E5.5216
G1 X102.215 Y109.15 E5.6136
G1 X102.175 Y109.67 E5.63094
G1 X102.056 Y110.177 E5.64827
G1 X102.01 Y110.291 E5.65235
G1 X103.866 Y110.291 E5.71409
G1 X104.386 Y110.331 E5.73143
G1 X104.893 Y110.45 E5.74875
G1 X105.376 Y110.645 E5.76608
G1 X105.824 Y110.911 E5.78341
G1 X106.27 Y111.287 E5.80281
G1 X106.387 Y111.404 E5.80831
G1 X106.726 Y111.8 E5.82565
G1 X107.001 Y112.242 E5.84296
G1 X107.205 Y112.722 E5.86031
G1 X107.333 Y113.227 E5.87764
G1 X107.383 Y113.808 E5.89703
G1 X107.383 Y116.291 E5.97962
G1 X112.583 Y116.291 E6.15257
G1 X112.583 Y113.808 E6.23516
G1 X112.623 Y113.288 E6.2525
G1 X112.742 Y112.781 E6.26982
G1 X112.937 Y112.298 E6.28715
G1 X113.203 Y111.85 E6.30448
G1 X113.579 Y111.404 E6.32388
G1 X113.696 Y111.287 E6.32938
G1 X114.092 Y110.948 E6.34672
G1 X114.534 Y110.673 E6.36404
G1 X115.014 Y110.469 E6.38138
G1 X115.519 Y110.341 E6.39871
G1 X116.1 Y110.291 E6.4181
G1 X120.366 Y110.291 E6.55999
G1 X120.886 Y110.331 E6.57734
G1 X121.393 Y110.45 E6.59466
G1 X121.876 Y110.645 E6.61198
G1 X122.324 Y110.911 E6.62931
G1 X122.77 Y111.287 E6.64872
G1 X122.887 Y111.404 E6.65422
G1 X123.226 Y111.8 E6.67156
G1 X123.501 Y112.242 E6.68887
G1 X123.705 Y112.722 E6.70622
G1 X123.833 Y113.227 E6.72355
G1 X123.883 Y113.808 E6.74294
G1 X123.883 Y113.961 E6.74803
G1 X124.27 Y114.287 E6.76486
G1 X124.387 Y114.404 E6.77036
G1 X124.726 Y114.8 E6.7877
G1 X125.001 Y115.242 E6.80502
G1 X125.205 Y115.722 E6.82236
G1 X125.333 Y116.227 E6.83969
G1 X125.383 Y116.808 E6.85909
G1 X125.383 Y119.298 E6.9419
G1 X125.793 Y119.194 E6.95597
G1 X125.857 Y119.188 E6.95811
G1 X125.857 Y116.661 E7.04216
G1 X125.897 Y116.141 E7.0595
G1 X126.016 Y115.634 E7.07683
G1 X126.211 Y115.151 E7.09415
G1 X126.477 Y114.703 E7.11148
G1 X126.853 Y114.257 E7.13088
G1 X126.97 Y114.14 E7.13638
G1 X127.366 Y113.801 E7.15372
G1 X127.808 Y113.526 E7.17104
G1 X128.288 Y113.322 E7.18838
G1 X128.793 Y113.194 E7.20571
G1 X128.894 Y113.185 E7.20908
G1 X128.897 Y113.141 E7.21055
G1 X129.016 Y112.634 E7.22787
G1 X129.211 Y112.151 E7.2452
G1 X129.477 Y111.703 E7.26253
G1 X129.853 Y111.257 E7.28193
G1 X129.97 Y111.14 E7.28743
G1 X130.366 Y110.801 E7.30477
G1 X130.808 Y110.526 E7.32208
G1 X131.288 Y110.322 E7.33943
G1 X131.793 Y110.194 E7.35676
G1 X132.374 Y110.144 E7.37615
G1 X138.14 Y110.144 E7.56793
G1 X138.66 Y110.184 E7.58528
G1 X139.167 Y110.303 E7.6026
G1 X139.65 Y110.498 E7.61992
G1 X140.098 Y110.764 E7.63725
G1 X140.544 Y111.14 E7.65665
G1 X140.661 Y111.257 E7.66216
G1 X141 Y111.653 E7.6795
G1 X141.275 Y112.095 E7.69681
G1 X141.479 Y112.575 E7.71416
G1 X141.607 Y113.08 E7.73148
G1 X141.657 Y113.661 E7.75088
G1 X141.657 Y116.184 E7.83479
G1 X142.167 Y116.303 E7.85221
G1 X142.65 Y116.498 E7.86954
G1 X143.098 Y116.764 E7.88687
G1 X143.544 Y117.14 E7.90627
G1 X143.661 Y117.257 E7.91177
G1 X144 Y117.653 E7.92911
G1 X144.259 Y118.07 E7.94544
G1 X144.477 Y117.703 E7.95963
G1 X144.853 Y117.257 E7.97904
G1 X144.97 Y117.14 E7.98454
G1 X145.366 Y116.801 E8.00188
G1 X145.808 Y116.526 E8.01919
G1 X146.288 Y116.322 E8.03654
G1 X146.793 Y116.194 E8.05387
G1 X146.857 Y116.188 E8.056
G1 X146.857 Y113.661 E8.14005
G1 X146.897 Y113.141 E8.1574
G1 X147.016 Y112.634 E8.17472
G1 X147.211 Y112.151 E8.19204
G1 X147.477 Y111.703 E8.20937
G1 X147.853 Y111.257 E8.22878
G1 X147.97 Y111.14 E8.23428
G1 X148.366 Y110.801 E8.25162
G1 X148.808 Y110.526 E8.26893
G1 X149.288 Y110.322 E8.28628
G1 X149.793 Y110.194 E8.30361
G1 X150.374 Y110.144 E8.323
G1 X156.14 Y110.144 E8.51478
G1 X156.66 Y110.184 E8.53213
G1 X157.167 Y110.303 E8.54945
G1 X157.65 Y110.498 E8.56677
G1 X158.098 Y110.764 E8.5841
G1 X158.544 Y111.14 E8.6035
G1 X158.661 Y111.257 E8.60901
G1 X159 Y111.653 E8.62634
G1 X159.275 Y112.095 E8.64366
G1 X159.479 Y112.575 E8.661
G1 X159.607 Y113.08 E8.67833
G1 X159.616 Y113.181 E8.68171
G1 X159.66 Y113.184 E8.68317
G1 X160.167 Y113.303 E8.70049
G1 X160.65 Y113.498 E8.71782
G1 X161.098 Y113.764 E8.73515
G1 X161.544 Y114.14 E8.75455
G1 X161.661 Y114.257 E8.76005
G1 X162 Y114.653 E8.77739
G1 X162.275 Y115.095 E8.7947
G1 X162.479 Y115.575 E8.81205
G1 X162.607 Y116.08 E8.82938
G1 X162.657 Y116.661 E8.84877
G1 X162.657 Y119.184 E8.93269
G1 X163.167 Y119.303 E8.95011
G1 X163.65 Y119.498 E8.96743
G1 X164.098 Y119.764 E8.98476
G1 X164.544 Y120.14 E9.00416
G1 X164.661 Y120.257 E9.00967
G1 X165 Y120.653 E9.027
G1 X165.275 Y121.095 E9.04432
G1 X165.479 Y121.575 E9.06167
G1 X165.607 Y122.08 E9.07899
G1 X165.657 Y122.661 E9.09839
G1 X165.657 Y131.427 E9.38995
G1 X165.617 Y131.947 E9.40729
G1 X165.498 Y132.454 E9.42461
G1 X165.303 Y132.937 E9.44194
G1 X165.037 Y133.385 E9.45927
G1 X164.661 Y133.831 E9.47867
G1 X164.544 Y133.948 E9.48417
G1 X164.148 Y134.287 E9.50151
G1 X163.706 Y134.562 E9.51883
G1 X163.226 Y134.766 E9.53617
G1 X162.721 Y134.894 E9.5535
G1 X162.62 Y134.903 E9.55687
G1 X162.617 Y134.947 E9.55834
G1 X162.498 Y135.454 E9.57566
G1 X162.303 Y135.937 E9.59299
G1 X162.037 Y136.385 E9.61031
G1 X161.661 Y136.831 E9.62972
G1 X161.544 Y136.948 E9.63522
G1 X161.148 Y137.287 E9.65256
G1 X160.706 Y137.562 E9.66987
G1 X160.226 Y137.766 E9.68722
G1 X159.721 Y137.894 E9.70455
G1 X159.14 Y137.944 E9.72394
G1 X153.617 Y137.944 E9.90764
G1 X153.498 Y138.454 E9.92506
G1 X153.303 Y138.937 E9.94238
G1 X153.037 Y139.385 E9.95971
G1 X152.661 Y139.831 E9.97911
G1 X152.544 Y139.948 E9.98462
G1 X152.148 Y140.287 E10.00195
G1 X151.706 Y140.562 E10.01927
G1 X151.226 Y140.766 E10.03661
G1 X150.721 Y140.894 E10.05394
G1 X150.14 Y140.944 E10.07334
G1 X138.374 Y140.944 E10.46468
G1 X137.854 Y140.904 E10.48202
G1 X137.347 Y140.785 E10.49934
G1 X136.864 Y140.59 E10.51667
G1 X136.416 Y140.324 E10.534
G1 X135.97 Y139.948 E10.5534
G1 X135.853 Y139.831 E10.5589
G1 X135.514 Y139.435 E10.57624
G1 X135.239 Y138.993 E10.59355
G1 X135.035 Y138.513 E10.6109
G1 X134.907 Y138.008 E10.62823
G1 X134.901 Y137.944 E10.63037
G1 X129.374 Y137.944 E10.8142
G1 X128.854 Y137.904 E10.83154
G1 X128.347 Y137.785 E10.84886
G1 X127.864 Y137.59 E10.86619
G1 X127.416 Y137.324 E10.88352
G1 X126.97 Y136.948 E10.90292
G1 X126.853 Y136.831 E10.90842
G1 X126.514 Y136.435 E10.92576
G1 X126.239 Y135.993 E10.94307
G1 X126.035 Y135.513 E10.96042
G1 X125.907 Y135.008 E10.97775
G1 X125.898 Y134.907 E10.98112
G1 X125.854 Y134.904 E10.98259
G1 X125.347 Y134.785 E10.99991
G1 X124.864 Y134.59 E11.01723
G1 X124.416 Y134.324 E11.03456
G1 X123.97 Y133.948 E11.05397
G1 X123.853 Y133.831 E11.05947
G1 X123.514 Y133.435 E11.07681
G1 X123.239 Y132.993 E11.09412
G1 X123.035 Y132.513 E11.11147
G1 X122.907 Y132.008 E11.12879
G1 X122.9 Y131.926 E11.13153
G1 X122.447 Y132.041 E11.14708
G1 X122.346 Y132.05 E11.15045
G1 X122.343 Y132.094 E11.15192
G1 X122.224 Y132.601 E11.16924
G1 X122.029 Y133.084 E11.18656
G1 X121.763 Y133.532 E11.20389
G1 X121.387 Y133.978 E11.22329
G1 X121.27 Y134.095 E11.2288
G1 X120.874 Y134.434 E11.24613
G1 X120.432 Y134.709 E11.26345
G1 X119.952 Y134.913 E11.2808
G1 X119.447 Y135.041 E11.29812
G1 X119.346 Y135.05 E11.3015
G1 X119.343 Y135.094 E11.30296
G1 X119.224 Y135.601 E11.32028
G1 X119.029 Y136.084 E11.33761
G1 X118.763 Y136.532 E11.35494
G1 X118.387 Y136.978 E11.37434
G1 X118.27 Y137.095 E11.37984
G1 X117.874 Y137.434 E11.39718
G1 X117.432 Y137.709 E11.41449
G1 X116.952 Y137.913 E11.43184
G1 X116.447 Y138.041 E11.44917
G1 X116.346 Y138.05 E11.45254
G1 X116.343 Y138.094 E11.45401
G1 X116.224 Y138.601 E11.47133
G1 X116.029 Y139.084 E11.48865
G1 X115.763 Y139.532 E11.50598
G1 X115.387 Y139.978 E11.52539
G1 X115.27 Y140.095 E11.53089
G1 X114.874 Y140.434 E11.54823
G1 X114.432 Y140.709 E11.56554
G1 X113.952 Y140.913 E11.58289
G1 X113.447 Y141.041 E11.60022
G1 X112.866 Y141.091 E11.61961
G1 X107.1 Y141.091 E11.81139
G1 X106.58 Y141.051 E11.82874
G1 X106.073 Y140.932 E11.84606
G1 X105.59 Y140.737 E11.86338
G1 X105.142 Y140.471 E11.88071
G1 X104.696 Y140.095 E11.90011
G1 X104.579 Y139.978 E11.90562
G1 X104.24 Y139.582 E11.92295
G1 X103.965 Y139.14 E11.94027
G1 X103.761 Y138.66 E11.95761
G1 X103.633 Y138.155 E11.97494
G1 X103.624 Y138.054 E11.97831
G1 X103.58 Y138.051 E11.97978
G1 X103.073 Y137.932 E11.9971
G1 X102.59 Y137.737 E12.01443
G1 X102.142 Y137.471 E12.03176
G1 X101.696 Y137.095 E12.05116
G1 X101.579 Y136.978 E12.05666
G1 X101.24 Y136.582 E12.074
G1 X100.965 Y136.14 E12.09131
