;FLAVOR:Marlin
;TIME:14368
;Filament used: 14.9156m
;Layer height: 0.2
;MINX:53.585
;MINY:15.116
;MINZ:0.24
;MAXX:166.414
;MAXY:204.901
;MAXZ:8.99
;Generated with Cura_SteamEngine master
M140 S70
M105
M190 S70
M104 S200
M105
M109 S200
M82 ;absolute extrusion mode
M201 X500.00 Y500.00 Z100.00 E5000.00 ;Setup machine max acceleration
M203 X500.00 Y500.00 Z10.00 E50.00 ;Setup machine max feedrate
M204 P500.00 R1000.00 T500.00 ;Setup Print/Retract/Travel acceleration
M205 X8.00 Y8.00 Z0.40 E5.00 ;Setup Jerk
M220 S100 ;Reset Feedrate
M221 S100 ;Reset Flowrate

G28 ;Home

G92 E0 ;Reset Extruder
G1 Z2.0 F3000 ;Move Z Axis up
G1 X10.1 Y20 Z0.28 F5000.0 ;Move to start position
G1 X10.1 Y200.0 Z0.28 F1500.0 E15 ;Draw the first line
G1 X10.4 Y200.0 Z0.28 F5000.0 ;Move to side a little
G1 X10.4 Y20 Z0.28 F1500.0 E30 ;Draw the second line
G92 E0 ;Reset Extruder
G1 Z2.0 F3000 ;Move Z Axis up

G92 E0
G92 E0
G1 F2700 E-5
;LAYER_COUNT:37
;LAYER:-6
M107
G0 F12000 X68.836 Y32.374 Z0.24
;TYPE:SUPPORT-INTERFACE
G1 F2700 E0
G1 F1800 X68.905 Y32.234 E0.01246
G1 X69.417 Y31.254 E0.10072
G1 X69.495 Y31.111 E0.11372
G1 X70.651 Y29.111 E0.29812
G1 X70.705 Y29.022 E0.30643
G1 X71.205 Y28.224 E0.3816
G1 X71.312 Y28.067 E0.39677
G1 X72.014 Y27.13 E0.49023
G1 X72.083 Y27.042 E0.49915
G1 X73.558 Y25.243 E0.68485
G1 X73.613 Y25.179 E0.69159
G1 X74.239 Y24.47 E0.76709
G1 X74.364 Y24.34 E0.78148
G1 X75.31 Y23.434 E0.88604
G1 X77.133 Y21.844 E1.07914
G1 X77.94 Y21.189 E1.1621
G1 X78.072 Y21.092 E1.17518
G1 X79.076 Y20.407 E1.2722
G1 X79.147 Y20.361 E1.27895
G1 X81.167 Y19.113 E1.46849
G1 X82.064 Y18.602 E1.55089
G1 X82.241 Y18.511 E1.56678
G1 X83.364 Y17.992 E1.66553
G1 X83.483 Y17.94 E1.6759
G1 X85.639 Y17.068 E1.86155
G1 X86.595 Y16.721 E1.94273
G1 X86.774 Y16.664 E1.95772
G1 X87.922 Y16.352 E2.05269
G1 X88.058 Y16.318 E2.06388
G1 X90.261 Y15.828 E2.24403
G1 X90.345 Y15.811 E2.25087
G1 X91.266 Y15.64 E2.32564
G1 X91.44 Y15.616 E2.33966
G1 X92.589 Y15.499 E2.43186
G1 X92.688 Y15.49 E2.43979
G1 X95.23 Y15.342 E2.64305
G1 X95.325 Y15.338 E2.65064
G1 X96.27 Y15.317 E2.72609
G1 X96.451 Y15.321 E2.74054
G1 X97.68 Y15.397 E2.83883
G1 X97.786 Y15.406 E2.84733
G1 X100.103 Y15.658 E3.03337
G1 X101.065 Y15.799 E3.11098
G1 X101.221 Y15.828 E3.12365
G1 X102.397 Y16.1 E3.22
G1 X102.526 Y16.133 E3.23063
G1 X104.795 Y16.77 E3.41875
G1 X105.729 Y17.069 E3.49704
G1 X105.957 Y17.152 E3.5164
G1 X107.011 Y17.589 E3.60748
G1 X107.137 Y17.643 E3.61843
G1 X109.331 Y18.67 E3.8118
G1 X109.437 Y18.723 E3.82126
G1 X110.468 Y19.26 E3.91405
G1 X110.558 Y19.309 E3.92223
G1 X114.218 Y21.42 E4.2595
G1 X114.854 Y21.81 E4.31905
G1 X114.963 Y21.879 E4.32935
G1 X115.856 Y22.46 E4.41439
G1 X115.942 Y22.517 E4.42263
G1 X116.727 Y23.07 E4.49928
G1 X116.835 Y23.15 E4.51001
G1 X117.206 Y23.442 E4.5477
G1 X117.902 Y24.013 E4.61956
G1 X118.682 Y24.704 E4.70274
G1 X118.755 Y24.771 E4.71065
G1 X119.27 Y25.262 E4.76745
G1 X119.978 Y25.988 E4.8484
G1 X120.069 Y26.087 E4.85913
G1 X120.487 Y26.572 E4.91024
G1 X121.492 Y27.787 E5.0361
G1 X122.085 Y28.559 E5.11381
G1 X122.167 Y28.676 E5.12522
G1 X122.586 Y29.2 E5.17877
G1 X123.077 Y29.674 E5.23325
G1 X123.624 Y30.083 E5.28777
G1 X124.218 Y30.42 E5.34228
G1 X124.848 Y30.68 E5.39669
G1 X125.508 Y30.858 E5.45125
G1 X126.18 Y30.95 E5.5054
G1 X126.573 Y30.964 E5.53679
G1 X145.441 Y30.965 E7.04291
G1 X146.442 Y31.001 E7.12287
G1 X146.565 Y31.01 E7.13271
G1 X147.482 Y31.112 E7.20636
G1 X147.657 Y31.137 E7.22047
G1 X148.546 Y31.301 E7.29264
G1 X148.669 Y31.329 E7.3027
G1 X149.563 Y31.563 E7.37647
G1 X149.726 Y31.612 E7.39006
G1 X150.568 Y31.898 E7.46104
G1 X150.734 Y31.962 E7.47524
G1 X151.537 Y32.303 E7.54488
G1 X151.726 Y32.391 E7.56152
G1 X152.52 Y32.799 E7.63278
G1 X152.637 Y32.866 E7.64355
G1 X153.416 Y33.34 E7.71634
G1 X153.567 Y33.44 E7.73079
G1 X154.281 Y33.951 E7.80088
G1 X154.429 Y34.064 E7.81574
G1 X155.121 Y34.641 E7.88766
G1 X155.229 Y34.737 E7.8992
G1 X155.74 Y35.22 E7.95533
G1 X155.741 Y35.219 E7.95544
G1 X155.897 Y35.376 E7.97311
G1 X156.543 Y36.072 E8.04891
G1 X156.662 Y36.211 E8.06351
G1 X157.216 Y36.902 E8.13421
G1 X157.32 Y37.041 E8.14807
G1 X157.812 Y37.756 E8.21735
G1 X157.929 Y37.94 E8.23476
G1 X158.367 Y38.687 E8.30388
G1 X158.449 Y38.838 E8.3176
G1 X158.852 Y39.657 E8.39046
G1 X158.908 Y39.783 E8.40146
G1 X159.25 Y40.628 E8.47423
G1 X159.309 Y40.793 E8.48822
G1 X159.581 Y41.64 E8.55923
G1 X159.627 Y41.802 E8.57267
G1 X159.839 Y42.676 E8.64446
G1 X159.872 Y42.834 E8.65735
G1 X160.02 Y43.726 E8.72952
G1 X160.044 Y43.912 E8.74449
G1 X160.126 Y44.796 E8.81536
G1 X160.134 Y44.948 E8.82751
G1 X160.155 Y45.681 E8.88605
G1 X160.155 Y66.722 E10.56563
G1 X160.119 Y67.728 E10.64599
G1 X160.109 Y67.863 E10.65679
G1 X160.007 Y68.78 E10.73044
G1 X159.982 Y68.955 E10.74455
G1 X159.82 Y69.833 E10.81582
G1 X159.79 Y69.967 E10.82678
G1 X159.559 Y70.852 E10.89979
G1 X159.507 Y71.024 E10.91414
G1 X159.221 Y71.866 E10.98512
G1 X159.157 Y72.032 E10.99932
G1 X158.816 Y72.835 E11.06896
G1 X158.735 Y73.01 E11.08435
G1 X158.32 Y73.818 E11.15686
G1 X158.253 Y73.935 E11.16763
G1 X157.779 Y74.714 E11.24042
G1 X157.679 Y74.865 E11.25487
G1 X157.168 Y75.579 E11.32496
G1 X157.055 Y75.727 E11.33982
G1 X156.478 Y76.419 E11.41174
G1 X156.382 Y76.527 E11.42328
G1 X155.899 Y77.038 E11.47941
G1 X155.9 Y77.039 E11.47952
G1 X155.743 Y77.195 E11.49719
G1 X155.047 Y77.841 E11.57299
G1 X154.908 Y77.96 E11.58759
G1 X154.217 Y78.514 E11.65829
G1 X154.078 Y78.618 E11.67215
G1 X153.363 Y79.11 E11.74143
G1 X153.179 Y79.227 E11.75884
G1 X152.423 Y79.67 E11.82878
G1 X152.281 Y79.747 E11.84168
G1 X151.453 Y80.154 E11.91532
G1 X151.336 Y80.206 E11.92554
G1 X150.481 Y80.551 E11.99914
G1 X150.318 Y80.609 E12.01295
G1 X149.475 Y80.88 E12.08363
G1 X149.311 Y80.926 E12.09723
G1 X148.439 Y81.138 E12.16886
G1 X148.277 Y81.171 E12.18206
G1 X147.384 Y81.319 E12.25432
G1 X147.207 Y81.342 E12.26856
G1 X146.313 Y81.425 E12.34023
G1 X146.171 Y81.432 E12.35158
G1 X145.43 Y81.453 E12.41076
G1 X119.096 Y81.453 E14.51285
G1 X118.428 Y81.495 E14.56628
G1 X117.757 Y81.624 E14.62082
G1 X117.108 Y81.837 E14.67535
G1 X116.491 Y82.129 E14.72984
G1 X115.916 Y82.497 E14.78433
G1 X115.392 Y82.935 E14.83885
G1 X114.928 Y83.435 E14.8933
G1 X114.529 Y83.991 E14.94792
G1 X114.205 Y84.591 E15.00236
G1 X113.959 Y85.227 E15.05679
G1 X113.796 Y85.887 E15.11106
G1 X113.733 Y86.346 E15.14804
G1 X113.164 Y92.486 E15.64026
G1 X113.143 Y92.859 E15.67008
G1 X113.006 Y99.506 E16.20079
G1 X113.012 Y99.894 E16.23176
G1 X113.356 Y106.262 E16.74082
G1 X113.39 Y106.634 E16.77064
G1 X114.2 Y113.031 E17.28536
G1 X114.261 Y113.409 E17.31592
G1 X115.514 Y119.603 E17.82037
G1 X115.604 Y119.976 E17.851
G1 X115.99 Y121.355 E17.96531
G1 X116.212 Y121.988 E18.01885
G1 X116.516 Y122.598 E18.07326
G1 X116.897 Y123.166 E18.12785
G1 X117.345 Y123.682 E18.1824
G1 X117.854 Y124.135 E18.23679
G1 X118.416 Y124.522 E18.29126
G1 X119.023 Y124.834 E18.34574
G1 X119.666 Y125.069 E18.40039
G1 X120.335 Y125.219 E18.45511
G1 X121.171 Y125.286 E18.52206
G1 X151.501 Y125.289 E20.94313
G1 X152.501 Y125.325 E21.02301
G1 X152.624 Y125.334 E21.03285
G1 X153.542 Y125.436 E21.10658
G1 X153.717 Y125.461 E21.12069
G1 X154.606 Y125.625 E21.19286
G1 X154.729 Y125.653 E21.20293
G1 X155.63 Y125.889 E21.27727
G1 X155.771 Y125.931 E21.28902
G1 X156.64 Y126.227 E21.3623
G1 X156.786 Y126.283 E21.37478
G1 X157.617 Y126.637 E21.44688
G1 X157.772 Y126.71 E21.46056
G1 X158.563 Y127.116 E21.53153
G1 X158.711 Y127.198 E21.54504
G1 X159.472 Y127.663 E21.61623
G1 X159.626 Y127.765 E21.63097
G1 X160.344 Y128.278 E21.70141
G1 X160.485 Y128.388 E21.71569
G1 X161.189 Y128.972 E21.7887
G1 X161.285 Y129.058 E21.79899
G1 X161.799 Y129.544 E21.85546
G1 X161.8 Y129.543 E21.85557
G1 X161.956 Y129.7 E21.87324
G1 X162.602 Y130.396 E21.94904
G1 X162.721 Y130.535 E21.96364
G1 X163.275 Y131.226 E22.03434
G1 X163.379 Y131.365 E22.0482
G1 X163.871 Y132.08 E22.11748
G1 X163.988 Y132.264 E22.13489
G1 X164.431 Y133.02 E22.20483
G1 X164.508 Y133.162 E22.21772
G1 X164.911 Y133.981 E22.29059
G1 X164.967 Y134.107 E22.30159
G1 X165.309 Y134.952 E22.37436
G1 X165.368 Y135.117 E22.38835
G1 X165.64 Y135.964 E22.45936
G1 X165.686 Y136.126 E22.4728
G1 X165.898 Y137 E22.54459
G1 X165.931 Y137.158 E22.55748
G1 X166.079 Y138.05 E22.62965
G1 X166.103 Y138.236 E22.64462
G1 X166.185 Y139.12 E22.71549
G1 X166.193 Y139.272 E22.72764
G1 X166.214 Y140.005 E22.78618
G1 X166.214 Y163.072 E24.62748
G1 X166.178 Y164.078 E24.70784
G1 X166.168 Y164.213 E24.71864
G1 X166.066 Y165.13 E24.7923
G1 X166.041 Y165.305 E24.80641
G1 X165.879 Y166.183 E24.87768
G1 X165.849 Y166.317 E24.88864
G1 X165.618 Y167.202 E24.96165
G1 X165.566 Y167.374 E24.97599
G1 X165.28 Y168.216 E25.04697
G1 X165.216 Y168.382 E25.06118
G1 X164.875 Y169.185 E25.13082
G1 X164.794 Y169.36 E25.14621
G1 X164.379 Y170.168 E25.21872
G1 X164.312 Y170.285 E25.22948
G1 X163.838 Y171.064 E25.30227
G1 X163.738 Y171.215 E25.31673
G1 X163.227 Y171.929 E25.38681
G1 X163.114 Y172.077 E25.40168
G1 X162.537 Y172.769 E25.4736
G1 X162.441 Y172.877 E25.48513
G1 X161.958 Y173.388 E25.54126
G1 X161.959 Y173.389 E25.54137
G1 X161.809 Y173.539 E25.55831
G1 X161.106 Y174.191 E25.63484
G1 X160.967 Y174.31 E25.64945
G1 X160.276 Y174.864 E25.72015
G1 X160.137 Y174.968 E25.734
G1 X159.422 Y175.46 E25.80329
G1 X159.238 Y175.577 E25.82069
G1 X158.482 Y176.02 E25.89064
G1 X158.34 Y176.097 E25.90353
G1 X157.512 Y176.504 E25.97718
G1 X157.395 Y176.556 E25.9874
G1 X156.54 Y176.901 E26.06099
G1 X156.377 Y176.959 E26.07481
G1 X155.533 Y177.23 E26.14556
G1 X155.378 Y177.275 E26.15845
G1 X154.938 Y177.381 E26.19458
G1 X154.297 Y177.579 E26.24813
G1 X153.676 Y177.862 E26.3026
G1 X153.095 Y178.221 E26.35712
G1 X152.564 Y178.651 E26.41166
G1 X152.092 Y179.144 E26.46615
G1 X151.686 Y179.692 E26.52059
G1 X151.351 Y180.287 E26.57509
G1 X151.095 Y180.921 E26.62967
G1 X150.921 Y181.58 E26.68408
G1 X150.83 Y182.263 E26.73908
G1 X150.84 Y182.691 E26.77325
G1 X150.807 Y182.694 E26.7759
G1 X150.877 Y183.544 E26.84398
G1 X150.9 Y183.863 E26.86951
G1 X150.92 Y184.194 E26.89598
G1 X150.925 Y184.303 E26.90469
G1 X150.951 Y185.113 E26.96938
G1 X150.949 Y185.235 E26.97912
G1 X150.874 Y186.669 E27.09374
G1 X150.868 Y186.747 E27.09999
G1 X150.79 Y187.49 E27.15962
G1 X150.773 Y187.628 E27.17072
G1 X150.645 Y188.525 E27.24305
G1 X150.609 Y188.721 E27.25896
G1 X150.327 Y189.947 E27.35938
G1 X150.29 Y190.092 E27.37132
G1 X150.086 Y190.815 E27.43129
G1 X149.775 Y191.783 E27.51245
G1 X149.718 Y191.937 E27.52556
G1 X149.226 Y193.112 E27.62724
G1 X149.17 Y193.238 E27.63825
G1 X148.868 Y193.873 E27.69438
G1 X148.814 Y193.98 E27.70395
G1 X148.385 Y194.798 E27.77768
G1 X148.303 Y194.944 E27.79104
G1 X147.826 Y195.713 E27.86328
G1 X147.732 Y195.855 E27.87687
G1 X147.481 Y196.214 E27.91184
G1 X146.933 Y196.964 E27.98599
G1 X146.872 Y197.045 E27.99408
G1 X146.302 Y197.767 E28.06751
G1 X146.163 Y197.93 E28.08461
G1 X145.429 Y198.721 E28.17075
G1 X145.306 Y198.847 E28.1848
G1 X144.849 Y199.297 E28.236
G1 X144.761 Y199.381 E28.24571
G1 X144.081 Y200.005 E28.31938
G1 X143.961 Y200.106 E28.3319
G1 X143.305 Y200.63 E28.39892
G1 X142.659 Y201.118 E28.46355
G1 X141.844 Y201.688 E28.54294
G1 X141.701 Y201.781 E28.55655
G1 X140.915 Y202.249 E28.62957
G1 X140.796 Y202.315 E28.64044
G1 X139.964 Y202.732 E28.71472
G1 X139.835 Y202.792 E28.72608
G1 X139.335 Y203.007 E28.76953
G1 X138.587 Y203.31 E28.83395
G1 X138.469 Y203.355 E28.84403
G1 X137.233 Y203.788 E28.94857
G1 X137.097 Y203.833 E28.96001
G1 X136.707 Y203.947 E28.99244
G1 X135.881 Y204.163 E29.06059
G1 X135.548 Y204.242 E29.08791
G1 X135.447 Y204.262 E29.09613
G1 X134.241 Y204.483 E29.194
G1 X134.09 Y204.506 E29.20619
G1 X133.837 Y204.54 E29.22657
G1 X133.736 Y204.551 E29.23468
G1 X132.367 Y204.67 E29.34437
G1 X132.266 Y204.675 E29.35245
G1 X131.815 Y204.691 E29.38847
G1 X131.243 Y204.701 E29.43414
G1 X111.34 Y204.701 E31.02288
G1 X111.262 Y204.699 E31.02911
G1 X110.052 Y204.649 E31.12578
G1 X107.53 Y204.437 E31.3278
G1 X106.586 Y204.323 E31.40371
G1 X106.374 Y204.288 E31.42086
G1 X105.16 Y204.038 E31.5198
G1 X105.034 Y204.008 E31.53014
G1 X102.752 Y203.418 E31.71829
G1 X102.646 Y203.388 E31.72708
G1 X101.792 Y203.133 E31.79822
G1 X101.566 Y203.056 E31.81728
G1 X100.383 Y202.59 E31.91878
G1 X100.315 Y202.561 E31.92468
G1 X98.056 Y201.544 E32.12243
G1 X97.957 Y201.497 E32.13118
G1 X97.144 Y201.094 E32.20361
G1 X96.967 Y200.997 E32.21972
G1 X95.938 Y200.378 E32.31558
G1 X95.821 Y200.303 E32.32667
G1 X93.89 Y199.015 E32.51196
G1 X93.768 Y198.93 E32.52383
G1 X93.061 Y198.419 E32.59346
G1 X92.886 Y198.282 E32.6112
G1 X91.956 Y197.485 E32.70897
G1 X91.869 Y197.406 E32.71835
G1 X90.161 Y195.797 E32.90566
G1 X90.076 Y195.712 E32.91525
G1 X89.148 Y194.75 E33.02195
G1 X89.037 Y194.626 E33.03524
G1 X89.004 Y194.587 E33.03931
G1 X84.246 Y189.268 E33.60898
G1 X83.728 Y188.654 E33.67311
G1 X82.737 Y187.417 E33.79963
G1 X81.975 Y186.376 E33.90261
G1 X81.912 Y186.284 E33.91151
G1 X76.796 Y178.594 E34.64879
G1 X76.756 Y178.532 E34.65468
G1 X76.264 Y177.735 E34.72945
G1 X76.223 Y177.667 E34.73579
G1 X71.672 Y169.689 E35.46896
G1 X71.176 Y168.748 E35.55387
G1 X67.118 Y160.383 E36.29602
G1 X67.074 Y160.287 E36.30445
G1 X66.718 Y159.482 E36.37471
G1 X66.673 Y159.377 E36.38383
G1 X63.168 Y150.678 E37.13247
G1 X62.833 Y149.762 E37.21033
G1 X60.029 Y141.176 E37.93132
G1 X59.993 Y141.059 E37.94109
G1 X59.752 Y140.226 E38.01031
G1 X59.717 Y140.096 E38.02106
G1 X57.342 Y130.73 E38.79236
G1 X57.126 Y129.745 E38.87285
G1 X55.49 Y120.806 E39.59825
G1 X55.344 Y119.817 E39.67805
G1 X55.334 Y119.746 E39.68378
G1 X54.543 Y112.712 E40.2488
G1 X54.513 Y112.373 E40.27597
G1 X54.493 Y112.193 E40.29042
G1 X54.291 Y110.555 E40.42217
G1 X54.284 Y110.484 E40.42786
G1 X54.194 Y109.392 E40.51533
G1 X54.186 Y109.251 E40.5266
G1 X53.8 Y100.162 E41.25278
G1 X53.786 Y99.552 E41.30148
G1 X53.786 Y98.77 E41.3639
G1 X53.79 Y98.437 E41.39049
G1 X53.98 Y89.982 E42.06557
G1 X54.04 Y88.947 E42.14833
G1 X54.918 Y79.585 E42.89892
G1 X55.038 Y78.633 E42.97552
G1 X56.565 Y69.073 E43.74831
G1 X56.76 Y68.08 E43.82909
G1 X58.789 Y59.33 E44.54609
G1 X59.009 Y58.51 E44.61386
G1 X59.038 Y58.407 E44.6224
G1 X61.798 Y49.309 E45.38132
G1 X62.116 Y48.372 E45.46031
G1 X65.103 Y40.447 E46.13636
G1 X65.132 Y40.374 E46.14263
G1 X65.547 Y39.391 E46.2278
G1 X65.585 Y39.306 E46.23524
G1 X68.836 Y32.374 E46.84641
G0 F12000 X68.8 Y32.45
G1 F1800 X68.8 Y163.85 E57.33532
G1 F2700 E52.33532
G1 F300 Z0.74
G0 F12000 X67.2 Y160.552 Z0.74
G1 F300 Z0.24
G1 F2700 E57.33532
G1 F1800 X67.2 Y35.862 E67.28862
G1 F2700 E62.28862
G1 F300 Z0.74
G0 F12000 X65.6 Y39.274 Z0.74
G1 F300 Z0.24
G1 F2700 E67.28862
G1 F1800 X65.6 Y156.713 E76.66311
G1 F2700 E71.66311
G1 F300 Z0.74
G0 F12000 X64 Y152.742 Z0.74
G1 F300 Z0.24
G1 F2700 E76.66311
G1 F1800 X64 Y43.373 E85.39342
G1 F2700 E80.39342
G1 F300 Z0.74
G0 F12000 X62.4 Y47.618 Z0.74
G1 F300 Z0.24
G1 F2700 E85.39342
G1 F1800 X62.4 Y148.436 E93.44114
G1 F2700 E88.44114
G1 F300 Z0.74
G0 F12000 X60.8 Y143.536 Z0.74
G1 F300 Z0.24
G1 F2700 E93.44114
G1 F1800 X60.8 Y52.598 E100.70021
G1 F2700 E95.70021
G1 F300 Z0.74
G0 F12000 X59.2 Y57.872 Z0.74
G1 F300 Z0.24
G1 F2700 E100.70021
G1 F1800 X59.2 Y138.057 E107.10092
G1 F2700 E102.10092
G1 F300 Z0.74
G0 F12000 X57.6 Y131.747 Z0.74
G1 F300 Z0.24
G1 F2700 E107.10092
G1 F1800 X57.6 Y64.457 E112.4723
G1 F2700 E107.4723
G1 F300 Z0.74
G0 F12000 X56 Y72.61 Z0.74
G1 F300 Z0.24
G1 F2700 E112.4723
G1 F1800 X56 Y123.592 E116.5419
G1 F2700 E111.5419
G1 F300 Z0.74
G0 F12000 X54.4 Y111.438 Z0.74
G1 F300 Z0.24
G1 F2700 E116.5419
G1 F1800 X54.4 Y85.108 E118.64368
G1 F2700 E113.64368
G1 F300 Z0.74
G0 F12000 X70.4 Y29.545 Z0.74
G1 F300 Z0.24
G1 F2700 E118.64368
G1 F1800 X70.4 Y167.148 E129.62774
G1 F2700 E124.62774
G1 F300 Z0.74
G0 F12000 X72 Y170.263 Z0.74
G1 F300 Z0.24
G1 F2700 E129.62774
G1 F1800 X72 Y27.148 E141.0518
G1 F2700 E136.0518
G1 F300 Z0.74
G0 F12000 X73.6 Y25.194 Z0.74
G1 F300 Z0.24
G1 F2700 E141.0518
G1 F1800 X73.6 Y173.068 E152.85575
G1 F2700 E147.85575
G1 F300 Z0.74
G0 F12000 X75.2 Y175.873 Z0.74
G1 F300 Z0.24
G1 F2700 E152.85575
G1 F1800 X75.2 Y23.539 E165.0157
