;FLAVOR:Marlin
;TIME:14379
;Filament used: 14.8932m
;Layer height: 0.2
;MINX:53.584
;MINY:15.123
;MINZ:0.24
;MAXX:166.415
;MAXY:204.9
;MAXZ:8.99
;Generated with Cura_SteamEngine master
M140 S70
M105
M190 S70
M104 S200
M105
M109 S200
M82 ;absolute extrusion mode
M201 X500.00 Y500.00 Z100.00 E5000.00 ;Setup machine max acceleration
M203 X500.00 Y500.00 Z10.00 E50.00 ;Setup machine max feedrate
M204 P500.00 R1000.00 T500.00 ;Setup Print/Retract/Travel acceleration
M205 X8.00 Y8.00 Z0.40 E5.00 ;Setup Jerk
M220 S100 ;Reset Feedrate
M221 S100 ;Reset Flowrate

G28 ;Home

G92 E0 ;Reset Extruder
G1 Z2.0 F3000 ;Move Z Axis up
G1 X10.1 Y20 Z0.28 F5000.0 ;Move to start position
G1 X10.1 Y200.0 Z0.28 F1500.0 E15 ;Draw the first line
G1 X10.4 Y200.0 Z0.28 F5000.0 ;Move to side a little
G1 X10.4 Y20 Z0.28 F1500.0 E30 ;Draw the second line
G92 E0 ;Reset Extruder
G1 Z2.0 F3000 ;Move Z Axis up

G92 E0
G92 E0
G1 F2700 E-5
;LAYER_COUNT:37
;LAYER:-6
M107
G0 F12000 X62.22 Y37.704 Z0.24
;TYPE:SUPPORT-INTERFACE
G1 F2700 E0
G1 F1800 X62.32 Y37.553 E0.01446
G1 X62.831 Y36.839 E0.08454
G1 X62.944 Y36.691 E0.09941
G1 X63.521 Y35.999 E0.17133
G1 X63.617 Y35.891 E0.18286
G1 X64.1 Y35.38 E0.23899
G1 X64.099 Y35.379 E0.2391
G1 X64.256 Y35.223 E0.25677
G1 X64.952 Y34.577 E0.33257
G1 X65.091 Y34.458 E0.34718
G1 X65.782 Y33.904 E0.41788
G1 X65.921 Y33.8 E0.43173
G1 X66.636 Y33.308 E0.50102
G1 X66.82 Y33.191 E0.51842
G1 X67.576 Y32.748 E0.58837
G1 X67.718 Y32.671 E0.60126
G1 X68.55 Y32.262 E0.67526
G1 X68.663 Y32.212 E0.68513
G1 X69.518 Y31.867 E0.75872
G1 X69.685 Y31.807 E0.77289
G1 X70.524 Y31.538 E0.84322
G1 X70.688 Y31.492 E0.85682
G1 X71.56 Y31.28 E0.92845
G1 X71.722 Y31.247 E0.94165
G1 X72.615 Y31.099 E1.0139
G1 X72.792 Y31.076 E1.02815
G1 X73.686 Y30.993 E1.09982
G1 X73.828 Y30.986 E1.11117
G1 X74.569 Y30.965 E1.17034
G1 X93.442 Y30.965 E2.67687
G1 X94.11 Y30.923 E2.7303
G1 X94.781 Y30.794 E2.78484
G1 X95.43 Y30.581 E2.83936
G1 X96.047 Y30.289 E2.89385
G1 X96.622 Y29.921 E2.94835
G1 X97.149 Y29.48 E3.0032
G1 X97.741 Y28.815 E3.07427
G1 X98.45 Y27.869 E3.16864
G1 X98.515 Y27.786 E3.17705
G1 X99.516 Y26.569 E3.30284
G1 X100.167 Y25.834 E3.38122
G1 X100.27 Y25.724 E3.39324
G1 X100.716 Y25.278 E3.44359
G1 X101.172 Y24.841 E3.49401
G1 X101.173 Y24.842 E3.49412
G1 X101.271 Y24.752 E3.50474
G1 X101.931 Y24.163 E3.57536
G1 X102.019 Y24.087 E3.58464
G1 X102.703 Y23.519 E3.65561
G1 X102.776 Y23.461 E3.66305
G1 X103.503 Y22.902 E3.73625
G1 X103.634 Y22.806 E3.74922
G1 X104.131 Y22.468 E3.7972
G1 X105.104 Y21.84 E3.88964
G1 X105.706 Y21.472 E3.94596
G1 X109.478 Y19.289 E4.29385
G1 X109.578 Y19.234 E4.30296
G1 X110.621 Y18.689 E4.39689
G1 X112.88 Y17.626 E4.59618
G1 X113.744 Y17.259 E4.67112
G1 X113.928 Y17.19 E4.6868
G1 X115.166 Y16.78 E4.7909
G1 X117.521 Y16.12 E4.98613
G1 X117.627 Y16.093 E4.99487
G1 X118.524 Y15.877 E5.06851
G1 X118.7 Y15.842 E5.08284
G1 X119.889 Y15.659 E5.17887
G1 X120.055 Y15.637 E5.19223
G1 X122.312 Y15.396 E5.37342
G1 X123.254 Y15.33 E5.4488
G1 X123.439 Y15.324 E5.46358
G1 X124.666 Y15.339 E5.56153
G1 X124.762 Y15.342 E5.56919
G1 X127.272 Y15.491 E5.76991
G1 X127.417 Y15.502 E5.78151
G1 X128.304 Y15.587 E5.85264
G1 X128.51 Y15.615 E5.86924
G1 X129.681 Y15.823 E5.96417
G1 X131.984 Y16.333 E6.15246
G1 X132.952 Y16.583 E6.23227
G1 X133.139 Y16.64 E6.24787
G1 X134.321 Y17.058 E6.34795
G1 X134.439 Y17.102 E6.35801
G1 X136.645 Y18.002 E6.54819
G1 X137.545 Y18.407 E6.62697
G1 X137.688 Y18.479 E6.63975
G1 X138.738 Y19.061 E6.73558
G1 X138.872 Y19.139 E6.74796
G1 X140.798 Y20.328 E6.92863
G1 X140.89 Y20.386 E6.93732
G1 X141.44 Y20.744 E6.9897
G1 X141.514 Y20.796 E6.99692
G1 X142.289 Y21.365 E7.07367
G1 X142.386 Y21.441 E7.0835
G1 X142.906 Y21.873 E7.13747
G1 X144.691 Y23.437 E7.32691
G1 X144.768 Y23.507 E7.33522
G1 X145.438 Y24.139 E7.40874
G1 X145.572 Y24.276 E7.42404
G1 X146.364 Y25.156 E7.51854
G1 X146.437 Y25.241 E7.52749
G1 X148.003 Y27.152 E7.72471
G1 X148.568 Y27.894 E7.79915
G1 X148.684 Y28.059 E7.81525
G1 X149.309 Y29.04 E7.9081
G1 X149.369 Y29.138 E7.91728
G1 X150.526 Y31.14 E8.10185
G1 X151.078 Y32.196 E8.19697
G1 X151.148 Y32.337 E8.20953
G1 X154.425 Y39.326 E8.82571
G1 X154.457 Y39.398 E8.832
G1 X154.865 Y40.361 E8.91548
G1 X154.919 Y40.497 E8.92716
G1 X157.866 Y48.313 E9.59395
G1 X157.898 Y48.403 E9.60157
G1 X158.2 Y49.289 E9.67629
G1 X160.96 Y58.39 E10.43544
G1 X161.224 Y59.376 E10.51692
G1 X163.231 Y68.039 E11.22676
G1 X163.256 Y68.153 E11.23607
G1 X163.429 Y69.036 E11.3079
G1 X163.45 Y69.15 E11.31715
G1 X164.956 Y78.591 E12.0803
G1 X164.971 Y78.696 E12.08877
G1 X165.077 Y79.542 E12.15683
G1 X165.09 Y79.652 E12.16567
G1 X165.959 Y88.913 E12.90817
G1 X166.02 Y89.965 E12.99229
G1 X166.211 Y98.489 E13.67288
G1 X166.215 Y98.82 E13.6993
G1 X166.215 Y99.477 E13.75175
G1 X166.202 Y100.068 E13.79893
G1 X165.786 Y109.453 E14.54882
G1 X165.739 Y110.149 E14.60451
G1 X165.7 Y110.53 E14.63508
G1 X164.67 Y119.703 E15.37191
G1 X164.658 Y119.797 E15.37947
G1 X164.517 Y120.762 E15.45732
G1 X162.878 Y129.716 E16.18394
G1 X162.855 Y129.83 E16.19323
G1 X162.653 Y130.755 E16.2688
G1 X160.25 Y140.235 E17.04947
G1 X159.968 Y141.207 E17.13026
G1 X157.202 Y149.69 E17.8425
G1 X156.853 Y150.649 E17.92396
G1 X153.338 Y159.344 E18.6726
G1 X152.942 Y160.239 E18.75072
G1 X148.829 Y168.747 E19.50507
G1 X148.785 Y168.833 E19.51278
G1 X148.34 Y169.677 E19.58894
G1 X143.711 Y177.774 E20.33344
G1 X143.22 Y178.569 E20.40803
G1 X138.085 Y186.283 E21.14775
G1 X137.993 Y186.414 E21.16053
G1 X137.148 Y187.544 E21.27316
G1 X137.056 Y187.661 E21.28504
G1 X136.916 Y187.83 E21.30256
G1 X136.751 Y188.037 E21.32369
G1 X136.378 Y188.517 E21.37222
G1 X136.187 Y188.752 E21.39639
G1 X136.186 Y188.751 E21.3965
G1 X135.727 Y189.293 E21.4532
G1 X135.67 Y189.359 E21.46016
G1 X130.81 Y194.792 E22.04204
G1 X130.739 Y194.874 E22.0507
G1 X130.619 Y195.005 E22.06488
G1 X129.924 Y195.71 E22.1439
G1 X129.846 Y195.787 E22.15265
G1 X128.106 Y197.423 E22.3433
G1 X128.026 Y197.496 E22.35194
G1 X127.326 Y198.106 E22.42606
G1 X127.181 Y198.222 E22.44088
G1 X126.207 Y198.942 E22.53757
G1 X126.129 Y198.997 E22.54518
G1 X124.125 Y200.337 E22.73762
G1 X123.284 Y200.857 E22.81655
G1 X123.132 Y200.943 E22.83049
G1 X122.01 Y201.511 E22.93087
G1 X121.91 Y201.558 E22.93969
G1 X119.686 Y202.558 E23.13434
G1 X119.585 Y202.601 E23.14311
G1 X118.762 Y202.936 E23.21404
G1 X118.525 Y203.021 E23.23413
G1 X117.336 Y203.388 E23.33346
G1 X117.18 Y203.432 E23.3464
G1 X114.802 Y204.04 E23.54233
G1 X113.872 Y204.243 E23.61832
G1 X113.729 Y204.267 E23.62989
G1 X112.46 Y204.435 E23.73207
G1 X112.401 Y204.441 E23.73681
G1 X109.971 Y204.646 E23.93147
G1 X108.721 Y204.698 E24.03133
G1 X108.644 Y204.7 E24.03748
G1 X88.736 Y204.7 E25.62663
G1 X88.625 Y204.698 E25.63549
G1 X87.584 Y204.658 E25.71865
G1 X86.951 Y204.61 E25.76932
G1 X86.843 Y204.599 E25.77798
G1 X85.475 Y204.422 E25.88809
G1 X85.338 Y204.4 E25.89917
G1 X84.888 Y204.319 E25.93567
G1 X84.744 Y204.29 E25.94739
G1 X83.365 Y203.966 E26.06047
G1 X83.237 Y203.932 E26.07104
G1 X83.124 Y203.897 E26.08048
G1 X82.229 Y203.602 E26.15571
G1 X81.439 Y203.314 E26.22283
G1 X81.331 Y203.272 E26.23208
G1 X80.477 Y202.926 E26.30563
G1 X80.311 Y202.853 E26.32011
G1 X79.534 Y202.47 E26.38926
G1 X79.334 Y202.36 E26.40748
G1 X78.145 Y201.633 E26.51872
G1 X78.02 Y201.551 E26.53066
G1 X77.259 Y201.028 E26.60437
G1 X77.258 Y201.029 E26.60448
G1 X76.423 Y200.41 E26.68745
G1 X76.274 Y200.289 E26.70277
G1 X75.278 Y199.408 E26.80892
G1 X75.279 Y199.407 E26.80903
G1 X75.206 Y199.339 E26.81699
G1 X75.205 Y199.34 E26.81711
G1 X74.642 Y198.785 E26.88021
G1 X74.545 Y198.686 E26.89128
G1 X73.93 Y198.035 E26.96276
G1 X73.805 Y197.891 E26.97798
G1 X72.992 Y196.87 E27.08217
G1 X72.922 Y196.779 E27.09133
G1 X72.475 Y196.154 E27.15267
G1 X71.954 Y195.37 E27.22781
G1 X71.847 Y195.191 E27.24446
G1 X71.198 Y193.996 E27.35301
G1 X71.137 Y193.876 E27.36375
G1 X70.814 Y193.2 E27.42356
G1 X70.402 Y192.252 E27.50607
G1 X70.348 Y192.111 E27.51812
G1 X69.987 Y191.06 E27.60683
G1 X69.958 Y190.967 E27.6146
G1 X69.914 Y190.817 E27.62708
G1 X69.879 Y190.69 E27.6376
G1 X69.774 Y190.266 E27.67246
G1 X69.522 Y189.316 E27.75092
G1 X69.478 Y189.113 E27.7675
G1 X69.253 Y187.808 E27.87321
G1 X69.231 Y187.652 E27.88578
G1 X69.048 Y186.135 E28.00775
G1 X69.04 Y186.057 E28.01401
G1 X68.958 Y185.067 E28.09331
G1 X68.953 Y184.957 E28.1021
G1 X68.943 Y184.042 E28.17514
G1 X68.947 Y183.872 E28.18872
G1 X69.008 Y182.916 E28.26518
G1 X69.008 Y182.245 E28.31875
G1 X68.922 Y181.567 E28.3733
G1 X68.751 Y180.906 E28.4278
G1 X68.497 Y180.272 E28.48232
G1 X68.167 Y179.675 E28.53677
G1 X67.762 Y179.125 E28.59129
G1 X67.292 Y178.629 E28.64584
G1 X66.764 Y178.197 E28.7003
G1 X66.184 Y177.835 E28.75487
G1 X65.565 Y177.551 E28.80924
G1 X64.995 Y177.367 E28.85705
G1 X64.398 Y177.211 E28.9063
G1 X64.211 Y177.154 E28.92191
G1 X63.383 Y176.871 E28.99176
G1 X63.192 Y176.798 E29.00808
G1 X62.404 Y176.463 E29.07643
G1 X62.215 Y176.375 E29.09307
G1 X61.421 Y175.967 E29.16433
G1 X61.304 Y175.9 E29.17509
G1 X60.525 Y175.426 E29.24788
G1 X60.374 Y175.326 E29.26234
G1 X59.656 Y174.813 E29.33278
G1 X59.515 Y174.703 E29.34705
G1 X58.811 Y174.119 E29.42007
G1 X58.715 Y174.033 E29.43036
G1 X58.2 Y173.546 E29.48694
G1 X58.199 Y173.547 E29.48705
G1 X58.039 Y173.386 E29.50517
G1 X57.395 Y172.692 E29.58074
G1 X57.278 Y172.555 E29.59512
G1 X56.724 Y171.864 E29.66582
G1 X56.62 Y171.725 E29.67968
G1 X56.128 Y171.01 E29.74896
G1 X56.011 Y170.826 E29.76637
G1 X55.568 Y170.07 E29.83631
G1 X55.491 Y169.928 E29.8492
G1 X55.082 Y169.096 E29.92321
G1 X55.032 Y168.983 E29.93307
G1 X54.684 Y168.122 E30.0072
G1 X54.627 Y167.961 E30.02084
G1 X54.355 Y167.113 E30.09192
G1 X54.309 Y166.949 E30.10552
G1 X54.098 Y166.077 E30.17714
G1 X54.065 Y165.916 E30.19026
G1 X53.918 Y165.026 E30.26226
G1 X53.896 Y164.854 E30.2761
G1 X53.813 Y163.955 E30.34817
G1 X53.806 Y163.818 E30.35912
G1 X53.785 Y163.085 E30.41766
G1 X53.785 Y140.019 E32.25888
G1 X53.821 Y139.013 E32.33924
G1 X53.831 Y138.878 E32.35004
G1 X53.933 Y137.961 E32.42369
G1 X53.958 Y137.786 E32.43781
G1 X54.12 Y136.908 E32.50907
G1 X54.15 Y136.774 E32.52004
G1 X54.381 Y135.889 E32.59305
G1 X54.433 Y135.717 E32.60739
G1 X54.719 Y134.875 E32.67837
G1 X54.783 Y134.709 E32.69258
G1 X55.124 Y133.906 E32.76222
G1 X55.205 Y133.731 E32.77761
G1 X55.62 Y132.923 E32.85012
G1 X55.687 Y132.806 E32.86088
G1 X56.161 Y132.027 E32.93367
G1 X56.261 Y131.876 E32.94813
G1 X56.771 Y131.163 E33.0181
G1 X56.887 Y131.012 E33.0333
G1 X57.462 Y130.322 E33.105
G1 X57.558 Y130.214 E33.11653
G1 X58.041 Y129.703 E33.17266
G1 X58.04 Y129.702 E33.17277
G1 X58.197 Y129.546 E33.19044
G1 X58.893 Y128.9 E33.26624
G1 X59.032 Y128.781 E33.28085
G1 X59.723 Y128.227 E33.35154
G1 X59.862 Y128.123 E33.3654
G1 X60.577 Y127.631 E33.43468
G1 X60.761 Y127.514 E33.45209
G1 X61.517 Y127.071 E33.52203
G1 X61.659 Y126.994 E33.53493
G1 X62.491 Y126.585 E33.60893
G1 X62.604 Y126.535 E33.6188
G1 X63.459 Y126.19 E33.69239
G1 X63.626 Y126.13 E33.70656
G1 X64.465 Y125.861 E33.77689
G1 X64.629 Y125.815 E33.79048
G1 X65.501 Y125.603 E33.86212
G1 X65.663 Y125.57 E33.87532
G1 X66.556 Y125.422 E33.94757
G1 X66.733 Y125.399 E33.96182
G1 X67.621 Y125.318 E34.033
G1 X67.769 Y125.309 E34.04483
G1 X68.511 Y125.288 E34.10409
G1 X98.826 Y125.286 E36.52396
G1 X99.494 Y125.244 E36.57739
G1 X100.165 Y125.115 E36.63193
G1 X100.815 Y124.902 E36.68653
G1 X101.431 Y124.609 E36.74098
G1 X102.006 Y124.241 E36.79548
G1 X102.53 Y123.804 E36.84994
G1 X102.995 Y123.304 E36.90445
G1 X103.393 Y122.748 E36.95903
G1 X103.718 Y122.145 E37.01371
G1 X104.009 Y121.358 E37.08069
G1 X104.394 Y119.983 E37.19467
G1 X104.484 Y119.61 E37.2253
G1 X105.736 Y113.418 E37.72957
G1 X105.798 Y113.036 E37.76046
G1 X106.613 Y106.562 E38.28132
G1 X106.646 Y106.194 E38.31082
G1 X106.988 Y99.882 E38.81541
G1 X106.994 Y99.493 E38.84646
G1 X106.856 Y92.843 E39.37741
G1 X106.835 Y92.471 E39.40715
G1 X106.268 Y86.343 E39.8984
G1 X106.164 Y85.682 E39.95182
G1 X105.974 Y85.026 E40.00633
G1 X105.703 Y84.4 E40.06079
G1 X105.355 Y83.812 E40.11533
G1 X104.935 Y83.273 E40.16987
G1 X104.451 Y82.791 E40.2244
G1 X103.91 Y82.376 E40.27882
G1 X103.321 Y82.03 E40.33335
G1 X102.693 Y81.762 E40.38786
G1 X102.036 Y81.575 E40.44238
G1 X101.365 Y81.474 E40.49655
G1 X100.901 Y81.454 E40.53362
G1 X74.558 Y81.453 E42.63643
G1 X73.557 Y81.417 E42.71639
G1 X73.434 Y81.408 E42.72624
G1 X72.517 Y81.306 E42.79989
G1 X72.342 Y81.281 E42.814
G1 X71.453 Y81.117 E42.88616
G1 X71.33 Y81.089 E42.89623
G1 X70.436 Y80.855 E42.96999
G1 X70.273 Y80.806 E42.98358
G1 X69.431 Y80.52 E43.05456
G1 X69.265 Y80.456 E43.06877
G1 X68.462 Y80.115 E43.13841
G1 X68.273 Y80.027 E43.15505
G1 X67.479 Y79.619 E43.22631
G1 X67.362 Y79.552 E43.23707
G1 X66.583 Y79.078 E43.30986
G1 X66.432 Y78.978 E43.32432
G1 X65.718 Y78.467 E43.3944
G1 X65.57 Y78.354 E43.40927
G1 X64.878 Y77.777 E43.48119
G1 X64.77 Y77.681 E43.49272
G1 X64.259 Y77.198 E43.54885
G1 X64.258 Y77.199 E43.54896
G1 X64.098 Y77.038 E43.56708
G1 X63.454 Y76.344 E43.64266
G1 X63.337 Y76.207 E43.65704
G1 X62.783 Y75.516 E43.72774
G1 X62.679 Y75.377 E43.74159
G1 X62.187 Y74.662 E43.81087
G1 X62.07 Y74.478 E43.82828
G1 X61.627 Y73.722 E43.89822
G1 X61.55 Y73.58 E43.91112
G1 X61.141 Y72.748 E43.98512
G1 X61.091 Y72.635 E43.99499
G1 X60.743 Y71.774 E44.06912
G1 X60.686 Y71.613 E44.08275
G1 X60.414 Y70.765 E44.15384
G1 X60.368 Y70.601 E44.16744
G1 X60.157 Y69.729 E44.23905
G1 X60.124 Y69.568 E44.25217
G1 X59.977 Y68.678 E44.32418
G1 X59.955 Y68.506 E44.33802
G1 X59.872 Y67.607 E44.41008
G1 X59.865 Y67.47 E44.42104
G1 X59.844 Y66.737 E44.47957
G1 X59.844 Y45.696 E46.15915
G1 X59.88 Y44.69 E46.23951
G1 X59.89 Y44.555 E46.25031
G1 X59.992 Y43.638 E46.32396
G1 X60.017 Y43.463 E46.33808
G1 X60.179 Y42.585 E46.40934
G1 X60.209 Y42.451 E46.42031
G1 X60.44 Y41.566 E46.49332
G1 X60.492 Y41.394 E46.50766
G1 X60.778 Y40.552 E46.57864
G1 X60.842 Y40.386 E46.59285
G1 X61.183 Y39.583 E46.66248
G1 X61.264 Y39.408 E46.67788
G1 X61.679 Y38.6 E46.75039
G1 X61.746 Y38.483 E46.76115
G1 X62.22 Y37.704 E46.83394
G0 F12000 X62.4 Y37.441
G1 F1800 X62.4 Y74.971 E49.82975
G1 F2700 E44.82975
G1 F300 Z0.74
G0 F12000 X64 Y76.932 Z0.74
G1 F300 Z0.24
G1 F2700 E49.82975
G1 F1800 X64 Y35.485 E53.13822
G1 F2700 E48.13822
G1 F300 Z0.74
G0 F12000 X65.6 Y34.049 Z0.74
G1 F300 Z0.24
G1 F2700 E53.13822
G1 F1800 X65.6 Y78.376 E56.6766
G1 F2700 E51.6766
G1 F300 Z0.74
G0 F12000 X67.2 Y79.453 Z0.74
G1 F300 Z0.24
G1 F2700 E56.6766
G1 F1800 X67.2 Y32.968 E60.38723
G1 F2700 E55.38723
G1 F300 Z0.74
G0 F12000 X68.8 Y32.156 Z0.74
G1 F300 Z0.24
G1 F2700 E60.38723
G1 F1800 X68.8 Y80.258 E64.22694
G1 F2700 E59.22694
G1 F300 Z0.74
G0 F12000 X70.4 Y80.844 Z0.74
G1 F300 Z0.24
G1 F2700 E64.22694
G1 F1800 X70.4 Y31.577 E68.15964
G1 F2700 E63.15964
G1 F300 Z0.74
G0 F12000 X72 Y31.2 Z0.74
G1 F300 Z0.24
G1 F2700 E68.15964
G1 F1800 X72 Y81.217 E72.15222
G1 F2700 E67.15222
G1 F300 Z0.74
G0 F12000 X73.6 Y81.418 Z0.74
G1 F300 Z0.24
G1 F2700 E72.15222
G1 F1800 X73.6 Y31 E76.1768
G1 F2700 E71.1768
G1 F300 Z0.74
G0 F12000 X75.2 Y30.965 Z0.74
G1 F300 Z0.24
G1 F2700 E76.1768
G1 F1800 X75.2 Y81.453 E80.20697
G1 F2700 E75.20697
G1 F300 Z0.74
G0 F12000 X76.8 Y81.453 Z0.74
G1 F300 Z0.24
G1 F2700 E80.20697
G1 F1800 X76.8 Y30.965 E84.23714
G1 F2700 E79.23714
G1 F300 Z0.74
G0 F12000 X78.4 Y30.965 Z0.74
G1 F300 Z0.24
G1 F2700 E84.23714
G1 F1800 X78.4 Y81.453 E88.26731
G1 F2700 E83.26731
G1 F300 Z0.74
G0 F12000 X80 Y81.453 Z0.74
G1 F300 Z0.24
G1 F2700 E88.26731
G1 F1800 X80 Y30.965 E92.29748
G1 F2700 E87.29748
G1 F300 Z0.74
G0 F12000 X81.6 Y30.965 Z0.74
G1 F300 Z0.24
G1 F2700 E92.29748
G1 F1800 X81.6 Y81.453 E96.32765
G1 F2700 E91.32765
G1 F300 Z0.74
G0 F12000 X83.2 Y81.453 Z0.74
G1 F300 Z0.24
G1 F2700 E96.32765
G1 F1800 X83.2 Y30.965 E100.35782
G1 F2700 E95.35782
G1 F300 Z0.74
G0 F12000 X84.8 Y30.965 Z0.74
G1 F300 Z0.24
G1 F2700 E100.35782
G1 F1800 X84.8 Y81.453 E104.38799
G1 F2700 E99.38799
G1 F300 Z0.74
G0 F12000 X86.4 Y81.453 Z0.74
G1 F300 Z0.24
G1 F2700 E104.38799
G1 F1800 X86.4 Y30.965 E108.41816
G1 F2700 E103.41816
G1 F300 Z0.74
G0 F12000 X88 Y30.965 Z0.74
G1 F300 Z0.24
