;FLAVOR:Marlin
;TIME:3427
;Filament used: 3.1231m
;Layer height: 0.2
;MINX:23.704
;MINY:89.427
;MINZ:0.24
;MAXX:196.295
;MAXY:130.572
;MAXZ:3.59
;Generated with Cura_SteamEngine 4.8.0
M140 S70
M105
M190 S70
M104 S200
M105
M109 S200
M82 ;absolute extrusion mode
M201 X500.00 Y500.00 Z100.00 E5000.00 ;Setup machine max acceleration
M203 X500.00 Y500.00 Z10.00 E50.00 ;Setup machine max feedrate
M204 P500.00 R1000.00 T500.00 ;Setup Print/Retract/Travel acceleration
M205 X8.00 Y8.00 Z0.40 E5.00 ;Setup Jerk
M220 S100 ;Reset Feedrate
M221 S100 ;Reset Flowrate

G28 ;Home
G29 ;Auto level bed

G92 E0 ;Reset Extruder
G1 Z2.0 F3000 ;Move Z Axis up
G1 X10.1 Y20 Z0.28 F5000.0 ;Move to start position
G1 X10.1 Y200.0 Z0.28 F1500.0 E15 ;Draw the first line
G1 X10.4 Y200.0 Z0.28 F5000.0 ;Move to side a little
G1 X10.4 Y20 Z0.28 F1500.0 E30 ;Draw the second line
G92 E0 ;Reset Extruder
G1 Z2.0 F3000 ;Move Z Axis up
G92 E0
G92 E0
G1 F2700 E-5
;LAYER_COUNT:10
;LAYER:-6
M107
G0 F12000 X29.096 Y94.75 Z0.24
;TYPE:SUPPORT-INTERFACE
G1 F2700 E0
G1 F1800 X29.241 Y94.707 E0.01207
G1 X29.796 Y94.559 E0.05792
G1 X29.942 Y94.526 E0.06987
G1 X30.459 Y94.427 E0.11189
G1 X30.631 Y94.403 E0.12575
G1 X31.05 Y94.38 E0.15925
G1 X31.18 Y94.376 E0.16963
G1 X31.779 Y94.376 E0.21745
G1 X31.909 Y94.38 E0.22783
G1 X32.328 Y94.403 E0.26133
G1 X32.381 Y94.408 E0.26558
G1 X32.47 Y94.422 E0.27277
G1 X32.995 Y94.521 E0.31541
G1 X33.176 Y94.562 E0.33023
G1 X33.72 Y94.707 E0.37517
G1 X33.858 Y94.75 E0.38671
G1 X34.231 Y94.873 E0.41806
G1 X34.878 Y95.045 E0.4715
G1 X35.555 Y95.135 E0.52601
G1 X36.238 Y95.139 E0.58054
G1 X36.916 Y95.056 E0.63506
G1 X37.578 Y94.889 E0.68956
G1 X38.216 Y94.638 E0.74429
G1 X38.903 Y94.252 E0.80719
G1 X39.209 Y94.049 E0.8365
G1 X39.349 Y93.963 E0.84962
G1 X39.812 Y93.695 E0.89232
G1 X39.977 Y93.607 E0.90725
G1 X40.467 Y93.369 E0.95073
G1 X40.539 Y93.337 E0.95702
G1 X41.003 Y93.181 E0.9961
G1 X41.124 Y93.145 E1.00617
G1 X41.678 Y92.996 E1.05197
G1 X41.839 Y92.959 E1.06516
G1 X42.38 Y92.856 E1.10912
G1 X42.481 Y92.84 E1.11728
G1 X42.525 Y92.836 E1.12081
G1 X42.947 Y92.813 E1.15454
G1 X43.077 Y92.809 E1.16492
G1 X43.677 Y92.809 E1.21282
G1 X43.807 Y92.813 E1.2232
G1 X44.229 Y92.836 E1.25694
G1 X44.273 Y92.84 E1.26046
G1 X44.374 Y92.856 E1.26863
G1 X44.915 Y92.959 E1.31259
G1 X45.076 Y92.996 E1.32577
G1 X45.63 Y93.145 E1.37157
G1 X45.782 Y93.19 E1.38422
G1 X46.129 Y93.306 E1.41343
G1 X46.777 Y93.478 E1.46694
G1 X47.454 Y93.568 E1.52146
G1 X48.137 Y93.572 E1.57598
G1 X48.815 Y93.489 E1.63051
G1 X49.477 Y93.322 E1.68501
G1 X50.115 Y93.071 E1.73973
G1 X50.802 Y92.685 E1.80264
G1 X51.115 Y92.477 E1.83263
G1 X51.239 Y92.4 E1.84429
G1 X51.732 Y92.115 E1.88974
G1 X51.866 Y92.045 E1.90181
G1 X52.358 Y91.807 E1.94544
G1 X52.437 Y91.771 E1.95237
G1 X52.901 Y91.615 E1.99144
G1 X53.022 Y91.579 E2.00152
G1 X53.576 Y91.43 E2.04731
G1 X53.737 Y91.393 E2.0605
G1 X54.278 Y91.29 E2.10446
G1 X54.379 Y91.274 E2.11262
G1 X54.423 Y91.27 E2.11615
G1 X54.845 Y91.247 E2.14989
G1 X54.975 Y91.243 E2.16027
G1 X55.574 Y91.243 E2.20808
G1 X55.704 Y91.247 E2.21847
G1 X56.128 Y91.27 E2.25236
G1 X56.271 Y91.29 E2.26389
G1 X56.814 Y91.394 E2.30802
G1 X56.968 Y91.429 E2.32063
G1 X57.518 Y91.577 E2.36609
G1 X57.673 Y91.623 E2.379
G1 X58.026 Y91.741 E2.40871
G1 X58.674 Y91.913 E2.46223
G1 X59.351 Y92.003 E2.51674
G1 X60.034 Y92.007 E2.57126
G1 X60.712 Y91.924 E2.62579
G1 X61.374 Y91.757 E2.68029
G1 X62.012 Y91.506 E2.73501
G1 X62.713 Y91.111 E2.79924
G1 X63.008 Y90.915 E2.82752
G1 X63.126 Y90.841 E2.83863
G1 X63.623 Y90.553 E2.88449
G1 X63.776 Y90.471 E2.89834
G1 X64.229 Y90.252 E2.93851
G1 X64.343 Y90.202 E2.94844
G1 X64.391 Y90.184 E2.95254
G1 X64.789 Y90.051 E2.98603
G1 X64.934 Y90.008 E2.99811
G1 X65.489 Y89.86 E3.04396
G1 X65.635 Y89.827 E3.0559
G1 X66.152 Y89.728 E3.09792
G1 X66.324 Y89.704 E3.11179
G1 X66.743 Y89.681 E3.14528
G1 X66.873 Y89.677 E3.15567
G1 X67.472 Y89.677 E3.20348
G1 X67.602 Y89.681 E3.21386
G1 X68.021 Y89.704 E3.24736
G1 X68.074 Y89.709 E3.25161
G1 X68.163 Y89.723 E3.2588
G1 X68.688 Y89.822 E3.30145
G1 X68.869 Y89.863 E3.31626
G1 X69.413 Y90.008 E3.3612
G1 X69.551 Y90.051 E3.37274
G1 X69.973 Y90.191 E3.40823
G1 X70.016 Y90.207 E3.41189
G1 X70.082 Y90.236 E3.41765
G1 X70.586 Y90.481 E3.46238
G1 X70.712 Y90.548 E3.47377
G1 X71.207 Y90.835 E3.51945
G1 X71.353 Y90.925 E3.53314
G1 X71.715 Y91.167 E3.5679
G1 X71.784 Y91.216 E3.57465
G1 X71.859 Y91.277 E3.58237
G1 X72.211 Y91.584 E3.61965
G1 X72.313 Y91.678 E3.63072
G1 X72.746 Y92.111 E3.6796
G1 X72.833 Y92.205 E3.68983
G1 X73.147 Y92.565 E3.72796
G1 X73.219 Y92.653 E3.73704
G1 X73.42 Y92.952 E3.7658
G1 X73.826 Y93.484 E3.81922
G1 X74.306 Y93.97 E3.87374
G1 X74.843 Y94.392 E3.92826
G1 X75.429 Y94.742 E3.98275
G1 X76.055 Y95.017 E4.03732
G1 X76.709 Y95.209 E4.09173
G1 X77.383 Y95.318 E4.14623
G1 X78.063 Y95.341 E4.20055
G1 X78.596 Y95.298 E4.24323
G1 X81.397 Y94.931 E4.46873
G1 X82.054 Y94.802 E4.52217
G1 X82.702 Y94.587 E4.57667
G1 X83.318 Y94.292 E4.63119
G1 X83.891 Y93.921 E4.68568
G1 X84.416 Y93.48 E4.74041
G1 X84.962 Y92.869 E4.80582
G1 X85.317 Y92.405 E4.85246
G1 X85.428 Y92.269 E4.86647
G1 X85.75 Y91.9 E4.90556
G1 X85.782 Y91.866 E4.90929
G1 X85.84 Y91.812 E4.91562
G1 X86.205 Y91.492 E4.95437
G1 X86.327 Y91.392 E4.96696
G1 X86.77 Y91.054 E5.01144
G1 X86.927 Y90.94 E5.02692
G1 X87.323 Y90.674 E5.065
G1 X87.882 Y90.393 E5.11495
G1 X87.987 Y90.345 E5.12416
G1 X88.539 Y90.116 E5.17187
G1 X88.657 Y90.071 E5.18195
G1 X89.094 Y89.92 E5.21885
G1 X89.143 Y89.905 E5.22295
G1 X89.221 Y89.886 E5.22935
G1 X89.735 Y89.781 E5.27123
G1 X89.902 Y89.754 E5.28473
G1 X90.51 Y89.675 E5.33368
G1 X90.626 Y89.664 E5.34298
G1 X91.091 Y89.634 E5.38017
G1 X91.274 Y89.628 E5.39479
G1 X128.726 Y89.628 E8.38437
G1 X128.909 Y89.634 E8.39898
G1 X129.374 Y89.664 E8.43618
G1 X129.49 Y89.675 E8.44548
G1 X130.098 Y89.754 E8.49442
G1 X130.265 Y89.781 E8.50793
G1 X130.779 Y89.886 E8.5498
G1 X130.857 Y89.905 E8.55621
G1 X130.906 Y89.92 E8.5603
G1 X131.343 Y90.071 E8.59721
G1 X131.461 Y90.116 E8.60729
G1 X132.013 Y90.345 E8.65499
G1 X132.118 Y90.393 E8.66421
G1 X132.677 Y90.674 E8.71415
G1 X133.073 Y90.94 E8.75223
G1 X133.23 Y91.054 E8.76772
G1 X133.663 Y91.384 E8.81118
G1 X133.795 Y91.492 E8.82479
G1 X134.16 Y91.812 E8.86354
G1 X134.24 Y91.889 E8.8724
G1 X134.572 Y92.269 E8.91268
G1 X134.675 Y92.395 E8.92567
G1 X135.036 Y92.867 E8.97311
G1 X135.475 Y93.372 E9.02652
G1 X135.985 Y93.827 E9.08108
G1 X136.547 Y94.214 E9.13555
G1 X137.155 Y94.526 E9.1901
G1 X137.799 Y94.76 E9.24479
G1 X138.6 Y94.931 E9.31017
G1 X141.407 Y95.298 E9.53615
G1 X142.076 Y95.343 E9.58967
G1 X142.757 Y95.302 E9.64413
G1 X143.428 Y95.175 E9.69864
G1 X144.078 Y94.966 E9.75314
G1 X144.696 Y94.675 E9.80767
G1 X145.273 Y94.31 E9.86217
G1 X145.799 Y93.874 E9.91671
G1 X146.263 Y93.378 E9.97092
G1 X146.581 Y92.95 E10.01349
G1 X146.781 Y92.653 E10.04207
G1 X146.853 Y92.565 E10.05114
G1 X147.16 Y92.213 E10.08843
G1 X147.254 Y92.111 E10.0995
G1 X147.687 Y91.678 E10.14838
G1 X147.781 Y91.591 E10.1586
G1 X148.141 Y91.277 E10.19674
G1 X148.216 Y91.216 E10.20445
G1 X148.276 Y91.173 E10.21035
G1 X148.647 Y90.925 E10.24597
G1 X148.793 Y90.834 E10.2597
G1 X149.288 Y90.548 E10.30534
G1 X149.414 Y90.481 E10.31673
G1 X149.918 Y90.236 E10.36146
G1 X149.984 Y90.207 E10.36721
G1 X150.027 Y90.191 E10.37088
G1 X150.449 Y90.05 E10.40639
G1 X150.587 Y90.008 E10.41791
G1 X151.131 Y89.863 E10.46285
G1 X151.312 Y89.822 E10.47766
G1 X151.837 Y89.723 E10.52031
G1 X151.926 Y89.709 E10.5275
G1 X151.979 Y89.704 E10.53175
G1 X152.398 Y89.681 E10.56525
G1 X152.528 Y89.677 E10.57563
G1 X153.127 Y89.677 E10.62344
G1 X153.257 Y89.681 E10.63383
G1 X153.706 Y89.707 E10.66973
G1 X153.848 Y89.728 E10.68119
G1 X154.365 Y89.827 E10.7232
G1 X154.511 Y89.86 E10.73515
G1 X155.066 Y90.008 E10.781
G1 X155.211 Y90.051 E10.79308
G1 X155.609 Y90.184 E10.82657
G1 X155.657 Y90.202 E10.83067
G1 X155.771 Y90.252 E10.8406
G1 X156.224 Y90.471 E10.88077
G1 X156.377 Y90.553 E10.89462
G1 X156.874 Y90.841 E10.94048
G1 X156.992 Y90.915 E10.95159
G1 X157.284 Y91.11 E10.97962
G1 X157.864 Y91.447 E11.03317
G1 X158.493 Y91.712 E11.08765
G1 X159.15 Y91.897 E11.14214
G1 X159.826 Y91.996 E11.19667
G1 X160.508 Y92.01 E11.25112
G1 X161.189 Y91.939 E11.30578
G1 X161.971 Y91.742 E11.37015
G1 X162.327 Y91.623 E11.40011
G1 X162.482 Y91.577 E11.41302
G1 X163.032 Y91.429 E11.45849
G1 X163.186 Y91.394 E11.47109
G1 X163.729 Y91.29 E11.51522
G1 X163.872 Y91.27 E11.52675
G1 X164.296 Y91.247 E11.56065
G1 X164.426 Y91.243 E11.57103
G1 X165.025 Y91.243 E11.61884
G1 X165.155 Y91.247 E11.62923
G1 X165.577 Y91.27 E11.66296
G1 X165.621 Y91.274 E11.66649
G1 X165.722 Y91.29 E11.67465
G1 X166.263 Y91.393 E11.71861
G1 X166.424 Y91.43 E11.7318
G1 X166.978 Y91.579 E11.77759
G1 X167.099 Y91.615 E11.78767
G1 X167.563 Y91.771 E11.82675
G1 X167.642 Y91.807 E11.83368
G1 X168.134 Y92.045 E11.8773
G1 X168.268 Y92.115 E11.88937
G1 X168.761 Y92.4 E11.93483
G1 X168.874 Y92.47 E11.94544
G1 X169.196 Y92.684 E11.9763
G1 X169.776 Y93.019 E12.02977
G1 X170.406 Y93.283 E12.08429
G1 X171.063 Y93.465 E12.13871
G1 X171.74 Y93.563 E12.19332
G1 X172.422 Y93.575 E12.24776
G1 X173.103 Y93.501 E12.30244
G1 X173.869 Y93.307 E12.36552
G1 X174.218 Y93.19 E12.3949
G1 X174.37 Y93.145 E12.40756
G1 X174.924 Y92.996 E12.45335
G1 X175.085 Y92.959 E12.46654
G1 X175.626 Y92.856 E12.5105
G1 X175.727 Y92.84 E12.51866
G1 X175.771 Y92.836 E12.52219
G1 X176.193 Y92.813 E12.55592
G1 X176.323 Y92.809 E12.56631
G1 X176.923 Y92.809 E12.6142
G1 X177.053 Y92.813 E12.62458
G1 X177.475 Y92.836 E12.65832
G1 X177.519 Y92.84 E12.66185
G1 X177.62 Y92.856 E12.67001
G1 X178.161 Y92.959 E12.71397
G1 X178.322 Y92.996 E12.72716
G1 X178.876 Y93.145 E12.77295
G1 X178.997 Y93.181 E12.78303
G1 X179.461 Y93.337 E12.8221
G1 X179.533 Y93.369 E12.82839
G1 X180.023 Y93.607 E12.87188
G1 X180.188 Y93.695 E12.8868
G1 X180.651 Y93.963 E12.92951
G1 X180.791 Y94.049 E12.94262
G1 X181.095 Y94.251 E12.97176
G1 X181.675 Y94.586 E13.02522
G1 X182.305 Y94.85 E13.07975
G1 X182.962 Y95.032 E13.13417
G1 X183.639 Y95.13 E13.18877
G1 X184.321 Y95.142 E13.24322
G1 X185.002 Y95.068 E13.2979
G1 X185.767 Y94.874 E13.3609
G1 X186.142 Y94.749 E13.39245
G1 X186.28 Y94.707 E13.40397
G1 X186.824 Y94.562 E13.44891
G1 X187.005 Y94.521 E13.46372
G1 X187.53 Y94.422 E13.50637
G1 X187.619 Y94.408 E13.51356
G1 X187.672 Y94.403 E13.51781
G1 X188.091 Y94.38 E13.55131
G1 X188.221 Y94.376 E13.56169
G1 X188.82 Y94.376 E13.6095
G1 X188.95 Y94.38 E13.61989
G1 X189.399 Y94.406 E13.65579
G1 X189.541 Y94.427 E13.66725
G1 X190.058 Y94.526 E13.70927
G1 X190.204 Y94.559 E13.72121
G1 X190.759 Y94.707 E13.76706
G1 X190.904 Y94.75 E13.77914
G1 X191.3 Y94.882 E13.81246
G1 X191.346 Y94.899 E13.81637
G1 X191.464 Y94.951 E13.82667
G1 X191.917 Y95.17 E13.86683
G1 X192.07 Y95.252 E13.88069
G1 X192.557 Y95.534 E13.92561
G1 X192.696 Y95.62 E13.93866
G1 X193.116 Y95.901 E13.97899
G1 X193.207 Y95.976 E13.98841
G1 X193.559 Y96.283 E14.02569
G1 X193.661 Y96.377 E14.03676
G1 X194.094 Y96.81 E14.08564
G1 X194.181 Y96.904 E14.09587
G1 X194.495 Y97.264 E14.134
G1 X194.562 Y97.345 E14.14239
G1 X194.86 Y97.79 E14.18514
G1 X194.941 Y97.922 E14.1975
G1 X195.209 Y98.385 E14.24021
G1 X195.297 Y98.55 E14.25513
G1 X195.535 Y99.04 E14.29862
G1 X195.563 Y99.103 E14.30412
G1 X195.719 Y99.563 E14.34289
G1 X195.759 Y99.697 E14.35406
G1 X195.908 Y100.251 E14.39985
G1 X195.944 Y100.407 E14.41263
G1 X196.043 Y100.922 E14.45449
G1 X196.066 Y101.08 E14.46724
G1 X196.091 Y101.524 E14.50274
G1 X196.095 Y101.643 E14.51224
G1 X196.094 Y102.266 E14.56197
G1 X196.089 Y102.417 E14.57403
G1 X196.058 Y102.891 E14.61195
G1 X196.044 Y103.024 E14.62262
G1 X193.322 Y123.703 E16.28755
G1 X193.296 Y123.86 E16.30025
G1 X193.204 Y124.326 E16.33817
G1 X193.173 Y124.46 E16.34915
G1 X193.02 Y125.036 E16.39672
G1 X192.976 Y125.177 E16.40851
G1 X192.843 Y125.579 E16.44231
G1 X192.825 Y125.628 E16.44648
G1 X192.776 Y125.739 E16.45617
G1 X192.557 Y126.192 E16.49633
G1 X192.48 Y126.337 E16.50944
G1 X192.201 Y126.82 E16.55396
G1 X192.106 Y126.973 E16.56834
G1 X191.823 Y127.394 E16.60883
G1 X191.75 Y127.484 E16.61808
G1 X191.443 Y127.836 E16.65536
G1 X191.349 Y127.938 E16.66644
G1 X190.932 Y128.355 E16.71351
G1 X190.813 Y128.465 E16.72645
G1 X190.462 Y128.772 E16.76367
G1 X190.352 Y128.86 E16.77491
G1 X189.955 Y129.126 E16.81306
G1 X189.822 Y129.208 E16.82553
G1 X189.325 Y129.496 E16.87138
G1 X189.172 Y129.578 E16.88524
G1 X188.728 Y129.793 E16.92462
G1 X188.606 Y129.847 E16.93527
G1 X188.159 Y129.998 E16.97293
G1 X188.016 Y130.04 E16.98483
G1 X187.459 Y130.189 E17.03085
G1 X187.313 Y130.222 E17.0428
G1 X186.796 Y130.321 E17.08482
G1 X186.624 Y130.345 E17.09868
G1 X186.205 Y130.368 E17.13218
G1 X186.075 Y130.372 E17.14256
G1 X185.476 Y130.372 E17.19038
G1 X185.346 Y130.368 E17.20076
G1 X184.927 Y130.345 E17.23426
G1 X184.874 Y130.34 E17.23851
G1 X184.785 Y130.326 E17.2457
G1 X184.26 Y130.227 E17.28834
G1 X184.079 Y130.186 E17.30316
G1 X183.531 Y130.04 E17.34843
G1 X183.397 Y129.998 E17.35964
G1 X182.95 Y129.849 E17.39725
G1 X182.832 Y129.796 E17.40758
G1 X182.372 Y129.573 E17.44838
G1 X182.223 Y129.495 E17.46181
G1 X181.743 Y129.217 E17.50608
G1 X181.613 Y129.136 E17.51831
G1 X181.311 Y128.935 E17.54727
G1 X180.73 Y128.599 E17.60084
G1 X180.102 Y128.335 E17.65522
G1 X179.444 Y128.151 E17.70976
G1 X178.768 Y128.053 E17.76429
G1 X178.085 Y128.04 E17.81882
G1 X177.404 Y128.113 E17.87349
G1 X176.633 Y128.308 E17.93697
G1 X176.287 Y128.424 E17.9661
G1 X176.131 Y128.47 E17.97909
G1 X175.577 Y128.619 E18.02488
G1 X175.416 Y128.656 E18.03807
G1 X174.875 Y128.759 E18.08203
G1 X174.774 Y128.775 E18.09019
G1 X174.73 Y128.779 E18.09372
G1 X174.308 Y128.802 E18.12745
G1 X174.178 Y128.806 E18.13783
G1 X173.579 Y128.806 E18.18565
G1 X173.449 Y128.802 E18.19603
G1 X173.025 Y128.779 E18.22993
G1 X172.882 Y128.759 E18.24145
G1 X172.339 Y128.655 E18.28559
G1 X172.185 Y128.62 E18.29819
G1 X171.635 Y128.472 E18.34366
G1 X171.496 Y128.43 E18.35525
G1 X171.037 Y128.276 E18.39389
G1 X170.959 Y128.242 E18.40069
G1 X170.478 Y128.008 E18.44338
G1 X170.313 Y127.92 E18.45831
G1 X169.85 Y127.652 E18.50102
G1 X169.713 Y127.568 E18.51384
G1 X169.413 Y127.368 E18.54262
G1 X168.832 Y127.032 E18.5962
G1 X168.204 Y126.768 E18.65058
G1 X167.546 Y126.584 E18.70512
G1 X166.87 Y126.486 E18.75964
G1 X166.187 Y126.473 E18.81417
G1 X165.506 Y126.546 E18.86884
G1 X164.735 Y126.741 E18.93233
G1 X164.384 Y126.858 E18.96186
G1 X164.215 Y126.908 E18.97593
G1 X163.674 Y127.054 E19.02066
G1 X163.52 Y127.089 E19.03327
G1 X162.977 Y127.193 E19.0774
G1 X162.834 Y127.213 E19.08892
G1 X162.41 Y127.236 E19.12282
G1 X162.28 Y127.24 E19.1332
G1 X161.681 Y127.24 E19.18102
G1 X161.551 Y127.236 E19.1914
G1 X161.127 Y127.213 E19.22529
G1 X160.984 Y127.193 E19.23682
G1 X160.441 Y127.089 E19.28095
G1 X160.287 Y127.054 E19.29356
G1 X159.737 Y126.906 E19.33902
G1 X159.598 Y126.864 E19.35061
G1 X159.139 Y126.71 E19.38926
G1 X159.061 Y126.676 E19.39605
G1 X158.585 Y126.444 E19.43832
G1 X158.406 Y126.349 E19.4545
G1 X157.943 Y126.081 E19.4972
G1 X157.82 Y126.004 E19.50879
G1 X157.516 Y125.802 E19.53792
G1 X156.935 Y125.466 E19.5915
G1 X156.307 Y125.202 E19.64588
G1 X155.649 Y125.018 E19.70041
G1 X154.973 Y124.92 E19.75494
G1 X154.29 Y124.907 E19.80947
G1 X153.609 Y124.98 E19.86414
G1 X152.841 Y125.174 E19.92737
G1 X152.465 Y125.298 E19.95898
G1 X152.32 Y125.342 E19.97107
G1 X151.766 Y125.49 E20.01685
G1 X151.62 Y125.523 E20.02879
G1 X151.103 Y125.622 E20.07081
G1 X150.931 Y125.646 E20.08468
G1 X150.512 Y125.669 E20.11817
G1 X150.382 Y125.673 E20.12855
G1 X149.783 Y125.673 E20.17637
G1 X149.653 Y125.669 E20.18675
G1 X149.234 Y125.646 E20.22025
G1 X149.181 Y125.641 E20.2245
G1 X149.092 Y125.627 E20.23169
G1 X148.567 Y125.528 E20.27434
G1 X148.386 Y125.487 E20.28915
G1 X147.838 Y125.341 E20.33442
G1 X147.704 Y125.299 E20.34563
G1 X147.25 Y125.147 E20.38385
G1 X147.149 Y125.102 E20.39267
G1 X146.679 Y124.874 E20.43437
G1 X146.53 Y124.796 E20.4478
G1 X146.046 Y124.516 E20.49243
G1 X145.92 Y124.437 E20.5043
G1 X145.477 Y124.139 E20.54692
G1 X145.405 Y124.08 E20.55435
