;FLAVOR:Marlin
;TIME:779
;Filament used: 0.756008m
;Layer height: 0.2
;MINX:73.138
;MINY:95.803
;MINZ:0.24
;MAXX:146.861
;MAXY:124.196
;MAXZ:2.99
;Generated with Cura_SteamEngine 4.8.0
M140 S70
M105
M190 S70
M104 S200
M105
M109 S200
M82 ;absolute extrusion mode
M201 X500.00 Y500.00 Z100.00 E5000.00 ;Setup machine max acceleration
M203 X500.00 Y500.00 Z10.00 E50.00 ;Setup machine max feedrate
M204 P500.00 R1000.00 T500.00 ;Setup Print/Retract/Travel acceleration
M205 X8.00 Y8.00 Z0.40 E5.00 ;Setup Jerk
M220 S100 ;Reset Feedrate
M221 S100 ;Reset Flowrate

G28 ;Home
G29 ;Auto level bed

G92 E0 ;Reset Extruder
G1 Z2.0 F3000 ;Move Z Axis up
G1 X10.1 Y20 Z0.28 F5000.0 ;Move to start position
G1 X10.1 Y200.0 Z0.28 F1500.0 E15 ;Draw the first line
G1 X10.4 Y200.0 Z0.28 F5000.0 ;Move to side a little
G1 X10.4 Y20 Z0.28 F1500.0 E30 ;Draw the second line
G92 E0 ;Reset Extruder
G1 Z2.0 F3000 ;Move Z Axis up
G92 E0
G92 E0
G1 F2700 E-5
;LAYER_COUNT:7
;LAYER:-6
M107
G0 F12000 X75.963 Y97.393 Z0.24
;TYPE:SUPPORT-INTERFACE
G1 F2700 E0
G1 F1800 X76.408 Y97.095 E0.04275
G1 X76.535 Y97.016 E0.05469
G1 X76.857 Y96.831 E0.08433
G1 X76.941 Y96.786 E0.09194
G1 X77.401 Y96.559 E0.13289
G1 X77.519 Y96.512 E0.14303
G1 X77.98 Y96.355 E0.1819
G1 X78.134 Y96.308 E0.19475
G1 X78.452 Y96.222 E0.22105
G1 X78.618 Y96.185 E0.23463
G1 X79.147 Y96.085 E0.2776
G1 X79.236 Y96.071 E0.28479
G1 X79.289 Y96.066 E0.28904
G1 X79.708 Y96.043 E0.32254
G1 X79.838 Y96.039 E0.33292
G1 X80.203 Y96.039 E0.36206
G1 X80.333 Y96.043 E0.37244
G1 X80.755 Y96.066 E0.40617
G1 X80.799 Y96.07 E0.4097
G1 X80.9 Y96.086 E0.41786
G1 X81.431 Y96.187 E0.46101
G1 X81.601 Y96.226 E0.47493
G1 X81.906 Y96.308 E0.50014
G1 X82.039 Y96.347 E0.51121
G1 X82.468 Y96.489 E0.54728
G1 X82.595 Y96.541 E0.55823
G1 X83.09 Y96.782 E0.60218
G1 X83.216 Y96.849 E0.61357
G1 X83.507 Y97.018 E0.64043
G1 X83.653 Y97.108 E0.65413
G1 X84.015 Y97.35 E0.68888
G1 X84.084 Y97.399 E0.69564
G1 X84.159 Y97.46 E0.70336
G1 X84.511 Y97.767 E0.74064
G1 X84.991 Y98.211 E0.79283
G1 X85.002 Y98.2 E0.79408
G1 X85.097 Y98.283 E0.80415
G1 X85.661 Y98.666 E0.85857
G1 X86.271 Y98.975 E0.91315
G1 X86.913 Y99.204 E0.96756
G1 X87.581 Y99.351 E1.02216
G1 X88.26 Y99.412 E1.07658
G1 X88.943 Y99.387 E1.13113
G1 X89.617 Y99.276 E1.18566
G1 X90.272 Y99.08 E1.24024
G1 X90.896 Y98.805 E1.29467
G1 X91.482 Y98.45 E1.34936
G1 X92.087 Y97.961 E1.41146
G1 X92.154 Y97.899 E1.41874
G1 X92.516 Y97.583 E1.4571
G1 X92.604 Y97.511 E1.46618
G1 X92.908 Y97.279 E1.4967
G1 X93.013 Y97.205 E1.50696
G1 X93.366 Y96.967 E1.54094
G1 X93.42 Y96.933 E1.54603
G1 X93.483 Y96.899 E1.55175
G1 X93.974 Y96.654 E1.59555
G1 X94.076 Y96.607 E1.60452
G1 X94.433 Y96.459 E1.63536
G1 X94.532 Y96.421 E1.64383
G1 X95.017 Y96.255 E1.68475
G1 X95.077 Y96.237 E1.68975
G1 X95.145 Y96.221 E1.69533
G1 X95.624 Y96.127 E1.73429
G1 X95.792 Y96.1 E1.74787
G1 X96.142 Y96.054 E1.77605
G1 X96.3 Y96.038 E1.78873
G1 X96.747 Y96.01 E1.82448
G1 X96.913 Y96.004 E1.83774
G1 X123.087 Y96.004 E3.92706
G1 X123.253 Y96.01 E3.94032
G1 X123.7 Y96.038 E3.97607
G1 X123.858 Y96.054 E3.98875
G1 X124.208 Y96.1 E4.01693
G1 X124.376 Y96.127 E4.03051
G1 X124.855 Y96.221 E4.06948
G1 X124.923 Y96.237 E4.07505
G1 X124.983 Y96.255 E4.08005
G1 X125.468 Y96.421 E4.12097
G1 X125.567 Y96.459 E4.12944
G1 X125.924 Y96.607 E4.16029
G1 X126.026 Y96.654 E4.16925
G1 X126.517 Y96.899 E4.21305
G1 X126.58 Y96.933 E4.21877
G1 X126.634 Y96.967 E4.22386
G1 X126.987 Y97.204 E4.2578
G1 X127.092 Y97.279 E4.2681
G1 X127.386 Y97.503 E4.29761
G1 X127.484 Y97.583 E4.3077
G1 X127.846 Y97.899 E4.34606
G1 X127.911 Y97.96 E4.35318
G1 X128.429 Y98.387 E4.40676
G1 X129.006 Y98.752 E4.46126
G1 X129.625 Y99.041 E4.51579
G1 X130.275 Y99.25 E4.5703
G1 X130.946 Y99.375 E4.62478
G1 X131.628 Y99.414 E4.67931
G1 X132.309 Y99.366 E4.7338
G1 X132.978 Y99.235 E4.78822
G1 X133.627 Y99.018 E4.84285
G1 X134.241 Y98.722 E4.89726
G1 X134.816 Y98.35 E4.95192
G1 X134.994 Y98.196 E4.97071
G1 X135.009 Y98.211 E4.97241
G1 X135.481 Y97.774 E5.02375
G1 X135.841 Y97.46 E5.06188
G1 X135.916 Y97.399 E5.0696
G1 X135.976 Y97.356 E5.07549
G1 X136.347 Y97.108 E5.11111
G1 X136.493 Y97.017 E5.12485
G1 X136.784 Y96.849 E5.15167
G1 X136.91 Y96.782 E5.16306
G1 X137.405 Y96.541 E5.20701
G1 X137.532 Y96.489 E5.21796
G1 X137.961 Y96.347 E5.25403
G1 X138.094 Y96.308 E5.2651
G1 X138.399 Y96.226 E5.29031
G1 X138.569 Y96.187 E5.30423
G1 X139.1 Y96.086 E5.34738
G1 X139.201 Y96.07 E5.35554
G1 X139.245 Y96.066 E5.35907
G1 X139.667 Y96.043 E5.3928
G1 X139.797 Y96.039 E5.40319
G1 X140.162 Y96.039 E5.43232
G1 X140.292 Y96.043 E5.4427
G1 X140.711 Y96.066 E5.4762
G1 X140.764 Y96.071 E5.48045
G1 X140.853 Y96.085 E5.48764
G1 X141.382 Y96.185 E5.53062
G1 X141.548 Y96.222 E5.54419
G1 X141.866 Y96.308 E5.57049
G1 X142.02 Y96.355 E5.58334
G1 X142.481 Y96.512 E5.62222
G1 X142.599 Y96.559 E5.63236
G1 X143.059 Y96.786 E5.6733
G1 X143.143 Y96.831 E5.68091
G1 X143.465 Y97.016 E5.71055
G1 X143.581 Y97.088 E5.72145
G1 X144.037 Y97.393 E5.76524
G1 X144.118 Y97.46 E5.77363
G1 X144.47 Y97.767 E5.81092
G1 X144.572 Y97.861 E5.82199
G1 X144.839 Y98.128 E5.85213
G1 X144.926 Y98.222 E5.86235
G1 X145.24 Y98.582 E5.90049
G1 X145.307 Y98.663 E5.90888
G1 X145.35 Y98.724 E5.91484
G1 X145.605 Y99.108 E5.95163
G1 X145.669 Y99.21 E5.96124
G1 X145.856 Y99.536 E5.99124
G1 X145.925 Y99.664 E6.00285
G1 X146.133 Y100.086 E6.04041
G1 X146.155 Y100.135 E6.04469
G1 X146.187 Y100.218 E6.05179
G1 X146.338 Y100.66 E6.08908
G1 X146.394 Y100.844 E6.10443
G1 X146.476 Y101.145 E6.12933
G1 X146.51 Y101.297 E6.14177
G1 X146.611 Y101.823 E6.18452
G1 X146.628 Y101.933 E6.19341
G1 X146.634 Y101.996 E6.19846
G1 X146.657 Y102.412 E6.23172
G1 X146.661 Y102.535 E6.24154
G1 X146.66 Y102.923 E6.27251
G1 X146.655 Y103.069 E6.28417
G1 X146.625 Y103.531 E6.32113
G1 X146.608 Y103.694 E6.33421
G1 X145.272 Y113.859 E7.1526
G1 X144.708 Y118.127 E7.49626
G1 X144.688 Y118.253 E7.50644
G1 X144.597 Y118.717 E7.54418
G1 X144.565 Y118.853 E7.55534
G1 X144.467 Y119.217 E7.58543
G1 X144.432 Y119.337 E7.5954
G1 X144.286 Y119.771 E7.63196
G1 X144.275 Y119.801 E7.63451
G1 X144.229 Y119.907 E7.64373
G1 X143.998 Y120.38 E7.68575
G1 X143.924 Y120.519 E7.69832
G1 X143.758 Y120.805 E7.72472
G1 X143.676 Y120.938 E7.73719
G1 X143.413 Y121.335 E7.7752
G1 X143.355 Y121.407 E7.78258
G1 X143.009 Y121.807 E7.8248
G1 X142.915 Y121.908 E7.83581
G1 X142.659 Y122.164 E7.86471
G1 X142.543 Y122.273 E7.87742
G1 X142.275 Y122.512 E7.90608
G1 X142.232 Y122.548 E7.91056
G1 X142.124 Y122.629 E7.92134
G1 X141.692 Y122.924 E7.96309
G1 X141.551 Y123.013 E7.9764
G1 X141.254 Y123.185 E8.0038
G1 X141.134 Y123.249 E8.01466
G1 X140.624 Y123.497 E8.05992
G1 X140.527 Y123.538 E8.06833
G1 X140.083 Y123.686 E8.10569
G1 X139.981 Y123.717 E8.1142
G1 X139.628 Y123.811 E8.14336
G1 X139.458 Y123.85 E8.15728
G1 X138.961 Y123.945 E8.19767
G1 X138.789 Y123.969 E8.21154
G1 X138.37 Y123.992 E8.24503
G1 X138.24 Y123.996 E8.25541
G1 X137.876 Y123.996 E8.28447
G1 X137.746 Y123.992 E8.29485
G1 X137.296 Y123.966 E8.33083
G1 X137.155 Y123.945 E8.34221
G1 X136.658 Y123.85 E8.3826
G1 X136.488 Y123.811 E8.39653
G1 X136.135 Y123.717 E8.42569
G1 X136.033 Y123.686 E8.4342
G1 X135.56 Y123.527 E8.47403
G1 X135.492 Y123.497 E8.47996
G1 X135.002 Y123.259 E8.52345
G1 X134.837 Y123.171 E8.53837
G1 X134.58 Y123.022 E8.56209
G1 X134.448 Y122.941 E8.57445
G1 X134.053 Y122.678 E8.61233
G1 X133.996 Y122.637 E8.61793
G1 X133.929 Y122.582 E8.62485
G1 X133.559 Y122.259 E8.66406
G1 X133.445 Y122.152 E8.67654
G1 X133.201 Y121.907 E8.70414
G1 X133.11 Y121.809 E8.71482
G1 X132.779 Y121.429 E8.75504
G1 X132.725 Y121.362 E8.76191
G1 X132.686 Y121.307 E8.76729
G1 X132.444 Y120.944 E8.80212
G1 X132.037 Y120.412 E8.85559
G1 X131.557 Y119.926 E8.91011
G1 X131.02 Y119.505 E8.96458
G1 X130.435 Y119.154 E9.01904
G1 X129.809 Y118.88 E9.07359
G1 X129.154 Y118.687 E9.1281
G1 X128.479 Y118.579 E9.18266
G1 X127.799 Y118.556 E9.23697
G1 X127.267 Y118.6 E9.27959
G1 X126.642 Y118.682 E9.3299
G1 X126.486 Y118.696 E9.34241
G1 X126.301 Y118.706 E9.3572
G1 X125.995 Y118.716 E9.38163
G1 X93.956 Y118.715 E11.93913
G1 X93.73 Y118.709 E11.95717
G1 X93.55 Y118.701 E11.97156
G1 X93.122 Y118.664 E12.00585
G1 X93.011 Y118.651 E12.01477
G1 X92.405 Y118.566 E12.06362
G1 X92.402 Y118.586 E12.06523
G1 X92.241 Y118.57 E12.07814
G1 X91.558 Y118.586 E12.13268
G1 X90.883 Y118.688 E12.18717
G1 X90.226 Y118.876 E12.24172
G1 X89.598 Y119.144 E12.29623
G1 X89.01 Y119.49 E12.35069
G1 X88.468 Y119.907 E12.40527
G1 X87.985 Y120.39 E12.4598
G1 X87.551 Y120.952 E12.51648
G1 X87.275 Y121.362 E12.55593
G1 X87.221 Y121.429 E12.5628
G1 X86.89 Y121.809 E12.60303
G1 X86.799 Y121.907 E12.6137
G1 X86.555 Y122.152 E12.64131
G1 X86.441 Y122.259 E12.65379
G1 X86.071 Y122.582 E12.69299
G1 X86.004 Y122.637 E12.69991
G1 X85.947 Y122.678 E12.70552
G1 X85.552 Y122.941 E12.7434
G1 X85.42 Y123.022 E12.75576
G1 X85.163 Y123.171 E12.77947
G1 X84.998 Y123.259 E12.7944
G1 X84.508 Y123.497 E12.83788
G1 X84.411 Y123.538 E12.84629
G1 X83.967 Y123.686 E12.88365
G1 X83.865 Y123.717 E12.89216
G1 X83.512 Y123.811 E12.92132
G1 X83.342 Y123.85 E12.93524
G1 X82.845 Y123.945 E12.97563
G1 X82.673 Y123.969 E12.98949
G1 X82.254 Y123.992 E13.02299
G1 X82.124 Y123.996 E13.03337
G1 X81.76 Y123.996 E13.06243
G1 X81.63 Y123.992 E13.07281
G1 X81.18 Y123.966 E13.10879
G1 X81.039 Y123.945 E13.12017
G1 X80.542 Y123.85 E13.16056
G1 X80.372 Y123.811 E13.17448
G1 X80.019 Y123.717 E13.20364
G1 X79.917 Y123.686 E13.21215
G1 X79.444 Y123.527 E13.25199
G1 X79.376 Y123.497 E13.25792
G1 X78.866 Y123.249 E13.30319
G1 X78.746 Y123.184 E13.31408
G1 X78.449 Y123.013 E13.34144
G1 X78.308 Y122.924 E13.35475
G1 X77.876 Y122.629 E13.39651
G1 X77.768 Y122.548 E13.40728
G1 X77.725 Y122.512 E13.41176
G1 X77.457 Y122.273 E13.44042
G1 X77.341 Y122.164 E13.45313
G1 X77.084 Y121.907 E13.48214
G1 X76.983 Y121.799 E13.49395
G1 X76.716 Y121.499 E13.526
G1 X76.626 Y121.378 E13.53804
G1 X76.33 Y120.944 E13.57998
G1 X76.242 Y120.805 E13.59311
G1 X76.071 Y120.51 E13.62033
G1 X76.004 Y120.384 E13.63172
G1 X75.759 Y119.88 E13.67645
G1 X75.732 Y119.817 E13.68192
G1 X75.701 Y119.732 E13.68914
G1 X75.57 Y119.337 E13.72236
G1 X75.529 Y119.201 E13.7337
G1 X75.437 Y118.853 E13.76244
G1 X75.4 Y118.693 E13.77554
G1 X75.309 Y118.225 E13.8136
G1 X75.287 Y118.091 E13.82444
G1 X73.392 Y103.69 E14.9839
G1 X73.374 Y103.506 E14.99866
G1 X73.344 Y103.056 E15.03466
G1 X73.339 Y102.913 E15.04608
G1 X73.339 Y102.538 E15.07602
G1 X73.343 Y102.408 E15.0864
G1 X73.366 Y101.989 E15.11989
G1 X73.371 Y101.937 E15.12406
G1 X73.389 Y101.823 E15.13328
G1 X73.49 Y101.297 E15.17603
G1 X73.52 Y101.161 E15.18715
G1 X73.606 Y100.844 E15.21337
G1 X73.658 Y100.673 E15.22764
G1 X73.808 Y100.232 E15.26482
G1 X73.845 Y100.135 E15.27311
G1 X73.867 Y100.086 E15.27739
G1 X74.069 Y99.676 E15.31388
G1 X74.144 Y99.536 E15.32656
G1 X74.331 Y99.21 E15.35656
G1 X74.389 Y99.117 E15.3653
G1 X74.65 Y98.724 E15.40296
G1 X74.693 Y98.663 E15.40892
G1 X74.76 Y98.582 E15.41731
G1 X75.067 Y98.23 E15.4546
G1 X75.161 Y98.128 E15.46567
G1 X75.428 Y97.861 E15.49581
G1 X75.522 Y97.774 E15.50603
G1 X75.882 Y97.46 E15.54416
G1 X75.963 Y97.393 E15.55256
G0 F12000 X76.8 Y96.863
G1 F1800 X76.8 Y121.593 E17.52661
G1 F2700 E12.52661
G1 F300 Z0.74
G0 F12000 X78.4 Y122.982 Z0.74
G1 F300 Z0.24
G1 F2700 E17.52661
G1 F1800 X78.4 Y96.236 E19.66159
G1 F2700 E14.66159
G1 F300 Z0.74
G0 F12000 X80 Y96.039 Z0.74
G1 F300 Z0.24
G1 F2700 E19.66159
G1 F1800 X80 Y123.711 E21.87049
G1 F2700 E16.87049
G1 F300 Z0.74
G0 F12000 X81.6 Y123.99 Z0.74
G1 F300 Z0.24
G1 F2700 E21.87049
G1 F1800 X81.6 Y96.226 E24.08673
G1 F2700 E19.08673
G1 F300 Z0.74
G0 F12000 X83.2 Y96.841 Z0.74
G1 F300 Z0.24
G1 F2700 E24.08673
G1 F1800 X83.2 Y123.878 E26.24494
G1 F2700 E21.24494
G1 F300 Z0.74
G0 F12000 X84.8 Y123.356 Z0.74
G1 F300 Z0.24
G1 F2700 E26.24494
G1 F1800 X84.8 Y98.035 E28.26618
G1 F2700 E23.26618
G1 F300 Z0.74
G0 F12000 X86.4 Y99.022 Z0.74
G1 F300 Z0.24
G1 F2700 E28.26618
G1 F1800 X86.4 Y122.295 E30.12393
G1 F2700 E25.12393
G1 F300 Z0.74
G0 F12000 X88 Y120.375 Z0.74
G1 F300 Z0.24
G1 F2700 E30.12393
G1 F1800 X88 Y99.389 E31.79912
G1 F2700 E26.79912
G1 F300 Z0.74
G0 F12000 X89.6 Y99.278 Z0.74
G1 F300 Z0.24
G1 F2700 E31.79912
G1 F1800 X89.6 Y119.144 E33.38491
G1 F2700 E28.38491
G1 F300 Z0.74
G0 F12000 X91.2 Y118.641 Z0.74
G1 F300 Z0.24
G1 F2700 E33.38491
G1 F1800 X91.2 Y98.62 E34.98307
G1 F2700 E29.98307
G1 F300 Z0.74
G0 F12000 X92.8 Y97.361 Z0.74
G1 F300 Z0.24
G1 F2700 E34.98307
G1 F1800 X92.8 Y118.621 E36.68014
G1 F2700 E31.68014
G1 F300 Z0.74
G0 F12000 X94.4 Y118.715 Z0.74
G1 F300 Z0.24
G1 F2700 E36.68014
G1 F1800 X94.4 Y96.472 E38.45567
G1 F2700 E33.45567
G1 F300 Z0.74
G0 F12000 X96 Y96.072 Z0.74
G1 F300 Z0.24
G1 F2700 E38.45567
G1 F1800 X96 Y118.715 E40.26313
G1 F2700 E35.26313
G1 F300 Z0.74
G0 F12000 X97.6 Y118.715 Z0.74
G1 F300 Z0.24
G1 F2700 E40.26313
G1 F1800 X97.6 Y96.004 E42.07602
G1 F2700 E37.07602
G1 F300 Z0.74
G0 F12000 X99.2 Y96.004 Z0.74
G1 F300 Z0.24
G1 F2700 E42.07602
G1 F1800 X99.2 Y118.715 E43.88891
G1 F2700 E38.88891
G1 F300 Z0.74
G0 F12000 X100.8 Y118.715 Z0.74
G1 F300 Z0.24
G1 F2700 E43.88891
G1 F1800 X100.8 Y96.004 E45.7018
G1 F2700 E40.7018
G1 F300 Z0.74
G0 F12000 X102.4 Y96.004 Z0.74
G1 F300 Z0.24
G1 F2700 E45.7018
G1 F1800 X102.4 Y118.715 E47.51469
G1 F2700 E42.51469
G1 F300 Z0.74
G0 F12000 X104 Y118.715 Z0.74
G1 F300 Z0.24
G1 F2700 E47.51469
G1 F1800 X104 Y96.004 E49.32758
G1 F2700 E44.32758
G1 F300 Z0.74
G0 F12000 X105.6 Y96.004 Z0.74
G1 F300 Z0.24
G1 F2700 E49.32758
G1 F1800 X105.6 Y118.715 E51.14047
G1 F2700 E46.14047
G1 F300 Z0.74
G0 F12000 X107.2 Y118.715 Z0.74
G1 F300 Z0.24
G1 F2700 E51.14047
G1 F1800 X107.2 Y96.004 E52.95337
G1 F2700 E47.95337
G1 F300 Z0.74
G0 F12000 X108.8 Y96.004 Z0.74
G1 F300 Z0.24
G1 F2700 E52.95337
G1 F1800 X108.8 Y118.715 E54.76626
G1 F2700 E49.76626
G1 F300 Z0.74
G0 F12000 X110.4 Y118.715 Z0.74
G1 F300 Z0.24
G1 F2700 E54.76626
G1 F1800 X110.4 Y96.004 E56.57915
G1 F2700 E51.57915
G1 F300 Z0.74
G0 F12000 X112 Y96.004 Z0.74
G1 F300 Z0.24
G1 F2700 E56.57915
G1 F1800 X112 Y118.715 E58.39204
G1 F2700 E53.39204
G1 F300 Z0.74
G0 F12000 X113.6 Y118.715 Z0.74
G1 F300 Z0.24
G1 F2700 E58.39204
G1 F1800 X113.6 Y96.004 E60.20493
G1 F2700 E55.20493
G1 F300 Z0.74
G0 F12000 X115.2 Y96.004 Z0.74
G1 F300 Z0.24
G1 F2700 E60.20493
G1 F1800 X115.2 Y118.715 E62.01782
G1 F2700 E57.01782
G1 F300 Z0.74
G0 F12000 X116.8 Y118.715 Z0.74
G1 F300 Z0.24
G1 F2700 E62.01782
G1 F1800 X116.8 Y96.004 E63.83071
G1 F2700 E58.83071
G1 F300 Z0.74
G0 F12000 X118.4 Y96.004 Z0.74
G1 F300 Z0.24
G1 F2700 E63.83071
G1 F1800 X118.4 Y118.715 E65.6436
G1 F2700 E60.6436
G1 F300 Z0.74
G0 F12000 X120 Y118.715 Z0.74
G1 F300 Z0.24
G1 F2700 E65.6436
G1 F1800 X120 Y96.004 E67.45649
G1 F2700 E62.45649
G1 F300 Z0.74
G0 F12000 X121.6 Y96.004 Z0.74
G1 F300 Z0.24
G1 F2700 E67.45649
G1 F1800 X121.6 Y118.715 E69.26938
G1 F2700 E64.26938
G1 F300 Z0.74
G0 F12000 X123.2 Y118.715 Z0.74
G1 F300 Z0.24
G1 F2700 E69.26938
G1 F1800 X123.2 Y96.009 E71.08187
G1 F2700 E66.08187
G1 F300 Z0.74
G0 F12000 X124.8 Y96.211 Z0.74
G1 F300 Z0.24
G1 F2700 E71.08187
G1 F1800 X124.8 Y118.715 E72.87823
G1 F2700 E67.87823
G1 F300 Z0.74
G0 F12000 X126.4 Y118.701 Z0.74
G1 F300 Z0.24
G1 F2700 E72.87823
G1 F1800 X126.4 Y96.841 E74.62319
G1 F2700 E69.62319
G1 F300 Z0.74
G0 F12000 X128 Y98.034 Z0.74
G1 F300 Z0.24
G1 F2700 E74.62319
G1 F1800 X128 Y118.562 E76.26183
G1 F2700 E71.26183
G1 F300 Z0.74
G0 F12000 X129.6 Y118.818 Z0.74
G1 F300 Z0.24
G1 F2700 E76.26183
G1 F1800 X129.6 Y99.03 E77.84139
G1 F2700 E72.84139
G1 F300 Z0.74
G0 F12000 X131.2 Y99.39 Z0.74
G1 F300 Z0.24
G1 F2700 E77.84139
G1 F1800 X131.2 Y119.646 E79.45831
G1 F2700 E74.45831
G1 F300 Z0.74
G0 F12000 X132.8 Y121.453 Z0.74
G1 F300 Z0.24
G1 F2700 E79.45831
G1 F1800 X132.8 Y99.269 E81.22914
G1 F2700 E76.22914
G1 F300 Z0.74
G0 F12000 X134.4 Y98.619 Z0.74
G1 F300 Z0.24
G1 F2700 E81.22914
G1 F1800 X134.4 Y122.909 E83.16807
G1 F2700 E78.16807
G1 F300 Z0.74
G0 F12000 X136 Y123.674 Z0.74
G1 F300 Z0.24
G1 F2700 E83.16807
G1 F1800 X136 Y97.339 E85.27024
G1 F2700 E80.27024
G1 F300 Z0.74
