;FLAVOR:Marlin
;TIME:1888
;Filament used: 2.19364m
;Layer height: 0.2
;MINX:53.519
;MINY:82.985
;MINZ:0.24
;MAXX:166.48
;MAXY:137.014
;MAXZ:3.39
;Generated with Cura_SteamEngine master
M140 S70
M105
M190 S70
M104 S200
M105
M109 S200
M82 ;absolute extrusion mode
M201 X500.00 Y500.00 Z100.00 E5000.00 ;Setup machine max acceleration
M203 X500.00 Y500.00 Z10.00 E50.00 ;Setup machine max feedrate
M204 P500.00 R1000.00 T500.00 ;Setup Print/Retract/Travel acceleration
M205 X8.00 Y8.00 Z0.40 E5.00 ;Setup Jerk
M220 S100 ;Reset Feedrate
M221 S100 ;Reset Flowrate

G28 ;Home
G29 ;Auto level bed

G92 E0 ;Reset Extruder
G1 Z2.0 F3000 ;Move Z Axis up
G1 X10.1 Y20 Z0.28 F5000.0 ;Move to start position
G1 X10.1 Y200.0 Z0.28 F1500.0 E15 ;Draw the first line
G1 X10.4 Y200.0 Z0.28 F5000.0 ;Move to side a little
G1 X10.4 Y20 Z0.28 F1500.0 E30 ;Draw the second line
G92 E0 ;Reset Extruder
G1 Z2.0 F3000 ;Move Z Axis up

G92 E0
G92 E0
G1 F2700 E-5
;LAYER_COUNT:9
;LAYER:-6
M107
G0 F12000 X61.03 Y86.388 Z0.24
;TYPE:SUPPORT-INTERFACE
G1 F2700 E0
G1 F1800 X61.196 Y86.275 E0.01603
G1 X62.006 Y85.764 E0.09248
G1 X62.146 Y85.679 E0.10555
G1 X62.61 Y85.41 E0.14837
G1 X63.528 Y84.921 E0.23139
G1 X63.667 Y84.853 E0.24374
G1 X64.506 Y84.483 E0.31694
G1 X64.589 Y84.449 E0.3241
G1 X65.509 Y84.119 E0.40212
G1 X65.667 Y84.068 E0.41537
G1 X66.075 Y83.949 E0.4493
G1 X66.296 Y83.887 E0.46762
G1 X66.847 Y83.74 E0.51314
G1 X67.829 Y83.514 E0.59358
G1 X68.031 Y83.475 E0.61
G1 X69.015 Y83.326 E0.68944
G1 X70.023 Y83.247 E0.77015
G1 X70.135 Y83.242 E0.7791
G1 X70.736 Y83.23 E0.82709
G1 X71.373 Y83.231 E0.87793
G1 X72.396 Y83.268 E0.95965
G1 X72.49 Y83.274 E0.96717
G1 X73.036 Y83.325 E1.01094
G1 X74.03 Y83.476 E1.0912
G1 X74.217 Y83.512 E1.1064
G1 X75.212 Y83.74 E1.18788
G1 X75.749 Y83.884 E1.23226
G1 X76.797 Y84.203 E1.31971
G1 X76.901 Y84.238 E1.32847
G1 X77.472 Y84.452 E1.37714
G1 X77.553 Y84.486 E1.38415
G1 X78.401 Y84.861 E1.45817
G1 X78.568 Y84.942 E1.47298
G1 X79.386 Y85.378 E1.54698
G1 X79.996 Y85.656 E1.60049
G1 X80.649 Y85.858 E1.65505
G1 X81.321 Y85.975 E1.7095
G1 X82.004 Y86.007 E1.76408
G1 X82.684 Y85.953 E1.81853
G1 X83.353 Y85.813 E1.87309
G1 X83.995 Y85.591 E1.92731
G1 X84.482 Y85.359 E1.97037
G1 X84.954 Y85.103 E2.01324
G1 X85.088 Y85.036 E2.0252
G1 X85.949 Y84.645 E2.10068
G1 X86.575 Y84.387 E2.15473
G1 X87.515 Y84.037 E2.23479
G1 X87.599 Y84.009 E2.24186
G1 X88.214 Y83.822 E2.29317
G1 X89.175 Y83.589 E2.37211
G1 X89.352 Y83.553 E2.38653
G1 X90.318 Y83.393 E2.46469
G1 X90.985 Y83.307 E2.51837
G1 X91.709 Y83.232 E2.57647
G1 X92.81 Y83.189 E2.66443
G1 X92.931 Y83.186 E2.67409
G1 X127.069 Y83.186 E5.39913
G1 X128.195 Y83.226 E5.48907
G1 X128.291 Y83.232 E5.49675
G1 X129.015 Y83.307 E5.55485
G1 X129.705 Y83.397 E5.61039
G1 X130.662 Y83.556 E5.68783
G1 X130.847 Y83.594 E5.70291
G1 X131.795 Y83.824 E5.78078
G1 X132.749 Y84.129 E5.86073
G1 X132.872 Y84.172 E5.87113
G1 X133.481 Y84.409 E5.92329
G1 X134.115 Y84.673 E5.97811
G1 X134.987 Y85.072 E6.05466
G1 X135.122 Y85.14 E6.06673
G1 X135.511 Y85.352 E6.10209
G1 X136.118 Y85.635 E6.15555
G1 X136.768 Y85.844 E6.21005
G1 X137.44 Y85.968 E6.2646
G1 X138.122 Y86.007 E6.31913
G1 X138.803 Y85.959 E6.37363
G1 X139.473 Y85.826 E6.42815
G1 X140.118 Y85.61 E6.48245
G1 X140.61 Y85.38 E6.5258
G1 X141.475 Y84.921 E6.60397
G1 X141.614 Y84.853 E6.61632
G1 X142.453 Y84.483 E6.68952
G1 X142.536 Y84.449 E6.69668
G1 X143.456 Y84.118 E6.77472
G1 X143.605 Y84.07 E6.78722
G1 X144.213 Y83.894 E6.83774
G1 X144.749 Y83.751 E6.88203
G1 X144.889 Y83.716 E6.89355
G1 X145.796 Y83.508 E6.96783
G1 X145.957 Y83.478 E6.9809
G1 X146.961 Y83.326 E7.06196
G1 X147.969 Y83.247 E7.14267
G1 X148.081 Y83.242 E7.15162
G1 X148.682 Y83.23 E7.1996
G1 X149.319 Y83.231 E7.25045
G1 X150.342 Y83.268 E7.33216
G1 X150.436 Y83.274 E7.33968
G1 X150.982 Y83.325 E7.38345
G1 X151.969 Y83.475 E7.46315
G1 X152.162 Y83.511 E7.47882
G1 X153.048 Y83.714 E7.55137
G1 X153.747 Y83.897 E7.60905
G1 X154.71 Y84.192 E7.68945
G1 X154.866 Y84.246 E7.70263
G1 X155.432 Y84.457 E7.75084
G1 X156.355 Y84.864 E7.83137
G1 X156.484 Y84.926 E7.84279
G1 X157.331 Y85.377 E7.91939
G1 X157.952 Y85.737 E7.97669
G1 X158.793 Y86.266 E8.056
G1 X158.892 Y86.334 E8.06558
G1 X159.753 Y86.971 E8.15108
G1 X160.528 Y87.637 E8.23265
G1 X160.618 Y87.718 E8.24231
G1 X160.97 Y88.057 E8.28132
G1 X161.471 Y88.559 E8.33794
G1 X162.124 Y89.264 E8.41464
G1 X162.232 Y89.387 E8.42771
G1 X162.721 Y89.989 E8.48962
G1 X162.8 Y90.097 E8.5003
G1 X163.336 Y90.856 E8.57447
G1 X163.405 Y90.961 E8.5845
G1 X163.791 Y91.587 E8.64321
G1 X164.108 Y92.136 E8.69381
G1 X164.593 Y93.048 E8.77627
G1 X164.662 Y93.191 E8.78894
G1 X164.96 Y93.853 E8.84689
G1 X164.987 Y93.92 E8.85266
G1 X165.321 Y94.809 E8.92846
G1 X165.375 Y94.972 E8.94217
G1 X165.61 Y95.755 E9.00743
G1 X165.782 Y96.4 E9.06071
G1 X165.992 Y97.314 E9.13557
G1 X166.033 Y97.53 E9.15312
G1 X166.181 Y98.506 E9.23192
G1 X166.263 Y99.527 E9.31369
G1 X166.268 Y99.636 E9.3224
G1 X166.28 Y100.193 E9.36687
G1 X166.28 Y100.821 E9.417
G1 X166.241 Y101.928 E9.50542
G1 X166.232 Y102.055 E9.51558
G1 X166.147 Y102.87 E9.58099
G1 X163.659 Y121.757 E11.10166
G1 X163.591 Y122.217 E11.13878
G1 X163.572 Y122.316 E11.14682
G1 X163.298 Y123.587 E11.25061
G1 X163.272 Y123.696 E11.25956
G1 X163.11 Y124.3 E11.30947
G1 X162.817 Y125.257 E11.38937
G1 X162.773 Y125.389 E11.40047
G1 X162.555 Y125.966 E11.44971
G1 X162.148 Y126.89 E11.5303
G1 X162.086 Y127.019 E11.54173
G1 X161.621 Y127.892 E11.62068
G1 X161.275 Y128.487 E11.67563
G1 X160.746 Y129.328 E11.75494
G1 X160.678 Y129.427 E11.76452
G1 X160.055 Y130.271 E11.84826
G1 X160.006 Y130.331 E11.85444
G1 X159.375 Y131.063 E11.93159
G1 X159.294 Y131.153 E11.94125
G1 X158.955 Y131.505 E11.98026
G1 X158.453 Y132.006 E12.03688
G1 X157.748 Y132.659 E12.11359
G1 X157.625 Y132.767 E12.12665
G1 X157.01 Y133.266 E12.18987
G1 X156.184 Y133.851 E12.27067
G1 X156.033 Y133.951 E12.28512
G1 X155.398 Y134.341 E12.34461
G1 X154.816 Y134.677 E12.39825
G1 X153.98 Y135.121 E12.47381
G1 X153.834 Y135.192 E12.48677
G1 X152.912 Y135.597 E12.56716
G1 X151.978 Y135.931 E12.64634
G1 X151.857 Y135.97 E12.65649
G1 X151.212 Y136.157 E12.71009
G1 X150.646 Y136.307 E12.75683
G1 X149.664 Y136.533 E12.83727
G1 X149.453 Y136.573 E12.85441
G1 X148.504 Y136.716 E12.93102
G1 X147.48 Y136.797 E13.01302
G1 X147.368 Y136.802 E13.02197
G1 X146.767 Y136.814 E13.06995
G1 X146.128 Y136.813 E13.12096
G1 X145.105 Y136.776 E13.20267
G1 X145.011 Y136.77 E13.21019
G1 X144.465 Y136.719 E13.25396
G1 X143.479 Y136.569 E13.33358
G1 X143.274 Y136.53 E13.35023
G1 X142.403 Y136.332 E13.42154
G1 X142.273 Y136.3 E13.43222
G1 X141.766 Y136.164 E13.47412
G1 X141.615 Y136.122 E13.48663
G1 X140.736 Y135.852 E13.56004
G1 X140.6 Y135.806 E13.5715
G1 X140.036 Y135.595 E13.61956
G1 X139.943 Y135.556 E13.62761
G1 X139.095 Y135.18 E13.70166
G1 X138.959 Y135.115 E13.71369
G1 X138.09 Y134.653 E13.79225
G1 X137.507 Y134.314 E13.84609
G1 X136.656 Y133.781 E13.92624
G1 X136.585 Y133.732 E13.93313
G1 X135.982 Y133.298 E13.99243
G1 X135.19 Y132.649 E14.07417
G1 X135.071 Y132.545 E14.08679
G1 X134.472 Y131.979 E14.15257
G1 X134.02 Y131.526 E14.20365
G1 X133.518 Y131.083 E14.2571
G1 X132.953 Y130.7 E14.31158
G1 X132.344 Y130.39 E14.36613
G1 X131.701 Y130.16 E14.42064
G1 X131.032 Y130.012 E14.47534
G1 X130.221 Y129.95 E14.54026
G1 X89.781 Y129.95 E17.76836
G1 X89.113 Y129.992 E17.82179
G1 X88.442 Y130.121 E17.87633
G1 X87.793 Y130.334 E17.93085
G1 X87.176 Y130.626 E17.98534
G1 X86.599 Y130.995 E18.04001
G1 X85.982 Y131.525 E18.10494
G1 X85.529 Y131.978 E18.15608
G1 X84.79 Y132.666 E18.23668
G1 X84.694 Y132.75 E18.24686
G1 X84.061 Y133.264 E18.31195
G1 X83.976 Y133.327 E18.32039
G1 X83.234 Y133.851 E18.3929
G1 X83.06 Y133.966 E18.40955
G1 X82.428 Y134.353 E18.46871
G1 X81.945 Y134.632 E18.51323
G1 X81.84 Y134.69 E18.52281
G1 X81.02 Y135.124 E18.59687
G1 X80.847 Y135.208 E18.61222
G1 X79.987 Y135.586 E18.68721
G1 X79.02 Y135.934 E18.76924
G1 X78.926 Y135.965 E18.77715
G1 X78.279 Y136.152 E18.83091
G1 X77.71 Y136.305 E18.87794
G1 X76.721 Y136.531 E18.95892
G1 X76.511 Y136.571 E18.97598
G1 X75.629 Y136.705 E19.0472
G1 X75.522 Y136.719 E19.05581
G1 X74.53 Y136.797 E19.13524
G1 X74.418 Y136.802 E19.14419
G1 X73.817 Y136.814 E19.19217
G1 X73.178 Y136.813 E19.24318
G1 X72.155 Y136.776 E19.3249
G1 X72.061 Y136.77 E19.33241
G1 X71.515 Y136.719 E19.37619
G1 X70.512 Y136.567 E19.45717
G1 X70.354 Y136.537 E19.47
G1 X69.45 Y136.331 E19.54402
G1 X69.336 Y136.303 E19.55339
G1 X68.806 Y136.161 E19.59718
G1 X68.68 Y136.125 E19.60765
G1 X67.778 Y135.85 E19.68292
G1 X67.643 Y135.804 E19.6943
G1 X67.085 Y135.595 E19.74187
G1 X66.992 Y135.556 E19.74992
G1 X66.144 Y135.181 E19.82393
G1 X66.01 Y135.117 E19.83579
G1 X65.128 Y134.645 E19.91564
G1 X64.535 Y134.301 E19.97036
G1 X63.708 Y133.78 E20.04838
G1 X63.597 Y133.706 E20.05903
G1 X63.023 Y133.291 E20.11557
G1 X62.232 Y132.643 E20.1972
G1 X62.128 Y132.551 E20.20828
G1 X61.55 Y132.01 E20.27148
G1 X61.027 Y131.486 E20.33057
G1 X60.358 Y130.765 E20.40909
G1 X60.277 Y130.672 E20.41893
G1 X59.953 Y130.28 E20.45953
G1 X59.376 Y129.505 E20.53665
G1 X59.263 Y129.339 E20.55268
G1 X58.748 Y128.523 E20.62971
G1 X58.667 Y128.389 E20.64221
G1 X58.357 Y127.852 E20.6917
G1 X57.909 Y127.008 E20.76798
G1 X57.841 Y126.868 E20.7804
G1 X57.47 Y126.027 E20.85378
G1 X57.437 Y125.946 E20.86076
G1 X57.099 Y125.005 E20.94057
G1 X57.068 Y124.911 E20.94847
G1 X56.886 Y124.285 E21.00051
G1 X56.728 Y123.697 E21.04911
G1 X56.428 Y122.316 E21.16192
G1 X56.409 Y122.217 E21.16997
G1 X56.337 Y121.733 E21.20903
G1 X53.853 Y102.869 E22.72783
G1 X53.764 Y102.016 E22.79629
G1 X53.723 Y100.942 E22.88209
G1 X53.72 Y100.831 E22.89095
G1 X53.72 Y100.208 E22.94068
G1 X53.758 Y99.168 E23.02375
G1 X53.763 Y99.079 E23.03087
G1 X53.817 Y98.512 E23.07633
G1 X53.966 Y97.53 E23.15562
G1 X53.997 Y97.367 E23.16886
G1 X54.21 Y96.436 E23.2451
G1 X54.244 Y96.299 E23.25637
G1 X54.375 Y95.81 E23.29678
G1 X54.423 Y95.644 E23.31057
G1 X54.689 Y94.78 E23.38273
G1 X54.742 Y94.628 E23.39558
G1 X55.023 Y93.895 E23.45825
G1 X55.059 Y93.81 E23.46562
G1 X55.452 Y92.957 E23.54059
G1 X55.508 Y92.844 E23.55065
G1 X55.875 Y92.165 E23.61226
G1 X56.208 Y91.59 E23.6653
G1 X56.758 Y90.715 E23.7478
G1 X56.815 Y90.631 E23.75591
G1 X57.239 Y90.042 E23.81384
G1 X57.298 Y89.967 E23.82145
G1 X57.892 Y89.244 E23.89615
G1 X57.984 Y89.14 E23.90723
G1 X58.524 Y88.563 E23.97031
G1 X59.049 Y88.039 E24.02952
G1 X59.762 Y87.377 E24.10719
G1 X59.862 Y87.289 E24.11782
G1 X60.236 Y86.98 E24.15655
G1 X60.287 Y86.94 E24.16172
G1 X60.764 Y86.586 E24.20914
G0 F1620 X61.03 Y86.388
G0 F12000 X60.8 Y86.558
G1 F1800 X60.8 Y131.241 E27.77593
G1 F2700 E22.77593
G1 F300 Z0.74
G0 F12000 X62.4 Y132.78 Z0.74
G1 F300 Z0.24
G1 F2700 E27.77593
G1 F1800 X62.4 Y85.531 E31.54755
G1 F2700 E26.54755
G1 F300 Z0.74
G0 F12000 X64 Y84.706 Z0.74
G1 F300 Z0.24
G1 F2700 E31.54755
G1 F1800 X64 Y133.963 E35.47945
G1 F2700 E30.47945
G1 F300 Z0.74
G0 F12000 X65.6 Y134.897 Z0.74
G1 F300 Z0.24
G1 F2700 E35.47945
G1 F1800 X65.6 Y84.089 E39.53517
G1 F2700 E34.53517
G1 F300 Z0.74
G0 F12000 X67.2 Y83.658 Z0.74
G1 F300 Z0.24
G1 F2700 E39.53517
G1 F1800 X67.2 Y135.638 E43.68444
G1 F2700 E38.68444
G1 F300 Z0.74
G0 F12000 X68.8 Y136.159 Z0.74
G1 F300 Z0.24
G1 F2700 E43.68444
G1 F1800 X68.8 Y83.358 E47.89924
G1 F2700 E42.89924
G1 F300 Z0.74
G0 F12000 X70.4 Y83.236 Z0.74
G1 F300 Z0.24
G1 F2700 E47.89924
G1 F1800 X70.4 Y136.545 E52.1546
G1 F2700 E47.1546
G1 F300 Z0.74
G0 F12000 X72 Y136.764 Z0.74
G1 F300 Z0.24
G1 F2700 E52.1546
G1 F1800 X72 Y83.254 E56.426
G1 F2700 E51.426
G1 F300 Z0.74
G0 F12000 X73.6 Y83.411 Z0.74
G1 F300 Z0.24
G1 F2700 E56.426
G1 F1800 X73.6 Y136.813 E60.68877
G1 F2700 E55.68877
G1 F300 Z0.74
G0 F12000 X75.2 Y136.745 Z0.74
G1 F300 Z0.24
G1 F2700 E60.68877
G1 F1800 X75.2 Y83.738 E64.92002
G1 F2700 E59.92002
G1 F300 Z0.74
G0 F12000 X76.8 Y84.205 Z0.74
G1 F300 Z0.24
G1 F2700 E64.92002
G1 F1800 X76.8 Y136.513 E69.09547
G1 F2700 E64.09547
G1 F300 Z0.74
G0 F12000 X78.4 Y136.118 Z0.74
G1 F300 Z0.24
G1 F2700 E69.09547
G1 F1800 X78.4 Y84.861 E73.18703
G1 F2700 E68.18703
G1 F300 Z0.74
G0 F12000 X80 Y85.658 Z0.74
G1 F300 Z0.24
G1 F2700 E73.18703
G1 F1800 X80 Y135.581 E77.1721
G1 F2700 E72.1721
G1 F300 Z0.74
G0 F12000 X81.6 Y134.818 Z0.74
G1 F300 Z0.24
G1 F2700 E77.1721
G1 F1800 X81.6 Y85.989 E81.06984
G1 F2700 E76.06984
G1 F300 Z0.74
G0 F12000 X83.2 Y85.845 Z0.74
G1 F300 Z0.24
G1 F2700 E81.06984
G1 F1800 X83.2 Y133.874 E84.90372
G1 F2700 E79.90372
G1 F300 Z0.74
G0 F12000 X84.8 Y132.657 Z0.74
G1 F300 Z0.24
G1 F2700 E84.90372
G1 F1800 X84.8 Y85.186 E88.69306
G1 F2700 E83.69306
G1 F300 Z0.74
G0 F12000 X86.4 Y84.459 Z0.74
G1 F300 Z0.24
G1 F2700 E88.69306
G1 F1800 X86.4 Y131.166 E92.42142
G1 F2700 E87.42142
G1 F300 Z0.74
G0 F12000 X88 Y130.267 Z0.74
G1 F300 Z0.24
G1 F2700 E92.42142
G1 F1800 X88 Y83.887 E96.12367
G1 F2700 E91.12367
G1 F300 Z0.74
G0 F12000 X89.6 Y83.511 Z0.74
G1 F300 Z0.24
G1 F2700 E96.12367
G1 F1800 X89.6 Y129.962 E99.83159
G1 F2700 E94.83159
G1 F300 Z0.74
G0 F12000 X91.2 Y129.95 Z0.74
G1 F300 Z0.24
G1 F2700 E99.83159
G1 F1800 X91.2 Y83.284 E103.55667
G1 F2700 E98.55667
G1 F300 Z0.74
G0 F12000 X92.8 Y83.189 Z0.74
G1 F300 Z0.24
G1 F2700 E103.55667
G1 F1800 X92.8 Y129.95 E107.28934
G1 F2700 E102.28934
G1 F300 Z0.74
G0 F12000 X94.4 Y129.95 Z0.74
G1 F300 Z0.24
G1 F2700 E107.28934
G1 F1800 X94.4 Y83.186 E111.02224
G1 F2700 E106.02224
G1 F300 Z0.74
G0 F12000 X96 Y83.186 Z0.74
G1 F300 Z0.24
G1 F2700 E111.02224
G1 F1800 X96 Y129.95 E114.75515
G1 F2700 E109.75515
G1 F300 Z0.74
G0 F12000 X97.6 Y129.95 Z0.74
G1 F300 Z0.24
G1 F2700 E114.75515
G1 F1800 X97.6 Y83.186 E118.48805
G1 F2700 E113.48805
G1 F300 Z0.74
G0 F12000 X99.2 Y83.186 Z0.74
G1 F300 Z0.24
G1 F2700 E118.48805
G1 F1800 X99.2 Y129.95 E122.22095
G1 F2700 E117.22095
G1 F300 Z0.74
G0 F12000 X100.8 Y129.95 Z0.74
G1 F300 Z0.24
G1 F2700 E122.22095
G1 F1800 X100.8 Y83.186 E125.95386
G1 F2700 E120.95386
G1 F300 Z0.74
G0 F12000 X102.4 Y83.186 Z0.74
G1 F300 Z0.24
G1 F2700 E125.95386
G1 F1800 X102.4 Y129.95 E129.68676
G1 F2700 E124.68676
G1 F300 Z0.74
G0 F12000 X104 Y129.95 Z0.74
G1 F300 Z0.24
G1 F2700 E129.68676
G1 F1800 X104 Y83.186 E133.41967
G1 F2700 E128.41967
G1 F300 Z0.74
G0 F12000 X105.6 Y83.186 Z0.74
G1 F300 Z0.24
G1 F2700 E133.41967
G1 F1800 X105.6 Y129.95 E137.15257
G1 F2700 E132.15257
G1 F300 Z0.74
G0 F12000 X107.2 Y129.95 Z0.74
G1 F300 Z0.24
G1 F2700 E137.15257
G1 F1800 X107.2 Y83.186 E140.88548
G1 F2700 E135.88548
G1 F300 Z0.74
G0 F12000 X108.8 Y83.186 Z0.74
G1 F300 Z0.24
G1 F2700 E140.88548
G1 F1800 X108.8 Y129.95 E144.61838
G1 F2700 E139.61838
G1 F300 Z0.74
G0 F12000 X110.4 Y129.95 Z0.74
G1 F300 Z0.24
G1 F2700 E144.61838
G1 F1800 X110.4 Y83.186 E148.35129
G1 F2700 E143.35129
G1 F300 Z0.74
G0 F12000 X112 Y83.186 Z0.74
G1 F300 Z0.24
G1 F2700 E148.35129
G1 F1800 X112 Y129.95 E152.08419
G1 F2700 E147.08419
G1 F300 Z0.74
G0 F12000 X113.6 Y129.95 Z0.74
G1 F300 Z0.24
G1 F2700 E152.08419
G1 F1800 X113.6 Y83.186 E155.8171
G1 F2700 E150.8171
G1 F300 Z0.74
G0 F12000 X115.2 Y83.186 Z0.74
G1 F300 Z0.24
G1 F2700 E155.8171
G1 F1800 X115.2 Y129.95 E159.55
G1 F2700 E154.55
G1 F300 Z0.74
G0 F12000 X116.8 Y129.95 Z0.74
G1 F300 Z0.24
G1 F2700 E159.55
G1 F1800 X116.8 Y83.186 E163.28291
G1 F2700 E158.28291
G1 F300 Z0.74
G0 F12000 X118.4 Y83.186 Z0.74
G1 F300 Z0.24
G1 F2700 E163.28291
G1 F1800 X118.4 Y129.95 E167.01581
G1 F2700 E162.01581
G1 F300 Z0.74
G0 F12000 X120 Y129.95 Z0.74
G1 F300 Z0.24
G1 F2700 E167.01581
G1 F1800 X120 Y83.186 E170.74872
G1 F2700 E165.74872
G1 F300 Z0.74
G0 F12000 X121.6 Y83.186 Z0.74
G1 F300 Z0.24
G1 F2700 E170.74872
G1 F1800 X121.6 Y129.95 E174.48162
G1 F2700 E169.48162
G1 F300 Z0.74
G0 F12000 X123.2 Y129.95 Z0.74
G1 F300 Z0.24
G1 F2700 E174.48162
G1 F1800 X123.2 Y83.186 E178.21453
G1 F2700 E173.21453
G1 F300 Z0.74
G0 F12000 X124.8 Y83.186 Z0.74
G1 F300 Z0.24
G1 F2700 E178.21453
G1 F1800 X124.8 Y129.95 E181.94743
G1 F2700 E176.94743
G1 F300 Z0.74
G0 F12000 X126.4 Y129.95 Z0.74
G1 F300 Z0.24
G1 F2700 E181.94743
G1 F1800 X126.4 Y83.186 E185.68033
G1 F2700 E180.68033
G1 F300 Z0.74
G0 F12000 X128 Y83.22 Z0.74
G1 F300 Z0.24
