;FLAVOR:Marlin
;TIME:4883
;Filament used: 4.06419m
;Layer height: 0.2
;MINX:41.106
;MINY:66.815
;MINZ:0.2
;MAXX:180.497
;MAXY:174.209
;MAXZ:4.2
;Generated with Cura_SteamEngine master
M140 S50
M105
M190 S50
M104 S200
M105
M109 S200
M82 ;absolute extrusion mode
M201 X500.00 Y500.00 Z100.00 E5000.00 ;Setup machine max acceleration
M203 X500.00 Y500.00 Z10.00 E50.00 ;Setup machine max feedrate
M204 P500.00 R1000.00 T500.00 ;Setup Print/Retract/Travel acceleration
M205 X8.00 Y8.00 Z0.40 E5.00 ;Setup Jerk
M220 S100 ;Reset Feedrate
M221 S100 ;Reset Flowrate

G28 ;Home

G92 E0 ;Reset Extruder
G1 Z2.0 F3000 ;Move Z Axis up
G1 X10.1 Y20 Z0.28 F5000.0 ;Move to start position
G1 X10.1 Y200.0 Z0.28 F1500.0 E15 ;Draw the first line
G1 X10.4 Y200.0 Z0.28 F5000.0 ;Move to side a little
G1 X10.4 Y20 Z0.28 F1500.0 E30 ;Draw the second line
G92 E0 ;Reset Extruder
G1 Z2.0 F3000 ;Move Z Axis up

G92 E0
G92 E0
G1 F2700 E-5
;LAYER_COUNT:21
;LAYER:0
M107
;MESH:R_Batarang.stl
G0 F6000 X89.8 Y115.359 Z0.2
;TYPE:WALL-INNER
G1 F2700 E0
G1 F1200 X89.545 Y115.359 E0.00848
G1 X89.544 Y115.359 E0.00851
G1 X45.935 Y115.359 E1.45896
G1 X45.934 Y115.359 E1.45899
G1 X44.847 Y115.359 E1.49514
G1 X45.864 Y114.974 E1.51353
G1 X46.086 Y114.889 E1.52143
G1 X46.934 Y114.538 E1.55196
G1 X47.226 Y114.409 E1.56258
G1 X48.111 Y114.036 E1.59452
G1 X49.004 Y113.647 E1.62692
G1 X53.758 Y111.373 E1.80219
G1 X53.984 Y111.259 E1.81061
G1 X55.183 Y110.624 E1.85574
G1 X58.774 Y108.533 E1.99395
G1 X58.854 Y108.477 E1.9972
G1 X59.94 Y107.779 E2.04013
G1 X60.116 Y107.653 E2.04733
G1 X60.875 Y107.139 E2.07782
G1 X64.34 Y104.469 E2.22331
G1 X64.541 Y104.307 E2.2319
G1 X64.587 Y104.266 E2.23395
G1 X66.687 Y102.291 E2.32983
G1 X69.055 Y99.577 E2.44963
G1 X69.154 Y99.447 E2.45506
G1 X70.097 Y98.137 E2.50875
G1 X71.321 Y96.17 E2.5858
G1 X71.382 Y96.043 E2.59049
G1 X72.205 Y94.48 E2.64924
G1 X72.323 Y94.189 E2.65969
G1 X73.025 Y92.598 E2.71753
G1 X73.434 Y91.517 E2.75597
G1 X73.99 Y89.695 E2.81933
G1 X74.01 Y89.622 E2.82184
G1 X74.039 Y89.535 E2.82489
G1 X74.592 Y87.244 E2.90328
G1 X74.745 Y86.36 E2.93312
G1 X74.961 Y86.37 E2.94031
G1 X75.707 Y86.395 E2.96514
G1 X76.455 Y86.411 E2.99002
G1 X77.201 Y86.419 E3.01484
G1 X79.41 Y86.39 E3.08831
G1 X79.584 Y86.385 E3.0941
G1 X83.671 Y86.091 E3.23039
G1 X83.789 Y86.079 E3.23433
G1 X86.36 Y85.713 E3.32071
G1 X86.48 Y85.694 E3.32475
G1 X89.045 Y85.176 E3.41178
G1 X89.187 Y85.135 E3.4167
G1 X90.805 Y84.709 E3.47235
G1 X94.357 Y83.464 E3.59753
G1 X94.468 Y83.423 E3.60147
G1 X97.567 Y81.907 E3.71622
G1 X97.646 Y81.867 E3.71916
G1 X97.717 Y81.826 E3.72189
G1 X100.346 Y80.158 E3.82544
G1 X100.458 Y80.074 E3.8301
G1 X103.949 Y77.164 E3.98126
G1 X104.023 Y77.093 E3.98467
G1 X105.724 Y75.366 E4.06529
G1 X105.794 Y75.287 E4.06881
G1 X107.771 Y72.926 E4.17123
G1 X107.856 Y72.818 E4.1758
G1 X109.416 Y70.693 E4.26348
G1 X109.482 Y70.596 E4.26738
G1 X110.611 Y68.797 E4.33802
G1 X110.979 Y68.21 E4.36106
G1 X110.979 Y68.902 E4.37302
G1 X110.979 Y68.903 E4.37305
G1 X110.979 Y107.051 E5.64186
G1 X110.979 Y107.097 E5.64339
G1 X110.979 Y107.164 E5.64562
G1 X110.645 Y107.097 E5.65347
G1 X110.602 Y107.082 E5.65489
G1 X110.291 Y106.971 E5.66587
G1 X109.615 Y106.604 E5.69145
G1 X109.569 Y106.577 E5.69323
G1 X107.84 Y105.234 E5.76604
G1 X107.62 Y105.063 E5.77531
G1 X107.53 Y105.327 E5.7808
G1 X107.162 Y106.403 E5.81862
G1 X106.774 Y107.538 E5.85852
G1 X106.774 Y106.339 E5.87872
G1 X106.774 Y106.338 E5.87876
G1 X106.774 Y100.456 E6.07439
G1 X101.158 Y100.456 E6.26118
G1 X101.018 Y100.478 E6.2659
G1 X98.97 Y100.765 E6.33468
G1 X97.159 Y101.138 E6.39618
G1 X97.086 Y101.155 E6.39867
G1 X95.312 Y101.7 E6.4604
G1 X94.068 Y102.221 E6.50525
G1 X93.127 Y102.72 E6.54068
G1 X93.05 Y102.767 E6.54368
G1 X91.874 Y103.603 E6.59167
G1 X90.747 Y104.787 E6.64604
G1 X90.674 Y104.859 E6.64945
G1 X90.596 Y104.947 E6.65336
G1 X90.079 Y105.77 E6.68568
G1 X89.543 Y107.064 E6.73227
G1 X89.461 Y107.219 E6.7381
G1 X89.274 Y107.946 E6.76307
G1 X89.073 Y109.411 E6.81225
G1 X89.066 Y109.512 E6.81562
G1 X89.044 Y110.352 E6.84357
G1 X89.147 Y111.922 E6.8959
G1 X89.156 Y112.038 E6.89977
G1 X89.164 Y112.105 E6.90201
G1 X89.566 Y114.442 E6.98088
G1 X89.737 Y115.111 E7.00385
G1 X89.8 Y115.359 E7.009
G0 F6000 X90.315 Y115.759
;TYPE:WALL-OUTER
G1 F1200 X42.664 Y115.759 E8.59388
G1 X45.939 Y114.517 E8.71037
G1 X46.777 Y114.17 E8.74054
G1 X47.07 Y114.041 E8.75119
G1 X47.953 Y113.668 E8.78307
G1 X48.838 Y113.283 E8.81517
G1 X53.582 Y111.014 E8.99007
G1 X53.8 Y110.904 E8.99819
G1 X54.989 Y110.274 E9.04295
G1 X58.56 Y108.194 E9.1804
G1 X58.629 Y108.147 E9.18318
G1 X59.713 Y107.45 E9.22604
G1 X59.786 Y107.396 E9.22906
G1 X59.885 Y107.326 E9.23309
G1 X60.641 Y106.815 E9.26344
G1 X64.092 Y104.155 E9.40836
G1 X64.283 Y104.001 E9.41652
G1 X64.316 Y103.972 E9.41799
G1 X64.377 Y103.913 E9.42081
G1 X66.399 Y102.013 E9.51309
G1 X68.745 Y99.324 E9.63178
G1 X68.833 Y99.209 E9.6366
G1 X69.764 Y97.914 E9.68965
G1 X70.97 Y95.977 E9.76554
G1 X71.028 Y95.857 E9.76997
G1 X71.842 Y94.311 E9.82808
G1 X71.952 Y94.039 E9.83784
G1 X72.655 Y92.446 E9.89575
G1 X73.055 Y91.388 E9.93337
G1 X73.606 Y89.583 E9.99614
G1 X73.63 Y89.497 E9.99911
G1 X73.654 Y89.424 E10.00167
G1 X73.694 Y89.264 E10.00715
G1 X74.2 Y87.163 E10.07903
G1 X74.412 Y85.943 E10.12022
G1 X74.977 Y85.97 E10.13903
G1 X75.718 Y85.995 E10.16369
G1 X76.461 Y86.011 E10.18841
G1 X77.201 Y86.019 E10.21302
G1 X79.401 Y85.99 E10.2862
G1 X79.563 Y85.985 E10.29159
G1 X83.638 Y85.692 E10.42748
G1 X83.742 Y85.682 E10.43095
G1 X86.301 Y85.317 E10.51693
G1 X86.41 Y85.3 E10.5206
G1 X88.95 Y84.787 E10.60678
G1 X89.085 Y84.748 E10.61146
G1 X90.688 Y84.326 E10.66659
G1 X94.221 Y83.088 E10.7911
G1 X94.31 Y83.055 E10.79426
G1 X97.389 Y81.549 E10.90826
G1 X97.456 Y81.515 E10.91076
G1 X97.51 Y81.484 E10.91283
G1 X100.118 Y79.829 E11.01556
G1 X100.21 Y79.76 E11.01939
G1 X103.682 Y76.866 E11.16972
G1 X103.741 Y76.809 E11.17245
G1 X105.432 Y75.092 E11.25261
G1 X105.492 Y75.025 E11.2556
G1 X107.46 Y72.674 E11.35757
G1 X107.537 Y72.576 E11.36172
G1 X109.089 Y70.462 E11.44894
G1 X109.147 Y70.377 E11.45237
G1 X111.351 Y66.865 E11.59027
G1 X111.379 Y66.815 E11.59218
G1 X111.379 Y107.593 E12.94846
G1 X111.177 Y107.612 E12.95521
G1 X111.141 Y107.609 E12.95641
G1 X111.091 Y107.595 E12.95814
G1 X110.536 Y107.483 E12.97697
G1 X110.16 Y107.349 E12.99024
G1 X110.115 Y107.33 E12.99187
G1 X109.415 Y106.951 E13.01834
G1 X109.349 Y106.913 E13.02088
G1 X107.817 Y105.723 E13.0854
G1 X106.374 Y109.944 E13.23377
G1 X106.374 Y100.856 E13.53603
G1 X101.189 Y100.856 E13.70849
G1 X101.073 Y100.874 E13.71239
G1 X99.038 Y101.159 E13.78074
G1 X97.246 Y101.528 E13.84159
G1 X97.192 Y101.541 E13.84344
G1 X95.448 Y102.077 E13.90412
G1 X94.239 Y102.583 E13.94771
G1 X93.327 Y103.066 E13.98204
G1 X93.273 Y103.1 E13.98416
G1 X92.137 Y103.907 E14.03051
G1 X91.028 Y105.072 E14.084
G1 X90.964 Y105.135 E14.08699
G1 X90.917 Y105.188 E14.08935
G1 X90.436 Y105.954 E14.11943
G1 X89.903 Y107.238 E14.16567
G1 X89.837 Y107.364 E14.1704
G1 X89.667 Y108.023 E14.19304
G1 X89.471 Y109.451 E14.24098
G1 X89.466 Y109.53 E14.24361
G1 X89.444 Y110.344 E14.27069
G1 X89.546 Y111.894 E14.32236
G1 X89.554 Y111.998 E14.32583
G1 X89.56 Y112.046 E14.32744
G1 X89.958 Y114.359 E14.4055
G1 X90.315 Y115.759 E14.45355
G0 F6000 X89.979 Y115.498
G0 X89.298 Y115.249
G0 X89.298 Y114.969
;TYPE:SKIN
G1 F1200 X46.914 Y114.969 E15.86325
G1 X47.088 Y114.897 E15.86951
G1 X47.384 Y114.766 E15.88028
G1 X48.265 Y114.395 E15.91207
G1 X49.166 Y114.002 E15.94477
G1 X53.93 Y111.724 E16.1204
G1 X54.163 Y111.606 E16.12909
G1 X55.372 Y110.965 E16.1746
G1 X58.985 Y108.862 E16.31364
G1 X59.072 Y108.801 E16.31718
G1 X60.159 Y108.102 E16.36016
G1 X60.335 Y107.976 E16.36736
G1 X61.103 Y107.455 E16.39823
G1 X64.582 Y104.775 E16.54429
G1 X64.793 Y104.605 E16.55331
G1 X64.85 Y104.554 E16.55585
G1 X66.968 Y102.562 E16.65256
G1 X69.357 Y99.823 E16.77344
G1 X69.468 Y99.679 E16.77949
G1 X70.421 Y98.354 E16.83377
G1 X71.664 Y96.357 E16.91201
G1 X71.727 Y96.225 E16.91687
G1 X72.56 Y94.644 E16.97631
G1 X72.68 Y94.347 E16.98696
G1 X73.386 Y92.746 E17.04516
G1 X73.803 Y91.643 E17.08438
G1 X74.365 Y89.804 E17.14834
G1 X74.381 Y89.744 E17.1504
G1 X74.414 Y89.642 E17.15397
G1 X74.974 Y87.324 E17.23328
G1 X75.071 Y86.764 E17.25219
G1 X75.697 Y86.785 E17.27302
G1 X76.449 Y86.801 E17.29804
G1 X77.201 Y86.809 E17.32305
G1 X79.418 Y86.78 E17.39679
G1 X79.603 Y86.775 E17.40295
G1 X83.704 Y86.479 E17.5397
G1 X83.835 Y86.467 E17.54408
G1 X86.418 Y86.099 E17.63086
G1 X86.549 Y86.078 E17.63527
G1 X89.138 Y85.555 E17.72312
G1 X89.295 Y85.51 E17.72855
G1 X90.92 Y85.082 E17.78444
G1 X94.489 Y83.831 E17.91023
G1 X94.622 Y83.782 E17.91494
G1 X97.741 Y82.256 E18.03043
G1 X97.831 Y82.21 E18.03379
G1 X97.919 Y82.16 E18.03716
G1 X100.568 Y80.479 E18.14151
G1 X100.7 Y80.38 E18.147
G1 X104.208 Y77.455 E18.29891
G1 X104.297 Y77.371 E18.30298
G1 X106.009 Y75.633 E18.38412
G1 X106.09 Y75.542 E18.38817
G1 X108.074 Y73.172 E18.49098
G1 X108.166 Y73.054 E18.49595
G1 X109.734 Y70.918 E18.58408
G1 X109.808 Y70.809 E18.58846
G1 X110.589 Y69.564 E18.63735
G1 X110.589 Y106.664 E19.8713
G1 X110.453 Y106.615 E19.87611
G1 X109.791 Y106.255 E19.90117
G1 X107.427 Y104.42 E20.0007
G1 X107.164 Y105.19 E20.02777
G1 X107.164 Y100.066 E20.19819
G1 X101.127 Y100.066 E20.39898
G1 X100.958 Y100.092 E20.40467
G1 X98.904 Y100.381 E20.47366
G1 X97.075 Y100.757 E20.53576
G1 X96.985 Y100.778 E20.53884
G1 X95.179 Y101.333 E20.60168
G1 X93.901 Y101.868 E20.64776
G1 X92.934 Y102.381 E20.68417
G1 X92.835 Y102.441 E20.68802
G1 X91.617 Y103.307 E20.73772
G1 X90.464 Y104.518 E20.79334
G1 X90.391 Y104.59 E20.79675
G1 X90.282 Y104.713 E20.80222
G1 X89.732 Y105.591 E20.83667
G1 X89.189 Y106.898 E20.88375
G1 X89.095 Y107.077 E20.89047
G1 X88.89 Y107.87 E20.91771
G1 X88.685 Y109.37 E20.96807
G1 X88.676 Y109.493 E20.97217
G1 X88.654 Y110.36 E21.00102
G1 X88.758 Y111.949 E21.05398
G1 X88.768 Y112.076 E21.05822
G1 X88.778 Y112.161 E21.06106
G1 X89.184 Y114.524 E21.14081
G1 X89.298 Y114.969 E21.15609
G1 F2700 E16.15609
G0 F6000 X89.298 Y115.249
G0 X45.953 Y115.155
G0 X47.78 Y114.295
G0 X47.95 Y114.701
G1 F2700 E21.15609
G1 F1200 X48.057 Y114.807 E21.1611
G0 F6000 X48.347 Y114.532
G1 F1200 X48.622 Y114.807 E21.17403
G0 F6000 X48.741 Y114.361
G1 F1200 X49.188 Y114.807 E21.19503
G0 F6000 X49.754 Y114.807
G1 F1200 X49.136 Y114.189 E21.2241
G0 F6000 X49.521 Y114.009
G1 F1200 X50.319 Y114.807 E21.26164
G0 F6000 X50.885 Y114.807
G1 F1200 X49.904 Y113.826 E21.30778
G0 F6000 X50.286 Y113.643
G1 F1200 X51.451 Y114.807 E21.36256
G0 F6000 X52.016 Y114.807
G1 F1200 X50.669 Y113.46 E21.42591
G0 F6000 X51.051 Y113.277
G1 F1200 X52.582 Y114.807 E21.4979
G0 F6000 X53.148 Y114.807
G1 F1200 X51.434 Y113.094 E21.5785
G0 F6000 X51.817 Y112.911
G1 F1200 X53.713 Y114.807 E21.66768
G0 F6000 X54.279 Y114.807
G1 F1200 X52.2 Y112.728 E21.76547
G0 F6000 X52.582 Y112.545
G1 F1200 X54.845 Y114.807 E21.8719
G0 F6000 X55.411 Y114.807
G1 F1200 X52.965 Y112.362 E21.98692
G0 F6000 X53.347 Y112.178
G1 F1200 X55.976 Y114.807 E22.11058
G0 F6000 X56.542 Y114.807
G1 F1200 X53.73 Y111.996 E22.24283
G0 F6000 X54.111 Y111.811
G1 F1200 X57.108 Y114.807 E22.38377
G0 F6000 X57.673 Y114.807
G1 F1200 X54.483 Y111.617 E22.53382
G0 F6000 X54.852 Y111.42
G1 F1200 X58.239 Y114.807 E22.69314
G0 F6000 X58.805 Y114.807
G1 F1200 X55.222 Y111.225 E22.86165
G0 F6000 X55.587 Y111.024
G1 F1200 X59.37 Y114.807 E23.03959
G0 F6000 X59.936 Y114.807
G1 F1200 X55.944 Y110.816 E23.22734
G0 F6000 X56.302 Y110.608
G1 F1200 X60.502 Y114.807 E23.42487
G0 F6000 X61.067 Y114.807
G1 F1200 X56.659 Y110.399 E23.63221
G0 F6000 X57.017 Y110.191
G1 F1200 X61.633 Y114.807 E23.84933
G0 F6000 X62.199 Y114.807
G1 F1200 X57.375 Y109.984 E24.07621
G0 F6000 X57.732 Y109.775
G1 F1200 X62.764 Y114.807 E24.3129
G0 F6000 X63.33 Y114.807
G1 F1200 X58.09 Y109.567 E24.55937
G0 F6000 X58.448 Y109.359
G1 F1200 X63.896 Y114.807 E24.81563
G0 F6000 X64.461 Y114.807
G1 F1200 X58.805 Y109.151 E25.08167
G0 F6000 X59.157 Y108.937
G1 F1200 X65.027 Y114.807 E25.35778
G0 F6000 X65.593 Y114.807
G1 F1200 X59.5 Y108.715 E25.64435
G0 F6000 X59.845 Y108.494
G1 F1200 X66.159 Y114.807 E25.94132
G0 F6000 X66.724 Y114.807
G1 F1200 X60.188 Y108.272 E26.24873
G0 F6000 X60.523 Y108.04
G1 F1200 X67.29 Y114.807 E26.56703
G0 F6000 X67.856 Y114.807
G1 F1200 X60.86 Y107.812 E26.89607
G0 F6000 X61.197 Y107.583
G1 F1200 X68.421 Y114.807 E27.23587
G0 F6000 X68.987 Y114.807
G1 F1200 X61.516 Y107.337 E27.58726
G0 F6000 X61.836 Y107.091
G1 F1200 X69.553 Y114.807 E27.95022
G0 F6000 X70.118 Y114.807
G1 F1200 X62.156 Y106.845 E28.32473
G0 F6000 X62.475 Y106.599
G1 F1200 X70.684 Y114.807 E28.71083
G0 F6000 X71.25 Y114.807
G1 F1200 X62.795 Y106.353 E29.1085
G0 F6000 X63.114 Y106.107
G1 F1200 X71.815 Y114.807 E29.51775
G0 F6000 X72.381 Y114.807
G1 F1200 X63.434 Y105.86 E29.93859
G0 F6000 X63.754 Y105.614
G1 F1200 X72.947 Y114.807 E30.371
G0 F6000 X73.512 Y114.807
G1 F1200 X64.073 Y105.368 E30.81498
G0 F6000 X64.393 Y105.122
G1 F1200 X74.078 Y114.807 E31.27053
G0 F6000 X74.644 Y114.807
G1 F1200 X64.712 Y104.875 E31.7377
G0 F6000 X65.017 Y104.615
G1 F1200 X75.209 Y114.807 E32.2171
G0 F6000 X75.775 Y114.807
G1 F1200 X65.308 Y104.34 E32.70944
G0 F6000 X65.6 Y104.067
G1 F1200 X76.341 Y114.807 E33.21464
G0 F6000 X76.907 Y114.807
G1 F1200 X65.891 Y103.792 E33.73278
G0 F6000 X66.183 Y103.518
G1 F1200 X77.472 Y114.807 E34.26378
G0 F6000 X78.038 Y114.807
G1 F1200 X66.475 Y103.244 E34.80766
G0 F6000 X66.766 Y102.97
G1 F1200 X78.604 Y114.807 E35.36446
G0 F6000 X79.169 Y114.807
G1 F1200 X67.057 Y102.695 E35.93417
G0 F6000 X67.323 Y102.396
G1 F1200 X79.735 Y114.807 E36.51797
G0 F6000 X80.301 Y114.807
G1 F1200 X67.587 Y102.094 E37.11598
G0 F6000 X67.851 Y101.792
G1 F1200 X80.866 Y114.807 E37.72816
G0 F6000 X81.432 Y114.807
G1 F1200 X68.114 Y101.489 E38.3546
G0 F6000 X68.377 Y101.187
G1 F1200 X81.998 Y114.807 E38.99527
G0 F6000 X82.563 Y114.807
G1 F1200 X68.641 Y100.885 E39.65012
G0 F6000 X68.905 Y100.583
G1 F1200 X83.129 Y114.807 E40.31917
G0 F6000 X83.695 Y114.807
G1 F1200 X69.169 Y100.281 E41.00243
G0 F6000 X69.432 Y99.979
G1 F1200 X84.26 Y114.807 E41.69989
G0 F6000 X84.826 Y114.807
G1 F1200 X69.677 Y99.658 E42.41245
G0 F6000 X69.914 Y99.33
G1 F1200 X85.392 Y114.807 E43.14047
G0 F6000 X85.958 Y114.807
G1 F1200 X70.15 Y99 E43.884
G0 F6000 X70.387 Y98.671
G1 F1200 X86.523 Y114.807 E44.64299
G0 F6000 X87.089 Y114.807
G1 F1200 X70.618 Y98.336 E45.41774
G0 F6000 X70.835 Y97.988
G1 F1200 X87.655 Y114.807 E46.20888
G0 F6000 X88.22 Y114.807
G1 F1200 X71.052 Y97.64 E47.01638
G0 F6000 X71.269 Y97.291
G1 F1200 X88.786 Y114.807 E47.8403
G0 F6000 X89.012 Y114.467
G1 F1200 X71.487 Y96.942 E48.66463
G0 F6000 X71.704 Y96.594
G1 F1200 X88.894 Y113.784 E49.47319
G0 F6000 X88.777 Y113.101
G1 F1200 X71.904 Y96.228 E50.26685
G0 F6000 X72.099 Y95.858
G1 F1200 X88.659 Y112.417 E51.04575
G0 F6000 X88.587 Y111.78
G1 F1200 X72.294 Y95.487 E51.81213
G0 F6000 X72.49 Y95.117
G1 F1200 X88.547 Y111.174 E52.5674
G0 F6000 X88.507 Y110.569
G1 F1200 X72.685 Y94.747 E53.31162
G0 F6000 X72.853 Y94.349
G1 F1200 X88.502 Y109.998 E54.0477
G0 F6000 X88.519 Y109.449
G1 F1200 X73.026 Y93.956 E54.77644
G0 F6000 X73.199 Y93.564
G1 F1200 X88.582 Y108.946 E55.49999
G0 F6000 X88.649 Y108.448
G1 F1200 X73.372 Y93.171 E56.21857
G0 F6000 X73.544 Y92.778
G1 F1200 X88.717 Y107.95 E56.93224
G0 F6000 X88.823 Y107.49
G1 F1200 X73.699 Y92.367 E57.6436
G0 F6000 X73.855 Y91.957
G1 F1200 X88.939 Y107.041 E58.35311
G0 F6000 X89.117 Y106.653
G1 F1200 X74.001 Y91.537 E59.06412
G0 F6000 X74.134 Y91.105
G1 F1200 X89.284 Y106.254 E59.7767
G0 F6000 X89.45 Y105.855
G1 F1200 X74.266 Y90.671 E60.49091
G0 F6000 X74.398 Y90.238
G1 F1200 X89.624 Y105.463 E61.20707
G0 F6000 X89.841 Y105.114
G1 F1200 X74.53 Y89.803 E61.92725
G0 F6000 X74.647 Y89.355
G1 F1200 X90.059 Y104.767 E62.65219
G0 F6000 X90.305 Y104.447
G1 F1200 X74.757 Y88.899 E63.38352
G0 F6000 X74.867 Y88.444
G1 F1200 X90.583 Y104.16 E64.12275
G0 F6000 X90.859 Y103.87
G1 F1200 X74.977 Y87.988 E64.86979
G0 F6000 X75.087 Y87.532
G1 F1200 X91.135 Y103.58 E65.62464
G0 F6000 X91.411 Y103.29
