;FLAVOR:Marlin
;TIME:575
;Filament used: 0.320806m
;Layer height: 0.2
;MINX:98.196
;MINY:77.631
;MINZ:0.2
;MAXX:121.214
;MAXY:142.376
;MAXZ:1.9
;Generated with Cura_SteamEngine master
M140 S70
M105
M190 S70
M104 S200
M105
M109 S200
M82 ;absolute extrusion mode
M201 X500.00 Y500.00 Z100.00 E5000.00 ;Setup machine max acceleration
M203 X500.00 Y500.00 Z10.00 E50.00 ;Setup machine max feedrate
M204 P500.00 R1000.00 T500.00 ;Setup Print/Retract/Travel acceleration
M205 X8.00 Y8.00 Z0.40 E5.00 ;Setup Jerk
M220 S100 ;Reset Feedrate
M221 S100 ;Reset Flowrate

G28 ;Home

G92 E0 ;Reset Extruder
G1 Z2.0 F3000 ;Move Z Axis up
G1 X10.1 Y20 Z0.28 F5000.0 ;Move to start position
G1 X10.1 Y200.0 Z0.28 F1500.0 E15 ;Draw the first line
G1 X10.4 Y200.0 Z0.28 F5000.0 ;Move to side a little
G1 X10.4 Y20 Z0.28 F1500.0 E30 ;Draw the second line
G92 E0 ;Reset Extruder
G1 Z2.0 F3000 ;Move Z Axis up

G92 E0
G92 E0
G1 F2700 E-5
;LAYER_COUNT:7
;LAYER:0
M107
G1 F300 Z0.7
;MESH:batarang-3.stl
G0 F6000 X98.597 Y140.327 Z0.7
;TYPE:WALL-INNER
G1 F300 Z0.2
G1 F2700 E0
G1 F600 X98.597 Y139.977 E0.01164
G1 X98.597 Y139.436 E0.02963
G1 X98.597 Y121.143 E0.63806
G1 X98.597 Y120.928 E0.64521
G1 X98.596 Y120.918 E0.64555
G1 X98.633 Y120.927 E0.64615
G1 X98.845 Y120.963 E0.65082
G1 X99.794 Y121.125 E0.68284
G1 X100.637 Y121.18 E0.71093
G1 X101.03 Y121.172 E0.72401
G1 X101.133 Y121.165 E0.72744
G1 X101.86 Y121.066 E0.75185
G1 X102.28 Y120.956 E0.76629
G1 X102.437 Y120.875 E0.77216
G1 X103.027 Y120.63 E0.79341
G1 X103.44 Y120.371 E0.80962
G1 X103.529 Y120.292 E0.81358
G1 X103.588 Y120.232 E0.81638
G1 X104.144 Y119.702 E0.84193
G1 X104.557 Y119.12 E0.86567
G1 X104.606 Y119.042 E0.86873
G1 X104.843 Y118.592 E0.88564
G1 X104.878 Y118.513 E0.88852
G1 X105.114 Y117.948 E0.90888
G1 X105.38 Y117.082 E0.93902
G1 X105.397 Y117.009 E0.94151
G1 X105.573 Y116.154 E0.97054
G1 X105.706 Y115.206 E1.00238
G1 X105.731 Y115.053 E1.00754
G1 X105.731 Y112.008 E1.10882
G1 X103.669 Y112.008 E1.1774
G1 X102.854 Y110.96 E1.22155
G1 X102.727 Y110.797 E1.22843
G1 X102.695 Y110.743 E1.23051
G1 X102.619 Y110.601 E1.23587
G1 X102.695 Y110.601
G1 X102.727 Y110.601
G1 X102.934 Y110.601 E1.24119
G1 X119.175 Y110.601 E1.78136
G1 X119.628 Y110.601 E1.79643
G1 X119.792 Y110.601 E1.80189
G1 X119.628 Y110.704 E1.80334
G1 X119.263 Y110.971 E1.81308
G1 X118.537 Y111.501 E1.84297
G1 X117.32 Y112.516 E1.89568
G1 X116.439 Y113.38 E1.93672
G1 X116.368 Y113.456 E1.94018
G1 X114.988 Y115.109 E2.0118
G1 X114.903 Y115.223 E2.01653
G1 X114.101 Y116.483 E2.06621
G1 X114.059 Y116.56 E2.06912
G1 X113.916 Y116.854 E2.08
G1 X113.296 Y118.116 E2.12676
G1 X112.675 Y119.887 E2.18918
G1 X112.433 Y120.8 E2.2206
G1 X112.184 Y122.035 E2.2625
G1 X111.992 Y123.36 E2.30703
G1 X111.844 Y125.385 E2.37456
G1 X111.826 Y126.592 E2.41471
G1 X111.83 Y126.942 E2.42636
G1 X111.837 Y127.294 E2.43807
G1 X111.843 Y127.462 E2.44366
G1 X111.721 Y127.483 E2.44777
G1 X110.757 Y127.713 E2.48074
G1 X110.575 Y127.761 E2.487
G1 X110.495 Y127.788 E2.48981
G1 X110.417 Y127.809 E2.49249
G1 X109.626 Y128.049 E2.51998
G1 X109.147 Y128.231 E2.53703
G1 X108.465 Y128.531 E2.56181
G1 X108.174 Y128.65 E2.57227
G1 X107.448 Y129.032 E2.59955
G1 X107.304 Y129.103 E2.60489
G1 X106.426 Y129.649 E2.63928
G1 X106.314 Y129.722 E2.64373
G1 X105.717 Y130.148 E2.66812
G1 X105.584 Y130.253 E2.67376
G1 X104.335 Y131.341 E2.72885
G1 X104.276 Y131.398 E2.73158
G1 X103.398 Y132.332 E2.77421
G1 X103.318 Y132.415 E2.77805
G1 X103.118 Y132.66 E2.78857
G1 X101.953 Y134.173 E2.85208
G1 X101.728 Y134.505 E2.86542
G1 X101.593 Y134.693 E2.87312
G1 X101.257 Y135.212 E2.89368
G1 X101.208 Y135.292 E2.8968
G1 X100.269 Y136.899 E2.9587
G1 X100.197 Y137.027 E2.96359
G1 X99.906 Y137.57 E2.98408
G1 X99.789 Y137.806 E2.99284
G1 X98.983 Y139.488 E3.05487
G1 X98.75 Y139.976 E3.06744
G1 X98.597 Y140.327 E3.07052
G1 F2700 E-1.92948
G1 F300 Z0.7
G0 F6000 X98.197 Y142.376 Z0.7
;TYPE:WALL-OUTER
G1 F300 Z0.2
G1 F2700 E3.07052
G1 F600 X98.196 Y120.402 E3.80138
G1 X98.716 Y120.535 E3.81923
G1 X99.841 Y120.727 E3.85719
G1 X100.646 Y120.78 E3.88402
G1 X101.013 Y120.772 E3.89623
G1 X101.094 Y120.767 E3.89893
G1 X101.782 Y120.673 E3.92202
G1 X102.136 Y120.58 E3.9342
G1 X102.264 Y120.514 E3.93899
G1 X102.843 Y120.273 E3.95985
G1 X103.199 Y120.05 E3.97382
G1 X103.253 Y120.002 E3.97622
G1 X103.312 Y119.942 E3.97902
G1 X103.84 Y119.439 E4.00328
G1 X104.224 Y118.899 E4.02531
G1 X104.258 Y118.844 E4.02747
G1 X104.483 Y118.416 E4.04355
G1 X104.511 Y118.354 E4.04581
G1 X104.737 Y117.812 E4.06534
G1 X104.994 Y116.976 E4.09443
G1 X105.007 Y116.922 E4.09628
G1 X105.179 Y116.086 E4.12467
G1 X105.311 Y115.141 E4.1564
G1 X105.331 Y115.02 E4.16048
G1 X105.331 Y112.408 E4.24736
G1 X101.465 Y112.408 E4.37594
G1 X103.051 Y111.865 E4.4317
G1 X102.396 Y111.024 E4.46715
G1 X102.35 Y110.946 E4.47016
G1 X102.208 Y110.681 E4.48016
G1 X102.188 Y110.634 E4.48186
G1 X102.134 Y110.485 E4.48713
G1 X102.09 Y110.257 E4.49486
G1 X102.074 Y110.201 E4.49679
G1 X121.184 Y110.201 E5.1324
G1 X119.852 Y111.035 E5.18467
G1 X118.783 Y111.816 E5.2287
G1 X117.589 Y112.813 E5.28044
G1 X116.725 Y113.66 E5.32068
G1 X116.668 Y113.721 E5.32345
G1 X115.302 Y115.358 E5.39437
G1 X115.232 Y115.451 E5.39824
G1 X114.446 Y116.686 E5.44693
G1 X114.415 Y116.743 E5.44909
G1 X114.276 Y117.029 E5.45966
G1 X113.666 Y118.271 E5.50569
G1 X113.058 Y120.005 E5.5668
G1 X112.823 Y120.891 E5.59729
G1 X112.578 Y122.103 E5.63841
G1 X112.39 Y123.403 E5.6821
G1 X112.244 Y125.403 E5.7488
G1 X112.226 Y126.593 E5.78838
G1 X112.23 Y126.936 E5.79979
G1 X112.237 Y127.283 E5.81134
G1 X112.249 Y127.628 E5.82282
G1 X112.257 Y127.797 E5.82845
G1 X111.801 Y127.875 E5.84383
G1 X110.854 Y128.101 E5.87621
G1 X110.69 Y128.144 E5.88185
G1 X110.619 Y128.168 E5.88435
G1 X110.529 Y128.193 E5.88745
G1 X109.755 Y128.428 E5.91436
G1 X109.299 Y128.601 E5.93058
G1 X108.616 Y128.902 E5.9554
G1 X108.343 Y129.013 E5.9652
G1 X107.626 Y129.39 E5.99215
G1 X107.499 Y129.453 E5.99686
G1 X106.641 Y129.986 E6.03046
G1 X106.54 Y130.052 E6.03447
G1 X105.957 Y130.468 E6.05829
G1 X105.839 Y130.561 E6.06329
G1 X104.606 Y131.635 E6.11768
G1 X104.562 Y131.678 E6.11972
G1 X103.685 Y132.611 E6.16231
G1 X103.617 Y132.681 E6.16556
G1 X103.432 Y132.908 E6.1753
G1 X102.277 Y134.407 E6.23824
G1 X102.053 Y134.738 E6.25153
G1 X101.924 Y134.918 E6.25889
G1 X101.595 Y135.425 E6.279
G1 X101.551 Y135.497 E6.2818
G1 X100.616 Y137.098 E6.34347
G1 X100.547 Y137.22 E6.34813
G1 X100.261 Y137.754 E6.36828
G1 X100.148 Y137.981 E6.37671
G1 X99.114 Y140.142 E6.45639
G1 X98.938 Y140.547 E6.47108
G1 X98.768 Y140.949 E6.4856
G1 X98.637 Y141.253 E6.49661
G1 X98.489 Y141.605 E6.50931
G1 X98.197 Y142.376 E6.53673
G1 F2700 E1.53673
G1 F300 Z0.7
G0 F6000 X98.987 Y138.578 Z0.7
;TYPE:SKIN
G1 F300 Z0.2
G1 F2700 E6.53673
G1 F600 X98.986 Y121.383 E7.10863
G1 X99.749 Y121.513 E7.13438
G1 X100.629 Y121.57 E7.16371
G1 X101.048 Y121.562 E7.17765
G1 X101.172 Y121.553 E7.18178
G1 X101.936 Y121.45 E7.20742
G1 X102.42 Y121.322 E7.22407
G1 X102.608 Y121.226 E7.23109
G1 X103.207 Y120.977 E7.25267
G1 X103.674 Y120.685 E7.27099
G1 X103.798 Y120.575 E7.2765
G1 X103.857 Y120.514 E7.27933
G1 X104.44 Y119.958 E7.30612
G1 X104.881 Y119.337 E7.33145
G1 X104.944 Y119.237 E7.33538
G1 X105.194 Y118.762 E7.35324
G1 X105.236 Y118.667 E7.35669
G1 X105.481 Y118.081 E7.37782
G1 X105.757 Y117.183 E7.40906
G1 X105.778 Y117.093 E7.41214
G1 X105.957 Y116.22 E7.44178
G1 X106.09 Y115.269 E7.47372
G1 X106.121 Y115.085 E7.47992
G1 X106.121 Y111.618 E7.59524
G1 X103.86 Y111.618 E7.67044
G1 X103.373 Y110.991 E7.69684
G1 X118.574 Y110.991 E8.20243
G1 X118.297 Y111.193 E8.21383
G1 X117.058 Y112.227 E8.26751
G1 X116.16 Y113.107 E8.30932
G1 X116.075 Y113.198 E8.31347
G1 X114.682 Y114.867 E8.38577
G1 X114.582 Y115.001 E8.39133
G1 X113.766 Y116.284 E8.4419
G1 X113.712 Y116.381 E8.4456
G1 X113.565 Y116.684 E8.4568
G1 X112.935 Y117.966 E8.50431
G1 X112.302 Y119.772 E8.56796
G1 X112.053 Y120.712 E8.6003
G1 X111.8 Y121.969 E8.64295
G1 X111.604 Y123.317 E8.68825
G1 X111.454 Y125.368 E8.75665
G1 X111.436 Y126.592 E8.79737
G1 X111.44 Y126.948 E8.80921
G1 X111.444 Y127.149 E8.8159
G1 X110.662 Y127.335 E8.84263
G1 X110.461 Y127.387 E8.84954
G1 X110.388 Y127.413 E8.85211
G1 X110.31 Y127.434 E8.8548
G1 X109.5 Y127.68 E8.88296
G1 X108.999 Y127.87 E8.90078
G1 X108.317 Y128.17 E8.92556
G1 X108.009 Y128.297 E8.93664
G1 X107.271 Y128.685 E8.96437
G1 X107.115 Y128.762 E8.97016
G1 X106.217 Y129.32 E9.00532
G1 X106.094 Y129.4 E9.0102
G1 X105.483 Y129.836 E9.03517
G1 X105.335 Y129.953 E9.04144
G1 X104.071 Y131.054 E9.09719
G1 X103.999 Y131.125 E9.10056
G1 X103.026 Y132.156 E9.14771
G1 X102.812 Y132.418 E9.15896
G1 X101.637 Y133.945 E9.22304
G1 X101.408 Y134.282 E9.2366
G1 X101.271 Y134.473 E9.24441
G1 X100.927 Y135.003 E9.26543
G1 X100.873 Y135.091 E9.26886
G1 X99.93 Y136.706 E9.33106
G1 X99.855 Y136.84 E9.33617
G1 X99.559 Y137.391 E9.35698
G1 X99.438 Y137.635 E9.36603
G1 X98.987 Y138.578 E9.4008
G0 F6000 X99.23 Y137.697
G1 F600 X99.146 Y137.612 E9.40478
G0 F6000 X99.417 Y137.318
G1 F600 X99.146 Y137.047 E9.41752
G0 F6000 X99.615 Y136.95
G1 F600 X99.146 Y136.481 E9.43958
G0 F6000 X99.146 Y135.915
G1 F600 X99.815 Y136.584 E9.47105
G0 F6000 X100.023 Y136.227
G1 F600 X99.146 Y135.35 E9.5123
G0 F6000 X99.146 Y134.784
G1 F600 X100.232 Y135.87 E9.56338
G0 F6000 X100.44 Y135.513
G1 F600 X99.146 Y134.218 E9.62427
G0 F6000 X99.146 Y133.653
G1 F600 X100.649 Y135.156 E9.69497
G0 F6000 X100.865 Y134.806
G1 F600 X99.146 Y133.087 E9.77583
G0 F6000 X99.146 Y132.521
G1 F600 X101.087 Y134.462 E9.86713
G0 F6000 X101.319 Y134.129
G1 F600 X99.146 Y131.956 E9.96934
G0 F6000 X99.146 Y131.39
G1 F600 X101.55 Y133.794 E10.08241
G0 F6000 X101.796 Y133.474
G1 F600 X99.146 Y130.824 E10.20706
G0 F6000 X99.146 Y130.258
G1 F600 X102.042 Y133.155 E10.3433
G0 F6000 X102.288 Y132.835
G1 F600 X99.146 Y129.693 E10.49109
G0 F6000 X99.145 Y129.126
G1 F600 X102.534 Y132.516 E10.65053
G0 F6000 X102.783 Y132.199
G1 F600 X99.145 Y128.561 E10.82165
G0 F6000 X99.145 Y127.995
G1 F600 X103.048 Y131.898 E11.00523
G0 F6000 X103.323 Y131.607
G1 F600 X99.145 Y127.429 E11.20175
G0 F6000 X99.145 Y126.864
G1 F600 X103.597 Y131.316 E11.41116
G0 F6000 X103.872 Y131.025
G1 F600 X99.145 Y126.298 E11.6335
G0 F6000 X99.145 Y125.732
G1 F600 X104.167 Y130.754 E11.86972
G0 F6000 X104.47 Y130.491
G1 F600 X99.145 Y125.167 E12.12017
G0 F6000 X99.145 Y124.601
G1 F600 X104.772 Y130.228 E12.38485
G0 F6000 X105.074 Y129.964
G1 F600 X99.145 Y124.035 E12.66373
G0 F6000 X99.145 Y123.47
G1 F600 X105.384 Y129.708 E12.95717
G0 F6000 X105.714 Y129.473
G1 F600 X99.145 Y122.904 E13.26616
G0 F6000 X99.145 Y122.338
G1 F600 X106.046 Y129.239 E13.59076
G0 F6000 X106.393 Y129.02
G1 F600 X99.145 Y121.772 E13.93168
G0 F6000 X99.586 Y121.647
G1 F600 X106.742 Y128.804 E14.2683
G0 F6000 X107.096 Y128.592
G1 F600 X100.206 Y121.702 E14.59238
G0 F6000 X100.795 Y121.726
G1 F600 X107.468 Y128.399 E14.90626
G0 F6000 X107.839 Y128.204
G1 F600 X101.328 Y121.693 E15.21252
G0 F6000 X101.826 Y121.625
G1 F600 X108.231 Y128.03 E15.51379
G0 F6000 X108.625 Y127.858
G1 F600 X102.288 Y121.521 E15.81186
G0 F6000 X102.695 Y121.363
G1 F600 X109.021 Y127.688 E16.1094
G0 F6000 X109.431 Y127.533
G1 F600 X103.094 Y121.196 E16.40747
G0 F6000 X103.466 Y121.002
G1 F600 X109.864 Y127.4 E16.70841
G0 F6000 X110.3 Y127.27
G1 F600 X103.808 Y120.779 E17.01375
G0 F6000 X104.099 Y120.504
G1 F600 X110.744 Y127.149 E17.32631
G0 F6000 X111.201 Y127.04
G1 F600 X104.388 Y120.227 E17.64678
G0 F6000 X104.655 Y119.928
G1 F600 X111.276 Y126.55 E17.95823
G0 F6000 X111.285 Y125.992
G1 F600 X104.89 Y119.597 E18.25903
G0 F6000 X105.114 Y119.256
G1 F600 X111.293 Y125.435 E18.54967
G0 F6000 X111.328 Y124.904
G1 F600 X105.308 Y118.885 E18.83281
G0 F6000 X105.481 Y118.492
G1 F600 X111.366 Y124.377 E19.10962
G0 F6000 X111.405 Y123.85
G1 F600 X105.644 Y118.089 E19.3806
G0 F6000 X105.777 Y117.656
G1 F600 X111.443 Y123.322 E19.64712
G0 F6000 X111.514 Y122.827
G1 F600 X105.911 Y117.224 E19.91066
G0 F6000 X106.009 Y116.757
G1 F600 X111.585 Y122.333 E20.17294
G0 F6000 X111.662 Y121.844
G1 F600 X106.106 Y116.288 E20.43428
G0 F6000 X106.177 Y115.793
G1 F600 X111.756 Y121.373 E20.69672
G0 F6000 X111.851 Y120.902
G1 F600 X106.246 Y115.297 E20.96036
G0 F6000 X106.28 Y114.766
G1 F600 X111.959 Y120.444 E21.22746
G0 F6000 X112.077 Y119.997
G1 F600 X106.28 Y114.2 E21.50014
G0 F6000 X106.28 Y113.634
G1 F600 X112.207 Y119.561 E21.77892
G0 F6000 X112.353 Y119.141
G1 F600 X106.28 Y113.069 E22.06455
G0 F6000 X106.28 Y112.503
G1 F600 X112.5 Y118.723 E22.35712
G0 F6000 X112.647 Y118.303
G1 F600 X106.28 Y111.937 E22.65659
G0 F6000 X105.8 Y111.456
G1 F600 X105.493 Y111.15 E22.671
G0 F6000 X105.234 Y111.456
G1 F600 X104.928 Y111.15 E22.6854
G0 F6000 X104.668 Y111.456
G1 F600 X104.362 Y111.15 E22.69979
G0 F6000 X104.103 Y111.456
G1 F600 X103.796 Y111.15 E22.71421
G1 F2700 E17.71421
G1 F300 Z0.7
G0 F6000 X106.059 Y111.15 Z0.7
G1 F300 Z0.2
G1 F2700 E22.71421
G1 F600 X112.795 Y117.886 E23.03105
G0 F6000 X112.982 Y117.507
G1 F600 X106.625 Y111.15 E23.33006
G0 F6000 X107.191 Y111.15
G1 F600 X113.168 Y117.128 E23.61122
G0 F6000 X113.355 Y116.749
G1 F600 X107.756 Y111.15 E23.87458
G0 F6000 X108.322 Y111.15
G1 F600 X113.54 Y116.369 E24.12005
G0 F6000 X113.749 Y116.012
G1 F600 X108.888 Y111.15 E24.34872
G0 F6000 X109.453 Y111.15
G1 F600 X113.969 Y115.666 E24.56113
G0 F6000 X114.189 Y115.32
G1 F600 X110.019 Y111.15 E24.75728
G0 F6000 X110.585 Y111.15
G1 F600 X114.409 Y114.974 E24.93715
G0 F6000 X114.653 Y114.653
G1 F600 X111.15 Y111.15 E25.10192
G0 F6000 X111.716 Y111.15
G1 F600 X114.91 Y114.344 E25.25215
G0 F6000 X115.167 Y114.036
G1 F600 X112.282 Y111.15 E25.38788
G0 F6000 X112.847 Y111.15
G1 F600 X115.425 Y113.728 E25.50914
G0 F6000 X115.682 Y113.419
G1 F600 X113.413 Y111.15 E25.61587
G0 F6000 X113.979 Y111.15
G1 F600 X115.94 Y113.111 E25.70811
G0 F6000 X116.218 Y112.824
G1 F600 X114.544 Y111.15 E25.78685
G0 F6000 X115.11 Y111.15
G1 F600 X116.504 Y112.544 E25.85242
G0 F6000 X116.789 Y112.264
G1 F600 X115.676 Y111.15 E25.90479
G0 F6000 X116.241 Y111.15
G1 F600 X117.085 Y111.994 E25.94449
G0 F6000 X117.393 Y111.737
G1 F600 X116.807 Y111.15 E25.97208
G0 F6000 X117.373 Y111.15
G1 F600 X117.702 Y111.479 E25.98755
G0 F6000 X118.01 Y111.222
G1 F600 X117.939 Y111.15 E25.99092
G0 F6000 X118.682 Y110.762
;TYPE:SKIN
G1 F600 X118.931 Y111.012 E25.99678
G0 F6000 X119.095 Y110.892
G1 F600 X118.963 Y110.761 E25.99988
G1 F2700 E20.99988
G1 F300 Z0.7
G0 F6000 X103.236 Y110.872 Z0.7
G1 F300 Z0.2
G1 F2700 E25.99988
G1 F600 X103.123 Y110.76 E26.00252
G0 F6000 X103.115 Y111.034
G1 F600 X103.143 Y111.063 E26.00319
G1 F2700 E21.00319
G1 F300 Z0.7
G0 F6000 X98.844 Y138.725 Z0.7
G1 F300 Z0.2
G1 F2700 E26.00319
G1 F600 X99.065 Y138.946 E26.00839
G0 F6000 X98.974 Y139.138
G1 F600 X98.756 Y138.92 E26.01352
G0 F6000 X98.756 Y139.203
G1 F600 X98.882 Y139.329 E26.01648
G0 F6000 X98.683 Y140.544
G1 F600 X98.508 Y140.652 E26.02104
G1 X98.423 Y141.133 E26.03188
G1 F2700 E21.03188
G1 F300 Z0.7
G0 F6000 X102.849 Y112.183 Z0.7
G1 F300 Z0.2
G1 F2700 E26.03188
G1 F600 X103.096 Y112.146 E26.03783
G1 X103.342 Y112.11 E26.04375
G1 F2700 E21.04375
G1 F300 Z0.7
G0 F6000 X120.004 Y110.67 Z0.7
G1 F300 Z0.2
G1 F2700 E26.04375
G1 F600 X120.103 Y110.487 E26.04824
G1 X120.332 Y110.432 E26.05332
G0 F6000 X119.825 Y109.399
;TYPE:WALL-INNER
G1 F600 X119.667 Y109.399 E26.05857
G1 X119.57 Y109.399 E26.0618
G1 X119.215 Y109.399 E26.07361
G1 X102.964 Y109.399 E26.61412
G1 X102.762 Y109.399 E26.62084
G1 X102.732 Y109.399 E26.62184
G1 X102.65 Y109.399 E26.62456
G1 X102.732 Y109.247 E26.62729
G1 X102.762 Y109.198 E26.62812
G1 X102.885 Y109.039 E26.63332
G1 X103.698 Y107.992 E26.6774
G1 X105.761 Y107.992 E26.74602
G1 X105.761 Y104.951 E26.84716
G1 X105.738 Y104.802 E26.85218
G1 X105.604 Y103.846 E26.88429
G1 X105.428 Y102.992 E26.91329
G1 X105.411 Y102.919 E26.91578
G1 X105.144 Y102.051 E26.94599
G1 X104.91 Y101.488 E26.96626
G1 X104.875 Y101.41 E26.96911
G1 X104.637 Y100.957 E26.98613
G1 X104.588 Y100.878 E26.98922
G1 X104.175 Y100.298 E27.0129
G1 X103.62 Y99.769 E27.0384
G1 X103.56 Y99.708 E27.04125
