;FLAVOR:Marlin
;TIME:4716
;Filament used: 4.174m
;Layer height: 0.2
;MINX:73.2
;MINY:73.319
;MINZ:0.24
;MAXX:146.799
;MAXY:146.68
;MAXZ:5.99
;Generated with Cura_SteamEngine 4.8.0
M140 S70
M105
M190 S70
M104 S200
M105
M109 S200
M82 ;absolute extrusion mode
M201 X500.00 Y500.00 Z100.00 E5000.00 ;Setup machine max acceleration
M203 X500.00 Y500.00 Z10.00 E50.00 ;Setup machine max feedrate
M204 P500.00 R1000.00 T500.00 ;Setup Print/Retract/Travel acceleration
M205 X8.00 Y8.00 Z0.40 E5.00 ;Setup Jerk
M220 S100 ;Reset Feedrate
M221 S100 ;Reset Flowrate

G28 ;Home

G92 E0 ;Reset Extruder
G1 Z2.0 F3000 ;Move Z Axis up
G1 X10.1 Y20 Z0.28 F5000.0 ;Move to start position
G1 X10.1 Y200.0 Z0.28 F1500.0 E15 ;Draw the first line
G1 X10.4 Y200.0 Z0.28 F5000.0 ;Move to side a little
G1 X10.4 Y20 Z0.28 F1500.0 E30 ;Draw the second line
G92 E0 ;Reset Extruder
G1 Z2.0 F3000 ;Move Z Axis up

G92 E0
G92 E0
G1 F2700 E-5
;LAYER_COUNT:22
;LAYER:-6
M107
G0 F12000 X84.92 Y83.357 Z0.24
;TYPE:SUPPORT-INTERFACE
G1 F2700 E0
G1 F1800 X85.078 Y83.198 E0.01789
G1 X85.465 Y82.844 E0.05976
G1 X85.786 Y82.556 E0.09418
G1 X86.004 Y82.365 E0.11732
G1 X86.084 Y82.299 E0.1256
G1 X86.39 Y82.061 E0.15654
G1 X86.641 Y81.892 E0.1807
G1 X86.901 Y81.739 E0.20478
G1 X87.148 Y81.614 E0.22688
G1 X87.426 Y81.494 E0.25105
G1 X87.995 Y81.256 E0.30028
G1 X88.587 Y80.915 E0.35482
G1 X89.13 Y80.502 E0.40927
G1 X89.613 Y80.029 E0.46324
G1 X89.876 Y79.712 E0.49612
G1 X90.072 Y79.489 E0.51982
G1 X90.248 Y79.312 E0.53974
G1 X90.517 Y79.082 E0.56799
G1 X91.02 Y78.714 E0.61774
G1 X91.177 Y78.612 E0.63269
G1 X91.505 Y78.418 E0.66311
G1 X92.079 Y78.089 E0.71592
G1 X92.258 Y77.99 E0.73225
G1 X92.419 Y77.906 E0.74674
G1 X92.753 Y77.747 E0.77627
G1 X93.013 Y77.643 E0.79862
G1 X93.285 Y77.554 E0.82147
G1 X93.567 Y77.481 E0.84472
G1 X94.473 Y77.305 E0.91839
G1 X95.088 Y77.103 E0.97007
G1 X95.707 Y76.814 E1.0246
G1 X96.279 Y76.452 E1.07863
G1 X96.582 Y76.216 E1.10929
G1 X96.641 Y76.166 E1.11546
G1 X96.855 Y76.009 E1.13665
G1 X97.08 Y75.864 E1.15802
G1 X97.396 Y75.694 E1.18666
G1 X97.914 Y75.463 E1.23193
G1 X98.116 Y75.384 E1.24925
G1 X98.486 Y75.258 E1.28045
G1 X98.984 Y75.097 E1.32223
G1 X99.303 Y74.999 E1.34887
G1 X99.462 Y74.955 E1.36203
G1 X99.815 Y74.87 E1.39102
G1 X100.097 Y74.82 E1.41388
G1 X100.383 Y74.788 E1.43685
G1 X100.696 Y74.774 E1.46186
G1 X101.127 Y74.781 E1.49627
G1 X101.568 Y74.793 E1.53149
G1 X102.247 Y74.724 E1.58597
G1 X102.912 Y74.571 E1.64044
G1 X103.549 Y74.337 E1.69461
G1 X103.912 Y74.16 E1.72684
G1 X103.937 Y74.146 E1.72913
G1 X104.236 Y74.009 E1.75538
G1 X104.436 Y73.932 E1.77249
G1 X104.799 Y73.824 E1.80272
G1 X105.351 Y73.707 E1.84776
G1 X105.578 Y73.669 E1.86614
G1 X105.958 Y73.625 E1.89667
G1 X106.626 Y73.556 E1.95028
G1 X106.824 Y73.539 E1.96614
G1 X106.968 Y73.531 E1.97766
G1 X107.334 Y73.52 E2.00688
G1 X107.647 Y73.533 E2.03189
G1 X107.924 Y73.56 E2.05411
G1 X108.209 Y73.607 E2.07716
G1 X108.718 Y73.724 E2.11885
G1 X109.067 Y73.808 E2.14751
G1 X109.101 Y73.812 E2.15024
G1 X109.15 Y73.823 E2.15425
G1 X109.15 Y73.817 E2.15473
G1 X109.745 Y73.883 E2.20252
G1 X110.427 Y73.873 E2.25696
G1 X111.098 Y73.777 E2.31107
G1 X111.479 Y73.684 E2.34238
G1 X111.567 Y73.658 E2.3497
G1 X111.853 Y73.596 E2.37306
G1 X112.085 Y73.56 E2.3918
G1 X112.454 Y73.532 E2.42134
G1 X113.002 Y73.533 E2.46508
G1 X113.216 Y73.542 E2.48218
G1 X113.595 Y73.578 E2.51257
G1 X114.272 Y73.651 E2.56693
G1 X114.484 Y73.676 E2.58397
G1 X114.635 Y73.7 E2.59617
G1 X114.973 Y73.762 E2.6236
G1 X115.286 Y73.84 E2.64935
G1 X115.545 Y73.924 E2.67109
G1 X115.836 Y74.037 E2.696
G1 X116.364 Y74.284 E2.74253
G1 X116.614 Y74.404 E2.76467
G1 X117.262 Y74.619 E2.81917
G1 X117.933 Y74.749 E2.87373
G1 X118.608 Y74.794 E2.92773
G1 X119.005 Y74.782 E2.95943
G1 X119.06 Y74.778 E2.96384
G1 X119.369 Y74.775 E2.9885
G1 X119.602 Y74.788 E3.00713
G1 X119.965 Y74.837 E3.03637
G1 X120.526 Y74.955 E3.08213
G1 X120.724 Y75.007 E3.09847
G1 X121.087 Y75.121 E3.12884
G1 X121.669 Y75.31 E3.17769
G1 X121.934 Y75.4 E3.20003
G1 X122.065 Y75.45 E3.21122
G1 X122.424 Y75.599 E3.24225
G1 X122.664 Y75.716 E3.26356
G1 X122.92 Y75.861 E3.28705
G1 X123.164 Y76.022 E3.31038
G1 X123.532 Y76.298 E3.3471
G1 X123.879 Y76.563 E3.38195
G1 X124.468 Y76.906 E3.43636
G1 X125.097 Y77.173 E3.49091
G1 X125.748 Y77.357 E3.54491
G1 X126.13 Y77.425 E3.57588
G1 X126.2 Y77.435 E3.58153
G1 X126.471 Y77.49 E3.6036
G1 X126.737 Y77.562 E3.6256
G1 X127.035 Y77.667 E3.65082
G1 X127.592 Y77.914 E3.69946
G1 X127.753 Y77.994 E3.71381
G1 X128.108 Y78.194 E3.74633
G1 X128.626 Y78.496 E3.7942
G1 X128.861 Y78.636 E3.81603
G1 X128.972 Y78.706 E3.82651
G1 X129.293 Y78.927 E3.85762
G1 X129.511 Y79.096 E3.87963
G1 X129.735 Y79.295 E3.90355
G1 X129.949 Y79.511 E3.92782
G1 X130.539 Y80.19 E3.99963
G1 X131.045 Y80.647 E4.05405
G1 X131.606 Y81.037 E4.10859
G1 X132.207 Y81.35 E4.16268
G1 X132.552 Y81.489 E4.19237
G1 X132.606 Y81.508 E4.19694
G1 X132.858 Y81.619 E4.21892
G1 X133.096 Y81.739 E4.2402
G1 X133.398 Y81.924 E4.26847
G1 X133.861 Y82.26 E4.31414
G1 X134.04 Y82.403 E4.33242
G1 X134.331 Y82.658 E4.36331
G1 X134.773 Y83.059 E4.41095
G1 X134.963 Y83.236 E4.43168
G1 X135.089 Y83.36 E4.44579
G1 X135.329 Y83.613 E4.47362
G1 X135.52 Y83.84 E4.49731
G1 X135.694 Y84.076 E4.52071
G1 X135.839 Y84.303 E4.54221
G1 X136.121 Y84.81 E4.58852
G1 X136.268 Y85.082 E4.6132
G1 X136.287 Y85.108 E4.61577
G1 X136.33 Y85.186 E4.62288
G1 X136.337 Y85.179 E4.62367
G1 X136.664 Y85.637 E4.66859
G1 X137.129 Y86.138 E4.72316
G1 X137.649 Y86.574 E4.77733
G1 X138.038 Y86.835 E4.81472
G1 X138.261 Y86.993 E4.83654
G1 X138.471 Y87.163 E4.8581
G1 X138.717 Y87.397 E4.8852
G1 X139.118 Y87.843 E4.93308
G1 X139.234 Y87.983 E4.94759
G1 X139.47 Y88.299 E4.97908
G1 X139.834 Y88.801 E5.02857
G1 X139.982 Y89.01 E5.04902
G1 X140.078 Y89.157 E5.06303
G1 X140.258 Y89.45 E5.09048
G1 X140.408 Y89.734 E5.11612
G1 X140.517 Y89.974 E5.13716
G1 X140.629 Y90.273 E5.16265
G1 X140.898 Y91.152 E5.23602
G1 X141.159 Y91.736 E5.28709
G1 X141.513 Y92.32 E5.3416
G1 X141.932 Y92.851 E5.39559
G1 X142.193 Y93.121 E5.42557
G1 X142.24 Y93.167 E5.43082
G1 X142.436 Y93.382 E5.45404
G1 X142.6 Y93.585 E5.47487
G1 X142.788 Y93.857 E5.50127
G1 X143.085 Y94.37 E5.54858
G1 X143.17 Y94.532 E5.56319
G1 X143.281 Y94.768 E5.58401
G1 X143.588 Y95.463 E5.64466
G1 X143.699 Y95.719 E5.66693
G1 X143.742 Y95.83 E5.67643
G1 X143.871 Y96.193 E5.70718
G1 X143.955 Y96.486 E5.73151
G1 X144.018 Y96.776 E5.7552
G1 X144.059 Y97.044 E5.77684
G1 X144.111 Y97.641 E5.82468
G1 X144.134 Y97.934 E5.84814
G1 X144.274 Y98.602 E5.90262
G1 X144.496 Y99.248 E5.95715
G1 X144.795 Y99.856 E6.01123
G1 X145.007 Y100.193 E6.04301
G1 X145.169 Y100.463 E6.06815
G1 X145.276 Y100.672 E6.08689
G1 X145.427 Y101.03 E6.11791
G1 X145.612 Y101.596 E6.16544
G1 X145.671 Y101.807 E6.18293
G1 X145.747 Y102.148 E6.21081
G1 X145.867 Y102.711 E6.25677
G1 X145.933 Y103.048 E6.28418
G1 X145.954 Y103.181 E6.29493
G1 X146.006 Y103.581 E6.32712
G1 X146.022 Y103.83 E6.34704
G1 X146.024 Y104.144 E6.37211
G1 X146.008 Y104.415 E6.39378
G1 X145.893 Y105.337 E6.46794
G1 X145.898 Y105.337 E6.46834
G1 X145.894 Y105.974 E6.51919
G1 X145.976 Y106.651 E6.57363
G1 X146.142 Y107.309 E6.6278
G1 X146.279 Y107.685 E6.65974
G1 X146.297 Y107.728 E6.66346
G1 X146.393 Y108.016 E6.6877
G1 X146.456 Y108.251 E6.70712
G1 X146.521 Y108.605 E6.73585
G1 X146.582 Y109.181 E6.78208
G1 X146.595 Y109.384 E6.79832
G1 X146.599 Y109.774 E6.82946
G1 X146.598 Y110.38 E6.87783
G1 X146.594 Y110.681 E6.90186
G1 X146.589 Y110.77 E6.90897
G1 X146.557 Y111.178 E6.94164
G1 X146.521 Y111.441 E6.96283
G1 X146.457 Y111.749 E6.98794
G1 X146.38 Y112.03 E7.0112
G1 X146.215 Y112.511 E7.05179
G1 X146.094 Y112.85 E7.08052
G1 X146.086 Y112.885 E7.08339
G1 X146.051 Y112.988 E7.09207
G1 X146.064 Y112.988 E7.09311
G1 X145.947 Y113.518 E7.13644
G1 X145.886 Y114.199 E7.19102
G1 X145.911 Y114.874 E7.24493
G1 X145.964 Y115.26 E7.27603
G1 X145.978 Y115.342 E7.28268
G1 X146.01 Y115.64 E7.3066
G1 X146.022 Y115.898 E7.32722
G1 X146.013 Y116.244 E7.35485
G1 X145.953 Y116.8 E7.39949
G1 X145.921 Y117.014 E7.41676
G1 X145.845 Y117.396 E7.44785
G1 X145.716 Y117.999 E7.49707
G1 X145.655 Y118.258 E7.51831
G1 X145.615 Y118.41 E7.53086
G1 X145.506 Y118.772 E7.56104
G1 X145.408 Y119.037 E7.58359
G1 X145.291 Y119.3 E7.60657
G1 X145.153 Y119.564 E7.63035
G1 X144.692 Y120.327 E7.70151
G1 X144.698 Y120.33 E7.70204
G1 X144.44 Y120.894 E7.75155
G1 X144.237 Y121.545 E7.80598
G1 X144.117 Y122.214 E7.86024
G1 X144.089 Y122.622 E7.89288
G1 X144.061 Y122.941 E7.91844
G1 X144.019 Y123.222 E7.94112
G1 X143.952 Y123.53 E7.96628
G1 X143.864 Y123.836 E7.9917
G1 X143.792 Y124.05 E8.00972
G1 X143.709 Y124.26 E8.02775
G1 X143.527 Y124.68 E8.06429
G1 X143.269 Y125.258 E8.11481
G1 X143.169 Y125.473 E8.13374
G1 X143.098 Y125.615 E8.14641
G1 X142.921 Y125.941 E8.17603
G1 X142.763 Y126.193 E8.19977
G1 X142.6 Y126.42 E8.22208
G1 X142.421 Y126.639 E8.24465
G1 X142.033 Y127.057 E8.29018
G1 X141.815 Y127.284 E8.3153
G1 X141.41 Y127.833 E8.36976
G1 X141.078 Y128.429 E8.42422
G1 X140.823 Y129.058 E8.4784
G1 X140.701 Y129.49 E8.51423
G1 X140.608 Y129.787 E8.53907
G1 X140.518 Y130.019 E8.55894
G1 X140.368 Y130.332 E8.58664
G1 X140.08 Y130.833 E8.63277
G1 X139.969 Y131.009 E8.64938
G1 X139.741 Y131.331 E8.68088
G1 X139.223 Y132.035 E8.75065
G1 X139.164 Y132.11 E8.75826
G1 X138.899 Y132.424 E8.79106
G1 X138.691 Y132.64 E8.815
G1 X138.499 Y132.816 E8.83579
G1 X138.244 Y133.021 E8.86191
G1 X137.966 Y133.217 E8.88906
G1 X137.509 Y133.532 E8.93336
G1 X137 Y133.988 E8.98792
G1 X136.553 Y134.504 E9.04241
G1 X136.178 Y135.068 E9.09647
G1 X135.994 Y135.414 E9.12776
G1 X135.972 Y135.461 E9.1319
G1 X135.826 Y135.717 E9.15542
G1 X135.698 Y135.914 E9.17418
G1 X135.47 Y136.211 E9.20406
G1 X135.084 Y136.639 E9.25007
G1 X134.922 Y136.802 E9.26842
G1 X134.535 Y137.156 E9.31028
G1 X134.221 Y137.438 E9.34397
G1 X133.996 Y137.635 E9.36784
G1 X133.916 Y137.701 E9.37612
G1 X133.61 Y137.939 E9.40707
G1 X133.359 Y138.108 E9.43122
G1 X133.099 Y138.261 E9.4553
G1 X132.852 Y138.386 E9.4774
G1 X132.574 Y138.506 E9.50157
G1 X132.005 Y138.744 E9.5508
G1 X131.413 Y139.085 E9.60534
G1 X130.87 Y139.498 E9.6598
G1 X130.387 Y139.971 E9.71376
G1 X130.127 Y140.284 E9.74624
G1 X129.931 Y140.508 E9.77
G1 X129.752 Y140.688 E9.79026
G1 X129.483 Y140.918 E9.81852
G1 X128.983 Y141.284 E9.86798
G1 X128.827 Y141.385 E9.88281
G1 X128.562 Y141.544 E9.90748
G1 X127.938 Y141.901 E9.96487
G1 X127.742 Y142.01 E9.98277
G1 X127.581 Y142.094 E9.99727
G1 X127.247 Y142.253 E10.02679
G1 X126.987 Y142.357 E10.04915
G1 X126.715 Y142.446 E10.07199
G1 X126.433 Y142.519 E10.09524
G1 X125.527 Y142.695 E10.16892
G1 X124.912 Y142.897 E10.22059
G1 X124.293 Y143.186 E10.27512
G1 X123.721 Y143.548 E10.32916
G1 X123.418 Y143.784 E10.35981
G1 X123.359 Y143.834 E10.36599
G1 X123.145 Y143.991 E10.38717
G1 X122.92 Y144.136 E10.40854
G1 X122.604 Y144.306 E10.43718
G1 X122.086 Y144.537 E10.48246
G1 X121.884 Y144.616 E10.49977
G1 X121.514 Y144.742 E10.53097
G1 X121.016 Y144.903 E10.57275
G1 X120.697 Y145.001 E10.59939
G1 X120.538 Y145.045 E10.61256
G1 X120.185 Y145.13 E10.64154
G1 X119.903 Y145.18 E10.6644
G1 X119.617 Y145.212 E10.68737
G1 X119.304 Y145.226 E10.71238
G1 X118.873 Y145.219 E10.74679
G1 X118.432 Y145.207 E10.78201
G1 X117.753 Y145.276 E10.83649
G1 X117.088 Y145.429 E10.89096
G1 X116.451 Y145.663 E10.94513
G1 X116.088 Y145.84 E10.97737
G1 X116.063 Y145.854 E10.97965
G1 X115.764 Y145.991 E11.00591
G1 X115.564 Y146.068 E11.02301
G1 X115.201 Y146.176 E11.05325
G1 X114.649 Y146.293 E11.09829
G1 X114.422 Y146.331 E11.11666
G1 X114.042 Y146.375 E11.1472
G1 X113.374 Y146.444 E11.2008
G1 X113.176 Y146.461 E11.21667
G1 X113.032 Y146.469 E11.22818
G1 X112.666 Y146.48 E11.25741
G1 X112.353 Y146.467 E11.28241
G1 X112.076 Y146.44 E11.30463
G1 X111.791 Y146.393 E11.32769
G1 X111.282 Y146.276 E11.36938
G1 X110.933 Y146.192 E11.39803
G1 X110.899 Y146.188 E11.40076
G1 X110.85 Y146.177 E11.40477
G1 X110.85 Y146.183 E11.40525
G1 X110.255 Y146.117 E11.45304
G1 X109.573 Y146.127 E11.50748
G1 X108.902 Y146.223 E11.56159
G1 X108.521 Y146.316 E11.5929
G1 X108.433 Y146.342 E11.60022
G1 X108.147 Y146.404 E11.62358
G1 X107.915 Y146.44 E11.64232
G1 X107.546 Y146.468 E11.67186
G1 X106.998 Y146.467 E11.71561
G1 X106.784 Y146.458 E11.73271
G1 X106.454 Y146.427 E11.75916
G1 X105.728 Y146.349 E11.81745
G1 X105.516 Y146.324 E11.83449
G1 X105.365 Y146.3 E11.84669
G1 X105.027 Y146.238 E11.87412
G1 X104.714 Y146.16 E11.89987
G1 X104.455 Y146.076 E11.92161
G1 X104.164 Y145.963 E11.94653
G1 X103.636 Y145.716 E11.99306
G1 X103.386 Y145.596 E12.01519
G1 X102.738 Y145.381 E12.06969
G1 X102.067 Y145.251 E12.12425
G1 X101.392 Y145.206 E12.17825
G1 X100.995 Y145.218 E12.20996
G1 X100.94 Y145.222 E12.21436
G1 X100.63 Y145.225 E12.23911
G1 X100.389 Y145.212 E12.25837
G1 X100.045 Y145.165 E12.28609
G1 X99.476 Y145.045 E12.33251
G1 X99.271 Y144.992 E12.34941
G1 X98.899 Y144.875 E12.38054
G1 X98.31 Y144.682 E12.43001
G1 X98.09 Y144.607 E12.44857
G1 X97.924 Y144.545 E12.46271
G1 X97.577 Y144.401 E12.4927
G1 X97.344 Y144.287 E12.51341
G1 X97.076 Y144.135 E12.538
G1 X96.829 Y143.973 E12.56158
G1 X96.465 Y143.7 E12.5979
G1 X96.115 Y143.432 E12.63309
G1 X95.524 Y143.089 E12.68763
G1 X94.895 Y142.824 E12.74212
G1 X94.243 Y142.642 E12.79615
G1 X93.865 Y142.575 E12.8268
G1 X93.807 Y142.567 E12.83147
G1 X93.527 Y142.509 E12.8543
G1 X93.263 Y142.438 E12.87612
G1 X92.965 Y142.333 E12.90134
G1 X92.408 Y142.086 E12.94998
G1 X92.247 Y142.006 E12.96433
G1 X91.859 Y141.787 E12.99989
G1 X91.374 Y141.504 E13.04472
G1 X91.139 Y141.364 E13.06655
G1 X91.028 Y141.294 E13.07703
G1 X90.707 Y141.073 E13.10814
G1 X90.485 Y140.901 E13.13055
G1 X90.265 Y140.705 E13.15407
G1 X90.051 Y140.489 E13.17834
G1 X89.451 Y139.798 E13.25139
G1 X88.942 Y139.342 E13.30595
G1 X88.376 Y138.95 E13.3609
G1 X87.505 Y138.531 E13.43806
G1 X87.35 Y138.472 E13.4513
G1 X87.099 Y138.361 E13.4732
G1 X86.855 Y138.233 E13.4952
G1 X86.576 Y138.06 E13.5214
G1 X86.126 Y137.731 E13.5659
G1 X85.988 Y137.622 E13.57994
G1 X85.669 Y137.342 E13.61382
G1 X85.207 Y136.923 E13.66361
G1 X85.05 Y136.778 E13.68067
G1 X84.912 Y136.641 E13.69619
G1 X84.671 Y136.387 E13.72414
G1 X84.473 Y136.151 E13.74873
G1 X84.306 Y135.924 E13.77122
G1 X84.158 Y135.692 E13.79319
G1 X83.87 Y135.173 E13.84057
G1 X83.732 Y134.918 E13.86372
G1 X83.713 Y134.892 E13.86629
G1 X83.67 Y134.814 E13.8734
G1 X83.663 Y134.821 E13.87419
G1 X83.336 Y134.363 E13.91911
G1 X82.871 Y133.862 E13.97367
G1 X82.351 Y133.426 E14.02784
G1 X81.962 Y133.165 E14.06523
G1 X81.724 Y132.996 E14.08853
G1 X81.545 Y132.85 E14.10697
G1 X81.274 Y132.593 E14.13678
G1 X80.885 Y132.162 E14.18313
G1 X80.755 Y132.003 E14.19952
G1 X80.525 Y131.695 E14.23021
G1 X80.166 Y131.199 E14.27908
G1 X80.01 Y130.978 E14.30068
G1 X79.922 Y130.843 E14.31354
G1 X79.739 Y130.544 E14.34152
G1 X79.592 Y130.266 E14.36663
G1 X79.481 Y130.022 E14.38802
G1 X79.371 Y129.727 E14.41316
G1 X79.102 Y128.848 E14.48653
G1 X78.841 Y128.264 E14.5376
G1 X78.487 Y127.68 E14.59211
G1 X78.068 Y127.149 E14.6461
G1 X77.807 Y126.879 E14.67608
G1 X77.76 Y126.833 E14.68133
G1 X77.567 Y126.622 E14.70415
G1 X77.397 Y126.41 E14.72585
G1 X77.204 Y126.129 E14.75306
G1 X76.921 Y125.639 E14.79823
G1 X76.816 Y125.436 E14.81647
G1 X76.658 Y125.094 E14.84654
G1 X76.407 Y124.527 E14.89604
G1 X76.299 Y124.274 E14.918
G1 X76.26 Y124.175 E14.92649
G1 X76.124 Y123.795 E14.95871
G1 X76.045 Y123.514 E14.98201
G1 X75.981 Y123.218 E15.00618
G1 X75.941 Y122.953 E15.02758
G1 X75.889 Y122.359 E15.07517
G1 X75.866 Y122.065 E15.09871
G1 X75.726 Y121.396 E15.15327
G1 X75.504 Y120.751 E15.20772
G1 X75.204 Y120.143 E15.26184
G1 X74.989 Y119.8 E15.29416
G1 X74.828 Y119.53 E15.31925
G1 X74.724 Y119.328 E15.33739
G1 X74.573 Y118.969 E15.36848
G1 X74.392 Y118.417 E15.41485
G1 X74.329 Y118.19 E15.43365
G1 X74.238 Y117.785 E15.46679
G1 X74.128 Y117.264 E15.50929
G1 X74.067 Y116.952 E15.53467
G1 X74.046 Y116.819 E15.54542
G1 X73.994 Y116.419 E15.57762
G1 X73.978 Y116.162 E15.59817
G1 X73.977 Y115.848 E15.62324
G1 X73.992 Y115.585 E15.64426
G1 X74.107 Y114.663 E15.71843
