;FLAVOR:Marlin
;TIME:2584
;Filament used: 1.06889m
;Layer height: 0.2
;MINX:86.109
;MINY:83.41
;MINZ:0.2
;MAXX:133.893
;MAXY:136.54
;MAXZ:22
;Generated with Cura_SteamEngine master
M140 S50
M105
M190 S50
M104 S200
M105
M109 S200
M82 ;absolute extrusion mode
M201 X500.00 Y500.00 Z100.00 E5000.00 ;Setup machine max acceleration
M203 X500.00 Y500.00 Z10.00 E50.00 ;Setup machine max feedrate
M204 P500.00 R1000.00 T500.00 ;Setup Print/Retract/Travel acceleration
M205 X8.00 Y8.00 Z0.40 E5.00 ;Setup Jerk
M220 S100 ;Reset Feedrate
M221 S100 ;Reset Flowrate

G28 ;Home

G92 E0 ;Reset Extruder
G1 Z2.0 F3000 ;Move Z Axis up
G1 X10.1 Y20 Z0.28 F5000.0 ;Move to start position
G1 X10.1 Y200.0 Z0.28 F1500.0 E15 ;Draw the first line
G1 X10.4 Y200.0 Z0.28 F5000.0 ;Move to side a little
G1 X10.4 Y20 Z0.28 F1500.0 E30 ;Draw the second line
G92 E0 ;Reset Extruder
G1 Z2.0 F3000 ;Move Z Axis up

G92 E0
G92 E0
G1 F2700 E-5
;LAYER_COUNT:110
;LAYER:0
M107
G0 F6000 X99.948 Y88.033 Z0.2
;TYPE:SKIRT
G1 F2700 E0
G1 F1200 X100.102 Y87.866 E0.00756
G1 X100.767 Y87.204 E0.03876
G1 X101.183 Y86.842 E0.05711
G1 X101.275 Y86.766 E0.06108
G1 X101.697 Y86.435 E0.07891
G1 X101.875 Y86.302 E0.0863
G1 X102.974 Y85.579 E0.13006
G1 X103.346 Y85.365 E0.14433
G1 X104.093 Y84.973 E0.17239
G1 X104.137 Y84.952 E0.17401
G1 X104.726 Y84.692 E0.19543
G1 X105.465 Y84.391 E0.22197
G1 X105.784 Y84.266 E0.23336
G1 X106.239 Y84.097 E0.2495
G1 X107.131 Y83.809 E0.28068
G1 X108.045 Y83.597 E0.31189
G1 X108.973 Y83.464 E0.34307
G1 X109.91 Y83.41 E0.37428
G1 X110.847 Y83.437 E0.40546
G1 X111.779 Y83.543 E0.43666
G1 X112.698 Y83.728 E0.46784
G1 X113.599 Y83.991 E0.49906
G1 X114.175 Y84.204 E0.51948
G1 X114.344 Y84.272 E0.52554
G1 X114.554 Y84.359 E0.5331
G1 X114.84 Y84.481 E0.54344
G1 X115.123 Y84.607 E0.55375
G1 X115.538 Y84.798 E0.56894
G1 X115.815 Y84.93 E0.57915
G1 X116.177 Y85.109 E0.59258
G1 X117.117 Y85.632 E0.62836
G1 X117.292 Y85.741 E0.63521
G1 X118.152 Y86.336 E0.67
G1 X118.427 Y86.546 E0.68151
G1 X119.059 Y87.066 E0.70873
G1 X119.421 Y87.401 E0.72513
G1 X119.598 Y87.572 E0.73332
G1 X120.155 Y88.151 E0.76004
G1 X120.29 Y88.302 E0.76678
G1 X120.885 Y89.028 E0.798
G1 X121.186 Y89.449 E0.81521
G1 X121.22 Y89.499 E0.81722
G1 X121.83 Y90.508 E0.85644
G1 X121.917 Y90.671 E0.86258
G1 X123.705 Y93.91 E0.98564
G1 X123.886 Y94.25 E0.99845
G1 X124.263 Y94.98 E1.02577
G1 X124.772 Y96.12 E1.0673
G1 X125.093 Y96.966 E1.09739
G1 X125.42 Y97.864 E1.12918
G1 X126.341 Y100.194 E1.21251
G1 X127.333 Y102.507 E1.29622
G1 X128.394 Y104.804 E1.38037
G1 X129.502 Y107.034 E1.46319
G1 X130.686 Y109.256 E1.54693
G1 X132.268 Y112.01 E1.65257
G1 X132.456 Y112.346 E1.66538
G1 X132.878 Y113.183 E1.69655
G1 X133.228 Y114.053 E1.72774
G1 X133.557 Y115.172 E1.76654
G1 X133.606 Y115.378 E1.77358
G1 X133.784 Y116.298 E1.80475
G1 X133.883 Y117.231 E1.83595
G1 X133.893 Y118.441 E1.8762
G1 X133.888 Y118.547 E1.87973
G1 X133.861 Y118.955 E1.89333
G1 X133.842 Y119.18 E1.90084
G1 X133.799 Y119.596 E1.91475
G1 X133.748 Y120.011 E1.92865
G1 X133.594 Y120.936 E1.95984
G1 X133.362 Y121.845 E1.99105
G1 X133.016 Y122.821 E2.02549
G1 X132.952 Y122.978 E2.03113
G1 X132.561 Y123.831 E2.06233
G1 X132.1 Y124.647 E2.09351
G1 X131.57 Y125.421 E2.12471
G1 X130.976 Y126.147 E2.15591
G1 X130.322 Y126.82 E2.18712
G1 X129.614 Y127.434 E2.21829
G1 X128.856 Y127.986 E2.24948
G1 X127.901 Y128.554 E2.28643
G1 X125.613 Y129.762 E2.37249
G1 X123.425 Y130.997 E2.45605
G1 X121.255 Y132.304 E2.54031
G1 X119.113 Y133.678 E2.62495
G1 X118.832 Y133.865 E2.63618
G1 X118.566 Y134.036 E2.64669
G1 X118.271 Y134.219 E2.65824
G1 X118.059 Y134.346 E2.66646
G1 X117.797 Y134.499 E2.67655
G1 X117.58 Y134.621 E2.68483
G1 X117.031 Y134.909 E2.70545
G1 X116.929 Y134.959 E2.70923
G1 X116.485 Y135.164 E2.72549
G1 X116.242 Y135.27 E2.73431
G1 X115.552 Y135.544 E2.759
G1 X115.309 Y135.631 E2.76759
G1 X115.025 Y135.728 E2.77757
G1 X114.909 Y135.766 E2.78163
G1 X114.302 Y135.946 E2.80269
G1 X113.849 Y136.066 E2.81827
G1 X113.21 Y136.215 E2.8401
G1 X112.913 Y136.275 E2.85018
G1 X112.108 Y136.407 E2.87731
G1 X111.957 Y136.426 E2.88237
G1 X111.308 Y136.488 E2.90405
G1 X110.808 Y136.521 E2.92072
G1 X109.764 Y136.54 E2.95545
G1 X109.42 Y136.53 E2.9669
G1 X109.109 Y136.517 E2.97725
G1 X108.9 Y136.505 E2.98421
G1 X108.141 Y136.435 E3.00956
G1 X107.827 Y136.395 E3.02009
G1 X107.132 Y136.284 E3.0435
G1 X106.93 Y136.245 E3.05034
G1 X106.462 Y136.144 E3.06627
G1 X106.198 Y136.081 E3.07529
G1 X105.494 Y135.888 E3.09957
G1 X105.223 Y135.804 E3.10901
G1 X104.844 Y135.679 E3.12228
G1 X104.45 Y135.541 E3.13617
G1 X103.522 Y135.168 E3.16943
G1 X103.272 Y135.054 E3.17857
G1 X102.482 Y134.654 E3.20802
G1 X102.272 Y134.537 E3.21602
G1 X101.744 Y134.223 E3.23645
G1 X100.532 Y133.456 E3.28416
G1 X100.35 Y133.339 E3.29135
G1 X99.639 Y132.869 E3.3197
G1 X97.485 Y131.534 E3.40399
G1 X95.358 Y130.298 E3.48581
G1 X93.145 Y129.091 E3.56965
G1 X92.061 Y128.518 E3.61043
G1 X91.251 Y128.045 E3.64163
G1 X90.485 Y127.505 E3.6728
G1 X89.767 Y126.901 E3.70401
G1 X89.103 Y126.238 E3.73522
G1 X88.499 Y125.521 E3.7664
G1 X87.957 Y124.756 E3.79758
G1 X87.483 Y123.947 E3.82877
G1 X87.079 Y123.1 E3.85998
G1 X86.749 Y122.222 E3.89117
G1 X86.494 Y121.32 E3.92235
G1 X86.361 Y120.668 E3.94448
G1 X86.298 Y120.304 E3.95677
G1 X86.173 Y119.317 E3.98986
G1 X86.137 Y118.873 E4.00468
G1 X86.109 Y117.555 E4.04852
G1 X86.117 Y117.35 E4.05535
G1 X86.194 Y116.415 E4.08655
G1 X86.35 Y115.49 E4.11775
G1 X86.584 Y114.582 E4.14894
G1 X86.847 Y113.817 E4.17584
G1 X87.221 Y112.957 E4.20703
G1 X87.616 Y112.218 E4.2349
G1 X88.208 Y111.204 E4.27396
G1 X88.339 Y110.965 E4.28302
G1 X88.728 Y110.307 E4.30844
G1 X89.936 Y108.128 E4.39131
G1 X91.09 Y105.901 E4.47473
G1 X92.198 Y103.604 E4.55956
G1 X93.214 Y101.335 E4.64224
G1 X94.155 Y99.07 E4.72382
G1 X94.787 Y97.382 E4.78377
G1 X94.834 Y97.272 E4.78775
G1 X95.344 Y95.944 E4.83506
G1 X95.707 Y95.105 E4.86547
G1 X95.793 Y94.927 E4.87204
G1 X95.915 Y94.683 E4.88112
G1 X96.061 Y94.399 E4.89174
G1 X96.179 Y94.176 E4.90013
G1 X97.071 Y92.536 E4.96222
G1 X97.495 Y91.781 E4.99102
G1 X98.116 Y90.612 E5.03505
G1 X98.591 Y89.804 E5.06622
G1 X98.914 Y89.331 E5.08527
G1 X99.12 Y89.046 E5.09697
G1 X99.948 Y88.033 E5.14049
G0 F6000 X100.243 Y88.304
G1 F1200 X100.397 Y88.137 E5.14804
G1 X101.049 Y87.488 E5.17864
G1 X101.438 Y87.151 E5.19576
G1 X101.53 Y87.075 E5.19973
G1 X101.936 Y86.756 E5.2169
G1 X102.114 Y86.623 E5.22429
G1 X103.173 Y85.926 E5.26646
G1 X103.545 Y85.712 E5.28073
G1 X104.265 Y85.334 E5.30778
G1 X104.309 Y85.313 E5.3094
G1 X104.876 Y85.062 E5.33002
G1 X105.615 Y84.761 E5.35656
G1 X105.923 Y84.641 E5.36756
G1 X106.378 Y84.472 E5.3837
G1 X107.254 Y84.19 E5.41431
G1 X108.152 Y83.984 E5.44495
G1 X109.064 Y83.857 E5.47558
G1 X109.983 Y83.809 E5.50619
G1 X110.903 Y83.842 E5.5368
G1 X111.817 Y83.954 E5.56743
G1 X112.717 Y84.145 E5.59803
G1 X114.026 Y84.575 E5.64386
G1 X114.195 Y84.643 E5.64992
G1 X114.397 Y84.727 E5.65719
G1 X114.683 Y84.849 E5.66754
G1 X114.956 Y84.97 E5.67747
G1 X115.371 Y85.161 E5.69266
G1 X115.637 Y85.288 E5.70247
G1 X115.999 Y85.467 E5.7159
G1 X116.905 Y85.972 E5.7504
G1 X117.08 Y86.081 E5.75725
G1 X117.909 Y86.653 E5.79075
G1 X118.184 Y86.863 E5.80226
G1 X118.793 Y87.365 E5.82851
G1 X119.143 Y87.689 E5.84437
G1 X119.32 Y87.86 E5.85256
G1 X119.857 Y88.418 E5.87832
G1 X119.992 Y88.569 E5.88505
G1 X120.576 Y89.281 E5.91568
G1 X120.855 Y89.674 E5.93171
G1 X120.889 Y89.724 E5.93372
G1 X121.477 Y90.696 E5.97151
G1 X121.586 Y90.899 E5.97917
G1 X123.133 Y93.703 E6.08569
G1 X123.231 Y93.877 E6.09233
G1 X123.352 Y94.098 E6.10071
G1 X123.597 Y94.56 E6.1181
G1 X123.908 Y95.163 E6.14067
G1 X124.398 Y96.262 E6.18069
G1 X124.719 Y97.108 E6.21078
G1 X125.043 Y98 E6.24235
G1 X125.965 Y100.332 E6.32575
G1 X126.974 Y102.684 E6.41088
G1 X128.031 Y104.971 E6.49467
G1 X129.149 Y107.221 E6.57824
G1 X130.345 Y109.466 E6.66284
G1 X131.918 Y112.205 E6.76789
G1 X132.106 Y112.541 E6.7807
G1 X132.521 Y113.363 E6.81133
G1 X132.862 Y114.218 E6.84194
G1 X133.168 Y115.264 E6.87819
G1 X133.217 Y115.47 E6.88523
G1 X133.391 Y116.374 E6.91585
G1 X133.486 Y117.29 E6.94648
G1 X133.493 Y118.422 E6.98413
G1 X133.488 Y118.528 E6.98766
G1 X133.462 Y118.921 E7.00076
G1 X133.443 Y119.146 E7.00827
G1 X133.402 Y119.547 E7.02168
G1 X133.351 Y119.962 E7.03559
G1 X133.199 Y120.87 E7.06621
G1 X132.969 Y121.761 E7.09681
G1 X132.646 Y122.67 E7.1289
G1 X132.582 Y122.827 E7.13454
G1 X132.198 Y123.664 E7.16517
G1 X131.742 Y124.464 E7.19579
G1 X131.219 Y125.222 E7.22642
G1 X130.632 Y125.931 E7.25704
G1 X129.986 Y126.587 E7.28766
G1 X129.285 Y127.184 E7.31829
G1 X128.536 Y127.718 E7.34888
G1 X127.714 Y128.2 E7.38057
G1 X125.424 Y129.409 E7.4667
G1 X123.228 Y130.648 E7.55057
G1 X121.064 Y131.952 E7.6346
G1 X118.906 Y133.336 E7.71987
G1 X118.806 Y133.404 E7.72389
G1 X118.35 Y133.699 E7.74195
G1 X118.065 Y133.876 E7.75311
G1 X117.853 Y134.003 E7.76133
G1 X117.601 Y134.15 E7.77103
G1 X117.384 Y134.272 E7.77931
G1 X116.855 Y134.55 E7.79919
G1 X116.753 Y134.6 E7.80297
G1 X116.325 Y134.798 E7.81865
G1 X116.082 Y134.904 E7.82747
G1 X115.417 Y135.168 E7.85127
G1 X115.174 Y135.255 E7.85985
G1 X114.901 Y135.348 E7.86944
G1 X114.785 Y135.386 E7.8735
G1 X114.199 Y135.56 E7.89384
G1 X113.746 Y135.68 E7.90942
G1 X113.131 Y135.823 E7.93042
G1 X112.834 Y135.883 E7.9405
G1 X112.058 Y136.01 E7.96665
G1 X111.907 Y136.029 E7.97172
G1 X111.282 Y136.089 E7.9926
G1 X110.782 Y136.122 E8.00926
G1 X109.776 Y136.141 E8.04273
G1 X109.432 Y136.131 E8.05418
G1 X109.132 Y136.118 E8.06416
G1 X108.923 Y136.106 E8.07113
G1 X108.192 Y136.038 E8.09555
G1 X107.878 Y135.998 E8.10607
G1 X107.208 Y135.891 E8.12864
G1 X107.006 Y135.852 E8.13548
G1 X106.555 Y135.754 E8.15083
G1 X106.291 Y135.691 E8.15986
G1 X105.613 Y135.506 E8.18323
G1 X105.342 Y135.422 E8.19267
G1 X104.976 Y135.301 E8.20549
G1 X104.582 Y135.163 E8.21938
G1 X103.688 Y134.804 E8.25142
G1 X103.438 Y134.69 E8.26056
G1 X102.677 Y134.305 E8.28892
G1 X102.467 Y134.188 E8.29692
G1 X101.958 Y133.885 E8.31662
G1 X100.746 Y133.118 E8.36433
G1 X100.571 Y133.005 E8.37126
G1 X99.865 Y132.538 E8.39941
G1 X97.717 Y131.207 E8.48346
G1 X95.5 Y129.919 E8.56874
G1 X93.374 Y128.759 E8.64929
G1 X92.248 Y128.164 E8.69165
G1 X91.454 Y127.699 E8.72225
G1 X90.702 Y127.167 E8.75289
G1 X90 Y126.572 E8.78349
G1 X89.352 Y125.918 E8.81412
G1 X88.764 Y125.21 E8.84473
G1 X88.239 Y124.453 E8.87537
G1 X87.781 Y123.654 E8.906
G1 X87.395 Y122.819 E8.93659
G1 X87.082 Y121.953 E8.96722
G1 X86.846 Y121.063 E8.99784
G1 X86.755 Y120.6 E9.01354
G1 X86.692 Y120.236 E9.02583
G1 X86.572 Y119.285 E9.05771
G1 X86.536 Y118.841 E9.07252
G1 X86.509 Y117.571 E9.11477
G1 X86.517 Y117.366 E9.1216
G1 X86.593 Y116.448 E9.15223
G1 X86.748 Y115.541 E9.18284
G1 X86.981 Y114.65 E9.21347
G1 X87.221 Y113.961 E9.23774
G1 X87.588 Y113.117 E9.26835
G1 X87.961 Y112.42 E9.29464
G1 X88.624 Y111.285 E9.33836
G1 X88.683 Y111.169 E9.34269
G1 X89.064 Y110.526 E9.36755
G1 X90.298 Y108.299 E9.45223
G1 X91.462 Y106.052 E9.53639
G1 X92.546 Y103.805 E9.61937
G1 X93.59 Y101.472 E9.70438
G1 X94.526 Y99.22 E9.7855
G1 X95.162 Y97.522 E9.8458
G1 X95.209 Y97.412 E9.84978
G1 X95.718 Y96.087 E9.89699
G1 X96.068 Y95.279 E9.92628
G1 X96.154 Y95.101 E9.93285
G1 X96.271 Y94.866 E9.94159
G1 X96.417 Y94.582 E9.95221
G1 X96.53 Y94.367 E9.96029
G1 X97.35 Y92.858 E10.01741
G1 X97.839 Y91.985 E10.05069
G1 X98.469 Y90.8 E10.09532
G1 X98.936 Y90.007 E10.12593
G1 X99.238 Y89.565 E10.14374
G1 X99.444 Y89.28 E10.15543
G1 X100.243 Y88.304 E10.19739
G0 F6000 X100.537 Y88.575
G1 F1200 X100.691 Y88.408 E10.20494
G1 X101.332 Y87.772 E10.23498
G1 X101.693 Y87.459 E10.25087
G1 X101.785 Y87.383 E10.25484
G1 X102.176 Y87.076 E10.27137
G1 X102.354 Y86.943 E10.27876
G1 X103.373 Y86.273 E10.31932
G1 X103.745 Y86.059 E10.3336
G1 X104.438 Y85.695 E10.35963
G1 X104.482 Y85.674 E10.36125
G1 X105.027 Y85.433 E10.38107
G1 X105.766 Y85.132 E10.40761
G1 X106.062 Y85.016 E10.41819
G1 X106.517 Y84.847 E10.43433
G1 X107.377 Y84.571 E10.46437
G1 X108.258 Y84.371 E10.49442
G1 X109.153 Y84.25 E10.52446
G1 X110.055 Y84.209 E10.55449
G1 X110.957 Y84.248 E10.58452
G1 X111.853 Y84.366 E10.61458
G1 X112.734 Y84.563 E10.6446
G1 X113.876 Y84.946 E10.68467
G1 X114.045 Y85.014 E10.69072
G1 X114.24 Y85.095 E10.69775
G1 X114.526 Y85.217 E10.70809
G1 X114.788 Y85.333 E10.71762
G1 X115.203 Y85.524 E10.73281
G1 X115.46 Y85.647 E10.74229
G1 X115.822 Y85.826 E10.75572
G1 X116.694 Y86.311 E10.78891
G1 X116.869 Y86.42 E10.79577
G1 X117.667 Y86.971 E10.82802
G1 X117.942 Y87.181 E10.83953
G1 X118.528 Y87.664 E10.86479
G1 X118.865 Y87.976 E10.88006
G1 X119.042 Y88.147 E10.88825
G1 X119.559 Y88.685 E10.91306
G1 X119.694 Y88.836 E10.9198
G1 X120.525 Y89.898 E10.96465
G1 X120.559 Y89.948 E10.96666
G1 X121.124 Y90.884 E11.00303
G1 X121.218 Y91.06 E11.00966
G1 X122.793 Y93.915 E11.11811
G1 X122.882 Y94.073 E11.12414
G1 X122.999 Y94.286 E11.13222
G1 X123.18 Y94.626 E11.14504
G1 X123.552 Y95.347 E11.17202
G1 X124.024 Y96.404 E11.21052
G1 X124.345 Y97.25 E11.24062
G1 X124.671 Y98.146 E11.27233
G1 X125.597 Y100.488 E11.35609
G1 X126.607 Y102.844 E11.44135
G1 X127.667 Y105.138 E11.5254
G1 X128.795 Y107.408 E11.60971
G1 X129.996 Y109.661 E11.69463
G1 X131.569 Y112.4 E11.79968
G1 X131.757 Y112.736 E11.81249
G1 X132.163 Y113.543 E11.84253
G1 X132.496 Y114.383 E11.87259
G1 X132.779 Y115.357 E11.90632
G1 X132.828 Y115.563 E11.91336
G1 X132.998 Y116.45 E11.9434
G1 X133.089 Y117.348 E11.97342
G1 X133.094 Y118.404 E12.00855
G1 X133.089 Y118.51 E12.01208
G1 X133.064 Y118.887 E12.02464
G1 X133.045 Y119.112 E12.03215
G1 X133.005 Y119.498 E12.04506
G1 X132.954 Y119.913 E12.05897
G1 X132.804 Y120.804 E12.08902
G1 X132.576 Y121.678 E12.11906
G1 X132.275 Y122.519 E12.14877
G1 X132.211 Y122.676 E12.15441
G1 X131.834 Y123.497 E12.18446
G1 X131.385 Y124.28 E12.21448
G1 X130.869 Y125.021 E12.24451
G1 X130.289 Y125.714 E12.27457
G1 X129.65 Y126.352 E12.3046
G1 X128.958 Y126.932 E12.33463
G1 X128.216 Y127.448 E12.36469
G1 X127.528 Y127.846 E12.39113
G1 X125.232 Y129.058 E12.47748
G1 X123.03 Y130.301 E12.56158
G1 X120.838 Y131.622 E12.6467
G1 X118.678 Y133.007 E12.73204
G1 X118.4 Y133.192 E12.74315
G1 X118.134 Y133.363 E12.75367
G1 X117.86 Y133.533 E12.76439
G1 X117.648 Y133.66 E12.77261
G1 X117.405 Y133.801 E12.78196
G1 X117.188 Y133.923 E12.79024
G1 X116.679 Y134.191 E12.80937
G1 X116.577 Y134.241 E12.81315
G1 X116.165 Y134.431 E12.82824
G1 X115.922 Y134.537 E12.83706
G1 X115.282 Y134.791 E12.85996
G1 X115.039 Y134.878 E12.86854
G1 X114.776 Y134.968 E12.87779
G1 X114.66 Y135.006 E12.88185
G1 X114.097 Y135.173 E12.90138
G1 X113.644 Y135.293 E12.91697
G1 X113.052 Y135.431 E12.93718
G1 X112.755 Y135.491 E12.94726
G1 X112.008 Y135.613 E12.97244
G1 X111.857 Y135.632 E12.9775
G1 X111.256 Y135.69 E12.99758
G1 X110.756 Y135.723 E13.01425
G1 X109.788 Y135.741 E13.04645
G1 X109.444 Y135.731 E13.05789
G1 X109.155 Y135.718 E13.06752
G1 X108.946 Y135.706 E13.07448
G1 X108.242 Y135.641 E13.09799
G1 X107.928 Y135.601 E13.10852
G1 X107.283 Y135.498 E13.13025
G1 X107.081 Y135.459 E13.13709
G1 X106.647 Y135.365 E13.15186
G1 X106.383 Y135.302 E13.16089
G1 X105.731 Y135.124 E13.18337
G1 X105.46 Y135.04 E13.1928
G1 X105.108 Y134.924 E13.20513
G1 X104.714 Y134.786 E13.21901
G1 X103.854 Y134.44 E13.24985
G1 X103.604 Y134.326 E13.25898
G1 X102.872 Y133.955 E13.28628
G1 X102.662 Y133.838 E13.29427
G1 X102.172 Y133.547 E13.31323
G1 X100.96 Y132.78 E13.36093
G1 X100.791 Y132.671 E13.36762
G1 X100.09 Y132.208 E13.39557
G1 X97.907 Y130.855 E13.48099
G1 X95.714 Y129.58 E13.56536
G1 X93.572 Y128.412 E13.6465
G1 X92.435 Y127.811 E13.68928
G1 X91.656 Y127.354 E13.71932
G1 X90.92 Y126.83 E13.74937
G1 X90.234 Y126.243 E13.7794
G1 X89.602 Y125.598 E13.80943
G1 X89.03 Y124.899 E13.83947
G1 X88.522 Y124.152 E13.86952
G1 X88.082 Y123.364 E13.89954
G1 X87.713 Y122.539 E13.9296
G1 X87.419 Y121.685 E13.95964
G1 X87.149 Y120.532 E13.99902
G1 X87.086 Y120.168 E14.01131
G1 X86.97 Y119.252 E14.04202
G1 X86.934 Y118.808 E14.05684
G1 X86.909 Y117.586 E14.09749
G1 X86.917 Y117.381 E14.10431
G1 X86.992 Y116.481 E14.13435
G1 X87.146 Y115.591 E14.16439
G1 X87.379 Y114.719 E14.19441
