;FLAVOR:Marlin
;TIME:762
;Filament used: 0.237225m
;Layer height: 0.2
;MINX:15.201
;MINY:15.2
;MINZ:0.2
;MAXX:204.799
;MAXY:204.8
;MAXZ:0.7
;Generated with Cura_SteamEngine 4.8.0
M140 S70
M105
M190 S70
M104 S200
M105
M109 S200
M82 ;absolute extrusion mode
M201 X500.00 Y500.00 Z100.00 E5000.00 ;Setup machine max acceleration
M203 X500.00 Y500.00 Z10.00 E50.00 ;Setup machine max feedrate
M204 P500.00 R1000.00 T500.00 ;Setup Print/Retract/Travel acceleration
M205 X8.00 Y8.00 Z0.40 E5.00 ;Setup Jerk
M220 S100 ;Reset Feedrate
M221 S100 ;Reset Flowrate

G28 ;Home
G29 ;Auto level bed

G92 E0 ;Reset Extruder
G1 Z2.0 F3000 ;Move Z Axis up
G1 X10.1 Y20 Z0.28 F5000.0 ;Move to start position
G1 X10.1 Y200.0 Z0.28 F1500.0 E15 ;Draw the first line
G1 X10.4 Y200.0 Z0.28 F5000.0 ;Move to side a little
G1 X10.4 Y20 Z0.28 F1500.0 E30 ;Draw the second line
G92 E0 ;Reset Extruder
G1 Z2.0 F3000 ;Move Z Axis up
G92 E0
G92 E0
G1 F2700 E-5
;LAYER_COUNT:1
;LAYER:0
M107
G1 F300 Z0.7
;MESH:BosZx_Bed_Level_Full.stl
G0 F6000 X147.488 Y160.452 Z0.7
;TYPE:WALL-INNER
G1 F300 Z0.2
G1 F2700 E0
G1 F600 X147.222 Y160.278 E0.01057
G1 X146.96 Y160.093 E0.02124
G1 X146.709 Y159.904 E0.03169
G1 X146.458 Y159.7 E0.04245
G1 X146.224 Y159.497 E0.05275
G1 X145.998 Y159.287 E0.06301
G1 X145.764 Y159.055 E0.07397
G1 X145.548 Y158.826 E0.08444
G1 X145.347 Y158.599 E0.09453
G1 X145.144 Y158.351 E0.10519
G1 X144.946 Y158.093 E0.116
G1 X144.771 Y157.848 E0.12602
G1 X144.591 Y157.578 E0.13681
G1 X144.421 Y157.304 E0.14753
G1 X144.272 Y157.043 E0.15753
G1 X144.121 Y156.757 E0.16829
G1 X143.98 Y156.467 E0.17901
G1 X143.85 Y156.178 E0.18955
G1 X143.735 Y155.893 E0.19977
G1 X143.628 Y155.602 E0.21009
G1 X143.524 Y155.289 E0.22106
G1 X143.436 Y154.988 E0.23149
G1 X143.36 Y154.694 E0.24159
G1 X143.291 Y154.379 E0.25231
G1 X143.234 Y154.075 E0.2626
G1 X143.185 Y153.75 E0.27353
G1 X143.148 Y153.45 E0.28358
G1 X143.121 Y153.129 E0.2943
G1 X143.106 Y152.82 E0.30459
G1 X143.101 Y152.509 E0.31493
G1 X143.106 Y152.18 E0.32588
G1 X143.122 Y151.873 E0.3361
G1 X143.149 Y151.552 E0.34682
G1 X143.185 Y151.25 E0.35693
G1 X143.233 Y150.925 E0.36786
G1 X143.289 Y150.623 E0.37807
G1 X143.36 Y150.308 E0.38881
G1 X143.436 Y150.012 E0.39898
G1 X143.524 Y149.711 E0.40941
G1 X143.627 Y149.398 E0.42037
G1 X143.734 Y149.108 E0.43065
G1 X143.851 Y148.821 E0.44096
G1 X143.98 Y148.533 E0.45145
G1 X144.121 Y148.243 E0.46218
G1 X144.272 Y147.957 E0.47294
G1 X144.421 Y147.696 E0.48293
G1 X144.591 Y147.422 E0.49366
G1 X144.771 Y147.152 E0.50445
G1 X144.947 Y146.906 E0.51451
G1 X145.151 Y146.639 E0.52569
G1 X145.338 Y146.413 E0.53544
G1 X145.557 Y146.165 E0.54645
G1 X145.764 Y145.945 E0.55649
G1 X145.998 Y145.713 E0.56745
G1 X146.224 Y145.503 E0.57771
G1 X146.458 Y145.3 E0.58802
G1 X146.713 Y145.093 E0.59894
G1 X146.96 Y144.907 E0.60923
G1 X147.225 Y144.72 E0.62001
G1 X147.488 Y144.548 E0.63046
G1 X147.753 Y144.387 E0.64078
G1 X148.034 Y144.228 E0.65152
G1 X148.313 Y144.084 E0.66196
G1 X148.594 Y143.951 E0.6723
G1 X148.875 Y143.827 E0.68251
G1 X149.188 Y143.703 E0.69371
G1 X149.466 Y143.603 E0.70354
G1 X149.768 Y143.506 E0.71409
G1 X150.084 Y143.416 E0.72502
G1 X150.383 Y143.342 E0.73526
G1 X150.694 Y143.276 E0.74584
G1 X151.011 Y143.219 E0.75655
G1 X151.312 Y143.176 E0.76666
G1 X151.64 Y143.14 E0.77764
G1 X151.94 Y143.117 E0.78764
G1 X152.274 Y143.103 E0.79876
G1 X152.575 Y143.1 E0.80877
G1 X152.898 Y143.109 E0.81952
G1 X153.217 Y143.128 E0.83015
G1 X153.522 Y143.156 E0.84034
G1 X153.844 Y143.197 E0.85113
G1 X154.154 Y143.246 E0.86157
G1 X154.451 Y143.305 E0.87164
G1 X154.779 Y143.38 E0.88283
G1 X155.07 Y143.458 E0.89285
G1 X155.372 Y143.549 E0.90335
G1 X155.677 Y143.653 E0.91406
G1 X155.972 Y143.765 E0.92456
G1 X156.258 Y143.884 E0.93486
G1 X156.558 Y144.021 E0.94583
G1 X156.823 Y144.153 E0.95568
G1 X157.101 Y144.303 E0.96618
G1 X157.379 Y144.465 E0.97689
G1 X157.653 Y144.637 E0.98765
G1 X157.913 Y144.814 E0.99811
G1 X158.168 Y145.001 E1.00862
G1 X158.417 Y145.195 E1.01912
G1 X158.653 Y145.394 E1.02939
G1 X158.894 Y145.61 E1.04015
G1 X159.113 Y145.818 E1.0502
G1 X159.333 Y146.044 E1.06069
G1 X159.551 Y146.283 E1.07145
G1 X159.751 Y146.517 E1.08169
G1 X159.956 Y146.775 E1.09265
G1 X160.14 Y147.024 E1.10295
G1 X160.316 Y147.277 E1.1132
G1 X160.494 Y147.555 E1.12418
G1 X160.653 Y147.82 E1.13445
G1 X160.805 Y148.096 E1.14493
G1 X160.946 Y148.374 E1.1553
G1 X161.086 Y148.671 E1.16622
G1 X161.206 Y148.954 E1.17645
G1 X161.323 Y149.256 E1.18722
G1 X161.423 Y149.54 E1.19723
G1 X161.517 Y149.842 E1.20775
G1 X161.604 Y150.16 E1.21872
G1 X161.676 Y150.46 E1.22898
G1 X161.739 Y150.765 E1.23934
G1 X161.793 Y151.075 E1.2498
G1 X161.835 Y151.386 E1.26024
G1 X161.866 Y151.703 E1.27084
G1 X161.888 Y152.016 E1.28127
G1 X161.899 Y152.332 E1.29179
G1 X161.899 Y152.648 E1.3023
G1 X161.888 Y152.977 E1.31325
G1 X161.867 Y153.287 E1.32358
G1 X161.838 Y153.592 E1.33377
G1 X161.796 Y153.904 E1.34424
G1 X161.742 Y154.217 E1.35481
G1 X161.679 Y154.527 E1.36533
G1 X161.604 Y154.841 E1.37607
G1 X161.523 Y155.139 E1.38634
G1 X161.429 Y155.441 E1.39686
G1 X161.324 Y155.743 E1.40749
G1 X161.207 Y156.045 E1.41826
G1 X161.089 Y156.323 E1.42831
G1 X160.951 Y156.616 E1.43908
G1 X160.805 Y156.904 E1.44982
G1 X160.659 Y157.169 E1.45988
G1 X160.488 Y157.457 E1.47102
G1 X160.328 Y157.705 E1.48084
G1 X160.147 Y157.966 E1.4914
G1 X159.951 Y158.231 E1.50237
G1 X159.765 Y158.466 E1.51233
G1 X159.559 Y158.708 E1.5229
G1 X159.338 Y158.951 E1.53383
G1 X159.128 Y159.167 E1.54385
G1 X158.894 Y159.39 E1.5546
G1 X158.653 Y159.606 E1.56536
G1 X158.423 Y159.8 E1.57537
G1 X158.168 Y159.999 E1.58613
G1 X157.913 Y160.186 E1.59665
G1 X157.647 Y160.367 E1.60735
G1 X157.39 Y160.528 E1.61743
G1 X157.112 Y160.691 E1.62815
G1 X156.829 Y160.844 E1.63885
G1 X156.558 Y160.979 E1.64892
G1 X156.258 Y161.116 E1.65989
G1 X155.972 Y161.235 E1.6702
G1 X155.677 Y161.347 E1.68069
G1 X155.372 Y161.451 E1.69141
G1 X155.072 Y161.542 E1.70184
G1 X154.779 Y161.62 E1.71192
G1 X154.451 Y161.695 E1.72311
G1 X154.154 Y161.754 E1.73318
G1 X153.844 Y161.803 E1.74362
G1 X153.522 Y161.844 E1.75442
G1 X153.217 Y161.872 E1.7646
G1 X152.898 Y161.891 E1.77523
G1 X152.575 Y161.9 E1.78598
G1 X152.274 Y161.897 E1.79599
G1 X151.94 Y161.883 E1.80711
G1 X151.64 Y161.86 E1.81712
G1 X151.312 Y161.824 E1.82809
G1 X151.011 Y161.781 E1.83821
G1 X150.694 Y161.724 E1.84892
G1 X150.383 Y161.658 E1.85949
G1 X150.084 Y161.584 E1.86974
G1 X149.768 Y161.494 E1.88067
G1 X149.466 Y161.397 E1.89122
G1 X149.188 Y161.297 E1.90104
G1 X148.875 Y161.173 E1.91224
G1 X148.594 Y161.049 E1.92245
G1 X148.314 Y160.917 E1.93275
G1 X148.028 Y160.768 E1.94348
G1 X147.753 Y160.613 E1.95398
G1 X147.488 Y160.452 E1.96429
G0 F6000 X147.269 Y160.787
;TYPE:WALL-OUTER
G1 F600 X146.994 Y160.607 E1.97522
G1 X146.729 Y160.42 E1.98601
G1 X146.461 Y160.218 E1.99717
G1 X146.206 Y160.011 E2.00809
G1 X145.962 Y159.799 E2.01885
G1 X145.716 Y159.571 E2.03
G1 X145.482 Y159.339 E2.04096
G1 X145.257 Y159.1 E2.05188
G1 X145.037 Y158.852 E2.0629
G1 X144.834 Y158.604 E2.07356
G1 X144.629 Y158.337 E2.08476
G1 X144.438 Y158.07 E2.09568
G1 X144.258 Y157.8 E2.10647
G1 X144.081 Y157.515 E2.11763
G1 X143.918 Y157.23 E2.12855
G1 X143.767 Y156.944 E2.13931
G1 X143.62 Y156.642 E2.15048
G1 X143.485 Y156.342 E2.16142
G1 X143.364 Y156.043 E2.17215
G1 X143.248 Y155.728 E2.18331
G1 X143.144 Y155.415 E2.19428
G1 X143.052 Y155.1 E2.2052
G1 X142.969 Y154.78 E2.21619
G1 X142.9 Y154.465 E2.22692
G1 X142.838 Y154.135 E2.23809
G1 X142.789 Y153.81 E2.24902
G1 X142.749 Y153.482 E2.26001
G1 X142.723 Y153.161 E2.27072
G1 X142.706 Y152.826 E2.28188
G1 X142.701 Y152.503 E2.29262
G1 X142.706 Y152.174 E2.30356
G1 X142.723 Y151.839 E2.31472
G1 X142.75 Y151.518 E2.32543
G1 X142.789 Y151.19 E2.33642
G1 X142.838 Y150.865 E2.34735
G1 X142.899 Y150.535 E2.35851
G1 X142.97 Y150.22 E2.36925
G1 X143.052 Y149.9 E2.38024
G1 X143.144 Y149.585 E2.39116
G1 X143.248 Y149.272 E2.40213
G1 X143.364 Y148.957 E2.41329
G1 X143.486 Y148.658 E2.42403
G1 X143.62 Y148.358 E2.43496
G1 X143.767 Y148.056 E2.44613
G1 X143.918 Y147.77 E2.45689
G1 X144.081 Y147.485 E2.46781
G1 X144.258 Y147.2 E2.47897
G1 X144.438 Y146.93 E2.48976
G1 X144.629 Y146.663 E2.50068
G1 X144.833 Y146.396 E2.51185
G1 X145.038 Y146.148 E2.52256
G1 X145.257 Y145.9 E2.53356
G1 X145.482 Y145.661 E2.54448
G1 X145.716 Y145.429 E2.55544
G1 X145.962 Y145.201 E2.56659
G1 X146.206 Y144.989 E2.57734
G1 X146.461 Y144.782 E2.58827
G1 X146.729 Y144.58 E2.59943
G1 X146.994 Y144.393 E2.61022
G1 X147.269 Y144.213 E2.62115
G1 X147.556 Y144.039 E2.63231
G1 X147.843 Y143.877 E2.64327
G1 X148.129 Y143.729 E2.65398
G1 X148.433 Y143.585 E2.66517
G1 X148.728 Y143.455 E2.67589
G1 X149.041 Y143.331 E2.68709
G1 X149.344 Y143.222 E2.6978
G1 X149.658 Y143.121 E2.70877
G1 X149.974 Y143.031 E2.7197
G1 X150.294 Y142.952 E2.73066
G1 X150.623 Y142.882 E2.74185
G1 X150.94 Y142.825 E2.75256
G1 X151.269 Y142.778 E2.76362
G1 X151.599 Y142.742 E2.77466
G1 X151.921 Y142.717 E2.7854
G1 X152.257 Y142.703 E2.79659
G1 X152.582 Y142.7 E2.8074
G1 X152.909 Y142.709 E2.81828
G1 X153.244 Y142.729 E2.82944
G1 X153.573 Y142.759 E2.84043
G1 X153.895 Y142.8 E2.85122
G1 X154.217 Y142.851 E2.86207
G1 X154.54 Y142.915 E2.87302
G1 X154.868 Y142.99 E2.88421
G1 X155.185 Y143.075 E2.89512
G1 X155.501 Y143.17 E2.9061
G1 X155.806 Y143.274 E2.91682
G1 X156.114 Y143.391 E2.92777
G1 X156.424 Y143.52 E2.93894
G1 X156.724 Y143.657 E2.94991
G1 X157.013 Y143.801 E2.96065
G1 X157.302 Y143.957 E2.97157
G1 X157.592 Y144.126 E2.98274
G1 X157.866 Y144.298 E2.9935
G1 X158.138 Y144.483 E3.00444
G1 X158.404 Y144.678 E3.01541
G1 X158.663 Y144.88 E3.02633
G1 X158.92 Y145.096 E3.0375
G1 X159.161 Y145.312 E3.04826
G1 X159.399 Y145.539 E3.0592
G1 X159.629 Y145.775 E3.07016
G1 X159.855 Y146.023 E3.08132
G1 X160.064 Y146.268 E3.09203
G1 X160.269 Y146.526 E3.10299
G1 X160.469 Y146.796 E3.11417
G1 X160.653 Y147.061 E3.1249
G1 X160.831 Y147.339 E3.13588
G1 X161.003 Y147.627 E3.14704
G1 X161.162 Y147.915 E3.15798
G1 X161.308 Y148.203 E3.16872
G1 X161.448 Y148.5 E3.17964
G1 X161.579 Y148.809 E3.1908
G1 X161.696 Y149.111 E3.20157
G1 X161.805 Y149.421 E3.2125
G1 X161.903 Y149.736 E3.22347
G1 X161.99 Y150.054 E3.23444
G1 X162.068 Y150.38 E3.24559
G1 X162.133 Y150.697 E3.25635
G1 X162.189 Y151.021 E3.26729
G1 X162.233 Y151.347 E3.27823
G1 X162.265 Y151.675 E3.28919
G1 X162.288 Y152.003 E3.30013
G1 X162.299 Y152.332 E3.31107
G1 X162.299 Y152.661 E3.32202
G1 X162.288 Y152.99 E3.33297
G1 X162.265 Y153.325 E3.34413
G1 X162.234 Y153.646 E3.35486
G1 X162.19 Y153.972 E3.3658
G1 X162.134 Y154.297 E3.37677
G1 X162.068 Y154.62 E3.38774
G1 X161.99 Y154.946 E3.39888
G1 X161.905 Y155.258 E3.40964
G1 X161.807 Y155.572 E3.42058
G1 X161.697 Y155.889 E3.43174
G1 X161.579 Y156.191 E3.44252
G1 X161.451 Y156.493 E3.45343
G1 X161.308 Y156.797 E3.46461
G1 X161.162 Y157.085 E3.47535
G1 X161.003 Y157.373 E3.48629
G1 X160.832 Y157.661 E3.49743
G1 X160.657 Y157.933 E3.50819
G1 X160.469 Y158.204 E3.51916
G1 X160.273 Y158.469 E3.53012
G1 X160.069 Y158.726 E3.54103
G1 X159.855 Y158.977 E3.552
G1 X159.634 Y159.22 E3.56293
G1 X159.404 Y159.456 E3.57389
G1 X159.161 Y159.688 E3.58506
G1 X158.92 Y159.904 E3.59583
G1 X158.669 Y160.115 E3.60673
G1 X158.404 Y160.322 E3.61792
G1 X158.138 Y160.517 E3.62889
G1 X157.872 Y160.698 E3.63959
G1 X157.592 Y160.873 E3.65057
G1 X157.302 Y161.043 E3.66175
G1 X157.019 Y161.196 E3.67245
G1 X156.724 Y161.343 E3.68341
G1 X156.424 Y161.48 E3.69438
G1 X156.114 Y161.609 E3.70555
G1 X155.806 Y161.726 E3.71651
G1 X155.501 Y161.83 E3.72723
G1 X155.185 Y161.925 E3.7382
G1 X154.868 Y162.01 E3.74912
G1 X154.54 Y162.085 E3.76031
G1 X154.217 Y162.149 E3.77126
G1 X153.895 Y162.2 E3.7821
G1 X153.573 Y162.241 E3.7929
G1 X153.244 Y162.271 E3.80389
G1 X152.909 Y162.291 E3.81505
G1 X152.582 Y162.3 E3.82593
G1 X152.257 Y162.297 E3.83674
G1 X151.921 Y162.283 E3.84793
G1 X151.599 Y162.258 E3.85867
G1 X151.269 Y162.222 E3.86971
G1 X150.94 Y162.175 E3.88076
G1 X150.623 Y162.118 E3.89147
G1 X150.294 Y162.048 E3.90266
G1 X149.974 Y161.969 E3.91363
G1 X149.658 Y161.879 E3.92455
G1 X149.344 Y161.778 E3.93552
G1 X149.041 Y161.669 E3.94623
G1 X148.728 Y161.545 E3.95743
G1 X148.433 Y161.415 E3.96815
G1 X148.129 Y161.272 E3.97933
G1 X147.843 Y161.123 E3.99005
G1 X147.556 Y160.961 E4.00101
G1 X147.269 Y160.787 E4.01218
G0 F6000 X147.503 Y160.415
G0 X147.671 Y160.107
;TYPE:SKIN
G1 F600 X147.435 Y159.952 E4.02157
G1 X147.19 Y159.778 E4.03156
G1 X146.943 Y159.592 E4.04185
G1 X146.704 Y159.398 E4.05209
G1 X146.485 Y159.207 E4.06175
G1 X146.268 Y159.005 E4.07161
G1 X146.039 Y158.778 E4.08234
G1 X145.86 Y158.589 E4.09099
G1 X145.639 Y158.34 E4.10207
G1 X145.45 Y158.108 E4.11202
G1 X145.256 Y157.855 E4.12262
G1 X145.089 Y157.621 E4.13219
G1 X144.915 Y157.361 E4.14259
G1 X144.757 Y157.105 E4.1526
G1 X144.611 Y156.85 E4.16237
G1 X144.466 Y156.575 E4.17271
G1 X144.331 Y156.297 E4.18299
G1 X144.205 Y156.018 E4.19317
G1 X144.11 Y155.783 E4.2016
G1 X143.994 Y155.467 E4.2128
G1 X143.894 Y155.166 E4.22335
G1 X143.81 Y154.879 E4.23329
G1 X143.737 Y154.593 E4.24311
G1 X143.678 Y154.326 E4.25221
G1 X143.618 Y154.003 E4.26313
G1 X143.569 Y153.684 E4.27387
G1 X143.534 Y153.403 E4.28328
G1 X143.511 Y153.11 E4.29306
G1 X143.496 Y152.801 E4.30335
G1 X143.491 Y152.515 E4.31286
G1 X143.496 Y152.2 E4.32334
G1 X143.511 Y151.893 E4.33356
G1 X143.532 Y151.637 E4.34211
G1 X143.571 Y151.307 E4.35316
G1 X143.617 Y150.996 E4.36362
G1 X143.673 Y150.694 E4.37383
G1 X143.738 Y150.405 E4.38368
G1 X143.81 Y150.121 E4.39343
G1 X143.894 Y149.833 E4.40341
G1 X143.993 Y149.533 E4.41391
G1 X144.095 Y149.256 E4.42373
G1 X144.21 Y148.975 E4.43383
G1 X144.334 Y148.698 E4.44392
G1 X144.466 Y148.425 E4.45401
G1 X144.611 Y148.15 E4.46435
G1 X144.757 Y147.895 E4.47412
G1 X144.915 Y147.639 E4.48413
G1 X145.089 Y147.378 E4.49456
G1 X145.252 Y147.149 E4.50391
G1 X145.451 Y146.887 E4.51485
G1 X145.63 Y146.671 E4.52418
G1 X145.841 Y146.432 E4.53479
G1 X146.039 Y146.222 E4.54439
G1 X146.268 Y145.995 E4.55511
G1 X146.485 Y145.793 E4.56497
G1 X146.704 Y145.603 E4.57462
G1 X146.953 Y145.401 E4.58528
G1 X147.19 Y145.222 E4.59516
G1 X147.438 Y145.046 E4.60527
G1 X147.681 Y144.887 E4.61493
G1 X147.956 Y144.72 E4.62563
G1 X148.213 Y144.575 E4.63545
G1 X148.48 Y144.437 E4.64544
G1 X148.757 Y144.306 E4.65564
G1 X149.019 Y144.19 E4.66517
G1 X149.332 Y144.066 E4.67636
G1 X149.592 Y143.972 E4.68556
G1 X149.875 Y143.881 E4.69545
G1 X150.177 Y143.795 E4.70589
G1 X150.47 Y143.723 E4.71593
G1 X150.77 Y143.659 E4.72613
G1 X151.08 Y143.603 E4.73661
G1 X151.355 Y143.564 E4.74584
G1 X151.716 Y143.524 E4.75792
G1 X151.956 Y143.507 E4.76593
G1 X152.29 Y143.493 E4.77704
G1 X152.568 Y143.49 E4.78629
G1 X152.875 Y143.499 E4.79651
G1 X153.194 Y143.518 E4.80714
G1 X153.48 Y143.544 E4.81669
G1 X153.774 Y143.581 E4.82654
G1 X154.093 Y143.631 E4.83728
G1 X154.364 Y143.685 E4.84647
G1 X154.685 Y143.759 E4.85743
G1 X154.969 Y143.835 E4.86721
G1 X155.252 Y143.92 E4.87704
G1 X155.538 Y144.018 E4.88709
G1 X155.827 Y144.127 E4.89736
G1 X156.102 Y144.242 E4.90728
G1 X156.396 Y144.376 E4.91802
G1 X156.643 Y144.499 E4.9272
G1 X156.904 Y144.64 E4.93707
G1 X157.211 Y144.82 E4.94891
G1 X157.433 Y144.959 E4.95762
G1 X157.693 Y145.136 E4.96808
G1 X157.928 Y145.309 E4.97778
G1 X158.171 Y145.498 E4.98802
G1 X158.397 Y145.688 E4.99784
G1 X158.625 Y145.893 E5.00804
G1 X158.839 Y146.096 E5.01785
G1 X159.045 Y146.307 E5.02766
G1 X159.259 Y146.542 E5.03823
G1 X159.445 Y146.759 E5.04774
G1 X159.642 Y147.007 E5.05827
G1 X159.823 Y147.252 E5.0684
G1 X159.988 Y147.488 E5.07798
G1 X160.16 Y147.756 E5.08857
G1 X160.315 Y148.014 E5.09858
G1 X160.457 Y148.272 E5.10838
G1 X160.595 Y148.545 E5.11855
G1 X160.727 Y148.823 E5.12879
G1 X160.845 Y149.101 E5.13883
G1 X160.945 Y149.359 E5.14804
G1 X161.051 Y149.655 E5.15849
G1 X161.141 Y149.945 E5.16859
G1 X161.226 Y150.257 E5.17935
G1 X161.294 Y150.539 E5.189
G1 X161.355 Y150.832 E5.19895
G1 X161.407 Y151.127 E5.20891
G1 X161.447 Y151.424 E5.21888
G1 X161.474 Y151.693 E5.22787
G1 X161.498 Y152.03 E5.23911
G1 X161.509 Y152.332 E5.24916
G1 X161.509 Y152.635 E5.25924
G1 X161.498 Y152.95 E5.26972
