;FLAVOR:Marlin
;TIME:1630
;Filament used: 0.701494m
;Layer height: 0.2
;MINX:97.7
;MINY:93.2
;MINZ:0.2
;MAXX:122.3
;MAXY:126.8
;MAXZ:20.5
;Generated with Cura_SteamEngine master
M140 S70
M105
M190 S70
M104 S200
M105
M109 S200
M82 ;absolute extrusion mode
M201 X500.00 Y500.00 Z100.00 E5000.00 ;Setup machine max acceleration
M203 X500.00 Y500.00 Z10.00 E50.00 ;Setup machine max feedrate
M204 P500.00 R1000.00 T500.00 ;Setup Print/Retract/Travel acceleration
M205 X8.00 Y8.00 Z0.40 E5.00 ;Setup Jerk
M220 S100 ;Reset Feedrate
M221 S100 ;Reset Flowrate

G28 ;Home

G92 E0 ;Reset Extruder
G1 Z2.0 F3000 ;Move Z Axis up
G1 X10.1 Y20 Z0.28 F5000.0 ;Move to start position
G1 X10.1 Y200.0 Z0.28 F1500.0 E15 ;Draw the first line
G1 X10.4 Y200.0 Z0.28 F5000.0 ;Move to side a little
G1 X10.4 Y20 Z0.28 F1500.0 E30 ;Draw the second line
G92 E0 ;Reset Extruder
G1 Z2.0 F3000 ;Move Z Axis up

G92 E0
G92 E0
G1 F2700 E-5
;LAYER_COUNT:100
;LAYER:0
M107
G1 F300 Z0.7
G0 F6000 X99.985 Y95.602 Z0.7
;TYPE:SKIRT
G1 F300 Z0.2
G1 F2700 E0
G1 F600 X100.102 Y95.485 E0.0055
G1 X100.688 Y94.955 E0.03178
G1 X101.324 Y94.488 E0.05803
G1 X102.004 Y94.087 E0.08428
G1 X102.722 Y93.757 E0.11057
G1 X103.469 Y93.502 E0.13682
G1 X104.238 Y93.323 E0.16308
G1 X105.022 Y93.223 E0.18937
G1 X105.617 Y93.2 E0.20917
G1 X107.383 Y93.2 E0.26791
G1 X108.172 Y93.24 E0.29418
G1 X108.952 Y93.359 E0.32043
G1 X109.488 Y93.498 E0.33884
G1 X110.238 Y93.323 E0.36446
G1 X111.022 Y93.223 E0.39075
G1 X111.617 Y93.2 E0.41055
G1 X114.383 Y93.2 E0.50255
G1 X115.172 Y93.24 E0.52883
G1 X115.952 Y93.359 E0.55507
G1 X116.717 Y93.557 E0.58135
G1 X117.457 Y93.831 E0.6076
G1 X118.166 Y94.179 E0.63386
G1 X118.837 Y94.597 E0.66016
G1 X119.461 Y95.08 E0.6864
G1 X119.898 Y95.485 E0.70622
G1 X120.015 Y95.602 E0.71172
G1 X120.545 Y96.188 E0.738
G1 X121.012 Y96.824 E0.76425
G1 X121.413 Y97.504 E0.7905
G1 X121.743 Y98.222 E0.81679
G1 X121.998 Y98.969 E0.84304
G1 X122.177 Y99.738 E0.8693
G1 X122.277 Y100.522 E0.89559
G1 X122.3 Y101.117 E0.91539
G1 X122.3 Y118.883 E1.50629
G1 X122.26 Y119.672 E1.53257
G1 X122.141 Y120.452 E1.55881
G1 X121.943 Y121.217 E1.58509
G1 X121.669 Y121.957 E1.61134
G1 X121.321 Y122.666 E1.63761
G1 X120.903 Y123.337 E1.6639
G1 X120.42 Y123.961 E1.69015
G1 X120.015 Y124.398 E1.70996
G1 X119.898 Y124.515 E1.71547
G1 X119.312 Y125.045 E1.74175
G1 X118.676 Y125.512 E1.76799
G1 X117.996 Y125.913 E1.79425
G1 X117.278 Y126.243 E1.82053
G1 X116.531 Y126.498 E1.84678
G1 X115.762 Y126.677 E1.87304
G1 X114.978 Y126.777 E1.89933
G1 X114.383 Y126.8 E1.91913
G1 X111.617 Y126.8 E2.01113
G1 X110.828 Y126.76 E2.03741
G1 X110.048 Y126.641 E2.06365
G1 X109.512 Y126.502 E2.08207
G1 X108.762 Y126.677 E2.10768
G1 X107.978 Y126.777 E2.13397
G1 X107.383 Y126.8 E2.15377
G1 X105.617 Y126.8 E2.21251
G1 X104.828 Y126.76 E2.23879
G1 X104.048 Y126.641 E2.26503
G1 X103.283 Y126.443 E2.29131
G1 X102.543 Y126.169 E2.31756
G1 X101.834 Y125.821 E2.34383
G1 X101.163 Y125.403 E2.37012
G1 X100.539 Y124.92 E2.39637
G1 X100.102 Y124.515 E2.41618
G1 X99.985 Y124.398 E2.42169
G1 X99.455 Y123.812 E2.44797
G1 X98.988 Y123.176 E2.47421
G1 X98.587 Y122.496 E2.50047
G1 X98.257 Y121.778 E2.52675
G1 X98.002 Y121.031 E2.553
G1 X97.823 Y120.262 E2.57926
G1 X97.723 Y119.478 E2.60555
G1 X97.7 Y118.883 E2.62536
G1 X97.7 Y101.117 E3.21625
G1 X97.74 Y100.328 E3.24253
G1 X97.859 Y99.548 E3.26877
G1 X98.057 Y98.783 E3.29506
G1 X98.331 Y98.043 E3.3213
G1 X98.679 Y97.334 E3.34757
G1 X99.097 Y96.663 E3.37386
G1 X99.58 Y96.039 E3.40011
G1 X99.985 Y95.602 E3.41993
G0 F6000 X100.267 Y95.884
G1 F600 X100.384 Y95.767 E3.42543
G1 X100.956 Y95.253 E3.45101
G1 X101.578 Y94.8 E3.4766
G1 X102.243 Y94.414 E3.50217
G1 X102.945 Y94.099 E3.52777
G1 X103.676 Y93.859 E3.55336
G1 X104.427 Y93.696 E3.57892
G1 X105.192 Y93.612 E3.60451
G1 X105.617 Y93.6 E3.61865
G1 X107.383 Y93.6 E3.67739
G1 X108.151 Y93.64 E3.70297
G1 X108.911 Y93.759 E3.72856
G1 X109.501 Y93.916 E3.74886
G1 X109.676 Y93.859 E3.75498
G1 X110.427 Y93.696 E3.78054
G1 X111.192 Y93.612 E3.80614
G1 X111.617 Y93.6 E3.82028
G1 X114.383 Y93.6 E3.91228
G1 X115.151 Y93.64 E3.93786
G1 X115.911 Y93.759 E3.96344
G1 X116.654 Y93.957 E3.98902
G1 X117.373 Y94.231 E4.01461
G1 X118.059 Y94.578 E4.04018
G1 X118.706 Y94.994 E4.06576
G1 X119.306 Y95.475 E4.09134
G1 X119.616 Y95.767 E4.1055
G1 X119.733 Y95.884 E4.11101
G1 X120.247 Y96.456 E4.13658
G1 X120.7 Y97.078 E4.16218
G1 X121.086 Y97.743 E4.18775
G1 X121.401 Y98.445 E4.21334
G1 X121.641 Y99.176 E4.23893
G1 X121.804 Y99.927 E4.26449
G1 X121.888 Y100.692 E4.29009
G1 X121.9 Y101.117 E4.30423
G1 X121.9 Y118.883 E4.89513
G1 X121.86 Y119.651 E4.92071
G1 X121.741 Y120.411 E4.94629
G1 X121.543 Y121.154 E4.97187
G1 X121.269 Y121.873 E4.99746
G1 X120.922 Y122.559 E5.02303
G1 X120.506 Y123.206 E5.04861
G1 X120.025 Y123.806 E5.07419
G1 X119.733 Y124.116 E5.08836
G1 X119.616 Y124.233 E5.09386
G1 X119.044 Y124.747 E5.11944
G1 X118.422 Y125.2 E5.14503
G1 X117.757 Y125.586 E5.1706
G1 X117.055 Y125.901 E5.19619
G1 X116.324 Y126.141 E5.22178
G1 X115.573 Y126.304 E5.24734
G1 X114.808 Y126.388 E5.27294
G1 X114.383 Y126.4 E5.28708
G1 X111.617 Y126.4 E5.37908
G1 X110.849 Y126.36 E5.40466
G1 X110.089 Y126.241 E5.43024
G1 X109.499 Y126.084 E5.45055
G1 X109.324 Y126.141 E5.45667
G1 X108.573 Y126.304 E5.48223
G1 X107.808 Y126.388 E5.50783
G1 X107.383 Y126.4 E5.52197
G1 X105.617 Y126.4 E5.58071
G1 X104.849 Y126.36 E5.60629
G1 X104.089 Y126.241 E5.63187
G1 X103.346 Y126.043 E5.65745
G1 X102.627 Y125.769 E5.68304
G1 X101.941 Y125.422 E5.70861
G1 X101.294 Y125.006 E5.73419
G1 X100.694 Y124.525 E5.75977
G1 X100.384 Y124.233 E5.77393
G1 X100.267 Y124.116 E5.77944
G1 X99.753 Y123.544 E5.80501
G1 X99.3 Y122.922 E5.83061
G1 X98.914 Y122.257 E5.85618
G1 X98.599 Y121.555 E5.88177
G1 X98.359 Y120.824 E5.90736
G1 X98.196 Y120.073 E5.93292
G1 X98.112 Y119.308 E5.95852
G1 X98.1 Y118.883 E5.97266
G1 X98.1 Y101.117 E6.56356
G1 X98.14 Y100.349 E6.58914
G1 X98.259 Y99.589 E6.61472
G1 X98.457 Y98.846 E6.6403
G1 X98.731 Y98.127 E6.66589
G1 X99.078 Y97.441 E6.69146
G1 X99.494 Y96.794 E6.71704
G1 X99.975 Y96.194 E6.74262
G1 X100.267 Y95.884 E6.75678
G0 F6000 X100.55 Y96.167
G1 F600 X100.667 Y96.05 E6.76229
G1 X101.224 Y95.55 E6.78718
G1 X101.83 Y95.113 E6.81203
G1 X102.48 Y94.742 E6.83692
G1 X103.166 Y94.443 E6.86181
G1 X103.88 Y94.219 E6.8867
G1 X104.613 Y94.072 E6.91157
G1 X105.617 Y94 E6.94505
G1 X107.383 Y94 E7.00378
G1 X108.13 Y94.04 E7.02867
G1 X108.868 Y94.159 E7.05353
G1 X109.51 Y94.335 E7.07567
G1 X109.88 Y94.219 E7.08857
G1 X110.613 Y94.072 E7.11343
G1 X111.617 Y94 E7.14691
G1 X114.383 Y94 E7.23891
G1 X115.13 Y94.04 E7.26379
G1 X115.868 Y94.159 E7.28865
G1 X116.59 Y94.357 E7.31355
G1 X117.286 Y94.63 E7.33842
G1 X117.949 Y94.977 E7.36331
G1 X118.572 Y95.392 E7.38821
G1 X119.333 Y96.05 E7.42167
G1 X119.45 Y96.167 E7.42717
G1 X119.95 Y96.724 E7.45206
G1 X120.387 Y97.33 E7.47691
G1 X120.758 Y97.98 E7.50181
G1 X121.057 Y98.666 E7.5267
G1 X121.281 Y99.38 E7.55158
G1 X121.428 Y100.113 E7.57645
G1 X121.5 Y101.117 E7.60993
G1 X121.5 Y118.883 E8.20083
G1 X121.46 Y119.63 E8.22571
G1 X121.341 Y120.368 E8.25057
G1 X121.143 Y121.09 E8.27547
G1 X120.87 Y121.786 E8.30034
G1 X120.523 Y122.449 E8.32523
G1 X120.108 Y123.072 E8.35013
G1 X119.45 Y123.833 E8.38359
G1 X119.333 Y123.95 E8.38909
G1 X118.776 Y124.45 E8.41398
G1 X118.17 Y124.887 E8.43883
G1 X117.52 Y125.258 E8.46373
G1 X116.834 Y125.557 E8.48862
G1 X116.12 Y125.781 E8.51351
G1 X115.387 Y125.928 E8.53837
G1 X114.383 Y126 E8.57185
G1 X111.617 Y126 E8.66385
G1 X110.87 Y125.96 E8.68873
G1 X110.132 Y125.841 E8.71359
G1 X109.49 Y125.665 E8.73573
G1 X109.12 Y125.781 E8.74863
G1 X108.387 Y125.928 E8.77349
G1 X107.383 Y126 E8.80697
G1 X105.617 Y126 E8.86571
G1 X104.87 Y125.96 E8.89059
G1 X104.132 Y125.841 E8.91545
G1 X103.41 Y125.643 E8.94035
G1 X102.714 Y125.37 E8.96522
G1 X102.051 Y125.023 E8.99011
G1 X101.428 Y124.608 E9.01501
G1 X100.667 Y123.95 E9.04847
G1 X100.55 Y123.833 E9.05397
G1 X100.05 Y123.276 E9.07887
G1 X99.613 Y122.67 E9.10372
G1 X99.242 Y122.02 E9.12861
G1 X98.943 Y121.334 E9.1535
G1 X98.719 Y120.62 E9.17839
G1 X98.572 Y119.887 E9.20325
G1 X98.5 Y118.883 E9.23673
G1 X98.5 Y101.117 E9.82763
G1 X98.54 Y100.37 E9.85251
G1 X98.659 Y99.632 E9.87737
G1 X98.857 Y98.91 E9.90228
G1 X99.13 Y98.214 E9.92714
G1 X99.477 Y97.551 E9.95203
G1 X99.892 Y96.928 E9.97693
G1 X100.55 Y96.167 E10.01039
G0 F6000 X100.833 Y96.45
G1 F600 X100.95 Y96.333 E10.01589
G1 X101.491 Y95.849 E10.04004
G1 X102.082 Y95.426 E10.06421
G1 X102.716 Y95.072 E10.08836
G1 X103.385 Y94.789 E10.11252
G1 X104.081 Y94.581 E10.13668
G1 X104.796 Y94.451 E10.16085
G1 X105.617 Y94.4 E10.18821
G1 X107.383 Y94.4 E10.24695
G1 X108.108 Y94.44 E10.2711
G1 X108.825 Y94.559 E10.29527
G1 X109.508 Y94.752 E10.31888
G1 X110.081 Y94.581 E10.33877
G1 X110.796 Y94.451 E10.36294
G1 X111.617 Y94.4 E10.3903
G1 X114.383 Y94.4 E10.48229
G1 X115.108 Y94.44 E10.50644
G1 X115.825 Y94.559 E10.53062
G1 X116.524 Y94.757 E10.55478
G1 X117.197 Y95.03 E10.57894
G1 X117.836 Y95.375 E10.60309
G1 X118.433 Y95.789 E10.62725
G1 X119.05 Y96.333 E10.65461
G1 X119.167 Y96.45 E10.66012
G1 X119.651 Y96.991 E10.68426
G1 X120.074 Y97.582 E10.70843
G1 X120.428 Y98.216 E10.73258
G1 X120.711 Y98.885 E10.75674
G1 X120.919 Y99.581 E10.7809
G1 X121.049 Y100.296 E10.80508
G1 X121.1 Y101.117 E10.83243
G1 X121.1 Y118.883 E11.42333
G1 X121.06 Y119.608 E11.44748
G1 X120.941 Y120.325 E11.47166
G1 X120.743 Y121.024 E11.49582
G1 X120.47 Y121.697 E11.51998
G1 X120.125 Y122.336 E11.54413
G1 X119.711 Y122.933 E11.56829
G1 X119.167 Y123.55 E11.59565
G1 X119.05 Y123.667 E11.60116
G1 X118.509 Y124.151 E11.6253
G1 X117.918 Y124.574 E11.64947
G1 X117.284 Y124.928 E11.67362
G1 X116.615 Y125.211 E11.69778
G1 X115.919 Y125.419 E11.72194
G1 X115.204 Y125.549 E11.74612
G1 X114.383 Y125.6 E11.77348
G1 X111.617 Y125.6 E11.86547
G1 X110.892 Y125.56 E11.88962
G1 X110.175 Y125.441 E11.9138
G1 X109.492 Y125.248 E11.9374
G1 X108.919 Y125.419 E11.95729
G1 X108.204 Y125.549 E11.98146
G1 X107.383 Y125.6 E12.00882
G1 X105.617 Y125.6 E12.06756
G1 X104.892 Y125.56 E12.09171
G1 X104.175 Y125.441 E12.11588
G1 X103.476 Y125.243 E12.14005
G1 X102.803 Y124.97 E12.1642
G1 X102.164 Y124.625 E12.18836
G1 X101.567 Y124.211 E12.21252
G1 X100.95 Y123.667 E12.23988
G1 X100.833 Y123.55 E12.24538
G1 X100.349 Y123.009 E12.26952
G1 X99.926 Y122.418 E12.2937
G1 X99.572 Y121.784 E12.31785
G1 X99.289 Y121.115 E12.34201
G1 X99.081 Y120.419 E12.36617
G1 X98.951 Y119.704 E12.39034
G1 X98.9 Y118.883 E12.4177
G1 X98.9 Y101.117 E13.0086
G1 X98.94 Y100.392 E13.03275
G1 X99.059 Y99.675 E13.05692
G1 X99.257 Y98.976 E13.08109
G1 X99.53 Y98.303 E13.10524
G1 X99.875 Y97.664 E13.1294
G1 X100.289 Y97.067 E13.15356
G1 X100.833 Y96.45 E13.18092
G0 F6000 X101.116 Y96.733
G1 F600 X101.233 Y96.616 E13.18642
G1 X101.758 Y96.147 E13.20984
G1 X102.333 Y95.741 E13.23325
G1 X102.951 Y95.403 E13.25668
G1 X103.602 Y95.136 E13.28008
G1 X104.28 Y94.946 E13.3035
G1 X104.975 Y94.833 E13.32692
G1 X105.617 Y94.8 E13.3483
G1 X107.383 Y94.8 E13.40703
G1 X108.086 Y94.84 E13.43045
G1 X108.78 Y94.959 E13.45387
G1 X109.455 Y95.157 E13.47727
G1 X109.502 Y95.177 E13.47897
G1 X109.602 Y95.136 E13.48256
G1 X110.28 Y94.946 E13.50598
G1 X110.975 Y94.833 E13.5294
G1 X111.617 Y94.8 E13.55078
G1 X114.383 Y94.8 E13.64278
G1 X115.086 Y94.84 E13.6662
G1 X115.78 Y94.959 E13.68962
G1 X116.455 Y95.157 E13.71302
G1 X117.104 Y95.429 E13.73642
G1 X117.718 Y95.774 E13.75985
G1 X118.289 Y96.185 E13.78325
G1 X118.767 Y96.616 E13.80465
G1 X118.884 Y96.733 E13.81016
G1 X119.353 Y97.258 E13.83357
G1 X119.759 Y97.833 E13.85698
G1 X120.097 Y98.451 E13.88041
G1 X120.364 Y99.102 E13.90381
G1 X120.554 Y99.78 E13.92723
G1 X120.667 Y100.475 E13.95065
G1 X120.7 Y101.117 E13.97203
G1 X120.7 Y118.883 E14.56293
G1 X120.66 Y119.586 E14.58635
G1 X120.541 Y120.28 E14.60977
G1 X120.343 Y120.955 E14.63317
G1 X120.071 Y121.604 E14.65657
G1 X119.726 Y122.218 E14.68
G1 X119.315 Y122.789 E14.7034
G1 X118.884 Y123.267 E14.7248
G1 X118.767 Y123.384 E14.73031
G1 X118.242 Y123.853 E14.75372
G1 X117.667 Y124.259 E14.77713
G1 X117.049 Y124.597 E14.80056
G1 X116.398 Y124.864 E14.82396
G1 X115.72 Y125.054 E14.84738
G1 X115.025 Y125.167 E14.8708
G1 X114.383 Y125.2 E14.89218
G1 X111.617 Y125.2 E14.98418
G1 X110.914 Y125.16 E15.0076
G1 X110.22 Y125.041 E15.03102
G1 X109.545 Y124.843 E15.05442
G1 X109.498 Y124.823 E15.05612
G1 X109.398 Y124.864 E15.05971
G1 X108.72 Y125.054 E15.08313
G1 X108.025 Y125.167 E15.10655
G1 X107.383 Y125.2 E15.12793
G1 X105.617 Y125.2 E15.18667
G1 X104.914 Y125.16 E15.21009
G1 X104.22 Y125.041 E15.23351
G1 X103.545 Y124.843 E15.2569
G1 X102.896 Y124.571 E15.28031
G1 X102.282 Y124.226 E15.30373
G1 X101.711 Y123.815 E15.32713
G1 X101.233 Y123.384 E15.34854
G1 X101.116 Y123.267 E15.35404
G1 X100.647 Y122.742 E15.37746
G1 X100.241 Y122.167 E15.40087
G1 X99.903 Y121.549 E15.4243
G1 X99.636 Y120.898 E15.4477
G1 X99.446 Y120.22 E15.47112
G1 X99.333 Y119.525 E15.49454
G1 X99.3 Y118.883 E15.51592
G1 X99.3 Y101.117 E16.10682
G1 X99.34 Y100.414 E16.13024
G1 X99.459 Y99.72 E16.15366
G1 X99.657 Y99.045 E16.17705
G1 X99.929 Y98.396 E16.20046
G1 X100.274 Y97.782 E16.22388
G1 X100.685 Y97.211 E16.24728
G1 X101.116 Y96.733 E16.26869
G0 F6000 X101.399 Y97.016
G1 F600 X101.516 Y96.899 E16.27419
G1 X102.025 Y96.446 E16.29686
G1 X102.583 Y96.057 E16.31948
G1 X103.183 Y95.735 E16.34213
G1 X103.817 Y95.486 E16.36478
G1 X104.476 Y95.313 E16.38745
G1 X105.15 Y95.219 E16.41008
G1 X105.617 Y95.2 E16.42562
G1 X107.383 Y95.2 E16.48436
G1 X108.063 Y95.24 E16.50702
G1 X108.733 Y95.359 E16.52965
G1 X109.385 Y95.556 E16.55231
G1 X109.505 Y95.608 E16.55665
G1 X109.817 Y95.486 E16.5678
G1 X110.476 Y95.313 E16.59046
G1 X111.15 Y95.219 E16.61309
G1 X111.617 Y95.2 E16.62864
G1 X114.383 Y95.2 E16.72064
G1 X115.063 Y95.24 E16.74329
G1 X115.733 Y95.359 E16.76592
G1 X116.385 Y95.556 E16.78858
G1 X117.009 Y95.828 E16.81122
G1 X117.597 Y96.172 E16.83388
G1 X118.141 Y96.582 E16.85653
G1 X118.484 Y96.899 E16.87207
G1 X118.601 Y97.016 E16.87757
G1 X119.054 Y97.525 E16.90023
G1 X119.443 Y98.083 E16.92286
G1 X119.765 Y98.683 E16.94551
G1 X120.014 Y99.317 E16.96816
G1 X120.187 Y99.976 E16.99082
G1 X120.281 Y100.65 E17.01346
G1 X120.3 Y101.117 E17.029
G1 X120.3 Y118.883 E17.6199
G1 X120.26 Y119.563 E17.64256
G1 X120.141 Y120.233 E17.66519
G1 X119.944 Y120.885 E17.68784
G1 X119.672 Y121.509 E17.71048
G1 X119.328 Y122.097 E17.73314
G1 X118.918 Y122.641 E17.7558
G1 X118.601 Y122.984 E17.77133
G1 X118.484 Y123.101 E17.77684
G1 X117.975 Y123.554 E17.7995
G1 X117.417 Y123.943 E17.82212
G1 X116.817 Y124.265 E17.84477
G1 X116.183 Y124.514 E17.86743
G1 X115.524 Y124.687 E17.89009
G1 X114.85 Y124.781 E17.91272
G1 X114.383 Y124.8 E17.92827
G1 X111.617 Y124.8 E18.02027
G1 X110.937 Y124.76 E18.04292
G1 X110.267 Y124.641 E18.06555
G1 X109.615 Y124.444 E18.08821
G1 X109.495 Y124.392 E18.09256
G1 X109.183 Y124.514 E18.1037
G1 X108.524 Y124.687 E18.12636
G1 X107.85 Y124.781 E18.149
G1 X107.383 Y124.8 E18.16454
G1 X105.617 Y124.8 E18.22328
G1 X104.937 Y124.76 E18.24593
G1 X104.267 Y124.641 E18.26857
G1 X103.615 Y124.444 E18.29122
G1 X102.991 Y124.172 E18.31386
G1 X102.403 Y123.828 E18.33652
G1 X101.859 Y123.418 E18.35918
G1 X101.516 Y123.101 E18.37471
G1 X101.399 Y122.984 E18.38021
G1 X100.946 Y122.475 E18.40288
G1 X100.557 Y121.917 E18.4255
G1 X100.235 Y121.317 E18.44815
G1 X99.986 Y120.683 E18.4708
G1 X99.813 Y120.024 E18.49347
G1 X99.719 Y119.35 E18.5161
G1 X99.7 Y118.883 E18.53165
G1 X99.7 Y101.117 E19.12254
G1 X99.74 Y100.437 E19.1452
G1 X99.859 Y99.767 E19.16783
G1 X100.056 Y99.115 E19.19049
G1 X100.328 Y98.491 E19.21313
G1 X100.672 Y97.903 E19.23579
G1 X101.082 Y97.359 E19.25844
G1 X101.399 Y97.016 E19.27398
G0 F6000 X101.682 Y97.299
G1 F600 X101.799 Y97.182 E19.27948
G1 X102.291 Y96.746 E19.30135
G1 X102.832 Y96.374 E19.32318
G1 X103.414 Y96.07 E19.34502
G1 X104.029 Y95.839 E19.36687
G1 X104.668 Y95.684 E19.38874
G1 X105.617 Y95.6 E19.42043
G1 X107.383 Y95.6 E19.47917
G1 X108.039 Y95.64 E19.50103
G1 X108.685 Y95.759 E19.52287
G1 X109.312 Y95.956 E19.54473
G1 X109.495 Y96.039 E19.55142
