;FLAVOR:Marlin
;TIME:563
;Filament used: 0.221283m
;Layer height: 0.2
;MINX:89.7
;MINY:98.95
;MINZ:0.2
;MAXX:130.3
;MAXY:121.05
;MAXZ:4.5
;Generated with Cura_SteamEngine master
M140 S70
M105
M190 S70
M104 S200
M105
M109 S200
M82 ;absolute extrusion mode
M201 X500.00 Y500.00 Z100.00 E5000.00 ;Setup machine max acceleration
M203 X500.00 Y500.00 Z10.00 E50.00 ;Setup machine max feedrate
M204 P500.00 R1000.00 T500.00 ;Setup Print/Retract/Travel acceleration
M205 X8.00 Y8.00 Z0.40 E5.00 ;Setup Jerk
M220 S100 ;Reset Feedrate
M221 S100 ;Reset Flowrate

G28 ;Home

G92 E0 ;Reset Extruder
G1 Z2.0 F3000 ;Move Z Axis up
G1 X10.1 Y20 Z0.28 F5000.0 ;Move to start position
G1 X10.1 Y200.0 Z0.28 F1500.0 E15 ;Draw the first line
G1 X10.4 Y200.0 Z0.28 F5000.0 ;Move to side a little
G1 X10.4 Y20 Z0.28 F1500.0 E30 ;Draw the second line
G92 E0 ;Reset Extruder
G1 Z2.0 F3000 ;Move Z Axis up

G92 E0
G92 E0
G1 F2700 E-5
;LAYER_COUNT:20
;LAYER:0
M107
G1 F300 Z0.7
G0 F6000 X92.102 Y101.235 Z0.7
;TYPE:SKIRT
G1 F300 Z0.2
G1 F2700 E0
G1 F600 X92.688 Y100.705 E0.02628
G1 X93.324 Y100.238 E0.05252
G1 X94.004 Y99.837 E0.07878
G1 X94.722 Y99.507 E0.10506
G1 X95.469 Y99.252 E0.13132
G1 X96.238 Y99.073 E0.15758
G1 X97.022 Y98.973 E0.18386
G1 X97.617 Y98.95 E0.20367
G1 X122.383 Y98.95 E1.02739
G1 X123.172 Y98.99 E1.05366
G1 X123.952 Y99.109 E1.07991
G1 X124.717 Y99.307 E1.10619
G1 X125.457 Y99.581 E1.13244
G1 X126.166 Y99.929 E1.1587
G1 X126.837 Y100.347 E1.185
G1 X127.461 Y100.83 E1.21124
G1 X127.898 Y101.235 E1.23106
G1 X128.015 Y101.352 E1.23656
G1 X128.545 Y101.938 E1.26284
G1 X129.012 Y102.574 E1.28909
G1 X129.413 Y103.254 E1.31534
G1 X129.743 Y103.972 E1.34163
G1 X129.998 Y104.719 E1.36788
G1 X130.177 Y105.488 E1.39414
G1 X130.277 Y106.272 E1.42043
G1 X130.3 Y106.867 E1.44023
G1 X130.3 Y109.028 E1.51211
G1 X130.26 Y109.817 E1.53838
G1 X130.141 Y110.597 E1.56463
G1 X129.943 Y111.362 E1.59091
G1 X129.544 Y112.378 E1.62721
G1 X129.505 Y112.46 E1.63023
G1 X129.13 Y113.155 E1.6565
G1 X128.687 Y113.809 E1.68277
G1 X128.18 Y114.414 E1.70903
G1 X127.391 Y115.155 E1.74503
G1 X123.552 Y118.286 E1.90979
G1 X123.123 Y118.611 E1.92769
G1 X122.639 Y118.953 E1.94741
G1 X121.75 Y119.496 E1.98205
G1 X121.193 Y119.787 E2.00295
G1 X120.213 Y120.216 E2.03854
G1 X119.644 Y120.42 E2.05864
G1 X118.608 Y120.713 E2.09445
G1 X117.986 Y120.843 E2.11558
G1 X116.925 Y120.99 E2.15121
G1 X116.314 Y121.032 E2.17158
G1 X115.779 Y121.05 E2.18938
G1 X104.221 Y121.05 E2.57381
G1 X103.686 Y121.032 E2.59161
G1 X103.075 Y120.99 E2.61198
G1 X102.014 Y120.843 E2.64761
G1 X101.392 Y120.713 E2.66874
G1 X100.356 Y120.42 E2.70455
G1 X99.787 Y120.216 E2.72465
G1 X98.807 Y119.787 E2.76024
G1 X98.25 Y119.496 E2.78114
G1 X97.363 Y118.955 E2.81569
G1 X96.873 Y118.609 E2.83564
G1 X96.441 Y118.281 E2.85368
G1 X92.608 Y115.154 E3.01821
G1 X92.022 Y114.624 E3.04449
G1 X91.493 Y114.038 E3.07075
G1 X91.026 Y113.402 E3.09699
G1 X90.495 Y112.46 E3.13296
G1 X90.456 Y112.378 E3.13598
G1 X90.153 Y111.649 E3.16224
G1 X89.926 Y110.893 E3.18849
G1 X89.776 Y110.117 E3.21478
G1 X89.7 Y109.028 E3.25109
G1 X89.7 Y106.867 E3.32296
G1 X89.74 Y106.078 E3.34924
G1 X89.859 Y105.298 E3.37548
G1 X90.057 Y104.533 E3.40176
G1 X90.331 Y103.793 E3.42801
G1 X90.679 Y103.084 E3.45428
G1 X91.097 Y102.413 E3.48057
G1 X91.58 Y101.789 E3.50682
G1 X91.985 Y101.352 E3.52663
G1 X92.102 Y101.235 E3.53214
G0 F6000 X92.384 Y101.517
G1 F600 X92.956 Y101.003 E3.55771
G1 X93.578 Y100.55 E3.58331
G1 X94.243 Y100.164 E3.60888
G1 X94.945 Y99.849 E3.63447
G1 X95.676 Y99.609 E3.66006
G1 X96.427 Y99.446 E3.68562
G1 X97.192 Y99.362 E3.71122
G1 X97.617 Y99.35 E3.72536
G1 X122.383 Y99.35 E4.54908
G1 X123.151 Y99.39 E4.57466
G1 X123.911 Y99.509 E4.60025
G1 X124.654 Y99.707 E4.62582
G1 X125.373 Y99.981 E4.65141
G1 X126.059 Y100.328 E4.67698
G1 X126.706 Y100.744 E4.70257
G1 X127.306 Y101.225 E4.72814
G1 X127.616 Y101.517 E4.74231
G1 X127.733 Y101.634 E4.74781
G1 X128.247 Y102.206 E4.77339
G1 X128.7 Y102.828 E4.79898
G1 X129.086 Y103.493 E4.82455
G1 X129.401 Y104.195 E4.85015
G1 X129.641 Y104.926 E4.87574
G1 X129.804 Y105.677 E4.9013
G1 X129.888 Y106.442 E4.92689
G1 X129.9 Y106.867 E4.94103
G1 X129.9 Y109.028 E5.01291
G1 X129.86 Y109.796 E5.03849
G1 X129.741 Y110.556 E5.06407
G1 X129.543 Y111.299 E5.08965
G1 X129.183 Y112.206 E5.1221
G1 X129.144 Y112.288 E5.12512
G1 X128.778 Y112.965 E5.15072
G1 X128.343 Y113.6 E5.17632
G1 X127.846 Y114.186 E5.20188
G1 X127.138 Y114.845 E5.23405
G1 X123.299 Y117.976 E5.39882
G1 X122.892 Y118.284 E5.41579
G1 X122.408 Y118.626 E5.4355
G1 X121.565 Y119.142 E5.46838
G1 X121.008 Y119.433 E5.48928
G1 X120.078 Y119.84 E5.52304
G1 X119.509 Y120.044 E5.54315
G1 X118.526 Y120.321 E5.57712
G1 X117.904 Y120.451 E5.59825
G1 X116.897 Y120.591 E5.63207
G1 X116.286 Y120.633 E5.65244
G1 X115.779 Y120.65 E5.66931
G1 X104.221 Y120.65 E6.05373
G1 X103.714 Y120.633 E6.0706
G1 X103.103 Y120.591 E6.09097
G1 X102.096 Y120.451 E6.12479
G1 X101.474 Y120.321 E6.14592
G1 X100.491 Y120.044 E6.17989
G1 X99.922 Y119.84 E6.19999
G1 X98.992 Y119.433 E6.23376
G1 X98.435 Y119.142 E6.25466
G1 X97.594 Y118.628 E6.28744
G1 X97.104 Y118.282 E6.30739
G1 X96.694 Y117.971 E6.32451
G1 X92.861 Y114.844 E6.48904
G1 X92.291 Y114.327 E6.51463
G1 X91.778 Y113.755 E6.54019
G1 X91.327 Y113.131 E6.56579
G1 X90.856 Y112.288 E6.59791
G1 X90.817 Y112.206 E6.60093
G1 X90.524 Y111.496 E6.62648
G1 X90.305 Y110.758 E6.65208
G1 X90.164 Y110.002 E6.67766
G1 X90.1 Y109.028 E6.71013
G1 X90.1 Y106.867 E6.782
G1 X90.14 Y106.099 E6.80758
G1 X90.259 Y105.339 E6.83317
G1 X90.457 Y104.596 E6.85874
G1 X90.731 Y103.877 E6.88433
G1 X91.078 Y103.191 E6.9099
G1 X91.494 Y102.544 E6.93549
G1 X91.975 Y101.944 E6.96106
G1 X92.267 Y101.634 E6.97523
G1 X92.384 Y101.517 E6.98073
G0 F6000 X92.667 Y101.8
G1 F600 X93.224 Y101.3 E7.00563
G1 X93.83 Y100.863 E7.03047
G1 X94.48 Y100.492 E7.05537
G1 X95.166 Y100.193 E7.08026
G1 X95.88 Y99.969 E7.10515
G1 X96.613 Y99.822 E7.13001
G1 X97.617 Y99.75 E7.16349
G1 X122.383 Y99.75 E7.98721
G1 X123.13 Y99.79 E8.01209
G1 X123.868 Y99.909 E8.03695
G1 X124.59 Y100.107 E8.06186
G1 X125.286 Y100.38 E8.08672
G1 X125.949 Y100.727 E8.11161
G1 X126.572 Y101.142 E8.13651
G1 X127.333 Y101.8 E8.16997
G1 X127.45 Y101.917 E8.17547
G1 X127.95 Y102.474 E8.20037
G1 X128.387 Y103.08 E8.22522
G1 X128.758 Y103.73 E8.25011
G1 X129.057 Y104.416 E8.275
G1 X129.281 Y105.13 E8.29989
G1 X129.428 Y105.863 E8.32475
G1 X129.5 Y106.867 E8.35823
G1 X129.5 Y109.028 E8.43011
G1 X129.46 Y109.775 E8.45499
G1 X129.341 Y110.513 E8.47985
G1 X129.143 Y111.235 E8.50475
G1 X128.821 Y112.035 E8.53343
G1 X128.782 Y112.117 E8.53645
G1 X128.426 Y112.774 E8.56131
G1 X128 Y113.39 E8.58622
G1 X127.512 Y113.956 E8.61107
G1 X126.885 Y114.535 E8.63946
G1 X123.046 Y117.666 E8.80423
G1 X122.662 Y117.958 E8.82027
G1 X122.178 Y118.3 E8.83998
G1 X121.379 Y118.787 E8.87111
G1 X120.822 Y119.078 E8.89201
G1 X119.943 Y119.463 E8.92392
G1 X119.374 Y119.667 E8.94403
G1 X118.444 Y119.93 E8.97617
G1 X117.822 Y120.06 E8.99731
G1 X116.87 Y120.192 E9.02928
G1 X116.259 Y120.234 E9.04965
G1 X115.779 Y120.25 E9.06562
G1 X104.221 Y120.25 E9.45004
G1 X103.741 Y120.234 E9.46601
G1 X103.13 Y120.192 E9.48638
G1 X102.178 Y120.06 E9.51835
G1 X101.556 Y119.93 E9.53948
G1 X100.626 Y119.667 E9.57163
G1 X100.057 Y119.463 E9.59173
G1 X99.178 Y119.078 E9.62365
G1 X98.621 Y118.787 E9.64455
G1 X97.824 Y118.301 E9.6756
G1 X97.334 Y117.955 E9.69555
G1 X96.947 Y117.661 E9.71172
G1 X93.114 Y114.534 E9.87625
G1 X92.56 Y114.031 E9.90113
G1 X92.064 Y113.471 E9.92601
G1 X91.63 Y112.862 E9.95089
G1 X91.218 Y112.117 E9.9792
G1 X91.179 Y112.035 E9.98222
G1 X90.894 Y111.343 E10.00711
G1 X90.685 Y110.625 E10.03199
G1 X90.553 Y109.888 E10.05689
G1 X90.5 Y109.028 E10.08555
G1 X90.5 Y106.867 E10.15742
G1 X90.54 Y106.12 E10.1823
G1 X90.659 Y105.382 E10.20717
G1 X90.857 Y104.66 E10.23207
G1 X91.13 Y103.964 E10.25693
G1 X91.477 Y103.301 E10.28182
G1 X91.892 Y102.678 E10.30672
G1 X92.55 Y101.917 E10.34018
G1 X92.667 Y101.8 E10.34568
G0 F6000 X92.95 Y102.083
G1 F600 X93.491 Y101.599 E10.36983
G1 X94.082 Y101.176 E10.394
G1 X94.716 Y100.822 E10.41815
G1 X95.385 Y100.539 E10.44231
G1 X96.081 Y100.331 E10.46647
G1 X96.796 Y100.201 E10.49064
G1 X97.617 Y100.15 E10.518
G1 X122.383 Y100.15 E11.34172
G1 X123.108 Y100.19 E11.36587
G1 X123.825 Y100.309 E11.39005
G1 X124.524 Y100.507 E11.41421
G1 X125.197 Y100.78 E11.43837
G1 X125.836 Y101.125 E11.46252
G1 X126.433 Y101.539 E11.48668
G1 X127.05 Y102.083 E11.51404
G1 X127.167 Y102.2 E11.51954
G1 X127.651 Y102.741 E11.54369
G1 X128.074 Y103.332 E11.56786
G1 X128.428 Y103.966 E11.59201
G1 X128.711 Y104.635 E11.61617
G1 X128.919 Y105.331 E11.64033
G1 X129.049 Y106.046 E11.6645
G1 X129.1 Y106.867 E11.69186
G1 X129.1 Y109.028 E11.76374
G1 X129.06 Y109.753 E11.78789
G1 X128.941 Y110.47 E11.81206
G1 X128.743 Y111.169 E11.83623
G1 X128.46 Y111.863 E11.86115
G1 X128.421 Y111.945 E11.86417
G1 X128.074 Y112.583 E11.88833
G1 X127.658 Y113.178 E11.91248
G1 X127.18 Y113.725 E11.93664
G1 X126.632 Y114.225 E11.96131
G1 X122.793 Y117.356 E12.12608
G1 X122.431 Y117.631 E12.1412
G1 X121.947 Y117.973 E12.16091
G1 X121.194 Y118.433 E12.19026
G1 X120.637 Y118.724 E12.21116
G1 X119.808 Y119.087 E12.24126
G1 X119.239 Y119.291 E12.26136
G1 X118.362 Y119.538 E12.29167
G1 X117.74 Y119.668 E12.3128
G1 X116.843 Y119.792 E12.34292
G1 X116.232 Y119.834 E12.36329
G1 X115.779 Y119.85 E12.37837
G1 X104.221 Y119.85 E12.76279
G1 X103.768 Y119.834 E12.77786
G1 X103.157 Y119.792 E12.79823
G1 X102.26 Y119.668 E12.82835
G1 X101.638 Y119.538 E12.84949
G1 X100.761 Y119.291 E12.87979
G1 X100.192 Y119.087 E12.89989
G1 X99.363 Y118.724 E12.93
G1 X98.806 Y118.433 E12.9509
G1 X98.055 Y117.974 E12.98017
G1 X97.565 Y117.628 E13.00012
G1 X97.2 Y117.351 E13.01536
G1 X93.367 Y114.224 E13.17989
G1 X92.83 Y113.735 E13.20405
G1 X92.351 Y113.189 E13.2282
G1 X91.934 Y112.594 E13.25237
G1 X91.579 Y111.945 E13.27697
G1 X91.54 Y111.863 E13.28
G1 X91.264 Y111.191 E13.30416
G1 X91.064 Y110.492 E13.32834
G1 X90.943 Y109.776 E13.35249
G1 X90.9 Y109.028 E13.37741
G1 X90.9 Y106.867 E13.44929
G1 X90.94 Y106.142 E13.47344
G1 X91.059 Y105.425 E13.49761
G1 X91.257 Y104.726 E13.52177
G1 X91.53 Y104.053 E13.54593
G1 X91.875 Y103.414 E13.57008
G1 X92.289 Y102.817 E13.59425
G1 X92.833 Y102.2 E13.6216
G1 X92.95 Y102.083 E13.62711
G0 F6000 X93.233 Y102.366
G1 F600 X93.758 Y101.897 E13.65052
G1 X94.333 Y101.491 E13.67393
G1 X94.951 Y101.153 E13.69736
G1 X95.602 Y100.886 E13.72076
G1 X96.28 Y100.696 E13.74418
G1 X96.975 Y100.583 E13.7676
G1 X97.617 Y100.55 E13.78898
G1 X122.383 Y100.55 E14.6127
G1 X123.086 Y100.59 E14.63612
G1 X123.78 Y100.709 E14.65954
G1 X124.455 Y100.907 E14.68294
G1 X125.104 Y101.179 E14.70635
G1 X125.718 Y101.524 E14.72977
G1 X126.289 Y101.935 E14.75317
G1 X126.767 Y102.366 E14.77458
G1 X126.884 Y102.483 E14.78008
G1 X127.353 Y103.008 E14.80349
G1 X127.759 Y103.583 E14.82691
G1 X128.097 Y104.201 E14.85033
G1 X128.364 Y104.852 E14.87374
G1 X128.554 Y105.53 E14.89716
G1 X128.667 Y106.225 E14.92058
G1 X128.7 Y106.867 E14.94196
G1 X128.7 Y109.028 E15.01383
G1 X128.66 Y109.731 E15.03725
G1 X128.541 Y110.425 E15.06067
G1 X128.343 Y111.1 E15.08407
G1 X128.099 Y111.691 E15.10533
G1 X128.06 Y111.773 E15.10835
G1 X127.722 Y112.39 E15.13175
G1 X127.316 Y112.966 E15.15519
G1 X126.848 Y113.491 E15.17858
G1 X126.38 Y113.915 E15.19959
G1 X122.541 Y117.046 E15.36435
G1 X122.2 Y117.304 E15.37858
G1 X121.716 Y117.646 E15.39829
G1 X121.009 Y118.078 E15.42585
G1 X120.452 Y118.369 E15.44675
G1 X119.673 Y118.71 E15.47503
G1 X119.104 Y118.914 E15.49513
G1 X118.28 Y119.147 E15.52362
G1 X117.658 Y119.277 E15.54475
G1 X116.815 Y119.393 E15.57305
G1 X116.204 Y119.435 E15.59342
G1 X115.779 Y119.45 E15.60757
G1 X104.221 Y119.45 E15.99199
G1 X103.796 Y119.435 E16.00613
G1 X103.185 Y119.393 E16.0265
G1 X102.342 Y119.277 E16.0548
G1 X101.72 Y119.147 E16.07594
G1 X100.896 Y118.914 E16.10442
G1 X100.327 Y118.71 E16.12453
G1 X99.548 Y118.369 E16.15281
G1 X98.991 Y118.078 E16.17371
G1 X98.286 Y117.648 E16.20118
G1 X97.796 Y117.302 E16.22113
G1 X97.453 Y117.041 E16.23546
G1 X93.62 Y113.914 E16.39999
G1 X93.1 Y113.439 E16.42342
G1 X92.638 Y112.908 E16.44683
G1 X92.239 Y112.328 E16.47024
G1 X91.94 Y111.773 E16.49121
G1 X91.901 Y111.691 E16.49423
G1 X91.635 Y111.039 E16.51765
G1 X91.445 Y110.361 E16.54107
G1 X91.333 Y109.666 E16.56448
G1 X91.3 Y109.028 E16.58573
G1 X91.3 Y106.867 E16.65761
G1 X91.34 Y106.164 E16.68103
G1 X91.459 Y105.47 E16.70445
G1 X91.657 Y104.795 E16.72784
G1 X91.929 Y104.146 E16.75125
G1 X92.274 Y103.532 E16.77467
G1 X92.685 Y102.961 E16.79807
G1 X93.116 Y102.483 E16.81948
G1 X93.233 Y102.366 E16.82498
G0 F6000 X93.516 Y102.649
G1 F600 X94.025 Y102.196 E16.84764
G1 X94.583 Y101.807 E16.87027
G1 X95.183 Y101.485 E16.89292
G1 X95.817 Y101.236 E16.91557
G1 X96.476 Y101.063 E16.93823
G1 X97.15 Y100.969 E16.96087
G1 X97.617 Y100.95 E16.97641
G1 X122.383 Y100.95 E17.80013
G1 X123.063 Y100.99 E17.82279
G1 X123.733 Y101.109 E17.84542
G1 X124.385 Y101.306 E17.86808
G1 X125.009 Y101.578 E17.89072
G1 X125.597 Y101.922 E17.91337
G1 X126.141 Y102.332 E17.93603
G1 X126.484 Y102.649 E17.95156
G1 X126.601 Y102.766 E17.95707
G1 X127.054 Y103.275 E17.97973
G1 X127.443 Y103.833 E18.00236
G1 X127.765 Y104.433 E18.025
G1 X128.014 Y105.067 E18.04766
G1 X128.187 Y105.726 E18.07032
G1 X128.281 Y106.4 E18.09295
G1 X128.3 Y106.867 E18.1085
G1 X128.3 Y109.028 E18.18037
G1 X128.26 Y109.708 E18.20303
G1 X128.141 Y110.378 E18.22566
G1 X127.944 Y111.03 E18.24832
G1 X127.738 Y111.519 E18.26597
G1 X127.699 Y111.601 E18.26899
G1 X127.371 Y112.198 E18.29164
G1 X126.975 Y112.752 E18.31429
G1 X126.517 Y113.256 E18.33694
G1 X126.127 Y113.605 E18.35435
G1 X122.288 Y116.736 E18.51912
G1 X121.969 Y116.978 E18.53243
G1 X121.485 Y117.32 E18.55214
G1 X120.824 Y117.724 E18.57791
G1 X120.267 Y118.015 E18.59881
G1 X119.538 Y118.334 E18.62528
G1 X118.969 Y118.538 E18.64538
G1 X118.199 Y118.755 E18.67199
G1 X117.577 Y118.885 E18.69313
G1 X116.788 Y118.994 E18.71962
G1 X116.177 Y119.036 E18.73999
G1 X115.779 Y119.05 E18.75323
G1 X104.221 Y119.05 E19.13765
G1 X103.823 Y119.036 E19.1509
G1 X103.212 Y118.994 E19.17127
G1 X102.423 Y118.885 E19.19776
G1 X101.801 Y118.755 E19.2189
G1 X101.031 Y118.538 E19.2455
G1 X100.462 Y118.334 E19.26561
G1 X99.733 Y118.015 E19.29207
G1 X99.176 Y117.724 E19.31298
G1 X98.516 Y117.321 E19.3387
G1 X98.026 Y116.975 E19.35865
G1 X97.706 Y116.731 E19.37203
G1 X93.873 Y113.604 E19.53656
G1 X93.371 Y113.144 E19.55921
G1 X92.927 Y112.627 E19.58187
G1 X92.547 Y112.063 E19.60449
G1 X92.301 Y111.601 E19.6219
G1 X92.262 Y111.519 E19.62492
G1 X92.006 Y110.888 E19.64757
G1 X91.826 Y110.232 E19.6702
G1 X91.724 Y109.558 E19.69287
G1 X91.7 Y109.028 E19.71051
G1 X91.7 Y106.867 E19.78239
G1 X91.74 Y106.187 E19.80504
G1 X91.859 Y105.517 E19.82768
G1 X92.056 Y104.865 E19.85033
G1 X92.328 Y104.241 E19.87297
G1 X92.672 Y103.653 E19.89563
G1 X93.082 Y103.109 E19.91829
G1 X93.399 Y102.766 E19.93382
G1 X93.516 Y102.649 E19.93932
G0 F6000 X93.799 Y102.932
G1 F600 X94.291 Y102.496 E19.96119
G1 X94.832 Y102.124 E19.98303
G1 X95.414 Y101.82 E20.00487
G1 X96.029 Y101.589 E20.02672
G1 X96.668 Y101.434 E20.04859
G1 X97.617 Y101.35 E20.08027
G1 X122.383 Y101.35 E20.90399
G1 X123.039 Y101.39 E20.92585
G1 X123.685 Y101.509 E20.9477
G1 X124.312 Y101.706 E20.96956
G1 X124.91 Y101.978 E20.99141
G1 X125.471 Y102.32 E21.01326
G1 X126.201 Y102.932 E21.04495
G1 X126.318 Y103.049 E21.05045
G1 X126.754 Y103.541 E21.07231
G1 X127.126 Y104.082 E21.09415
G1 X127.43 Y104.664 E21.11599
G1 X127.661 Y105.279 E21.13784
G1 X127.816 Y105.918 E21.15971
G1 X127.9 Y106.867 E21.1914
G1 X127.9 Y109.028 E21.26327
G1 X127.86 Y109.684 E21.28513
G1 X127.741 Y110.33 E21.30698
G1 X127.544 Y110.957 E21.32884
G1 X127.377 Y111.347 E21.34295
G1 X127.338 Y111.429 E21.34597
G1 X127.02 Y112.004 E21.36782
G1 X126.635 Y112.537 E21.38969
G1 X126.188 Y113.018 E21.41153
G1 X125.874 Y113.295 E21.42546
G1 X122.035 Y116.426 E21.59023
G1 X121.738 Y116.651 E21.60262
G1 X121.254 Y116.993 E21.62233
G1 X120.638 Y117.369 E21.64633
G1 X120.081 Y117.66 E21.66724
