;FLAVOR:Marlin
;TIME:2246
;Filament used: 1.40317m
;Layer height: 0.2
;MINX:77.95
;MINY:82.7
;MINZ:0.2
;MAXX:142.05
;MAXY:137.3
;MAXZ:4.5
;Generated with Cura_SteamEngine master
M140 S70
M105
M190 S70
M104 S200
M105
M109 S200
M82 ;absolute extrusion mode
M201 X500.00 Y500.00 Z100.00 E5000.00 ;Setup machine max acceleration
M203 X500.00 Y500.00 Z10.00 E50.00 ;Setup machine max feedrate
M204 P500.00 R1000.00 T500.00 ;Setup Print/Retract/Travel acceleration
M205 X8.00 Y8.00 Z0.40 E5.00 ;Setup Jerk
M220 S100 ;Reset Feedrate
M221 S100 ;Reset Flowrate

G28 ;Home

G92 E0 ;Reset Extruder
G1 Z2.0 F3000 ;Move Z Axis up
G1 X10.1 Y20 Z0.28 F5000.0 ;Move to start position
G1 X10.1 Y200.0 Z0.28 F1500.0 E15 ;Draw the first line
G1 X10.4 Y200.0 Z0.28 F5000.0 ;Move to side a little
G1 X10.4 Y20 Z0.28 F1500.0 E30 ;Draw the second line
G92 E0 ;Reset Extruder
G1 Z2.0 F3000 ;Move Z Axis up

G92 E0
G92 E0
G1 F2700 E-5
;LAYER_COUNT:20
;LAYER:0
M107
G1 F300 Z0.7
G0 F6000 X81.558 Y86.298 Z0.7
;TYPE:SKIRT
G1 F300 Z0.2
G1 F2700 E0
G1 F600 X82.011 Y85.879 E0.02052
G1 X82.535 Y85.432 E0.04343
G1 X83.161 Y84.95 E0.06971
G1 X83.507 Y84.725 E0.08344
G1 X84.111 Y84.353 E0.10703
G1 X84.729 Y84.009 E0.13055
G1 X85.229 Y83.781 E0.14883
G1 X85.868 Y83.516 E0.17184
G1 X86.612 Y83.251 E0.19811
G1 X87.039 Y83.136 E0.21282
G1 X87.736 Y82.969 E0.23666
G1 X88.512 Y82.824 E0.26291
G1 X88.951 Y82.777 E0.2776
G1 X89.519 Y82.733 E0.29655
G1 X90.308 Y82.712 E0.3228
G1 X91.095 Y82.771 E0.34905
G1 X91.873 Y82.909 E0.37533
G1 X92.633 Y83.125 E0.40161
G1 X93.236 Y83.365 E0.42319
G1 X93.472 Y83.257 E0.43182
G1 X94.219 Y83.002 E0.45808
G1 X94.988 Y82.823 E0.48434
G1 X95.772 Y82.723 E0.51062
G1 X96.367 Y82.7 E0.53043
G1 X103.883 Y82.7 E0.78041
G1 X104.672 Y82.74 E0.80669
G1 X105.452 Y82.859 E0.83293
G1 X106.217 Y83.057 E0.85921
G1 X106.957 Y83.331 E0.88546
G1 X107.666 Y83.679 E0.91173
G1 X108.337 Y84.097 E0.93802
G1 X108.961 Y84.58 E0.96427
G1 X109.398 Y84.985 E0.98408
G1 X109.515 Y85.102 E0.98959
G1 X110.002 Y85.64 E1.01372
G1 X110.08 Y85.539 E1.01797
G1 X110.485 Y85.102 E1.03778
G1 X110.602 Y84.985 E1.04329
G1 X111.188 Y84.455 E1.06957
G1 X111.824 Y83.988 E1.09581
G1 X112.504 Y83.587 E1.12207
G1 X113.222 Y83.257 E1.14835
G1 X113.969 Y83.002 E1.1746
G1 X114.738 Y82.823 E1.20086
G1 X115.522 Y82.723 E1.22715
G1 X116.117 Y82.7 E1.24696
G1 X123.633 Y82.7 E1.49694
G1 X124.422 Y82.74 E1.52321
G1 X125.202 Y82.859 E1.54946
G1 X125.967 Y83.057 E1.57574
G1 X126.707 Y83.331 E1.60199
G1 X126.774 Y83.364 E1.60447
G1 X127.278 Y83.156 E1.6226
G1 X128.035 Y82.931 E1.64887
G1 X128.811 Y82.783 E1.67515
G1 X129.597 Y82.715 E1.70139
G1 X130.481 Y82.733 E1.73079
G1 X131.049 Y82.777 E1.74974
G1 X131.833 Y82.878 E1.77603
G1 X132.264 Y82.969 E1.79069
G1 X132.961 Y83.136 E1.81452
G1 X133.719 Y83.358 E1.84079
G1 X134.132 Y83.516 E1.8555
G1 X134.771 Y83.781 E1.87851
G1 X135.287 Y84.017 E1.89738
G1 X135.889 Y84.353 E1.92031
G1 X136.493 Y84.725 E1.94391
G1 X137.144 Y85.172 E1.97017
G1 X137.464 Y85.431 E1.98386
G1 X137.987 Y85.877 E2.00672
G1 X138.452 Y86.308 E2.02781
G1 X138.871 Y86.761 E2.04834
G1 X139.318 Y87.285 E2.07124
G1 X139.8 Y87.911 E2.09752
G1 X140.025 Y88.257 E2.11125
G1 X140.397 Y88.861 E2.13484
G1 X140.741 Y89.479 E2.15837
G1 X140.969 Y89.979 E2.17664
G1 X141.234 Y90.618 E2.19965
G1 X141.479 Y91.295 E2.2236
G1 X141.622 Y91.814 E2.2415
G1 X141.784 Y92.494 E2.26475
G1 X141.928 Y93.271 E2.29104
G1 X141.972 Y93.689 E2.30502
G1 X142.026 Y94.374 E2.32787
G1 X142.05 Y94.987 E2.34827
G1 X142.05 Y113.647 E2.96891
G1 X142.026 Y114.258 E2.98925
G1 X141.972 Y114.945 E3.01217
G1 X141.87 Y115.728 E3.03843
G1 X141.782 Y116.149 E3.05273
G1 X141.616 Y116.843 E3.07647
G1 X141.394 Y117.6 E3.10271
G1 X141.231 Y118.025 E3.11785
G1 X140.958 Y118.681 E3.14148
G1 X140.618 Y119.394 E3.16775
G1 X140.397 Y119.777 E3.18246
G1 X140.024 Y120.382 E3.2061
G1 X139.576 Y121.033 E3.23238
G1 X139.309 Y121.362 E3.24647
G1 X138.862 Y121.884 E3.26933
G1 X138.245 Y122.527 E3.29897
G1 X137.854 Y122.868 E3.31623
G1 X123.558 Y134.531 E3.92988
G1 X123.019 Y134.933 E3.95224
G1 X122.379 Y135.369 E3.978
G1 X121.704 Y135.78 E4.00428
G1 X121.23 Y136.017 E4.02191
G1 X120.541 Y136.332 E4.04711
G1 X119.807 Y136.623 E4.07337
G1 X119.279 Y136.782 E4.09171
G1 X118.54 Y136.976 E4.11712
G1 X117.898 Y137.116 E4.13897
G1 X117.204 Y137.207 E4.16225
G1 X116.441 Y137.272 E4.18772
G1 X115.779 Y137.3 E4.20976
G1 X104.21 Y137.3 E4.59455
G1 X103.548 Y137.272 E4.61659
G1 X102.797 Y137.208 E4.64165
G1 X102.159 Y137.127 E4.66305
G1 X101.451 Y136.975 E4.68713
G1 X100.712 Y136.78 E4.71255
G1 X99.96 Y136.54 E4.73881
G1 X99.459 Y136.332 E4.75685
G1 X98.77 Y136.017 E4.78205
G1 X98.069 Y135.653 E4.80832
G1 X97.62 Y135.368 E4.826
G1 X96.973 Y134.927 E4.85205
G1 X96.435 Y134.526 E4.87436
G1 X82.146 Y122.868 E5.48773
G1 X81.755 Y122.527 E5.50498
G1 X81.138 Y121.884 E5.53462
G1 X80.691 Y121.362 E5.55748
G1 X80.209 Y120.737 E5.58373
G1 X79.976 Y120.382 E5.59786
G1 X79.603 Y119.777 E5.62149
G1 X79.224 Y119.085 E5.64774
G1 X79.042 Y118.681 E5.66247
G1 X78.769 Y118.025 E5.68611
G1 X78.503 Y117.281 E5.71239
G1 X78.384 Y116.843 E5.72748
G1 X78.218 Y116.149 E5.75122
G1 X78.073 Y115.372 E5.77751
G1 X78.028 Y114.947 E5.79172
G1 X77.974 Y114.262 E5.81457
G1 X77.95 Y113.649 E5.83498
G1 X77.95 Y94.989 E6.45561
G1 X77.974 Y94.378 E6.47595
G1 X78.028 Y93.691 E6.49887
G1 X78.13 Y92.908 E6.52513
G1 X78.218 Y92.487 E6.53944
G1 X78.384 Y91.793 E6.56317
G1 X78.606 Y91.036 E6.58941
G1 X78.766 Y90.618 E6.6043
G1 X79.032 Y89.977 E6.62738
G1 X79.267 Y89.463 E6.64618
G1 X79.603 Y88.861 E6.66911
G1 X79.975 Y88.257 E6.6927
G1 X80.422 Y87.606 E6.71897
G1 X80.681 Y87.286 E6.73266
G1 X81.127 Y86.763 E6.75552
G1 X81.558 Y86.298 E6.77661
G0 F6000 X81.84 Y86.58
G1 F600 X82.27 Y86.183 E6.79607
G1 X82.794 Y85.736 E6.81898
G1 X83.716 Y85.065 E6.85691
G1 X84.32 Y84.693 E6.8805
G1 X84.908 Y84.367 E6.90286
G1 X85.382 Y84.15 E6.9202
G1 X86.021 Y83.885 E6.94321
G1 X86.746 Y83.628 E6.96879
G1 X87.132 Y83.525 E6.98208
G1 X87.829 Y83.358 E7.00592
G1 X88.585 Y83.218 E7.03149
G1 X88.981 Y83.176 E7.04474
G1 X89.549 Y83.132 E7.06368
G1 X90.318 Y83.113 E7.08927
G1 X91.085 Y83.173 E7.11486
G1 X91.842 Y83.313 E7.14046
G1 X92.579 Y83.53 E7.16602
G1 X93.241 Y83.803 E7.18983
G1 X93.695 Y83.599 E7.20639
G1 X94.426 Y83.359 E7.23198
G1 X95.177 Y83.196 E7.25754
G1 X95.942 Y83.112 E7.28313
G1 X96.367 Y83.1 E7.29728
G1 X103.883 Y83.1 E7.54726
G1 X104.651 Y83.14 E7.57284
G1 X105.411 Y83.259 E7.59842
G1 X106.154 Y83.457 E7.624
G1 X106.873 Y83.731 E7.64959
G1 X107.559 Y84.078 E7.67516
G1 X108.206 Y84.494 E7.70074
G1 X108.806 Y84.975 E7.72632
G1 X109.116 Y85.267 E7.74048
G1 X109.233 Y85.384 E7.74599
G1 X109.747 Y85.956 E7.77156
G1 X109.994 Y86.294 E7.78549
G1 X110.475 Y85.694 E7.81107
G1 X110.767 Y85.384 E7.82523
G1 X110.884 Y85.267 E7.83073
G1 X111.456 Y84.753 E7.85631
G1 X112.078 Y84.3 E7.8819
G1 X112.743 Y83.914 E7.90748
G1 X113.445 Y83.599 E7.93307
G1 X114.176 Y83.359 E7.95866
G1 X114.927 Y83.196 E7.98422
G1 X115.692 Y83.112 E8.00982
G1 X116.117 Y83.1 E8.02396
G1 X123.633 Y83.1 E8.27394
G1 X124.401 Y83.14 E8.29952
G1 X125.161 Y83.259 E8.3251
G1 X125.904 Y83.457 E8.35068
G1 X126.623 Y83.731 E8.37627
G1 X126.76 Y83.8 E8.38137
G1 X126.773 Y83.793 E8.38186
G1 X127.487 Y83.507 E8.40745
G1 X128.227 Y83.297 E8.43303
G1 X128.984 Y83.164 E8.45859
G1 X129.752 Y83.111 E8.4842
G1 X130.451 Y83.132 E8.50746
G1 X131.019 Y83.176 E8.52641
G1 X131.781 Y83.275 E8.55196
G1 X132.171 Y83.358 E8.56523
G1 X132.868 Y83.525 E8.58906
G1 X133.606 Y83.743 E8.61466
G1 X133.979 Y83.885 E8.62793
G1 X134.618 Y84.15 E8.65094
G1 X135.108 Y84.375 E8.66887
G1 X135.68 Y84.693 E8.69064
G1 X136.284 Y85.065 E8.71424
G1 X137.205 Y85.735 E8.75212
G1 X137.728 Y86.181 E8.77498
G1 X138.17 Y86.59 E8.79501
G1 X138.567 Y87.02 E8.81447
G1 X139.014 Y87.544 E8.83738
G1 X139.685 Y88.466 E8.87531
G1 X140.057 Y89.07 E8.8989
G1 X140.383 Y89.658 E8.92126
G1 X140.6 Y90.132 E8.9386
G1 X140.865 Y90.771 E8.96161
G1 X141.097 Y91.415 E8.98438
G1 X141.233 Y91.907 E9.00135
G1 X141.395 Y92.587 E9.0246
G1 X141.573 Y93.72 E9.06275
G1 X141.627 Y94.405 E9.0856
G1 X141.65 Y94.987 E9.10498
G1 X141.65 Y113.647 E9.72561
G1 X141.627 Y114.227 E9.74492
G1 X141.573 Y114.914 E9.76784
G1 X141.473 Y115.676 E9.7934
G1 X141.393 Y116.055 E9.80628
G1 X141.227 Y116.749 E9.83002
G1 X141.009 Y117.487 E9.85561
G1 X140.862 Y117.871 E9.86929
G1 X140.589 Y118.527 E9.89292
G1 X140.257 Y119.221 E9.91851
G1 X140.056 Y119.568 E9.93184
G1 X139.683 Y120.173 E9.95548
G1 X139.005 Y121.102 E9.99374
G1 X138.558 Y121.624 E10.01659
G1 X137.972 Y122.234 E10.04473
G1 X137.601 Y122.558 E10.06111
G1 X123.305 Y134.221 E10.67476
G1 X122.793 Y134.603 E10.696
G1 X122.153 Y135.039 E10.72176
G1 X121.496 Y135.438 E10.74733
G1 X121.064 Y135.653 E10.76338
G1 X120.375 Y135.968 E10.78857
G1 X119.66 Y136.251 E10.81415
G1 X119.177 Y136.395 E10.83091
G1 X118.438 Y136.589 E10.85633
G1 X117.828 Y136.722 E10.87709
G1 X117.17 Y136.808 E10.89916
G1 X116.407 Y136.873 E10.92463
G1 X115.779 Y136.9 E10.94554
G1 X104.21 Y136.9 E11.33032
G1 X103.582 Y136.873 E11.35123
G1 X102.831 Y136.809 E11.3763
G1 X102.224 Y136.732 E11.39665
G1 X101.553 Y136.588 E11.41948
G1 X100.814 Y136.393 E11.4449
G1 X100.081 Y136.158 E11.4705
G1 X99.625 Y135.968 E11.48693
G1 X98.936 Y135.653 E11.51213
G1 X98.254 Y135.297 E11.53772
G1 X97.845 Y135.038 E11.55382
G1 X97.198 Y134.597 E11.57986
G1 X96.688 Y134.216 E11.60103
G1 X82.399 Y122.558 E12.2144
G1 X82.028 Y122.234 E12.23078
G1 X81.442 Y121.624 E12.25891
G1 X80.995 Y121.102 E12.28177
G1 X80.317 Y120.173 E12.32002
G1 X79.944 Y119.568 E12.34366
G1 X79.575 Y118.893 E12.36925
G1 X79.411 Y118.527 E12.38259
G1 X79.138 Y117.871 E12.40622
G1 X78.88 Y117.147 E12.43178
G1 X78.773 Y116.749 E12.44549
G1 X78.607 Y116.055 E12.46922
G1 X78.467 Y115.299 E12.4948
G1 X78.427 Y114.916 E12.5076
G1 X78.373 Y114.231 E12.53046
G1 X78.35 Y113.649 E12.54983
G1 X78.35 Y94.989 E13.17047
G1 X78.373 Y94.409 E13.18977
G1 X78.427 Y93.722 E13.21269
G1 X78.527 Y92.96 E13.23825
G1 X78.607 Y92.581 E13.25114
G1 X78.773 Y91.887 E13.27487
G1 X78.991 Y91.149 E13.30046
G1 X79.135 Y90.772 E13.31389
G1 X79.401 Y90.131 E13.33697
G1 X79.625 Y89.642 E13.35486
G1 X79.943 Y89.07 E13.37663
G1 X80.315 Y88.466 E13.40022
G1 X80.985 Y87.545 E13.4381
G1 X81.431 Y87.022 E13.46096
G1 X81.84 Y86.58 E13.48099
G0 F6000 X82.123 Y86.863
G1 F600 X82.53 Y86.487 E13.49942
G1 X83.054 Y86.04 E13.52233
G1 X83.926 Y85.406 E13.55819
G1 X84.53 Y85.034 E13.58178
G1 X85.087 Y84.725 E13.60297
G1 X85.535 Y84.52 E13.61935
G1 X86.174 Y84.255 E13.64236
G1 X87.225 Y83.914 E13.67911
G1 X87.922 Y83.747 E13.70295
G1 X89.012 Y83.575 E13.73965
G1 X89.58 Y83.531 E13.7586
G1 X90.328 Y83.513 E13.78349
G1 X91.074 Y83.575 E13.80838
G1 X91.808 Y83.716 E13.83324
G1 X92.524 Y83.935 E13.85815
G1 X93.212 Y84.229 E13.88303
G1 X93.233 Y84.241 E13.88384
G1 X93.916 Y83.943 E13.90862
G1 X94.63 Y83.719 E13.93351
G1 X95.363 Y83.572 E13.95837
G1 X96.367 Y83.5 E13.99185
G1 X103.883 Y83.5 E14.24184
G1 X104.63 Y83.54 E14.26672
G1 X105.368 Y83.659 E14.29158
G1 X106.09 Y83.857 E14.31648
G1 X106.786 Y84.13 E14.34135
G1 X107.449 Y84.477 E14.36624
G1 X108.072 Y84.892 E14.39113
G1 X108.833 Y85.55 E14.42459
G1 X108.95 Y85.667 E14.4301
G1 X109.45 Y86.224 E14.45499
G1 X109.887 Y86.83 E14.47984
G1 X109.996 Y87.022 E14.48719
G1 X110.392 Y86.428 E14.51093
G1 X111.05 Y85.667 E14.54439
G1 X111.167 Y85.55 E14.54989
G1 X111.724 Y85.05 E14.57479
G1 X112.33 Y84.613 E14.59964
G1 X112.98 Y84.242 E14.62453
G1 X113.666 Y83.943 E14.64942
G1 X114.38 Y83.719 E14.67431
G1 X115.113 Y83.572 E14.69917
G1 X116.117 Y83.5 E14.73265
G1 X123.633 Y83.5 E14.98264
G1 X124.38 Y83.54 E15.00752
G1 X125.118 Y83.659 E15.03238
G1 X125.84 Y83.857 E15.05728
G1 X126.536 Y84.13 E15.08215
G1 X126.766 Y84.251 E15.09079
G1 X126.997 Y84.131 E15.09945
G1 X127.694 Y83.86 E15.12432
G1 X128.416 Y83.665 E15.1492
G1 X129.155 Y83.548 E15.17408
G1 X129.902 Y83.51 E15.19896
G1 X130.42 Y83.531 E15.2162
G1 X130.988 Y83.575 E15.23515
G1 X132.078 Y83.747 E15.27185
G1 X132.775 Y83.914 E15.29569
G1 X133.826 Y84.255 E15.33244
G1 X134.465 Y84.52 E15.35545
G1 X134.929 Y84.733 E15.37243
G1 X135.47 Y85.034 E15.39302
G1 X136.074 Y85.406 E15.41662
G1 X136.945 Y86.04 E15.45245
G1 X137.468 Y86.486 E15.47531
G1 X137.887 Y86.873 E15.49428
G1 X138.263 Y87.28 E15.51271
G1 X138.71 Y87.804 E15.53562
G1 X139.344 Y88.676 E15.57148
G1 X139.716 Y89.28 E15.59507
G1 X140.025 Y89.837 E15.61625
G1 X140.23 Y90.285 E15.63264
G1 X140.495 Y90.924 E15.65565
G1 X140.715 Y91.534 E15.67722
G1 X140.843 Y92 E15.69329
G1 X141.005 Y92.68 E15.71654
G1 X141.174 Y93.752 E15.75264
G1 X141.228 Y94.437 E15.77549
G1 X141.25 Y94.987 E15.7938
G1 X141.25 Y113.647 E16.41443
G1 X141.228 Y114.196 E16.43271
G1 X141.174 Y114.883 E16.45563
G1 X141.004 Y115.962 E16.49196
G1 X140.838 Y116.656 E16.51569
G1 X140.493 Y117.718 E16.55283
G1 X140.22 Y118.374 E16.57646
G1 X139.716 Y119.358 E16.61323
G1 X139.343 Y119.963 E16.63687
G1 X138.701 Y120.842 E16.67308
G1 X138.254 Y121.364 E16.69593
G1 X137.7 Y121.941 E16.72254
G1 X137.348 Y122.248 E16.73807
G1 X123.052 Y133.911 E17.35172
G1 X122.568 Y134.272 E17.3718
G1 X121.928 Y134.708 E17.39756
G1 X121.288 Y135.096 E17.42245
G1 X120.898 Y135.289 E17.43693
G1 X120.209 Y135.604 E17.46212
G1 X119.513 Y135.878 E17.487
G1 X119.075 Y136.009 E17.50221
G1 X118.336 Y136.203 E17.52762
G1 X117.758 Y136.328 E17.54729
G1 X117.136 Y136.41 E17.56816
G1 X116.373 Y136.475 E17.59362
G1 X115.779 Y136.5 E17.6134
G1 X104.21 Y136.5 E17.99819
G1 X103.616 Y136.475 E18.01796
G1 X102.865 Y136.411 E18.04303
G1 X102.29 Y136.338 E18.06231
G1 X101.655 Y136.201 E18.08391
G1 X100.916 Y136.006 E18.10933
G1 X100.204 Y135.777 E18.13421
G1 X99.791 Y135.604 E18.1491
G1 X99.102 Y135.289 E18.1743
G1 X98.44 Y134.942 E18.19916
G1 X98.07 Y134.707 E18.21374
G1 X97.423 Y134.266 E18.23978
G1 X96.941 Y133.906 E18.25979
G1 X82.652 Y122.248 E18.87315
G1 X82.3 Y121.941 E18.88869
G1 X81.746 Y121.364 E18.91529
G1 X81.299 Y120.842 E18.93815
G1 X80.657 Y119.963 E18.97435
G1 X80.284 Y119.358 E18.99799
G1 X79.78 Y118.374 E19.03476
G1 X79.507 Y117.718 E19.0584
G1 X79.162 Y116.656 E19.09554
G1 X78.996 Y115.962 E19.11927
G1 X78.826 Y114.884 E19.15557
G1 X78.772 Y114.199 E19.17842
G1 X78.75 Y113.649 E19.19673
G1 X78.75 Y94.989 E19.81736
G1 X78.772 Y94.44 E19.83564
G1 X78.826 Y93.753 E19.85856
G1 X78.996 Y92.674 E19.89489
G1 X79.162 Y91.98 E19.91862
G1 X79.505 Y90.925 E19.95552
G1 X79.771 Y90.284 E19.9786
G1 X79.983 Y89.821 E19.99554
G1 X80.284 Y89.28 E20.01613
G1 X80.656 Y88.676 E20.03972
G1 X81.29 Y87.805 E20.07555
G1 X81.736 Y87.282 E20.09842
G1 X82.123 Y86.863 E20.11739
G0 F6000 X82.406 Y87.146
G1 F600 X82.79 Y86.792 E20.13476
G1 X83.314 Y86.345 E20.15767
G1 X84.136 Y85.746 E20.19149
G1 X84.74 Y85.374 E20.21509
G1 X85.265 Y85.083 E20.23505
G1 X85.689 Y84.889 E20.25056
G1 X86.328 Y84.624 E20.27357
G1 X87.318 Y84.303 E20.30818
G1 X88.015 Y84.136 E20.33202
G1 X89.043 Y83.974 E20.36664
G1 X89.611 Y83.93 E20.38558
G1 X90.337 Y83.914 E20.40974
G1 X91.061 Y83.977 E20.43391
G1 X91.773 Y84.12 E20.45806
G1 X92.465 Y84.34 E20.48221
G1 X93.129 Y84.635 E20.50638
G1 X93.239 Y84.699 E20.51061
G1 X93.466 Y84.572 E20.51926
G1 X94.135 Y84.289 E20.54342
G1 X94.831 Y84.081 E20.56758
G1 X95.546 Y83.951 E20.59176
G1 X96.367 Y83.9 E20.61911
G1 X103.883 Y83.9 E20.8691
G1 X104.608 Y83.94 E20.89325
G1 X105.325 Y84.059 E20.91742
G1 X106.024 Y84.257 E20.94159
G1 X106.697 Y84.53 E20.96574
G1 X107.336 Y84.875 E20.98989
G1 X107.933 Y85.289 E21.01406
G1 X108.55 Y85.833 E21.04142
G1 X108.667 Y85.95 E21.04692
G1 X109.151 Y86.491 E21.07106
G1 X109.574 Y87.082 E21.09524
G1 X109.928 Y87.716 E21.11939
G1 X109.998 Y87.882 E21.12538
G1 X110.03 Y87.803 E21.12821
G1 X110.375 Y87.164 E21.15237
G1 X110.789 Y86.567 E21.17653
G1 X111.333 Y85.95 E21.20389
G1 X111.45 Y85.833 E21.20939
G1 X111.991 Y85.349 E21.23354
G1 X112.582 Y84.926 E21.25771
G1 X113.216 Y84.572 E21.28186
G1 X113.885 Y84.289 E21.30602
G1 X114.581 Y84.081 E21.33018
G1 X115.296 Y83.951 E21.35435
G1 X116.117 Y83.9 E21.38171
G1 X123.633 Y83.9 E21.6317
G1 X124.358 Y83.94 E21.65585
G1 X125.075 Y84.059 E21.68002
