;FLAVOR:Marlin
;TIME:213
;Filament used: 0.0642878m
;Layer height: 0.2
;MINX:99.213
;MINY:99.204
;MINZ:0.2
;MAXX:120.788
;MAXY:120.796
;MAXZ:4
;Generated with Cura_SteamEngine master
M140 S70
M105
M190 S70
M104 S200
M105
M109 S200
M82 ;absolute extrusion mode
M201 X500.00 Y500.00 Z100.00 E5000.00 ;Setup machine max acceleration
M203 X500.00 Y500.00 Z10.00 E50.00 ;Setup machine max feedrate
M204 P500.00 R1000.00 T500.00 ;Setup Print/Retract/Travel acceleration
M205 X8.00 Y8.00 Z0.40 E5.00 ;Setup Jerk
M220 S100 ;Reset Feedrate
M221 S100 ;Reset Flowrate

G28 ;Home

G92 E0 ;Reset Extruder
G1 Z2.0 F3000 ;Move Z Axis up
G1 X10.1 Y20 Z0.28 F5000.0 ;Move to start position
G1 X10.1 Y200.0 Z0.28 F1500.0 E15 ;Draw the first line
G1 X10.4 Y200.0 Z0.28 F5000.0 ;Move to side a little
G1 X10.4 Y20 Z0.28 F1500.0 E30 ;Draw the second line
G92 E0 ;Reset Extruder
G1 Z2.0 F3000 ;Move Z Axis up

G92 E0
G92 E0
G1 F2700 E-5
;LAYER_COUNT:20
;LAYER:0
M107
G1 F300 Z0.7
G0 F6000 X102.487 Y102.246 Z0.7
;TYPE:SKIRT
G1 F300 Z0.2
G1 F2700 E0
G1 F600 X102.719 Y102.028 E0.01059
G1 X103.324 Y101.515 E0.03697
G1 X103.587 Y101.314 E0.04798
G1 X104.336 Y100.807 E0.07806
G1 X104.605 Y100.647 E0.08847
G1 X105.325 Y100.268 E0.11554
G1 X105.635 Y100.125 E0.12689
G1 X106.443 Y99.806 E0.15578
G1 X106.735 Y99.709 E0.16602
G1 X107.524 Y99.492 E0.19323
G1 X107.848 Y99.421 E0.20427
G1 X108.667 Y99.287 E0.23187
G1 X108.995 Y99.251 E0.24284
G1 X109.846 Y99.204 E0.27119
G1 X110.154 Y99.204 E0.28143
G1 X111.015 Y99.252 E0.31012
G1 X111.348 Y99.289 E0.32126
G1 X112.149 Y99.42 E0.34825
G1 X112.47 Y99.49 E0.35918
G1 X113.297 Y99.719 E0.38772
G1 X113.597 Y99.82 E0.39825
G1 X114.401 Y100.141 E0.42705
G1 X114.708 Y100.284 E0.43831
G1 X115.405 Y100.653 E0.46454
G1 X115.667 Y100.809 E0.47468
G1 X116.413 Y101.314 E0.50464
G1 X116.676 Y101.515 E0.51565
G1 X117.281 Y102.028 E0.54204
G1 X117.513 Y102.246 E0.55263
G1 X118.134 Y102.901 E0.58265
G1 X118.355 Y103.163 E0.59405
G1 X118.836 Y103.796 E0.62049
G1 X119.01 Y104.051 E0.63076
G1 X119.463 Y104.803 E0.65995
G1 X119.621 Y105.102 E0.6712
G1 X119.975 Y105.87 E0.69933
G1 X120.094 Y106.17 E0.71006
G1 X120.361 Y106.964 E0.73793
G1 X120.451 Y107.289 E0.74914
G1 X120.639 Y108.16 E0.77878
G1 X120.686 Y108.459 E0.78885
G1 X120.77 Y109.251 E0.81534
G1 X120.788 Y109.586 E0.82649
G1 X120.786 Y110.455 E0.8554
G1 X120.767 Y110.784 E0.86636
G1 X120.687 Y111.536 E0.89151
G1 X120.641 Y111.831 E0.90144
G1 X120.444 Y112.736 E0.93225
G1 X120.35 Y113.071 E0.94382
G1 X120.084 Y113.857 E0.97142
G1 X119.965 Y114.155 E0.98209
G1 X119.614 Y114.913 E1.00987
G1 X119.462 Y115.2 E1.02067
G1 X119.018 Y115.937 E1.04929
G1 X118.837 Y116.203 E1.05999
G1 X118.34 Y116.856 E1.08729
G1 X118.124 Y117.111 E1.0984
G1 X117.513 Y117.754 E1.1279
G1 X117.281 Y117.972 E1.13849
G1 X116.676 Y118.485 E1.16487
G1 X116.413 Y118.686 E1.17588
G1 X115.664 Y119.193 E1.20597
G1 X115.395 Y119.353 E1.21638
G1 X114.675 Y119.732 E1.24344
G1 X114.365 Y119.875 E1.25479
G1 X113.557 Y120.194 E1.28369
G1 X113.265 Y120.291 E1.29392
G1 X112.476 Y120.508 E1.32114
G1 X112.152 Y120.579 E1.33217
G1 X111.333 Y120.713 E1.35977
G1 X111.005 Y120.749 E1.37075
G1 X110.13 Y120.796 E1.39989
G1 X109.811 Y120.795 E1.4105
G1 X108.968 Y120.747 E1.43858
G1 X108.646 Y120.711 E1.44936
G1 X107.851 Y120.58 E1.47616
G1 X107.53 Y120.51 E1.48709
G1 X106.703 Y120.281 E1.51563
G1 X106.403 Y120.18 E1.52616
G1 X105.597 Y119.858 E1.55502
G1 X105.288 Y119.714 E1.56636
G1 X104.589 Y119.344 E1.59267
G1 X104.329 Y119.189 E1.60274
G1 X103.587 Y118.686 E1.63255
G1 X103.324 Y118.485 E1.64356
G1 X102.719 Y117.972 E1.66994
G1 X102.487 Y117.754 E1.68053
G1 X101.868 Y117.101 E1.71046
G1 X101.646 Y116.838 E1.7219
G1 X101.151 Y116.185 E1.74916
G1 X100.976 Y115.927 E1.75953
G1 X100.535 Y115.194 E1.78798
G1 X100.378 Y114.897 E1.79915
G1 X100.022 Y114.124 E1.82746
G1 X99.904 Y113.826 E1.83812
G1 X99.639 Y113.036 E1.86583
G1 X99.549 Y112.711 E1.87705
G1 X99.357 Y111.817 E1.90746
G1 X99.31 Y111.512 E1.91773
G1 X99.231 Y110.751 E1.94317
G1 X99.213 Y110.423 E1.9541
G1 X99.214 Y109.554 E1.983
G1 X99.233 Y109.219 E1.99416
G1 X99.316 Y108.439 E2.02025
G1 X99.362 Y108.149 E2.03002
G1 X99.556 Y107.264 E2.06015
G1 X99.65 Y106.929 E2.07172
G1 X99.916 Y106.143 E2.09932
G1 X100.035 Y105.845 E2.11
G1 X100.385 Y105.088 E2.13773
G1 X100.538 Y104.799 E2.14861
G1 X100.991 Y104.05 E2.17772
G1 X101.172 Y103.785 E2.1884
G1 X101.659 Y103.145 E2.21515
G1 X101.874 Y102.891 E2.22621
G1 X102.487 Y102.246 E2.25581
G0 F6000 X102.761 Y102.537
G1 F600 X102.993 Y102.319 E2.2664
G1 X103.567 Y101.832 E2.29144
G1 X103.83 Y101.631 E2.30244
G1 X104.54 Y101.151 E2.33095
G1 X104.809 Y100.991 E2.34136
G1 X105.492 Y100.631 E2.36704
G1 X105.802 Y100.488 E2.37839
G1 X106.569 Y100.185 E2.40582
G1 X106.861 Y100.088 E2.41606
G1 X107.61 Y99.883 E2.44188
G1 X107.934 Y99.812 E2.45292
G1 X108.711 Y99.684 E2.47911
G1 X109.039 Y99.648 E2.49008
G1 X109.846 Y99.604 E2.51696
G1 X110.154 Y99.604 E2.52721
G1 X110.971 Y99.649 E2.55442
G1 X111.304 Y99.686 E2.56557
G1 X112.064 Y99.811 E2.59118
G1 X112.385 Y99.881 E2.60211
G1 X113.169 Y100.098 E2.62917
G1 X113.469 Y100.199 E2.6397
G1 X114.233 Y100.504 E2.66706
G1 X114.54 Y100.647 E2.67832
G1 X115.201 Y100.997 E2.7032
G1 X115.463 Y101.153 E2.71334
G1 X116.17 Y101.631 E2.74172
G1 X116.433 Y101.832 E2.75273
G1 X117.007 Y102.319 E2.77777
G1 X117.239 Y102.537 E2.78836
G1 X117.828 Y103.159 E2.81685
G1 X118.049 Y103.421 E2.82825
G1 X118.506 Y104.021 E2.85334
G1 X118.68 Y104.276 E2.8636
G1 X119.11 Y104.99 E2.89133
G1 X119.268 Y105.289 E2.90257
G1 X119.604 Y106.017 E2.92924
G1 X119.723 Y106.317 E2.93998
G1 X119.976 Y107.071 E2.96643
G1 X120.066 Y107.396 E2.97764
G1 X120.244 Y108.222 E3.00575
G1 X120.291 Y108.521 E3.01582
G1 X120.37 Y109.273 E3.04096
G1 X120.388 Y109.608 E3.05212
G1 X120.387 Y110.432 E3.07953
G1 X120.368 Y110.761 E3.09049
G1 X120.292 Y111.474 E3.11434
G1 X120.246 Y111.769 E3.12427
G1 X120.059 Y112.628 E3.15351
G1 X119.965 Y112.963 E3.16508
G1 X119.712 Y113.708 E3.19125
G1 X119.593 Y114.006 E3.20192
G1 X119.26 Y114.725 E3.22828
G1 X119.108 Y115.012 E3.23908
G1 X118.687 Y115.712 E3.26625
G1 X118.506 Y115.978 E3.27695
G1 X118.035 Y116.598 E3.30284
G1 X117.819 Y116.853 E3.31396
G1 X117.239 Y117.463 E3.34196
G1 X117.007 Y117.681 E3.35254
G1 X116.433 Y118.168 E3.37758
G1 X116.17 Y118.369 E3.38859
G1 X115.46 Y118.849 E3.4171
G1 X115.191 Y119.009 E3.42751
G1 X114.508 Y119.369 E3.45318
G1 X114.198 Y119.512 E3.46454
G1 X113.431 Y119.815 E3.49197
G1 X113.139 Y119.912 E3.5022
G1 X112.39 Y120.117 E3.52803
G1 X112.066 Y120.188 E3.53906
G1 X111.289 Y120.316 E3.56525
G1 X110.961 Y120.352 E3.57623
G1 X110.131 Y120.396 E3.60387
G1 X109.812 Y120.395 E3.61448
G1 X109.013 Y120.349 E3.6411
G1 X108.691 Y120.313 E3.65188
G1 X107.936 Y120.189 E3.67733
G1 X107.615 Y120.119 E3.68825
G1 X106.831 Y119.902 E3.71531
G1 X106.531 Y119.801 E3.72584
G1 X105.766 Y119.495 E3.75324
G1 X105.457 Y119.351 E3.76458
G1 X104.794 Y119 E3.78953
G1 X104.534 Y118.845 E3.7996
G1 X103.83 Y118.369 E3.82786
G1 X103.567 Y118.168 E3.83887
G1 X102.993 Y117.681 E3.86391
G1 X102.761 Y117.463 E3.8745
G1 X102.173 Y116.843 E3.90292
G1 X101.951 Y116.58 E3.91437
G1 X101.482 Y115.961 E3.9402
G1 X101.307 Y115.703 E3.95057
G1 X100.889 Y115.007 E3.97757
G1 X100.732 Y114.71 E3.98874
G1 X100.394 Y113.976 E4.01562
G1 X100.276 Y113.678 E4.02628
G1 X100.024 Y112.929 E4.05256
G1 X99.934 Y112.604 E4.06378
G1 X99.752 Y111.756 E4.09263
G1 X99.705 Y111.451 E4.10289
G1 X99.63 Y110.729 E4.12703
G1 X99.612 Y110.401 E4.13796
G1 X99.613 Y109.577 E4.16537
G1 X99.632 Y109.242 E4.17653
G1 X99.711 Y108.502 E4.20128
G1 X99.757 Y108.212 E4.21104
G1 X99.941 Y107.372 E4.23965
G1 X100.035 Y107.037 E4.25122
G1 X100.288 Y106.292 E4.27739
G1 X100.407 Y105.994 E4.28806
G1 X100.739 Y105.276 E4.31437
G1 X100.892 Y104.987 E4.32525
G1 X101.321 Y104.275 E4.35289
G1 X101.502 Y104.01 E4.36357
G1 X101.965 Y103.403 E4.38896
G1 X102.18 Y103.149 E4.40003
G1 X102.761 Y102.537 E4.42809
G0 F6000 X103.035 Y102.829
G1 F600 X103.267 Y102.611 E4.43868
G1 X103.809 Y102.15 E4.46235
G1 X104.072 Y101.949 E4.47336
G1 X104.745 Y101.495 E4.50036
G1 X105.014 Y101.335 E4.51077
G1 X105.66 Y100.995 E4.53505
G1 X105.97 Y100.852 E4.5464
G1 X106.695 Y100.565 E4.57234
G1 X106.987 Y100.468 E4.58257
G1 X107.696 Y100.273 E4.60703
G1 X108.02 Y100.202 E4.61806
G1 X108.754 Y100.082 E4.6428
G1 X109.082 Y100.046 E4.65377
G1 X109.846 Y100.004 E4.67922
G1 X110.154 Y100.004 E4.68947
G1 X110.927 Y100.047 E4.71522
G1 X111.26 Y100.084 E4.72636
G1 X111.978 Y100.202 E4.75056
G1 X112.299 Y100.272 E4.76149
G1 X113.041 Y100.477 E4.78709
G1 X113.341 Y100.578 E4.79762
G1 X114.064 Y100.867 E4.82352
G1 X114.371 Y101.01 E4.83478
G1 X114.996 Y101.34 E4.85829
G1 X115.258 Y101.496 E4.86843
G1 X115.928 Y101.949 E4.89533
G1 X116.191 Y102.15 E4.90634
G1 X116.733 Y102.611 E4.93001
G1 X116.965 Y102.829 E4.94059
G1 X117.523 Y103.417 E4.96756
G1 X117.744 Y103.679 E4.97896
G1 X118.175 Y104.247 E5.00267
G1 X118.349 Y104.502 E5.01294
G1 X118.756 Y105.177 E5.03915
G1 X118.914 Y105.476 E5.0504
G1 X119.232 Y106.165 E5.07564
G1 X119.351 Y106.465 E5.08638
G1 X119.59 Y107.178 E5.11139
G1 X119.68 Y107.503 E5.1226
G1 X119.849 Y108.284 E5.14918
G1 X119.896 Y108.583 E5.15925
G1 X119.971 Y109.294 E5.18303
G1 X119.989 Y109.629 E5.19419
G1 X119.987 Y110.409 E5.22013
G1 X119.968 Y110.738 E5.23109
G1 X119.896 Y111.412 E5.25363
G1 X119.85 Y111.707 E5.26356
G1 X119.674 Y112.52 E5.29123
G1 X119.58 Y112.855 E5.3028
G1 X119.341 Y113.56 E5.32756
G1 X119.222 Y113.858 E5.33824
G1 X118.907 Y114.538 E5.36316
G1 X118.755 Y114.825 E5.37396
G1 X118.356 Y115.487 E5.39967
G1 X118.175 Y115.753 E5.41037
G1 X117.729 Y116.339 E5.43487
G1 X117.513 Y116.594 E5.44598
G1 X116.965 Y117.171 E5.47245
G1 X116.733 Y117.389 E5.48304
G1 X116.191 Y117.85 E5.5067
G1 X115.928 Y118.051 E5.51771
G1 X115.255 Y118.505 E5.54471
G1 X114.986 Y118.665 E5.55512
G1 X114.34 Y119.005 E5.5794
G1 X114.03 Y119.148 E5.59076
G1 X113.305 Y119.435 E5.61669
G1 X113.013 Y119.532 E5.62693
G1 X112.304 Y119.727 E5.65138
G1 X111.98 Y119.798 E5.66241
G1 X111.246 Y119.918 E5.68715
G1 X110.918 Y119.954 E5.69813
G1 X110.132 Y119.996 E5.72431
G1 X109.813 Y119.995 E5.73492
G1 X109.057 Y119.952 E5.7601
G1 X108.735 Y119.916 E5.77088
G1 X108.022 Y119.798 E5.79492
G1 X107.701 Y119.728 E5.80584
G1 X106.959 Y119.523 E5.83145
G1 X106.659 Y119.422 E5.84197
G1 X105.935 Y119.133 E5.8679
G1 X105.626 Y118.989 E5.87924
G1 X104.999 Y118.657 E5.90284
G1 X104.739 Y118.502 E5.91291
G1 X104.072 Y118.051 E5.93969
G1 X103.809 Y117.85 E5.9507
G1 X103.267 Y117.389 E5.97436
G1 X103.035 Y117.171 E5.98495
G1 X102.479 Y116.585 E6.01182
G1 X102.257 Y116.322 E6.02326
G1 X101.813 Y115.736 E6.04772
G1 X101.638 Y115.478 E6.05809
G1 X101.242 Y114.82 E6.08363
G1 X101.085 Y114.523 E6.0948
G1 X100.766 Y113.829 E6.12021
G1 X100.648 Y113.531 E6.13087
G1 X100.41 Y112.822 E6.15574
G1 X100.32 Y112.497 E6.16696
G1 X100.148 Y111.695 E6.19424
G1 X100.101 Y111.39 E6.2045
G1 X100.03 Y110.708 E6.22731
G1 X100.012 Y110.38 E6.23824
G1 X100.012 Y109.6 E6.26418
G1 X100.031 Y109.265 E6.27534
G1 X100.106 Y108.564 E6.29879
G1 X100.152 Y108.274 E6.30855
G1 X100.326 Y107.48 E6.33559
G1 X100.42 Y107.145 E6.34716
G1 X100.659 Y106.44 E6.37192
G1 X100.778 Y106.142 E6.38259
G1 X101.092 Y105.463 E6.40747
G1 X101.245 Y105.174 E6.41835
G1 X101.652 Y104.501 E6.44451
G1 X101.833 Y104.236 E6.45518
G1 X102.27 Y103.661 E6.4792
G1 X102.485 Y103.407 E6.49027
G1 X103.035 Y102.829 E6.51681
G0 F6000 X103.308 Y103.12
G1 F600 X103.54 Y102.902 E6.5274
G1 X104.052 Y102.468 E6.54972
G1 X104.315 Y102.267 E6.56073
G1 X104.949 Y101.839 E6.58617
G1 X105.218 Y101.679 E6.59658
G1 X105.827 Y101.358 E6.61948
G1 X106.137 Y101.215 E6.63083
G1 X106.821 Y100.945 E6.65529
G1 X107.113 Y100.848 E6.66553
G1 X107.781 Y100.664 E6.68857
G1 X108.105 Y100.593 E6.6996
G1 X108.798 Y100.479 E6.72296
G1 X109.126 Y100.443 E6.73394
G1 X109.846 Y100.404 E6.75792
G1 X110.154 Y100.404 E6.76816
G1 X110.883 Y100.444 E6.79245
G1 X111.216 Y100.481 E6.80359
G1 X111.893 Y100.593 E6.82641
G1 X112.214 Y100.663 E6.83734
G1 X112.914 Y100.856 E6.86149
G1 X113.214 Y100.957 E6.87202
G1 X113.895 Y101.229 E6.89641
G1 X114.202 Y101.372 E6.90767
G1 X114.792 Y101.684 E6.92987
G1 X115.054 Y101.84 E6.94002
G1 X115.685 Y102.267 E6.96536
G1 X115.948 Y102.468 E6.97637
G1 X116.46 Y102.902 E6.99869
G1 X116.692 Y103.12 E7.00928
G1 X117.217 Y103.675 E7.03469
G1 X117.438 Y103.937 E7.04609
G1 X117.845 Y104.472 E7.06845
G1 X118.019 Y104.727 E7.07871
G1 X118.402 Y105.363 E7.10341
G1 X118.56 Y105.662 E7.11465
G1 X118.86 Y106.312 E7.13847
G1 X118.979 Y106.612 E7.1492
G1 X119.205 Y107.285 E7.17281
G1 X119.295 Y107.61 E7.18403
G1 X119.454 Y108.346 E7.20907
G1 X119.501 Y108.645 E7.21914
G1 X119.571 Y109.316 E7.24158
G1 X119.589 Y109.651 E7.25274
G1 X119.588 Y110.386 E7.27718
G1 X119.569 Y110.715 E7.28814
G1 X119.501 Y111.351 E7.30942
G1 X119.455 Y111.646 E7.31935
G1 X119.289 Y112.412 E7.34542
G1 X119.195 Y112.747 E7.35699
G1 X118.969 Y113.412 E7.38035
G1 X118.85 Y113.71 E7.39102
G1 X118.554 Y114.351 E7.4145
G1 X118.402 Y114.638 E7.42531
G1 X118.026 Y115.262 E7.44954
G1 X117.845 Y115.528 E7.46024
G1 X117.424 Y116.081 E7.48335
G1 X117.208 Y116.336 E7.49447
G1 X116.692 Y116.88 E7.51941
G1 X116.46 Y117.098 E7.53
G1 X115.948 Y117.532 E7.55232
G1 X115.685 Y117.733 E7.56333
G1 X115.051 Y118.161 E7.58877
G1 X114.782 Y118.321 E7.59918
G1 X114.173 Y118.642 E7.62208
G1 X113.863 Y118.785 E7.63343
G1 X113.179 Y119.055 E7.65789
G1 X112.887 Y119.152 E7.66813
G1 X112.219 Y119.336 E7.69117
G1 X111.895 Y119.407 E7.7022
G1 X111.202 Y119.521 E7.72556
G1 X110.874 Y119.557 E7.73654
G1 X110.133 Y119.596 E7.76122
G1 X109.814 Y119.595 E7.77183
G1 X109.102 Y119.554 E7.79555
G1 X108.78 Y119.518 E7.80632
G1 X108.107 Y119.407 E7.82901
G1 X107.786 Y119.337 E7.83994
G1 X107.086 Y119.144 E7.86409
G1 X106.786 Y119.043 E7.87462
G1 X106.104 Y118.77 E7.89905
G1 X105.795 Y118.626 E7.91039
G1 X105.203 Y118.313 E7.93266
G1 X104.943 Y118.158 E7.94273
G1 X104.315 Y117.733 E7.96795
G1 X104.052 Y117.532 E7.97896
G1 X103.54 Y117.098 E8.00128
G1 X103.308 Y116.88 E8.01187
G1 X102.785 Y116.327 E8.03719
G1 X102.563 Y116.064 E8.04864
G1 X102.144 Y115.512 E8.07168
G1 X101.969 Y115.254 E8.08205
G1 X101.596 Y114.633 E8.10615
G1 X101.439 Y114.336 E8.11732
G1 X101.138 Y113.682 E8.14127
G1 X101.02 Y113.384 E8.15193
G1 X100.795 Y112.715 E8.1754
G1 X100.705 Y112.39 E8.18662
G1 X100.543 Y111.634 E8.21233
G1 X100.496 Y111.329 E8.2226
G1 X100.429 Y110.686 E8.2441
G1 X100.411 Y110.358 E8.25503
G1 X100.412 Y109.622 E8.27951
G1 X100.431 Y109.287 E8.29067
G1 X100.501 Y108.627 E8.31274
G1 X100.547 Y108.337 E8.32251
G1 X100.711 Y107.588 E8.34801
G1 X100.805 Y107.253 E8.35958
G1 X101.031 Y106.588 E8.38294
G1 X101.15 Y106.29 E8.39361
G1 X101.446 Y105.65 E8.41707
G1 X101.599 Y105.361 E8.42794
G1 X101.982 Y104.727 E8.45258
G1 X102.163 Y104.462 E8.46325
G1 X102.575 Y103.92 E8.4859
G1 X102.79 Y103.666 E8.49696
G1 X103.308 Y103.12 E8.522
G0 F6000 X103.582 Y103.412
G1 F600 X103.814 Y103.194 E8.53259
G1 X104.295 Y102.786 E8.55356
G1 X104.558 Y102.585 E8.56457
G1 X105.154 Y102.182 E8.5885
G1 X105.423 Y102.022 E8.59891
G1 X105.995 Y101.721 E8.62041
G1 X106.305 Y101.578 E8.63177
G1 X106.947 Y101.324 E8.65473
G1 X107.239 Y101.227 E8.66496
G1 X107.867 Y101.055 E8.68662
G1 X108.191 Y100.984 E8.69765
G1 X108.842 Y100.877 E8.71959
G1 X109.17 Y100.841 E8.73057
G1 X109.846 Y100.804 E8.75309
G1 X110.154 Y100.804 E8.76333
G1 X110.839 Y100.842 E8.78615
G1 X111.172 Y100.879 E8.79729
G1 X111.808 Y100.983 E8.81873
G1 X112.129 Y101.053 E8.82965
G1 X112.786 Y101.235 E8.85233
G1 X113.086 Y101.336 E8.86286
G1 X113.726 Y101.592 E8.88578
G1 X114.033 Y101.735 E8.89705
G1 X114.587 Y102.028 E8.91789
G1 X114.849 Y102.184 E8.92803
G1 X115.442 Y102.585 E8.95184
G1 X115.705 Y102.786 E8.96285
G1 X116.186 Y103.194 E8.98383
G1 X116.418 Y103.412 E8.99442
G1 X116.911 Y103.932 E9.01825
G1 X117.132 Y104.194 E9.02965
G1 X117.514 Y104.697 E9.05066
G1 X117.688 Y104.952 E9.06093
G1 X118.049 Y105.55 E9.08416
G1 X118.207 Y105.849 E9.09541
G1 X118.488 Y106.46 E9.11778
G1 X118.607 Y106.76 E9.12851
