;FLAVOR:Marlin
;TIME:1270
;Filament used: 0.62693m
;Layer height: 0.2
;MINX:90.572
;MINY:79.45
;MINZ:0.2
;MAXX:129.418
;MAXY:140.561
;MAXZ:4.5
;Generated with Cura_SteamEngine master
M140 S70
M105
M190 S70
M104 S200
M105
M109 S200
M82 ;absolute extrusion mode
M201 X500.00 Y500.00 Z100.00 E5000.00 ;Setup machine max acceleration
M203 X500.00 Y500.00 Z10.00 E50.00 ;Setup machine max feedrate
M204 P500.00 R1000.00 T500.00 ;Setup Print/Retract/Travel acceleration
M205 X8.00 Y8.00 Z0.40 E5.00 ;Setup Jerk
M220 S100 ;Reset Feedrate
M221 S100 ;Reset Flowrate

G28 ;Home

G92 E0 ;Reset Extruder
G1 Z2.0 F3000 ;Move Z Axis up
G1 X10.1 Y20 Z0.28 F5000.0 ;Move to start position
G1 X10.1 Y200.0 Z0.28 F1500.0 E15 ;Draw the first line
G1 X10.4 Y200.0 Z0.28 F5000.0 ;Move to side a little
G1 X10.4 Y20 Z0.28 F1500.0 E30 ;Draw the second line
G92 E0 ;Reset Extruder
G1 Z2.0 F3000 ;Move Z Axis up

G92 E0
G92 E0
G1 F2700 E-5
;LAYER_COUNT:20
;LAYER:0
M107
G1 F300 Z0.7
G0 F6000 X93.303 Y89.156 Z0.7
;TYPE:SKIRT
G1 F300 Z0.2
G1 F2700 E0
G1 F600 X93.821 Y88.633 E0.02448
G1 X94.249 Y88.265 E0.04326
G1 X94.545 Y88.029 E0.05585
G1 X95.187 Y87.569 E0.08212
G1 X95.638 Y87.3 E0.09958
G1 X96.002 Y87.099 E0.11341
G1 X96.711 Y86.753 E0.13965
G1 X97.207 Y86.561 E0.15734
G1 X97.567 Y86.436 E0.17002
G1 X97.69 Y86.081 E0.18251
G1 X97.986 Y85.349 E0.20877
G1 X98.231 Y84.867 E0.22676
G1 X98.428 Y84.51 E0.24032
G1 X98.844 Y83.839 E0.26658
G1 X99.162 Y83.411 E0.28431
G1 X99.412 Y83.098 E0.29764
G1 X99.936 Y82.507 E0.32391
G1 X100.333 Y82.129 E0.34214
G1 X100.615 Y81.879 E0.35467
G1 X101.231 Y81.386 E0.38092
G1 X101.621 Y81.123 E0.39656
G1 X101.95 Y80.915 E0.40951
G1 X102.646 Y80.523 E0.43607
G1 X103.095 Y80.316 E0.45252
G1 X103.452 Y80.165 E0.46541
G1 X104.194 Y79.895 E0.49167
G1 X104.75 Y79.746 E0.51082
G1 X105.13 Y79.659 E0.52378
G1 X106.01 Y79.51 E0.55347
G1 X106.503 Y79.47 E0.56992
G1 X106.907 Y79.45 E0.58337
G1 X107.697 Y79.45 E0.60965
G1 X108.182 Y79.491 E0.62584
G1 X108.557 Y79.534 E0.63839
G1 X109.336 Y79.663 E0.66466
G1 X109.819 Y79.785 E0.68122
G1 X110.192 Y79.892 E0.69413
G1 X110.886 Y80.127 E0.7185
G1 X111.431 Y80.364 E0.73827
G1 X111.771 Y80.527 E0.75081
G1 X112.283 Y80.796 E0.77005
G1 X112.937 Y81.214 E0.79586
G1 X113.253 Y81.439 E0.80876
G1 X113.872 Y81.929 E0.83502
G1 X114.214 Y82.247 E0.85055
G1 X114.486 Y82.516 E0.86328
G1 X115.092 Y83.189 E0.8934
G1 X115.245 Y83.391 E0.90183
G1 X116.107 Y83.58 E0.93118
G1 X117.388 Y83.955 E0.97557
G1 X118.383 Y84.321 E1.01083
G1 X119.601 Y84.866 E1.05522
G1 X120.552 Y85.374 E1.09108
G1 X121.714 Y86.101 E1.13666
G1 X122.58 Y86.729 E1.17224
G1 X123.61 Y87.59 E1.21689
G1 X124.373 Y88.321 E1.25204
G1 X125.274 Y89.31 E1.29654
G1 X125.943 Y90.155 E1.33238
G1 X126.702 Y91.263 E1.37705
G1 X127.244 Y92.183 E1.41257
G1 X127.847 Y93.389 E1.45741
G1 X128.252 Y94.358 E1.49235
G1 X128.685 Y95.627 E1.53694
G1 X128.962 Y96.671 E1.57287
G1 X129.217 Y97.995 E1.61771
G1 X129.347 Y99.065 E1.65356
G1 X129.418 Y100.429 E1.69899
G1 X129.401 Y101.49 E1.73428
G1 X129.288 Y102.828 E1.77895
G1 X129.126 Y103.884 E1.81448
G1 X128.833 Y105.186 E1.85887
G1 X128.527 Y106.211 E1.89444
G1 X128.056 Y107.468 E1.93909
G1 X127.616 Y108.437 E1.97449
G1 X126.973 Y109.628 E2.0195
G1 X126.4 Y110.533 E2.05513
G1 X125.607 Y111.615 E2.09975
G1 X124.917 Y112.433 E2.13534
G1 X123.971 Y113.409 E2.18055
G1 X123.18 Y114.121 E2.21595
G1 X122.704 Y114.494 E2.23606
G1 X122.704 Y129.678 E2.74108
G1 X122.678 Y130.313 E2.76222
G1 X122.638 Y130.803 E2.77857
G1 X122.534 Y131.585 E2.80481
G1 X122.431 Y132.06 E2.82098
G1 X122.306 Y132.56 E2.83812
G1 X122.076 Y133.315 E2.86437
G1 X121.887 Y133.79 E2.88137
G1 X121.683 Y134.257 E2.89832
G1 X121.33 Y134.964 E2.92461
G1 X121.064 Y135.403 E2.94168
G1 X120.779 Y135.839 E2.959
G1 X120.314 Y136.477 E2.98526
G1 X120.008 Y136.833 E3.00087
G1 X119.669 Y137.204 E3.01759
G1 X119.205 Y137.671 E3.03948
G1 X118.691 Y138.108 E3.06192
G1 X118.297 Y138.415 E3.07854
G1 X117.65 Y138.868 E3.10481
G1 X117.242 Y139.107 E3.12053
G1 X116.788 Y139.355 E3.13774
G1 X116.108 Y139.685 E3.16288
G1 X115.549 Y139.9 E3.1828
G1 X115.082 Y140.059 E3.19921
G1 X114.563 Y140.216 E3.21724
G1 X113.828 Y140.374 E3.24225
G1 X113.333 Y140.456 E3.25893
G1 X112.548 Y140.546 E3.28522
G1 X112.058 Y140.561 E3.30152
G1 X111.533 Y140.561 E3.31898
G1 X110.744 Y140.521 E3.34526
G1 X110.24 Y140.453 E3.36217
G1 X109.752 Y140.371 E3.37863
G1 X109.02 Y140.212 E3.40355
G1 X108.512 Y140.057 E3.42121
G1 X108.043 Y139.897 E3.43769
G1 X107.309 Y139.605 E3.46397
G1 X106.859 Y139.38 E3.4807
G1 X106.401 Y139.133 E3.49801
G1 X105.725 Y138.724 E3.52429
G1 X105.311 Y138.422 E3.54133
G1 X104.909 Y138.109 E3.55828
G1 X104.379 Y137.658 E3.58142
G1 X103.93 Y137.205 E3.60264
G1 X103.589 Y136.832 E3.61944
G1 X103.087 Y136.223 E3.64569
G1 X102.812 Y135.829 E3.66168
G1 X102.529 Y135.395 E3.67891
G1 X102.132 Y134.713 E3.70515
G1 X101.915 Y134.257 E3.72195
G1 X101.711 Y133.79 E3.7389
G1 X101.432 Y133.052 E3.76514
G1 X101.292 Y132.56 E3.78216
G1 X101.167 Y132.06 E3.7993
G1 X101.014 Y131.285 E3.82557
G1 X100.96 Y130.805 E3.84164
G1 X100.92 Y130.317 E3.85792
G1 X100.894 Y129.68 E3.87913
G1 X100.894 Y119.686 E4.21153
G1 X100.831 Y119.64 E4.21412
G1 X100.475 Y119.331 E4.2298
G1 X100.188 Y119.066 E4.24279
G1 X99.718 Y118.594 E4.26495
G1 X99.296 Y118.092 E4.28676
G1 X99.065 Y117.793 E4.29933
G1 X98.614 Y117.144 E4.32561
G1 X98.352 Y116.69 E4.34305
G1 X98.163 Y116.335 E4.35643
G1 X97.828 Y115.62 E4.38269
G1 X97.648 Y115.136 E4.39986
G1 X97.569 Y114.9 E4.40814
G1 X97.2 Y114.771 E4.42114
G1 X96.468 Y114.474 E4.44741
G1 X96.009 Y114.24 E4.46455
G1 X95.667 Y114.052 E4.47753
G1 X95.192 Y113.769 E4.49592
G1 X94.532 Y113.295 E4.52295
G1 X94.235 Y113.057 E4.53561
G1 X93.809 Y112.689 E4.55433
G1 X93.303 Y112.177 E4.57827
G1 X93.05 Y111.896 E4.59085
G1 X92.552 Y111.283 E4.61712
G1 X92.248 Y110.836 E4.6351
G1 X92.04 Y110.506 E4.64807
G1 X91.654 Y109.818 E4.67431
G1 X91.457 Y109.389 E4.69001
G1 X91.299 Y109.016 E4.70348
G1 X91.028 Y108.275 E4.72973
G1 X90.879 Y107.719 E4.74887
G1 X90.792 Y107.34 E4.7618
G1 X90.642 Y106.456 E4.79163
G1 X90.603 Y105.984 E4.80738
G1 X90.582 Y105.582 E4.82077
G1 X90.58 Y104.792 E4.84704
G1 X90.619 Y104.311 E4.86309
G1 X90.661 Y103.934 E4.87571
G1 X90.788 Y103.155 E4.90196
G1 X90.915 Y102.647 E4.91938
G1 X91.022 Y102.274 E4.93228
G1 X91.278 Y101.527 E4.95855
G1 X91.491 Y101.043 E4.97614
G1 X91.672 Y100.667 E4.99002
G1 X91.658 Y100.641 E4.991
G1 X91.494 Y100.299 E5.00361
G1 X91.218 Y99.649 E5.0271
G1 X91.029 Y99.08 E5.04704
G1 X90.923 Y98.714 E5.05972
G1 X90.742 Y97.945 E5.08599
G1 X90.665 Y97.423 E5.10354
G1 X90.621 Y97.035 E5.11653
G1 X90.572 Y96.247 E5.14279
G1 X90.58 Y95.774 E5.15852
G1 X90.603 Y95.318 E5.17371
G1 X90.687 Y94.533 E5.19997
G1 X90.795 Y93.979 E5.21874
G1 X90.886 Y93.589 E5.23206
G1 X91.104 Y92.83 E5.25832
G1 X91.274 Y92.381 E5.27429
G1 X91.422 Y92.023 E5.28718
G1 X91.76 Y91.309 E5.31345
G1 X91.999 Y90.896 E5.32932
G1 X92.204 Y90.565 E5.34227
G1 X92.498 Y90.124 E5.3599
G1 X93.049 Y89.438 E5.38917
G1 X93.303 Y89.156 E5.40179
G0 F6000 X93.601 Y89.424
G1 F600 X94.093 Y88.926 E5.42507
G1 X94.499 Y88.578 E5.44286
G1 X94.795 Y88.342 E5.45545
G1 X95.42 Y87.894 E5.48102
G1 X95.831 Y87.65 E5.49692
G1 X96.195 Y87.449 E5.51075
G1 X96.887 Y87.113 E5.53634
G1 X97.339 Y86.939 E5.55245
G1 X97.698 Y86.814 E5.56509
G1 X97.886 Y86.756 E5.57163
G1 X97.938 Y86.587 E5.57752
G1 X98.068 Y86.212 E5.59072
G1 X98.358 Y85.5 E5.61629
G1 X98.581 Y85.061 E5.63266
G1 X98.778 Y84.704 E5.64622
G1 X99.184 Y84.051 E5.6718
G1 X99.475 Y83.661 E5.68798
G1 X99.725 Y83.348 E5.70131
G1 X100.236 Y82.773 E5.72689
G1 X100.598 Y82.429 E5.7435
G1 X100.88 Y82.179 E5.75604
G1 X101.481 Y81.699 E5.78162
G1 X101.835 Y81.461 E5.79581
G1 X102.164 Y81.253 E5.80875
G1 X102.825 Y80.881 E5.83398
G1 X103.251 Y80.685 E5.84958
G1 X103.608 Y80.534 E5.86247
G1 X104.331 Y80.271 E5.88806
G1 X104.84 Y80.136 E5.90557
G1 X105.22 Y80.049 E5.91854
G1 X106.054 Y79.907 E5.94668
G1 X106.523 Y79.869 E5.96233
G1 X106.927 Y79.849 E5.97578
G1 X107.696 Y79.851 E6.00136
G1 X108.136 Y79.888 E6.01604
G1 X108.511 Y79.931 E6.0286
G1 X109.27 Y80.058 E6.05419
G1 X109.708 Y80.17 E6.06923
G1 X110.081 Y80.277 E6.08214
G1 X110.741 Y80.5 E6.10531
G1 X111.258 Y80.724 E6.12405
G1 X111.598 Y80.887 E6.13659
G1 X112.084 Y81.143 E6.15486
G1 X112.705 Y81.54 E6.17937
G1 X113.021 Y81.765 E6.19227
G1 X113.624 Y82.243 E6.21787
G1 X113.932 Y82.531 E6.23189
G1 X114.204 Y82.8 E6.24462
G1 X114.779 Y83.439 E6.27321
G1 X115.014 Y83.749 E6.28615
G1 X115.995 Y83.964 E6.31955
G1 X117.276 Y84.339 E6.36394
G1 X118.219 Y84.686 E6.39736
G1 X119.437 Y85.231 E6.44174
G1 X120.34 Y85.713 E6.47579
G1 X121.502 Y86.44 E6.52138
G1 X122.323 Y87.035 E6.5551
G1 X123.353 Y87.896 E6.59975
G1 X124.077 Y88.59 E6.63311
G1 X124.978 Y89.579 E6.67761
G1 X125.613 Y90.381 E6.71163
G1 X126.372 Y91.489 E6.7563
G1 X126.886 Y92.362 E6.78999
G1 X127.489 Y93.568 E6.83484
G1 X127.874 Y94.487 E6.86798
G1 X128.307 Y95.756 E6.91258
G1 X128.569 Y96.746 E6.94664
G1 X128.824 Y98.07 E6.99148
G1 X128.948 Y99.085 E7.02549
G1 X129.019 Y100.449 E7.07092
G1 X129.003 Y101.457 E7.10445
G1 X128.89 Y102.795 E7.14911
G1 X128.735 Y103.797 E7.18284
G1 X128.442 Y105.099 E7.22722
G1 X128.153 Y106.071 E7.26095
G1 X127.682 Y107.328 E7.3056
G1 X127.264 Y108.247 E7.33918
G1 X126.621 Y109.438 E7.38419
G1 X126.078 Y110.296 E7.41797
G1 X125.285 Y111.378 E7.46258
G1 X124.63 Y112.154 E7.49636
G1 X123.684 Y113.13 E7.54157
G1 X122.933 Y113.806 E7.57517
G1 X122.304 Y114.299 E7.60176
G1 X122.304 Y129.678 E8.11326
G1 X122.279 Y130.28 E8.1333
G1 X122.239 Y130.77 E8.14965
G1 X122.137 Y131.532 E8.17523
G1 X122.043 Y131.963 E8.1899
G1 X121.918 Y132.463 E8.20704
G1 X121.693 Y133.198 E8.23261
G1 X121.52 Y133.63 E8.24808
G1 X121.316 Y134.097 E8.26503
G1 X120.972 Y134.785 E8.29062
G1 X120.729 Y135.184 E8.30615
G1 X120.444 Y135.62 E8.32348
G1 X119.99 Y136.241 E8.34907
G1 X119.713 Y136.563 E8.36319
G1 X119.374 Y136.934 E8.37991
G1 X118.932 Y137.378 E8.40074
G1 X118.445 Y137.792 E8.422
G1 X118.051 Y138.099 E8.43862
G1 X117.421 Y138.54 E8.46419
G1 X117.051 Y138.756 E8.47844
G1 X116.597 Y139.004 E8.49565
G1 X115.95 Y139.318 E8.51957
G1 X115.42 Y139.521 E8.53845
G1 X114.953 Y139.68 E8.55486
G1 X114.46 Y139.829 E8.57199
G1 X113.762 Y139.98 E8.59574
G1 X113.267 Y140.062 E8.61243
G1 X112.503 Y140.148 E8.638
G1 X112.058 Y140.161 E8.6528
G1 X111.533 Y140.161 E8.67027
G1 X110.765 Y140.121 E8.69584
G1 X110.307 Y140.059 E8.71122
G1 X109.819 Y139.977 E8.72767
G1 X109.123 Y139.825 E8.75137
G1 X108.641 Y139.679 E8.76812
G1 X108.172 Y139.519 E8.7846
G1 X107.458 Y139.233 E8.81018
G1 X107.048 Y139.028 E8.82543
G1 X106.59 Y138.781 E8.84274
G1 X105.933 Y138.381 E8.86832
G1 X105.557 Y138.107 E8.88379
G1 X105.155 Y137.794 E8.90074
G1 X104.652 Y137.365 E8.92273
G1 X104.225 Y136.935 E8.94288
G1 X103.884 Y136.562 E8.95969
G1 X103.396 Y135.968 E8.98526
G1 X103.147 Y135.611 E8.99974
G1 X102.864 Y135.177 E9.01697
G1 X102.478 Y134.512 E9.04254
G1 X102.282 Y134.097 E9.05781
G1 X102.078 Y133.63 E9.07476
G1 X101.807 Y132.91 E9.10035
G1 X101.68 Y132.463 E9.1158
G1 X101.555 Y131.963 E9.13294
G1 X101.407 Y131.208 E9.15853
G1 X101.359 Y130.773 E9.17309
G1 X101.319 Y130.285 E9.18938
G1 X101.294 Y129.68 E9.20951
G1 X101.294 Y119.484 E9.54864
G1 X101.069 Y119.318 E9.55794
G1 X100.746 Y119.037 E9.57217
G1 X100.459 Y118.772 E9.58517
G1 X100.013 Y118.323 E9.60622
G1 X99.612 Y117.847 E9.62692
G1 X99.381 Y117.548 E9.63948
G1 X98.943 Y116.916 E9.66506
G1 X98.705 Y116.502 E9.68094
G1 X98.516 Y116.147 E9.69432
G1 X98.19 Y115.45 E9.71991
G1 X98.028 Y115.009 E9.73554
G1 X97.904 Y114.637 E9.74858
G1 X97.888 Y114.58 E9.75055
G1 X97.707 Y114.524 E9.75685
G1 X97.331 Y114.393 E9.77009
G1 X96.619 Y114.103 E9.79566
G1 X96.201 Y113.89 E9.81127
G1 X95.859 Y113.702 E9.82425
G1 X95.408 Y113.433 E9.84171
G1 X94.783 Y112.983 E9.86733
G1 X94.486 Y112.745 E9.87999
G1 X94.081 Y112.396 E9.89777
G1 X93.601 Y111.909 E9.92051
G1 X93.348 Y111.628 E9.93309
G1 X92.863 Y111.031 E9.95867
G1 X92.587 Y110.623 E9.97505
G1 X92.379 Y110.293 E9.98803
G1 X92.003 Y109.622 E10.01361
G1 X91.825 Y109.233 E10.02784
G1 X91.667 Y108.86 E10.04131
G1 X91.404 Y108.137 E10.0669
G1 X91.269 Y107.63 E10.08435
G1 X91.182 Y107.251 E10.09729
G1 X91.039 Y106.412 E10.12559
G1 X91.002 Y105.963 E10.14058
G1 X90.981 Y105.561 E10.15397
G1 X90.981 Y104.792 E10.17954
G1 X91.016 Y104.356 E10.19409
G1 X91.058 Y103.979 E10.20671
G1 X91.183 Y103.22 E10.23229
G1 X91.3 Y102.758 E10.24814
G1 X91.407 Y102.385 E10.26105
G1 X91.657 Y101.657 E10.28665
G1 X91.852 Y101.216 E10.30269
G1 X92.031 Y100.844 E10.31642
G1 X92.126 Y100.671 E10.32298
G1 X92.019 Y100.468 E10.33062
G1 X91.855 Y100.126 E10.34323
G1 X91.592 Y99.508 E10.36557
G1 X91.413 Y98.969 E10.38446
G1 X91.307 Y98.603 E10.39713
G1 X91.132 Y97.854 E10.42272
G1 X91.062 Y97.378 E10.43872
G1 X91.018 Y96.99 E10.45171
G1 X90.971 Y96.222 E10.4773
G1 X90.98 Y95.793 E10.49157
G1 X91.002 Y95.341 E10.50662
G1 X91.085 Y94.576 E10.53221
G1 X91.185 Y94.07 E10.54937
G1 X91.276 Y93.68 E10.56269
G1 X91.489 Y92.941 E10.58827
G1 X91.643 Y92.534 E10.60274
G1 X91.791 Y92.176 E10.61563
G1 X92.122 Y91.481 E10.64123
G1 X92.339 Y91.107 E10.65561
G1 X92.544 Y90.776 E10.66856
G1 X92.823 Y90.357 E10.6853
G1 X93.347 Y89.706 E10.7131
G1 X93.601 Y89.424 E10.72572
G0 F6000 X93.898 Y89.691
G1 F600 X94.364 Y89.22 E10.74776
G1 X94.748 Y88.891 E10.76458
G1 X95.044 Y88.655 E10.77717
G1 X95.653 Y88.22 E10.80206
G1 X96.024 Y88 E10.81641
G1 X96.388 Y87.799 E10.83024
G1 X97.061 Y87.473 E10.85511
G1 X97.47 Y87.316 E10.86968
G1 X97.829 Y87.191 E10.88232
G1 X98.206 Y87.075 E10.89544
G1 X98.316 Y86.718 E10.90787
G1 X98.446 Y86.343 E10.92107
G1 X98.729 Y85.651 E10.94593
G1 X98.931 Y85.254 E10.96075
G1 X99.128 Y84.897 E10.97431
G1 X99.524 Y84.262 E10.9992
G1 X99.788 Y83.91 E11.01384
G1 X100.038 Y83.597 E11.02716
G1 X100.535 Y83.039 E11.05201
G1 X100.863 Y82.728 E11.06705
G1 X101.145 Y82.478 E11.07958
G1 X101.731 Y82.012 E11.10448
G1 X102.048 Y81.799 E11.11719
G1 X102.377 Y81.591 E11.13013
G1 X103.004 Y81.239 E11.15405
G1 X103.407 Y81.053 E11.16881
G1 X103.764 Y80.902 E11.1817
G1 X104.468 Y80.648 E11.2066
G1 X104.929 Y80.526 E11.22246
G1 X105.309 Y80.439 E11.23542
G1 X106.098 Y80.305 E11.26204
G1 X106.543 Y80.269 E11.27689
G1 X106.947 Y80.249 E11.29034
G1 X107.695 Y80.252 E11.31522
G1 X108.09 Y80.286 E11.32841
G1 X108.465 Y80.329 E11.34096
G1 X109.203 Y80.453 E11.36585
G1 X109.598 Y80.554 E11.37941
G1 X109.971 Y80.661 E11.39232
G1 X110.596 Y80.873 E11.41427
G1 X111.085 Y81.085 E11.432
G1 X111.425 Y81.248 E11.44454
G1 X111.886 Y81.49 E11.46185
G1 X112.473 Y81.866 E11.48504
G1 X112.789 Y82.091 E11.49794
G1 X113.374 Y82.557 E11.52282
G1 X113.651 Y82.816 E11.53543
G1 X113.923 Y83.085 E11.54816
G1 X114.467 Y83.689 E11.57519
G1 X114.712 Y84.012 E11.58867
G1 X114.788 Y84.118 E11.59301
G1 X114.947 Y84.142 E11.59836
G1 X115.883 Y84.348 E11.63024
G1 X117.164 Y84.723 E11.67463
G1 X118.056 Y85.051 E11.70624
G1 X119.274 Y85.596 E11.75062
G1 X120.128 Y86.052 E11.78282
G1 X121.29 Y86.779 E11.82841
G1 X122.066 Y87.342 E11.8603
G1 X123.096 Y88.203 E11.90495
G1 X123.782 Y88.86 E11.93654
G1 X124.683 Y89.849 E11.98104
G1 X125.283 Y90.607 E12.01319
G1 X126.042 Y91.715 E12.05786
G1 X126.528 Y92.541 E12.08974
G1 X127.131 Y93.747 E12.13459
G1 X127.495 Y94.616 E12.16592
G1 X127.928 Y95.885 E12.21052
G1 X128.177 Y96.822 E12.24277
G1 X128.432 Y98.146 E12.28761
G1 X128.549 Y99.106 E12.31978
G1 X128.62 Y100.47 E12.36521
G1 X128.604 Y101.423 E12.39691
G1 X128.491 Y102.761 E12.44157
G1 X128.345 Y103.709 E12.47347
G1 X128.052 Y105.011 E12.51786
G1 X127.778 Y105.93 E12.54975
G1 X127.307 Y107.187 E12.5944
G1 X126.912 Y108.056 E12.62615
G1 X126.269 Y109.247 E12.67117
G1 X125.755 Y110.06 E12.70316
G1 X124.962 Y111.142 E12.74777
G1 X124.342 Y111.876 E12.77973
G1 X123.396 Y112.852 E12.82494
G1 X122.686 Y113.491 E12.85671
G1 X121.904 Y114.104 E12.88976
G1 X121.904 Y129.678 E13.40775
G1 X121.881 Y130.248 E13.42672
G1 X121.841 Y130.738 E13.44308
G1 X121.74 Y131.479 E13.46795
G1 X121.655 Y131.866 E13.48113
G1 X121.53 Y132.366 E13.49827
G1 X121.31 Y133.081 E13.52315
