;FLAVOR:Marlin
;TIME:1332
;Filament used: 0.713253m
;Layer height: 0.2
;MINX:82.45
;MINY:92.2
;MINZ:0.2
;MAXX:137.55
;MAXY:127.8
;MAXZ:4.5
;Generated with Cura_SteamEngine master
M140 S70
M105
M190 S70
M104 S200
M105
M109 S200
M82 ;absolute extrusion mode
M201 X500.00 Y500.00 Z100.00 E5000.00 ;Setup machine max acceleration
M203 X500.00 Y500.00 Z10.00 E50.00 ;Setup machine max feedrate
M204 P500.00 R1000.00 T500.00 ;Setup Print/Retract/Travel acceleration
M205 X8.00 Y8.00 Z0.40 E5.00 ;Setup Jerk
M220 S100 ;Reset Feedrate
M221 S100 ;Reset Flowrate

G28 ;Home

G92 E0 ;Reset Extruder
G1 Z2.0 F3000 ;Move Z Axis up
G1 X10.1 Y20 Z0.28 F5000.0 ;Move to start position
G1 X10.1 Y200.0 Z0.28 F1500.0 E15 ;Draw the first line
G1 X10.4 Y200.0 Z0.28 F5000.0 ;Move to side a little
G1 X10.4 Y20 Z0.28 F1500.0 E30 ;Draw the second line
G92 E0 ;Reset Extruder
G1 Z2.0 F3000 ;Move Z Axis up

G92 E0
G92 E0
G1 F2700 E-5
;LAYER_COUNT:20
;LAYER:0
M107
G1 F300 Z0.7
G0 F6000 X92.704 Y94.515 Z0.7
;TYPE:SKIRT
G1 F300 Z0.2
G1 F2700 E0
G1 F600 X93.29 Y93.985 E0.02628
G1 X93.926 Y93.518 E0.05252
G1 X94.606 Y93.117 E0.07878
G1 X95.219 Y92.83 E0.10129
G1 X95.291 Y92.8 E0.10389
G1 X96.034 Y92.534 E0.13013
G1 X96.801 Y92.344 E0.15642
G1 X97.583 Y92.232 E0.18269
G1 X98.291 Y92.2 E0.20626
G1 X121.709 Y92.2 E0.98515
G1 X122.498 Y92.24 E1.01143
G1 X123.278 Y92.359 E1.03767
G1 X124.043 Y92.557 E1.06395
G1 X124.709 Y92.8 E1.08753
G1 X124.781 Y92.83 E1.09012
G1 X125.494 Y93.17 E1.1164
G1 X126.168 Y93.581 E1.14265
G1 X126.798 Y94.057 E1.16892
G1 X127.296 Y94.515 E1.19142
G1 X135.235 Y102.454 E1.56485
G1 X135.765 Y103.04 E1.59113
G1 X136.232 Y103.676 E1.61737
G1 X136.633 Y104.356 E1.64363
G1 X136.92 Y104.969 E1.66614
G1 X136.95 Y105.041 E1.66873
G1 X137.216 Y105.784 E1.69498
G1 X137.406 Y106.551 E1.72126
G1 X137.518 Y107.333 E1.74754
G1 X137.55 Y108.041 E1.77111
G1 X137.55 Y111.959 E1.90142
G1 X137.51 Y112.748 E1.9277
G1 X137.391 Y113.528 E1.95394
G1 X137.193 Y114.293 E1.98022
G1 X136.95 Y114.959 E2.0038
G1 X136.92 Y115.031 E2.0064
G1 X136.58 Y115.744 E2.03267
G1 X136.169 Y116.418 E2.05893
G1 X135.693 Y117.048 E2.08519
G1 X135.235 Y117.546 E2.10769
G1 X127.296 Y125.485 E2.48112
G1 X126.71 Y126.015 E2.5074
G1 X126.074 Y126.482 E2.53364
G1 X125.394 Y126.883 E2.5599
G1 X124.781 Y127.17 E2.58241
G1 X124.709 Y127.2 E2.58501
G1 X123.966 Y127.466 E2.61125
G1 X123.199 Y127.656 E2.63754
G1 X122.417 Y127.768 E2.66381
G1 X121.709 Y127.8 E2.68738
G1 X98.291 Y127.8 E3.46627
G1 X97.502 Y127.76 E3.49254
G1 X96.722 Y127.641 E3.51879
G1 X95.957 Y127.443 E3.54507
G1 X95.291 Y127.2 E3.56865
G1 X95.219 Y127.17 E3.57124
G1 X94.506 Y126.83 E3.59752
G1 X93.832 Y126.419 E3.62377
G1 X93.202 Y125.943 E3.65004
G1 X92.704 Y125.485 E3.67254
G1 X84.765 Y117.546 E4.04596
G1 X84.235 Y116.96 E4.07224
G1 X83.768 Y116.324 E4.09849
G1 X83.367 Y115.644 E4.12474
G1 X83.08 Y115.031 E4.14726
G1 X83.05 Y114.959 E4.14985
G1 X82.784 Y114.216 E4.1761
G1 X82.594 Y113.449 E4.20238
G1 X82.482 Y112.667 E4.22866
G1 X82.45 Y111.959 E4.25223
G1 X82.45 Y108.041 E4.38254
G1 X82.49 Y107.252 E4.40882
G1 X82.609 Y106.472 E4.43506
G1 X82.807 Y105.707 E4.46134
G1 X83.05 Y105.041 E4.48492
G1 X83.08 Y104.969 E4.48752
G1 X83.42 Y104.256 E4.51379
G1 X83.831 Y103.582 E4.54005
G1 X84.307 Y102.952 E4.56631
G1 X84.765 Y102.454 E4.58881
G1 X92.704 Y94.515 E4.96224
G0 F6000 X92.986 Y94.797
G1 F600 X93.558 Y94.283 E4.98782
G1 X94.18 Y93.83 E5.01341
G1 X94.845 Y93.444 E5.03898
G1 X95.373 Y93.199 E5.05834
G1 X95.445 Y93.169 E5.06094
G1 X96.169 Y92.911 E5.0865
G1 X96.917 Y92.729 E5.1121
G1 X97.679 Y92.625 E5.13768
G1 X98.291 Y92.6 E5.15806
G1 X121.709 Y92.6 E5.93694
G1 X122.477 Y92.64 E5.96252
G1 X123.237 Y92.759 E5.98811
G1 X123.98 Y92.957 E6.01368
G1 X124.555 Y93.169 E6.03406
G1 X124.627 Y93.199 E6.03666
G1 X125.321 Y93.532 E6.06226
G1 X125.976 Y93.934 E6.08782
G1 X126.586 Y94.402 E6.11339
G1 X127.014 Y94.797 E6.13276
G1 X134.953 Y102.736 E6.50619
G1 X135.467 Y103.308 E6.53177
G1 X135.92 Y103.93 E6.55736
G1 X136.306 Y104.595 E6.58293
G1 X136.551 Y105.123 E6.60229
G1 X136.581 Y105.195 E6.60489
G1 X136.839 Y105.919 E6.63045
G1 X137.021 Y106.667 E6.65606
G1 X137.125 Y107.429 E6.68164
G1 X137.15 Y108.041 E6.70201
G1 X137.15 Y111.959 E6.83232
G1 X137.11 Y112.727 E6.8579
G1 X136.991 Y113.487 E6.88349
G1 X136.793 Y114.23 E6.90906
G1 X136.581 Y114.805 E6.92944
G1 X136.551 Y114.877 E6.93204
G1 X136.218 Y115.571 E6.95764
G1 X135.816 Y116.226 E6.9832
G1 X135.348 Y116.836 E7.00877
G1 X134.953 Y117.264 E7.02814
G1 X127.014 Y125.203 E7.40157
G1 X126.442 Y125.717 E7.42715
G1 X125.82 Y126.17 E7.45274
G1 X125.155 Y126.556 E7.47831
G1 X124.627 Y126.801 E7.49767
G1 X124.555 Y126.831 E7.50027
G1 X123.831 Y127.089 E7.52583
G1 X123.083 Y127.271 E7.55144
G1 X122.321 Y127.375 E7.57702
G1 X121.709 Y127.4 E7.59739
G1 X98.291 Y127.4 E8.37627
G1 X97.523 Y127.36 E8.40185
G1 X96.763 Y127.241 E8.42744
G1 X96.02 Y127.043 E8.45301
G1 X95.445 Y126.831 E8.4734
G1 X95.373 Y126.801 E8.47599
G1 X94.679 Y126.468 E8.50159
G1 X94.024 Y126.066 E8.52715
G1 X93.414 Y125.598 E8.55273
G1 X92.986 Y125.203 E8.5721
G1 X85.047 Y117.264 E8.94552
G1 X84.533 Y116.692 E8.9711
G1 X84.08 Y116.07 E8.99669
G1 X83.694 Y115.405 E9.02227
G1 X83.449 Y114.877 E9.04163
G1 X83.419 Y114.805 E9.04422
G1 X83.161 Y114.081 E9.06979
G1 X82.979 Y113.333 E9.09539
G1 X82.875 Y112.571 E9.12097
G1 X82.85 Y111.959 E9.14134
G1 X82.85 Y108.041 E9.27165
G1 X82.89 Y107.273 E9.29723
G1 X83.009 Y106.513 E9.32282
G1 X83.207 Y105.77 E9.34839
G1 X83.419 Y105.195 E9.36878
G1 X83.449 Y105.123 E9.37137
G1 X83.782 Y104.429 E9.39697
G1 X84.184 Y103.774 E9.42253
G1 X84.652 Y103.164 E9.44811
G1 X85.047 Y102.736 E9.46748
G1 X92.986 Y94.797 E9.8409
G0 F6000 X93.269 Y95.08
G1 F600 X93.826 Y94.58 E9.8658
G1 X94.432 Y94.143 E9.89065
G1 X95.082 Y93.772 E9.91554
G1 X95.527 Y93.568 E9.93182
G1 X95.599 Y93.538 E9.93442
G1 X96.304 Y93.288 E9.9593
G1 X97.031 Y93.114 E9.98416
G1 X97.773 Y93.019 E10.00904
G1 X98.291 Y93 E10.02628
G1 X121.709 Y93 E10.80517
G1 X122.456 Y93.04 E10.83005
G1 X123.194 Y93.159 E10.85491
G1 X123.916 Y93.357 E10.87981
G1 X124.401 Y93.538 E10.89703
G1 X124.473 Y93.568 E10.89962
G1 X125.147 Y93.893 E10.92451
G1 X125.783 Y94.287 E10.94939
G1 X126.373 Y94.747 E10.97428
G1 X126.731 Y95.08 E10.99054
G1 X134.67 Y103.019 E11.36396
G1 X135.17 Y103.576 E11.38886
G1 X135.607 Y104.182 E11.41371
G1 X135.978 Y104.832 E11.4386
G1 X136.182 Y105.277 E11.45488
G1 X136.212 Y105.349 E11.45748
G1 X136.462 Y106.054 E11.48236
G1 X136.636 Y106.781 E11.50722
G1 X136.731 Y107.523 E11.5321
G1 X136.75 Y108.041 E11.54934
G1 X136.75 Y111.959 E11.67965
G1 X136.71 Y112.706 E11.70454
G1 X136.591 Y113.444 E11.7294
G1 X136.393 Y114.166 E11.7543
G1 X136.212 Y114.651 E11.77152
G1 X136.182 Y114.723 E11.77411
G1 X135.857 Y115.397 E11.799
G1 X135.463 Y116.033 E11.82388
G1 X135.003 Y116.623 E11.84876
G1 X134.67 Y116.981 E11.86503
G1 X126.731 Y124.92 E12.23845
G1 X126.174 Y125.42 E12.26335
G1 X125.568 Y125.857 E12.2882
G1 X124.918 Y126.228 E12.31309
G1 X124.473 Y126.432 E12.32937
G1 X124.401 Y126.462 E12.33197
G1 X123.696 Y126.712 E12.35685
G1 X122.969 Y126.886 E12.38171
G1 X122.227 Y126.981 E12.40659
G1 X121.709 Y127 E12.42383
G1 X98.291 Y127 E13.20272
G1 X97.544 Y126.96 E13.2276
G1 X96.806 Y126.841 E13.25246
G1 X96.084 Y126.643 E13.27736
G1 X95.599 Y126.462 E13.29458
G1 X95.527 Y126.432 E13.29717
G1 X94.853 Y126.107 E13.32206
G1 X94.217 Y125.713 E13.34694
G1 X93.627 Y125.253 E13.37183
G1 X93.269 Y124.92 E13.38809
G1 X85.33 Y116.981 E13.76151
G1 X84.83 Y116.424 E13.78641
G1 X84.393 Y115.818 E13.81126
G1 X84.022 Y115.168 E13.83615
G1 X83.818 Y114.723 E13.85243
G1 X83.788 Y114.651 E13.85503
G1 X83.538 Y113.946 E13.87991
G1 X83.364 Y113.219 E13.90477
G1 X83.269 Y112.477 E13.92965
G1 X83.25 Y111.959 E13.94689
G1 X83.25 Y108.041 E14.0772
G1 X83.29 Y107.294 E14.10208
G1 X83.409 Y106.556 E14.12695
G1 X83.607 Y105.834 E14.15185
G1 X83.788 Y105.349 E14.16907
G1 X83.818 Y105.277 E14.17166
G1 X84.143 Y104.603 E14.19655
G1 X84.537 Y103.967 E14.22143
G1 X84.997 Y103.377 E14.24631
G1 X85.33 Y103.019 E14.26258
G1 X93.269 Y95.08 E14.636
G0 F6000 X93.552 Y95.363
G1 F600 X94.093 Y94.879 E14.66015
G1 X94.684 Y94.456 E14.68432
G1 X95.318 Y94.102 E14.70847
G1 X95.681 Y93.938 E14.72172
G1 X95.753 Y93.908 E14.72431
G1 X96.437 Y93.666 E14.74844
G1 X97.145 Y93.5 E14.77263
G1 X97.866 Y93.414 E14.79678
G1 X98.291 Y93.4 E14.81093
G1 X121.709 Y93.4 E15.58981
G1 X122.434 Y93.44 E15.61396
G1 X123.151 Y93.559 E15.63814
G1 X123.85 Y93.757 E15.6623
G1 X124.247 Y93.908 E15.67643
G1 X124.319 Y93.938 E15.67902
G1 X124.974 Y94.254 E15.70321
G1 X125.589 Y94.639 E15.72734
G1 X126.158 Y95.09 E15.75149
G1 X126.448 Y95.363 E15.76474
G1 X134.387 Y103.302 E16.13816
G1 X134.871 Y103.843 E16.16231
G1 X135.294 Y104.434 E16.18648
G1 X135.648 Y105.068 E16.21063
G1 X135.812 Y105.431 E16.22388
G1 X135.842 Y105.503 E16.22647
G1 X136.084 Y106.187 E16.25061
G1 X136.25 Y106.895 E16.27479
G1 X136.336 Y107.616 E16.29894
G1 X136.35 Y108.041 E16.31309
G1 X136.35 Y111.959 E16.4434
G1 X136.31 Y112.684 E16.46755
G1 X136.191 Y113.401 E16.49172
G1 X135.993 Y114.1 E16.51589
G1 X135.842 Y114.497 E16.53001
G1 X135.812 Y114.569 E16.53261
G1 X135.496 Y115.224 E16.5568
G1 X135.111 Y115.839 E16.58093
G1 X134.66 Y116.408 E16.60508
G1 X134.387 Y116.698 E16.61832
G1 X126.448 Y124.637 E16.99175
G1 X125.907 Y125.121 E17.01589
G1 X125.316 Y125.544 E17.04007
G1 X124.682 Y125.898 E17.06422
G1 X124.319 Y126.062 E17.07747
G1 X124.247 Y126.092 E17.08006
G1 X123.563 Y126.334 E17.10419
G1 X122.855 Y126.5 E17.12838
G1 X122.134 Y126.586 E17.15253
G1 X121.709 Y126.6 E17.16667
G1 X98.291 Y126.6 E17.94556
G1 X97.566 Y126.56 E17.96971
G1 X96.849 Y126.441 E17.99388
G1 X96.15 Y126.243 E18.01805
G1 X95.753 Y126.092 E18.03217
G1 X95.681 Y126.062 E18.03477
G1 X95.026 Y125.746 E18.05896
G1 X94.411 Y125.361 E18.08309
G1 X93.842 Y124.91 E18.10724
G1 X93.552 Y124.637 E18.12049
G1 X85.613 Y116.698 E18.49391
G1 X85.129 Y116.157 E18.51805
G1 X84.706 Y115.566 E18.54223
G1 X84.352 Y114.932 E18.56638
G1 X84.188 Y114.569 E18.57963
G1 X84.158 Y114.497 E18.58222
G1 X83.916 Y113.813 E18.60635
G1 X83.75 Y113.105 E18.63054
G1 X83.664 Y112.384 E18.65469
G1 X83.65 Y111.959 E18.66883
G1 X83.65 Y108.041 E18.79915
G1 X83.69 Y107.316 E18.8233
G1 X83.809 Y106.599 E18.84747
G1 X84.007 Y105.9 E18.87163
G1 X84.158 Y105.503 E18.88576
G1 X84.188 Y105.431 E18.88836
G1 X84.504 Y104.776 E18.91254
G1 X84.889 Y104.161 E18.93668
G1 X85.34 Y103.592 E18.96083
G1 X85.613 Y103.302 E18.97407
G1 X93.552 Y95.363 E19.3475
G0 F6000 X93.835 Y95.646
G1 F600 X94.36 Y95.177 E19.37091
G1 X94.935 Y94.771 E19.39432
G1 X95.834 Y94.307 E19.42797
G1 X95.906 Y94.277 E19.43057
G1 X96.571 Y94.043 E19.45402
G1 X97.257 Y93.887 E19.47741
G1 X98.291 Y93.8 E19.51193
G1 X121.709 Y93.8 E20.29081
G1 X122.412 Y93.84 E20.31423
G1 X123.106 Y93.959 E20.33765
G1 X124.094 Y94.277 E20.37217
G1 X124.166 Y94.307 E20.37477
G1 X124.799 Y94.614 E20.39817
G1 X125.394 Y94.991 E20.42159
G1 X126.165 Y95.646 E20.45524
G1 X134.104 Y103.585 E20.82867
G1 X134.573 Y104.11 E20.85208
G1 X134.979 Y104.685 E20.87549
G1 X135.443 Y105.584 E20.90914
G1 X135.473 Y105.656 E20.91174
G1 X135.707 Y106.321 E20.93518
G1 X135.863 Y107.007 E20.95858
G1 X135.95 Y108.041 E20.9931
G1 X135.95 Y111.959 E21.12341
G1 X135.91 Y112.662 E21.14683
G1 X135.791 Y113.356 E21.17025
G1 X135.473 Y114.344 E21.20477
G1 X135.443 Y114.416 E21.20736
G1 X135.136 Y115.049 E21.23076
G1 X134.759 Y115.644 E21.25419
G1 X134.104 Y116.415 E21.28784
G1 X126.165 Y124.354 E21.66127
G1 X125.64 Y124.823 E21.68468
G1 X125.065 Y125.229 E21.70809
G1 X124.166 Y125.693 E21.74174
G1 X124.094 Y125.723 E21.74433
G1 X123.429 Y125.957 E21.76778
G1 X122.743 Y126.113 E21.79118
G1 X121.709 Y126.2 E21.82569
G1 X98.291 Y126.2 E22.60458
G1 X97.588 Y126.16 E22.628
G1 X96.894 Y126.041 E22.65142
G1 X95.906 Y125.723 E22.68594
G1 X95.834 Y125.693 E22.68853
G1 X95.201 Y125.386 E22.71193
G1 X94.606 Y125.009 E22.73536
G1 X93.835 Y124.354 E22.76901
G1 X85.896 Y116.415 E23.14243
G1 X85.427 Y115.89 E23.16585
G1 X85.021 Y115.315 E23.18926
G1 X84.557 Y114.416 E23.22291
G1 X84.527 Y114.344 E23.2255
G1 X84.293 Y113.679 E23.24895
G1 X84.137 Y112.993 E23.27235
G1 X84.05 Y111.959 E23.30686
G1 X84.05 Y108.041 E23.43718
G1 X84.09 Y107.338 E23.4606
G1 X84.209 Y106.644 E23.48401
G1 X84.527 Y105.656 E23.51854
G1 X84.557 Y105.584 E23.52113
G1 X84.864 Y104.951 E23.54453
G1 X85.241 Y104.356 E23.56796
G1 X85.896 Y103.585 E23.6016
G1 X93.835 Y95.646 E23.97503
G0 F6000 X94.118 Y95.929
G1 F600 X94.627 Y95.476 E23.99769
G1 X95.185 Y95.087 E24.02032
G1 X95.988 Y94.676 E24.05032
G1 X96.06 Y94.646 E24.05292
G1 X96.703 Y94.422 E24.07556
G1 X97.368 Y94.274 E24.09822
G1 X98.291 Y94.2 E24.12902
G1 X121.709 Y94.2 E24.9079
G1 X122.389 Y94.24 E24.93056
G1 X123.059 Y94.359 E24.95319
G1 X123.94 Y94.646 E24.98401
G1 X124.012 Y94.676 E24.98661
G1 X124.624 Y94.974 E25.00925
G1 X125.197 Y95.342 E25.0319
G1 X125.882 Y95.929 E25.0619
G1 X133.821 Y103.868 E25.43533
G1 X134.274 Y104.377 E25.45799
G1 X134.663 Y104.935 E25.48061
G1 X135.074 Y105.738 E25.51062
G1 X135.104 Y105.81 E25.51321
G1 X135.328 Y106.453 E25.53586
G1 X135.476 Y107.118 E25.55852
G1 X135.55 Y108.041 E25.58931
G1 X135.55 Y111.959 E25.71963
G1 X135.51 Y112.639 E25.74228
G1 X135.391 Y113.309 E25.76492
G1 X135.104 Y114.19 E25.79573
G1 X135.074 Y114.262 E25.79833
G1 X134.776 Y114.874 E25.82097
G1 X134.408 Y115.447 E25.84362
G1 X133.821 Y116.132 E25.87362
G1 X125.882 Y124.071 E26.24705
G1 X125.373 Y124.524 E26.26971
G1 X124.815 Y124.913 E26.29234
G1 X124.012 Y125.324 E26.32234
G1 X123.94 Y125.354 E26.32493
G1 X123.297 Y125.578 E26.34758
G1 X122.632 Y125.726 E26.37024
G1 X121.709 Y125.8 E26.40104
G1 X98.291 Y125.8 E27.17992
G1 X97.611 Y125.76 E27.20258
G1 X96.941 Y125.641 E27.22521
G1 X96.06 Y125.354 E27.25603
G1 X95.988 Y125.324 E27.25862
G1 X95.376 Y125.026 E27.28126
G1 X94.803 Y124.658 E27.30391
G1 X94.118 Y124.071 E27.33392
G1 X86.179 Y116.132 E27.70734
G1 X85.726 Y115.623 E27.73001
G1 X85.337 Y115.065 E27.75263
G1 X84.926 Y114.262 E27.78263
G1 X84.896 Y114.19 E27.78523
G1 X84.672 Y113.547 E27.80787
G1 X84.524 Y112.882 E27.83053
G1 X84.45 Y111.959 E27.86133
G1 X84.45 Y108.041 E27.99164
G1 X84.49 Y107.361 E28.0143
G1 X84.609 Y106.691 E28.03693
G1 X84.896 Y105.81 E28.06775
G1 X84.926 Y105.738 E28.07035
G1 X85.224 Y105.126 E28.09299
G1 X85.592 Y104.553 E28.11564
G1 X86.179 Y103.868 E28.14564
G1 X94.118 Y95.929 E28.51907
G0 F6000 X94.401 Y96.212
G1 F600 X94.893 Y95.776 E28.54093
G1 X95.434 Y95.404 E28.56277
G1 X96.142 Y95.045 E28.58917
G1 X96.214 Y95.015 E28.59177
G1 X96.835 Y94.8 E28.61362
G1 X97.477 Y94.662 E28.63546
G1 X98.291 Y94.6 E28.66262
G1 X121.709 Y94.6 E29.4415
G1 X122.365 Y94.64 E29.46336
G1 X123.011 Y94.759 E29.48521
G1 X123.786 Y95.015 E29.51235
G1 X123.858 Y95.045 E29.51495
G1 X124.448 Y95.334 E29.5368
G1 X124.998 Y95.693 E29.55865
G1 X125.599 Y96.212 E29.58506
G1 X133.538 Y104.151 E29.95848
G1 X133.974 Y104.643 E29.98035
G1 X134.346 Y105.184 E30.00218
G1 X134.705 Y105.892 E30.02859
G1 X134.735 Y105.964 E30.03118
G1 X134.95 Y106.585 E30.05304
G1 X135.088 Y107.227 E30.07488
G1 X135.15 Y108.041 E30.10203
G1 X135.15 Y111.959 E30.23234
G1 X135.11 Y112.615 E30.2542
G1 X134.991 Y113.261 E30.27605
G1 X134.735 Y114.036 E30.3032
G1 X134.705 Y114.108 E30.30579
G1 X134.416 Y114.698 E30.32764
G1 X134.057 Y115.248 E30.34949
G1 X133.538 Y115.849 E30.3759
G1 X125.599 Y123.788 E30.74933
G1 X125.107 Y124.224 E30.77119
G1 X124.566 Y124.596 E30.79303
G1 X123.858 Y124.955 E30.81943
G1 X123.786 Y124.985 E30.82202
G1 X123.165 Y125.2 E30.84388
G1 X122.523 Y125.338 E30.86572
G1 X121.709 Y125.4 E30.89288
G1 X98.291 Y125.4 E31.67176
G1 X97.635 Y125.36 E31.69362
G1 X96.989 Y125.241 E31.71547
G1 X96.214 Y124.985 E31.74261
G1 X96.142 Y124.955 E31.74521
G1 X95.552 Y124.666 E31.76706
G1 X95.002 Y124.307 E31.7889
G1 X94.401 Y123.788 E31.81532
G1 X86.462 Y115.849 E32.18874
G1 X86.026 Y115.357 E32.21061
G1 X85.654 Y114.816 E32.23244
G1 X85.295 Y114.108 E32.25885
G1 X85.265 Y114.036 E32.26144
G1 X85.05 Y113.415 E32.2833
G1 X84.912 Y112.773 E32.30514
