;FLAVOR:Marlin
;TIME:643
;Filament used: 0.296569m
;Layer height: 0.2
;MINX:84.711
;MINY:99.2
;MINZ:0.2
;MAXX:135.289
;MAXY:120.8
;MAXZ:4.5
;Generated with Cura_SteamEngine master
M140 S70
M105
M190 S70
M104 S200
M105
M109 S200
M82 ;absolute extrusion mode
M201 X500.00 Y500.00 Z100.00 E5000.00 ;Setup machine max acceleration
M203 X500.00 Y500.00 Z10.00 E50.00 ;Setup machine max feedrate
M204 P500.00 R1000.00 T500.00 ;Setup Print/Retract/Travel acceleration
M205 X8.00 Y8.00 Z0.40 E5.00 ;Setup Jerk
M220 S100 ;Reset Feedrate
M221 S100 ;Reset Flowrate

G28 ;Home

G92 E0 ;Reset Extruder
G1 Z2.0 F3000 ;Move Z Axis up
G1 X10.1 Y20 Z0.28 F5000.0 ;Move to start position
G1 X10.1 Y200.0 Z0.28 F1500.0 E15 ;Draw the first line
G1 X10.4 Y200.0 Z0.28 F5000.0 ;Move to side a little
G1 X10.4 Y20 Z0.28 F1500.0 E30 ;Draw the second line
G92 E0 ;Reset Extruder
G1 Z2.0 F3000 ;Move Z Axis up

G92 E0
G92 E0
G1 F2700 E-5
;LAYER_COUNT:20
;LAYER:0
M107
G1 F300 Z0.7
G0 F6000 X88.408 Y101.865 Z0.7
;TYPE:SKIRT
G1 F300 Z0.2
G1 F2700 E0
G1 F600 X89.017 Y101.363 E0.02625
G1 X89.41 Y101.09 E0.04217
G1 X89.825 Y100.82 E0.05863
G1 X90.508 Y100.423 E0.08491
G1 X90.968 Y100.205 E0.10184
G1 X91.421 Y100.008 E0.11827
G1 X92.161 Y99.73 E0.14456
G1 X92.606 Y99.603 E0.15995
G1 X93.073 Y99.484 E0.17598
G1 X93.66 Y99.358 E0.19595
G1 X94.382 Y99.265 E0.22016
G1 X94.86 Y99.226 E0.23611
G1 X95.494 Y99.2 E0.25722
G1 X124.506 Y99.2 E1.22216
G1 X125.14 Y99.226 E1.24327
G1 X125.618 Y99.265 E1.25922
G1 X126.357 Y99.361 E1.284
G1 X126.927 Y99.484 E1.3034
G1 X127.394 Y99.603 E1.31943
G1 X128.148 Y99.836 E1.34567
G1 X128.579 Y100.008 E1.36111
G1 X129.032 Y100.205 E1.37754
G1 X129.739 Y100.556 E1.40379
G1 X130.175 Y100.82 E1.42074
G1 X130.59 Y101.09 E1.43721
G1 X131.229 Y101.554 E1.46348
G1 X131.592 Y101.865 E1.47938
G1 X131.956 Y102.197 E1.49576
G1 X132.512 Y102.758 E1.52203
G1 X132.863 Y103.179 E1.54026
G1 X133.178 Y103.585 E1.55735
G1 X133.63 Y104.232 E1.5836
G1 X133.882 Y104.666 E1.6003
G1 X134.118 Y105.104 E1.61684
G1 X134.457 Y105.817 E1.6431
G1 X134.629 Y106.274 E1.65934
G1 X134.784 Y106.726 E1.67524
G1 X134.977 Y107.38 E1.69792
G1 X135.103 Y107.982 E1.71837
G1 X135.182 Y108.453 E1.73426
G1 X135.273 Y109.237 E1.76051
G1 X135.289 Y109.743 E1.77735
G1 X135.289 Y110.257 E1.79444
G1 X135.249 Y111.046 E1.82072
G1 X135.182 Y111.547 E1.83753
G1 X135.103 Y112.018 E1.85341
G1 X134.943 Y112.753 E1.87843
G1 X134.786 Y113.268 E1.89634
G1 X134.631 Y113.721 E1.91226
G1 X134.338 Y114.454 E1.93852
G1 X134.124 Y114.885 E1.95452
G1 X133.89 Y115.321 E1.97098
G1 X133.482 Y115.997 E1.99724
G1 X133.176 Y116.418 E2.01455
G1 X132.859 Y116.826 E2.03174
G1 X132.344 Y117.424 E2.05799
G1 X131.956 Y117.803 E2.07603
G1 X131.592 Y118.135 E2.09241
G1 X130.983 Y118.637 E2.11866
G1 X130.59 Y118.91 E2.13458
G1 X130.175 Y119.18 E2.15105
G1 X129.492 Y119.577 E2.17732
G1 X129.032 Y119.795 E2.19425
G1 X128.579 Y119.992 E2.21068
G1 X127.839 Y120.27 E2.23697
G1 X127.394 Y120.397 E2.25237
G1 X126.927 Y120.516 E2.2684
G1 X126.34 Y120.642 E2.28836
G1 X125.618 Y120.735 E2.31258
G1 X125.14 Y120.774 E2.32853
G1 X124.506 Y120.8 E2.34963
G1 X95.494 Y120.8 E3.31457
G1 X94.86 Y120.774 E3.33568
G1 X94.382 Y120.735 E3.35163
G1 X93.643 Y120.639 E3.37642
G1 X93.073 Y120.516 E3.39581
G1 X92.606 Y120.397 E3.41184
G1 X91.852 Y120.164 E3.43809
G1 X91.421 Y119.992 E3.45352
G1 X90.968 Y119.795 E3.46995
G1 X90.261 Y119.444 E3.49621
G1 X89.825 Y119.18 E3.51316
G1 X89.41 Y118.91 E3.52963
G1 X88.771 Y118.446 E3.55589
G1 X88.408 Y118.135 E3.57179
G1 X88.044 Y117.803 E3.58818
G1 X87.488 Y117.242 E3.61445
G1 X87.147 Y116.834 E3.63213
G1 X86.84 Y116.44 E3.64874
G1 X86.423 Y115.85 E3.67277
G1 X86.118 Y115.333 E3.69274
G1 X85.883 Y114.897 E3.70921
G1 X85.544 Y114.184 E3.73547
G1 X85.369 Y113.721 E3.75193
G1 X85.214 Y113.268 E3.76786
G1 X85.053 Y112.738 E3.78628
G1 X84.897 Y112.018 E3.81078
G1 X84.818 Y111.547 E3.82667
G1 X84.727 Y110.763 E3.85292
G1 X84.711 Y110.257 E3.86976
G1 X84.711 Y109.743 E3.88685
G1 X84.751 Y108.954 E3.91313
G1 X84.818 Y108.453 E3.92994
G1 X84.897 Y107.982 E3.94583
G1 X85.057 Y107.247 E3.97084
G1 X85.214 Y106.732 E3.98875
G1 X85.369 Y106.279 E4.00468
G1 X85.662 Y105.546 E4.03093
G1 X85.876 Y105.115 E4.04694
G1 X86.11 Y104.679 E4.06339
G1 X86.518 Y104.003 E4.08966
G1 X86.824 Y103.582 E4.10697
G1 X87.141 Y103.174 E4.12415
G1 X87.656 Y102.576 E4.1504
G1 X88.044 Y102.197 E4.16844
G1 X88.408 Y101.865 E4.18483
G0 F6000 X88.677 Y102.161
G1 F600 X89.272 Y101.673 E4.21042
G1 X89.628 Y101.425 E4.22485
G1 X90.043 Y101.155 E4.24132
G1 X90.709 Y100.77 E4.2669
G1 X91.128 Y100.572 E4.28232
G1 X91.581 Y100.375 E4.29875
G1 X92.301 Y100.105 E4.32432
G1 X92.705 Y99.99 E4.33829
G1 X93.172 Y99.871 E4.35432
G1 X93.73 Y99.752 E4.3733
G1 X94.414 Y99.664 E4.39624
G1 X94.892 Y99.625 E4.41219
G1 X95.494 Y99.6 E4.43223
G1 X124.506 Y99.6 E5.39717
G1 X125.108 Y99.625 E5.41721
G1 X125.586 Y99.664 E5.43316
G1 X126.287 Y99.755 E5.45667
G1 X126.828 Y99.871 E5.47508
G1 X127.295 Y99.99 E5.4911
G1 X128.03 Y100.219 E5.51671
G1 X128.419 Y100.375 E5.53065
G1 X128.872 Y100.572 E5.54708
G1 X129.561 Y100.915 E5.57268
G1 X129.957 Y101.155 E5.58808
G1 X130.372 Y101.425 E5.60455
G1 X130.994 Y101.878 E5.63014
G1 X131.323 Y102.161 E5.64457
G1 X131.687 Y102.493 E5.66096
G1 X132.227 Y103.04 E5.68652
G1 X132.547 Y103.424 E5.70315
G1 X132.862 Y103.83 E5.72024
G1 X133.301 Y104.461 E5.74581
G1 X133.53 Y104.856 E5.76099
G1 X133.766 Y105.294 E5.77754
G1 X134.095 Y105.989 E5.80312
G1 X134.251 Y106.404 E5.81786
G1 X134.406 Y106.856 E5.83376
G1 X134.589 Y107.477 E5.85529
G1 X134.708 Y108.048 E5.87469
G1 X134.787 Y108.519 E5.89057
G1 X134.875 Y109.283 E5.91615
G1 X134.889 Y109.743 E5.93146
G1 X134.889 Y110.257 E5.94855
G1 X134.849 Y111.025 E5.97413
G1 X134.787 Y111.481 E5.98944
G1 X134.708 Y111.952 E6.00532
G1 X134.556 Y112.65 E6.02908
G1 X134.407 Y113.139 E6.04608
G1 X134.252 Y113.592 E6.06201
G1 X133.966 Y114.305 E6.08756
G1 X133.771 Y114.695 E6.10206
G1 X133.537 Y115.131 E6.11852
G1 X133.139 Y115.789 E6.1441
G1 X132.861 Y116.172 E6.15984
G1 X132.544 Y116.58 E6.17702
G1 X132.041 Y117.162 E6.20261
G1 X131.687 Y117.507 E6.21905
G1 X131.323 Y117.839 E6.23544
G1 X130.728 Y118.327 E6.26103
G1 X130.372 Y118.575 E6.27546
G1 X129.957 Y118.845 E6.29193
G1 X129.291 Y119.23 E6.31751
G1 X128.872 Y119.428 E6.33293
G1 X128.419 Y119.625 E6.34936
G1 X127.699 Y119.895 E6.37493
G1 X127.295 Y120.01 E6.3889
G1 X126.828 Y120.129 E6.40493
G1 X126.27 Y120.248 E6.42391
G1 X125.586 Y120.336 E6.44685
G1 X125.108 Y120.375 E6.4628
G1 X124.506 Y120.4 E6.48284
G1 X95.494 Y120.4 E7.44778
G1 X94.892 Y120.375 E7.46782
G1 X94.414 Y120.336 E7.48377
G1 X93.713 Y120.245 E7.50728
G1 X93.172 Y120.129 E7.52569
G1 X92.705 Y120.01 E7.54171
G1 X91.97 Y119.781 E7.56732
G1 X91.581 Y119.625 E7.58126
G1 X91.128 Y119.428 E7.59769
G1 X90.439 Y119.085 E7.62329
G1 X90.043 Y118.845 E7.63869
G1 X89.628 Y118.575 E7.65516
G1 X89.006 Y118.122 E7.68075
G1 X88.677 Y117.839 E7.69518
G1 X88.313 Y117.507 E7.71157
G1 X87.773 Y116.96 E7.73713
G1 X87.463 Y116.588 E7.75324
G1 X87.156 Y116.194 E7.76985
G1 X86.759 Y115.634 E7.79268
G1 X86.47 Y115.143 E7.81163
G1 X86.235 Y114.707 E7.82811
G1 X85.906 Y114.012 E7.85368
G1 X85.748 Y113.592 E7.86861
G1 X85.593 Y113.139 E7.88453
G1 X85.44 Y112.635 E7.90205
G1 X85.292 Y111.952 E7.92529
G1 X85.213 Y111.481 E7.94118
G1 X85.125 Y110.717 E7.96676
G1 X85.111 Y110.257 E7.98206
G1 X85.111 Y109.743 E7.99916
G1 X85.151 Y108.975 E8.02474
G1 X85.213 Y108.519 E8.04004
G1 X85.292 Y108.048 E8.05593
G1 X85.444 Y107.35 E8.07969
G1 X85.593 Y106.861 E8.09669
G1 X85.748 Y106.408 E8.11262
G1 X86.034 Y105.695 E8.13817
G1 X86.229 Y105.305 E8.15267
G1 X86.463 Y104.869 E8.16913
G1 X86.861 Y104.211 E8.1947
G1 X87.139 Y103.828 E8.21044
G1 X87.456 Y103.42 E8.22763
G1 X87.959 Y102.838 E8.25321
G1 X88.313 Y102.493 E8.26966
G1 X88.677 Y102.161 E8.28604
G0 F6000 X88.947 Y102.456
G1 F600 X89.526 Y101.982 E8.31093
G1 X89.847 Y101.761 E8.32389
G1 X90.262 Y101.491 E8.34036
G1 X90.91 Y101.117 E8.36524
G1 X91.287 Y100.939 E8.37911
G1 X91.74 Y100.742 E8.39554
G1 X92.441 Y100.48 E8.42043
G1 X92.804 Y100.378 E8.43297
G1 X93.271 Y100.259 E8.449
G1 X93.8 Y100.146 E8.46699
G1 X94.447 Y100.062 E8.48869
G1 X94.925 Y100.023 E8.50464
G1 X95.494 Y100 E8.52358
G1 X124.506 Y100 E9.48853
G1 X125.075 Y100.023 E9.50747
G1 X125.553 Y100.062 E9.52342
G1 X126.217 Y100.149 E9.54569
G1 X126.729 Y100.259 E9.56311
G1 X127.196 Y100.378 E9.57914
G1 X127.91 Y100.601 E9.60402
G1 X128.26 Y100.742 E9.61657
G1 X128.713 Y100.939 E9.633
G1 X129.382 Y101.273 E9.65787
G1 X129.738 Y101.491 E9.67175
G1 X130.153 Y101.761 E9.68822
G1 X130.758 Y102.201 E9.7131
G1 X131.053 Y102.456 E9.72607
G1 X131.417 Y102.788 E9.74246
G1 X131.942 Y103.321 E9.76734
G1 X132.231 Y103.669 E9.78238
G1 X132.546 Y104.075 E9.79948
G1 X132.972 Y104.69 E9.82436
G1 X133.177 Y105.046 E9.83802
G1 X133.413 Y105.484 E9.85457
G1 X133.733 Y106.16 E9.87945
G1 X133.872 Y106.533 E9.89268
G1 X134.027 Y106.985 E9.90858
G1 X134.201 Y107.574 E9.929
G1 X134.314 Y108.114 E9.94735
G1 X134.393 Y108.585 E9.96324
G1 X134.477 Y109.328 E9.98811
G1 X134.489 Y109.743 E10.00192
G1 X134.489 Y110.257 E10.01901
G1 X134.449 Y111.004 E10.04389
G1 X134.393 Y111.415 E10.05769
G1 X134.314 Y111.886 E10.07357
G1 X134.17 Y112.547 E10.09608
G1 X134.029 Y113.009 E10.11214
G1 X133.874 Y113.462 E10.12807
G1 X133.594 Y114.156 E10.15296
G1 X133.419 Y114.506 E10.16597
G1 X133.185 Y114.942 E10.18243
G1 X132.796 Y115.582 E10.20734
G1 X132.545 Y115.927 E10.22153
G1 X132.228 Y116.335 E10.23871
G1 X131.738 Y116.9 E10.26359
G1 X131.417 Y117.212 E10.27848
G1 X131.053 Y117.544 E10.29486
G1 X130.474 Y118.018 E10.31975
G1 X130.153 Y118.239 E10.33271
G1 X129.738 Y118.509 E10.34918
G1 X129.09 Y118.883 E10.37407
G1 X128.713 Y119.061 E10.38793
G1 X128.26 Y119.258 E10.40436
G1 X127.559 Y119.52 E10.42925
G1 X127.196 Y119.622 E10.44179
G1 X126.729 Y119.741 E10.45782
G1 X126.2 Y119.854 E10.47581
G1 X125.553 Y119.938 E10.49751
G1 X125.075 Y119.977 E10.51346
G1 X124.506 Y120 E10.5324
G1 X95.494 Y120 E11.49735
G1 X94.925 Y119.977 E11.51629
G1 X94.447 Y119.938 E11.53224
G1 X93.783 Y119.851 E11.55451
G1 X93.271 Y119.741 E11.57193
G1 X92.804 Y119.622 E11.58796
G1 X92.09 Y119.399 E11.61284
G1 X91.74 Y119.258 E11.62539
G1 X91.287 Y119.061 E11.64182
G1 X90.618 Y118.727 E11.66669
G1 X90.262 Y118.509 E11.68057
G1 X89.847 Y118.239 E11.69704
G1 X89.242 Y117.799 E11.72192
G1 X88.947 Y117.544 E11.73489
G1 X88.583 Y117.212 E11.75128
G1 X88.058 Y116.679 E11.77616
G1 X87.778 Y116.342 E11.79073
G1 X87.471 Y115.948 E11.80735
G1 X87.096 Y115.417 E11.82897
G1 X86.822 Y114.953 E11.84689
G1 X86.587 Y114.517 E11.86336
G1 X86.268 Y113.841 E11.88822
G1 X86.126 Y113.462 E11.90169
G1 X85.971 Y113.009 E11.91761
G1 X85.826 Y112.532 E11.93419
G1 X85.686 Y111.886 E11.95618
G1 X85.607 Y111.415 E11.97206
G1 X85.523 Y110.672 E11.99693
G1 X85.511 Y110.257 E12.01074
G1 X85.511 Y109.743 E12.02784
G1 X85.551 Y108.996 E12.05272
G1 X85.607 Y108.585 E12.06651
G1 X85.686 Y108.114 E12.0824
G1 X85.83 Y107.453 E12.1049
G1 X85.971 Y106.991 E12.12096
G1 X86.126 Y106.538 E12.13689
G1 X86.406 Y105.844 E12.16178
G1 X86.581 Y105.494 E12.17479
G1 X86.815 Y105.058 E12.19125
G1 X87.204 Y104.418 E12.21616
G1 X87.455 Y104.073 E12.23035
G1 X87.772 Y103.665 E12.24754
G1 X88.262 Y103.1 E12.27241
G1 X88.583 Y102.788 E12.2873
G1 X88.947 Y102.456 E12.30369
G0 F6000 X89.216 Y102.752
G1 F600 X90.065 Y102.096 E12.33937
G1 X90.48 Y101.826 E12.35584
G1 X91.109 Y101.464 E12.37998
G1 X91.447 Y101.306 E12.39239
G1 X91.9 Y101.109 E12.40882
G1 X92.902 Y100.765 E12.44405
G1 X93.369 Y100.646 E12.46008
G1 X93.869 Y100.539 E12.47709
G1 X94.479 Y100.461 E12.49754
G1 X94.957 Y100.422 E12.51349
G1 X95.494 Y100.4 E12.53137
G1 X124.506 Y100.4 E13.49631
G1 X125.043 Y100.422 E13.51419
G1 X125.521 Y100.461 E13.53014
G1 X126.148 Y100.542 E13.55117
G1 X126.631 Y100.646 E13.5676
G1 X127.098 Y100.765 E13.58363
G1 X128.1 Y101.109 E13.61886
G1 X128.553 Y101.306 E13.63529
G1 X129.202 Y101.631 E13.65943
G1 X129.52 Y101.826 E13.67184
G1 X129.935 Y102.096 E13.68831
G1 X130.784 Y102.752 E13.72399
G1 X131.148 Y103.084 E13.74038
G1 X131.657 Y103.602 E13.76453
G1 X131.915 Y103.914 E13.778
G1 X132.23 Y104.32 E13.79509
G1 X132.643 Y104.918 E13.81926
G1 X132.825 Y105.235 E13.83142
G1 X133.061 Y105.673 E13.84797
G1 X133.494 Y106.663 E13.88391
G1 X133.649 Y107.115 E13.8998
G1 X133.813 Y107.671 E13.91908
G1 X133.919 Y108.18 E13.93637
G1 X133.998 Y108.651 E13.95226
G1 X134.079 Y109.373 E13.97642
G1 X134.089 Y109.743 E13.98873
G1 X134.089 Y110.257 E14.00583
G1 X134.049 Y110.982 E14.02998
G1 X133.998 Y111.349 E14.0423
G1 X133.919 Y111.82 E14.05819
G1 X133.783 Y112.444 E14.07943
G1 X133.651 Y112.88 E14.09458
G1 X133.496 Y113.333 E14.1105
G1 X133.066 Y114.317 E14.14622
G1 X132.832 Y114.753 E14.16268
G1 X132.454 Y115.373 E14.18683
G1 X132.229 Y115.681 E14.19952
G1 X131.912 Y116.089 E14.2167
G1 X131.435 Y116.638 E14.24089
G1 X131.148 Y116.916 E14.25418
G1 X130.784 Y117.248 E14.27057
G1 X129.935 Y117.904 E14.30625
G1 X129.52 Y118.174 E14.32272
G1 X128.891 Y118.536 E14.34686
G1 X128.553 Y118.694 E14.35927
G1 X128.1 Y118.891 E14.3757
G1 X127.098 Y119.235 E14.41093
G1 X126.631 Y119.354 E14.42696
G1 X126.131 Y119.461 E14.44397
G1 X125.521 Y119.539 E14.46442
G1 X125.043 Y119.578 E14.48037
G1 X124.506 Y119.6 E14.49825
G1 X95.494 Y119.6 E15.46319
G1 X94.957 Y119.578 E15.48107
G1 X94.479 Y119.539 E15.49702
G1 X93.852 Y119.458 E15.51805
G1 X93.369 Y119.354 E15.53448
G1 X92.902 Y119.235 E15.55051
G1 X91.9 Y118.891 E15.58574
G1 X91.447 Y118.694 E15.60217
G1 X90.798 Y118.369 E15.62631
G1 X90.48 Y118.174 E15.63872
G1 X90.065 Y117.904 E15.65519
G1 X89.216 Y117.248 E15.69087
G1 X88.852 Y116.916 E15.70726
G1 X88.343 Y116.398 E15.73141
G1 X88.094 Y116.097 E15.74441
G1 X87.787 Y115.703 E15.76102
G1 X87.432 Y115.201 E15.78147
G1 X87.174 Y114.763 E15.79838
G1 X86.939 Y114.327 E15.81485
G1 X86.504 Y113.333 E15.85094
G1 X86.349 Y112.88 E15.86686
G1 X86.213 Y112.429 E15.88253
G1 X86.081 Y111.82 E15.90326
G1 X86.002 Y111.349 E15.91914
G1 X85.921 Y110.627 E15.9433
G1 X85.911 Y110.257 E15.95562
G1 X85.911 Y109.743 E15.97271
G1 X85.951 Y109.018 E15.99686
G1 X86.002 Y108.651 E16.00919
G1 X86.081 Y108.18 E16.02507
G1 X86.217 Y107.556 E16.04631
G1 X86.349 Y107.12 E16.06146
G1 X86.504 Y106.667 E16.07739
G1 X86.934 Y105.683 E16.1131
G1 X87.168 Y105.247 E16.12956
G1 X87.546 Y104.627 E16.15371
G1 X87.771 Y104.319 E16.1664
G1 X88.088 Y103.911 E16.18358
G1 X88.565 Y103.362 E16.20777
G1 X88.852 Y103.084 E16.22106
G1 X89.216 Y102.752 E16.23745
G0 F6000 X89.486 Y103.047
G1 F600 X90.283 Y102.431 E16.27095
G1 X90.698 Y102.161 E16.28742
G1 X91.606 Y101.672 E16.32172
G1 X92.059 Y101.475 E16.33815
G1 X93.001 Y101.153 E16.37126
G1 X93.468 Y101.034 E16.38729
G1 X93.939 Y100.933 E16.40331
G1 X94.512 Y100.86 E16.42252
G1 X94.99 Y100.821 E16.43848
G1 X95.494 Y100.8 E16.45525
G1 X124.506 Y100.8 E17.4202
G1 X125.01 Y100.821 E17.43697
G1 X125.488 Y100.86 E17.45292
G1 X126.078 Y100.936 E17.47271
G1 X126.532 Y101.034 E17.48816
G1 X126.999 Y101.153 E17.50419
G1 X127.941 Y101.475 E17.5373
G1 X128.394 Y101.672 E17.55373
G1 X129.302 Y102.161 E17.58803
G1 X129.717 Y102.431 E17.6045
G1 X130.514 Y103.047 E17.638
G1 X130.878 Y103.379 E17.65439
G1 X131.37 Y103.882 E17.67779
G1 X131.599 Y104.159 E17.68974
G1 X131.914 Y104.565 E17.70683
G1 X132.473 Y105.425 E17.74095
G1 X132.709 Y105.863 E17.7575
G1 X133.116 Y106.793 E17.79126
G1 X133.271 Y107.245 E17.80715
G1 X133.425 Y107.768 E17.82529
G1 X133.525 Y108.246 E17.84153
G1 X133.604 Y108.717 E17.85741
G1 X133.689 Y109.743 E17.89166
G1 X133.689 Y110.257 E17.90875
G1 X133.604 Y111.283 E17.94299
G1 X133.525 Y111.754 E17.95888
G1 X133.397 Y112.341 E17.97886
G1 X133.272 Y112.75 E17.99308
G1 X133.117 Y113.203 E18.00901
G1 X132.714 Y114.128 E18.04257
G1 X132.48 Y114.564 E18.05903
G1 X131.913 Y115.436 E18.09362
G1 X131.596 Y115.844 E18.11081
G1 X131.133 Y116.374 E18.13421
G1 X130.878 Y116.621 E18.14602
G1 X130.514 Y116.953 E18.16241
G1 X129.717 Y117.569 E18.19591
G1 X129.302 Y117.839 E18.21238
G1 X128.394 Y118.328 E18.24668
G1 X127.941 Y118.525 E18.26311
