;FLAVOR:Marlin
;TIME:882
;Filament used: 0.445101m
;Layer height: 0.2
;MINX:94.958
;MINY:78.215
;MINZ:0.2
;MAXX:125.048
;MAXY:141.785
;MAXZ:4.5
;Generated with Cura_SteamEngine master
M140 S70
M105
M190 S70
M104 S200
M105
M109 S200
M82 ;absolute extrusion mode
M201 X500.00 Y500.00 Z100.00 E5000.00 ;Setup machine max acceleration
M203 X500.00 Y500.00 Z10.00 E50.00 ;Setup machine max feedrate
M204 P500.00 R1000.00 T500.00 ;Setup Print/Retract/Travel acceleration
M205 X8.00 Y8.00 Z0.40 E5.00 ;Setup Jerk
M220 S100 ;Reset Feedrate
M221 S100 ;Reset Flowrate

G28 ;Home

G92 E0 ;Reset Extruder
G1 Z2.0 F3000 ;Move Z Axis up
G1 X10.1 Y20 Z0.28 F5000.0 ;Move to start position
G1 X10.1 Y200.0 Z0.28 F1500.0 E15 ;Draw the first line
G1 X10.4 Y200.0 Z0.28 F5000.0 ;Move to side a little
G1 X10.4 Y20 Z0.28 F1500.0 E30 ;Draw the second line
G92 E0 ;Reset Extruder
G1 Z2.0 F3000 ;Move Z Axis up

G92 E0
G92 E0
G1 F2700 E-5
;LAYER_COUNT:20
;LAYER:0
M107
G1 F300 Z0.7
G0 F6000 X97.785 Y81.722 Z0.7
;TYPE:SKIRT
G1 F300 Z0.2
G1 F2700 E0
G1 F600 X98.186 Y81.318 E0.01893
G1 X98.561 Y80.967 E0.03602
G1 X99.164 Y80.458 E0.06226
G1 X99.571 Y80.167 E0.0789
G1 X100.001 Y79.881 E0.09608
G1 X100.68 Y79.478 E0.12234
G1 X101.193 Y79.231 E0.14128
G1 X101.643 Y79.034 E0.15762
G1 X102.381 Y78.754 E0.18387
G1 X102.872 Y78.614 E0.20085
G1 X103.37 Y78.489 E0.21793
G1 X104.071 Y78.346 E0.24172
G1 X104.713 Y78.272 E0.26322
G1 X105.2 Y78.236 E0.27946
G1 X105.791 Y78.215 E0.29913
G1 X106.559 Y78.253 E0.32471
G1 X107.054 Y78.302 E0.34125
G1 X107.586 Y78.373 E0.3591
G1 X108.411 Y78.557 E0.38721
G1 X108.903 Y78.695 E0.40421
G1 X109.651 Y78.946 E0.43045
G1 X110.132 Y79.154 E0.44788
G1 X110.597 Y79.374 E0.46499
G1 X111.293 Y79.748 E0.49127
G1 X111.742 Y80.041 E0.5091
G1 X112.148 Y80.326 E0.5256
G1 X112.555 Y80.631 E0.54252
G1 X113.174 Y81.183 E0.5701
G1 X113.522 Y81.528 E0.5864
G1 X114.121 Y82.194 E0.61619
G1 X114.391 Y82.551 E0.63108
G1 X114.68 Y82.956 E0.64763
G1 X115.138 Y83.679 E0.6761
G1 X115.378 Y84.141 E0.69341
G1 X115.592 Y84.589 E0.70992
G1 X115.763 Y84.972 E0.72388
G1 X124.448 Y105.986 E1.48014
G1 X124.712 Y106.73 E1.5064
G1 X124.866 Y107.331 E1.52704
G1 X124.875 Y107.373 E1.52847
G1 X125.001 Y108.152 E1.55471
G1 X125.048 Y109.007 E1.58319
G1 X125.048 Y133.868 E2.41007
G1 X125.008 Y134.657 E2.43635
G1 X124.889 Y135.437 E2.46259
G1 X124.691 Y136.202 E2.48887
G1 X124.417 Y136.942 E2.51512
G1 X124.069 Y137.651 E2.54139
G1 X123.651 Y138.322 E2.56768
G1 X123.168 Y138.946 E2.59393
G1 X122.763 Y139.383 E2.61374
G1 X122.646 Y139.5 E2.61925
G1 X122.06 Y140.03 E2.64553
G1 X121.424 Y140.497 E2.67177
G1 X120.744 Y140.898 E2.69803
G1 X120.026 Y141.228 E2.72431
G1 X119.279 Y141.483 E2.75056
G1 X118.51 Y141.662 E2.77682
G1 X117.726 Y141.762 E2.80311
G1 X117.131 Y141.785 E2.82292
G1 X110.865 Y141.785 E3.03132
G1 X110.076 Y141.745 E3.0576
G1 X109.296 Y141.626 E3.08384
G1 X108.531 Y141.428 E3.11012
G1 X107.791 Y141.154 E3.13637
G1 X107.082 Y140.806 E3.16264
G1 X106.411 Y140.388 E3.18893
G1 X105.787 Y139.905 E3.21518
G1 X105.35 Y139.5 E3.235
G1 X105.233 Y139.383 E3.2405
G1 X104.703 Y138.797 E3.26678
G1 X104.236 Y138.161 E3.29302
G1 X103.835 Y137.481 E3.31928
G1 X103.505 Y136.763 E3.34556
G1 X103.25 Y136.016 E3.37181
G1 X103.071 Y135.247 E3.39807
G1 X102.971 Y134.463 E3.42436
G1 X102.948 Y133.868 E3.44417
G1 X102.947 Y113.541 E4.12024
G1 X102.511 Y112.883 E4.1465
G1 X102.144 Y112.184 E4.17276
G1 X101.824 Y111.377 E4.20163
G1 X95.482 Y92.359 E4.86842
G1 X95.255 Y91.529 E4.89704
G1 X95.145 Y91.017 E4.91445
G1 X95.018 Y90.238 E4.94071
G1 X94.976 Y89.664 E4.95985
G1 X94.958 Y89.171 E4.97626
G1 X94.969 Y88.381 E5.00253
G1 X95.012 Y87.932 E5.01754
G1 X95.072 Y87.445 E5.03386
G1 X95.223 Y86.601 E5.06237
G1 X95.232 Y86.563 E5.06367
G1 X95.37 Y86.057 E5.08112
G1 X95.515 Y85.588 E5.09744
G1 X95.786 Y84.846 E5.12372
G1 X96.015 Y84.355 E5.14174
G1 X96.247 Y83.899 E5.15875
G1 X96.647 Y83.204 E5.18542
G1 X96.96 Y82.752 E5.20371
G1 X97.256 Y82.356 E5.22015
G1 X97.785 Y81.722 E5.24762
G0 F6000 X98.078 Y81.994
G1 F600 X98.459 Y81.61 E5.26561
G1 X98.834 Y81.259 E5.28269
G1 X99.422 Y80.764 E5.30826
G1 X99.793 Y80.5 E5.3234
G1 X100.223 Y80.214 E5.34058
G1 X100.885 Y79.822 E5.36617
G1 X101.353 Y79.597 E5.38344
G1 X101.803 Y79.4 E5.39978
G1 X102.523 Y79.129 E5.42537
G1 X102.969 Y79.002 E5.44079
G1 X103.467 Y78.877 E5.45787
G1 X104.134 Y78.742 E5.4805
G1 X104.742 Y78.671 E5.50086
G1 X105.229 Y78.635 E5.5171
G1 X105.791 Y78.615 E5.53581
G1 X106.52 Y78.651 E5.56008
G1 X107.015 Y78.7 E5.57663
G1 X107.521 Y78.768 E5.59361
G1 X108.302 Y78.942 E5.62022
G1 X108.794 Y79.08 E5.63722
G1 X109.523 Y79.326 E5.66281
G1 X109.961 Y79.516 E5.67869
G1 X110.426 Y79.736 E5.69579
G1 X111.103 Y80.101 E5.72138
G1 X111.513 Y80.368 E5.73765
G1 X111.919 Y80.653 E5.75415
G1 X112.305 Y80.944 E5.77023
G1 X112.892 Y81.467 E5.79637
G1 X113.24 Y81.812 E5.81267
G1 X113.808 Y82.444 E5.84094
G1 X114.066 Y82.784 E5.85513
G1 X114.355 Y83.189 E5.87168
G1 X114.79 Y83.875 E5.8987
G1 X115.017 Y84.313 E5.9151
G1 X115.231 Y84.761 E5.93162
G1 X115.393 Y85.125 E5.94487
G1 X124.078 Y106.139 E6.70114
G1 X124.334 Y106.864 E6.72671
G1 X124.475 Y107.414 E6.7456
G1 X124.484 Y107.456 E6.74702
G1 X124.606 Y108.216 E6.77263
G1 X124.648 Y109.007 E6.79897
G1 X124.648 Y133.868 E7.62585
G1 X124.608 Y134.636 E7.65143
G1 X124.489 Y135.396 E7.67702
G1 X124.291 Y136.139 E7.70259
G1 X124.017 Y136.858 E7.72818
G1 X123.67 Y137.544 E7.75375
G1 X123.254 Y138.191 E7.77934
G1 X122.773 Y138.791 E7.80491
G1 X122.481 Y139.101 E7.81908
G1 X122.364 Y139.218 E7.82458
G1 X121.792 Y139.732 E7.85016
G1 X121.17 Y140.185 E7.87575
G1 X120.505 Y140.571 E7.90132
G1 X119.803 Y140.886 E7.92692
G1 X119.072 Y141.126 E7.95251
G1 X118.321 Y141.289 E7.97807
G1 X117.556 Y141.373 E8.00366
G1 X117.131 Y141.385 E8.0178
G1 X110.865 Y141.385 E8.22621
G1 X110.097 Y141.345 E8.25179
G1 X109.337 Y141.226 E8.27738
G1 X108.594 Y141.028 E8.30295
G1 X107.875 Y140.754 E8.32854
G1 X107.189 Y140.407 E8.35411
G1 X106.542 Y139.991 E8.3797
G1 X105.942 Y139.51 E8.40527
G1 X105.632 Y139.218 E8.41944
G1 X105.515 Y139.101 E8.42494
G1 X105.001 Y138.529 E8.45052
G1 X104.548 Y137.907 E8.47611
G1 X104.162 Y137.242 E8.50169
G1 X103.847 Y136.54 E8.52728
G1 X103.607 Y135.809 E8.55287
G1 X103.444 Y135.058 E8.57843
G1 X103.36 Y134.293 E8.60402
G1 X103.348 Y133.868 E8.61816
G1 X103.348 Y113.396 E9.29907
G1 X103.234 Y113.255 E9.3051
G1 X102.815 Y112.61 E9.33068
G1 X102.465 Y111.925 E9.35626
G1 X102.203 Y111.25 E9.38035
G1 X95.861 Y92.232 E10.04713
G1 X95.646 Y91.445 E10.07427
G1 X95.536 Y90.933 E10.09168
G1 X95.414 Y90.174 E10.11725
G1 X95.376 Y89.649 E10.13476
G1 X95.358 Y89.156 E10.15117
G1 X95.37 Y88.387 E10.17675
G1 X95.409 Y87.981 E10.19031
G1 X95.469 Y87.494 E10.20663
G1 X95.612 Y86.694 E10.23366
G1 X95.621 Y86.656 E10.23496
G1 X95.752 Y86.175 E10.25154
G1 X95.897 Y85.706 E10.26787
G1 X96.162 Y84.984 E10.29345
G1 X96.372 Y84.536 E10.30991
G1 X96.604 Y84.08 E10.32692
G1 X96.983 Y83.42 E10.35224
G1 X97.281 Y82.992 E10.36958
G1 X97.577 Y82.596 E10.38603
G1 X98.078 Y81.994 E10.41208
G0 F6000 X98.372 Y82.265
G1 F600 X98.732 Y81.902 E10.42908
G1 X99.107 Y81.551 E10.44616
G1 X99.68 Y81.07 E10.47105
G1 X100.014 Y80.833 E10.48467
G1 X100.444 Y80.547 E10.50185
G1 X101.088 Y80.167 E10.52672
G1 X101.514 Y79.964 E10.54241
G1 X101.964 Y79.767 E10.55875
G1 X102.664 Y79.504 E10.58362
G1 X103.067 Y79.39 E10.59755
G1 X103.565 Y79.265 E10.61463
G1 X104.196 Y79.137 E10.63604
G1 X104.772 Y79.07 E10.65533
G1 X105.259 Y79.034 E10.67157
G1 X105.791 Y79.015 E10.68928
G1 X106.481 Y79.049 E10.71225
G1 X106.976 Y79.098 E10.7288
G1 X107.455 Y79.162 E10.74487
G1 X108.194 Y79.327 E10.77006
G1 X108.686 Y79.465 E10.78705
G1 X109.395 Y79.705 E10.81195
G1 X109.79 Y79.877 E10.82628
G1 X110.255 Y80.097 E10.84339
G1 X110.913 Y80.453 E10.86827
G1 X111.283 Y80.696 E10.88299
G1 X111.689 Y80.981 E10.89949
G1 X112.055 Y81.256 E10.91472
G1 X112.61 Y81.751 E10.93945
G1 X112.958 Y82.096 E10.95575
G1 X113.496 Y82.694 E10.9825
G1 X113.74 Y83.016 E10.99594
G1 X114.029 Y83.421 E11.01249
G1 X114.441 Y84.071 E11.03809
G1 X114.656 Y84.486 E11.05363
G1 X114.87 Y84.934 E11.07014
G1 X115.023 Y85.277 E11.08264
G1 X123.708 Y106.291 E11.83891
G1 X123.957 Y106.997 E11.86381
G1 X124.084 Y107.498 E11.881
G1 X124.093 Y107.54 E11.88242
G1 X124.21 Y108.279 E11.90731
G1 X124.248 Y109.007 E11.93156
G1 X124.248 Y133.868 E12.75844
G1 X124.208 Y134.615 E12.78332
G1 X124.089 Y135.353 E12.80818
G1 X123.891 Y136.075 E12.83308
G1 X123.618 Y136.771 E12.85795
G1 X123.271 Y137.434 E12.88284
G1 X122.856 Y138.057 E12.90773
G1 X122.198 Y138.818 E12.94119
G1 X122.081 Y138.935 E12.9467
G1 X121.524 Y139.435 E12.97159
G1 X120.918 Y139.872 E12.99644
G1 X120.268 Y140.243 E13.02133
G1 X119.582 Y140.542 E13.04622
G1 X118.868 Y140.766 E13.07111
G1 X118.135 Y140.913 E13.09598
G1 X117.131 Y140.985 E13.12946
G1 X110.865 Y140.985 E13.33787
G1 X110.118 Y140.945 E13.36275
G1 X109.38 Y140.826 E13.38761
G1 X108.658 Y140.628 E13.41251
G1 X107.962 Y140.355 E13.43738
G1 X107.299 Y140.008 E13.46227
G1 X106.676 Y139.593 E13.48716
G1 X105.915 Y138.935 E13.52062
G1 X105.798 Y138.818 E13.52613
G1 X105.298 Y138.261 E13.55102
G1 X104.861 Y137.655 E13.57587
G1 X104.49 Y137.005 E13.60076
G1 X104.191 Y136.319 E13.62565
G1 X103.967 Y135.605 E13.65054
G1 X103.82 Y134.872 E13.67541
G1 X103.748 Y133.868 E13.70889
G1 X103.748 Y113.254 E14.39451
G1 X103.522 Y112.97 E14.40658
G1 X103.121 Y112.339 E14.43145
G1 X102.79 Y111.668 E14.45633
G1 X102.582 Y111.123 E14.47574
G1 X96.24 Y92.105 E15.14252
G1 X96.037 Y91.361 E15.16817
G1 X95.927 Y90.849 E15.18559
G1 X95.809 Y90.111 E15.21045
G1 X95.776 Y89.634 E15.22635
G1 X95.758 Y89.141 E15.24276
G1 X95.806 Y88.03 E15.27974
G1 X95.866 Y87.543 E15.29606
G1 X96.001 Y86.786 E15.32164
G1 X96.01 Y86.748 E15.32294
G1 X96.134 Y86.293 E15.33862
G1 X96.279 Y85.824 E15.35495
G1 X96.538 Y85.123 E15.37981
G1 X96.728 Y84.718 E15.39469
G1 X96.96 Y84.262 E15.4117
G1 X97.32 Y83.637 E15.43569
G1 X97.601 Y83.231 E15.45212
G1 X97.897 Y82.835 E15.46856
G1 X98.372 Y82.265 E15.49324
G0 F6000 X98.666 Y82.536
G1 F600 X99.006 Y82.194 E15.50928
G1 X99.381 Y81.843 E15.52636
G1 X99.938 Y81.377 E15.55052
G1 X100.236 Y81.167 E15.56264
G1 X100.666 Y80.881 E15.57982
G1 X101.292 Y80.512 E15.60399
G1 X101.674 Y80.33 E15.61806
G1 X102.124 Y80.133 E15.6344
G1 X102.805 Y79.879 E15.65857
G1 X103.164 Y79.778 E15.67098
G1 X103.662 Y79.653 E15.68805
G1 X104.259 Y79.532 E15.70831
G1 X104.801 Y79.469 E15.72646
G1 X105.288 Y79.433 E15.7427
G1 X105.791 Y79.415 E15.75944
G1 X106.441 Y79.447 E15.78109
G1 X106.936 Y79.496 E15.79763
G1 X107.389 Y79.557 E15.81284
G1 X108.086 Y79.712 E15.83659
G1 X108.578 Y79.85 E15.85358
G1 X109.266 Y80.085 E15.87776
G1 X109.619 Y80.239 E15.89057
G1 X110.084 Y80.459 E15.90768
G1 X110.722 Y80.805 E15.93182
G1 X111.053 Y81.023 E15.945
G1 X111.459 Y81.308 E15.9615
G1 X111.805 Y81.568 E15.9759
G1 X112.329 Y82.035 E15.99924
G1 X112.677 Y82.38 E16.01554
G1 X113.184 Y82.944 E16.04076
G1 X113.414 Y83.248 E16.05344
G1 X113.703 Y83.653 E16.06999
G1 X114.092 Y84.267 E16.09417
G1 X114.295 Y84.658 E16.10882
G1 X114.509 Y85.106 E16.12533
G1 X114.654 Y85.43 E16.13714
G1 X123.339 Y106.444 E16.89341
G1 X123.579 Y107.13 E16.91758
G1 X123.692 Y107.582 E16.93308
G1 X123.701 Y107.624 E16.93451
G1 X123.814 Y108.342 E16.95868
G1 X123.848 Y109.007 E16.98083
G1 X123.848 Y133.868 E17.80771
G1 X123.808 Y134.593 E17.83186
G1 X123.689 Y135.31 E17.85603
G1 X123.491 Y136.009 E17.8802
G1 X123.218 Y136.682 E17.90435
G1 X122.873 Y137.321 E17.9285
G1 X122.459 Y137.918 E17.95267
G1 X121.915 Y138.535 E17.98003
G1 X121.798 Y138.652 E17.98553
G1 X121.257 Y139.136 E18.00967
G1 X120.666 Y139.559 E18.03385
G1 X120.032 Y139.913 E18.058
G1 X119.363 Y140.196 E18.08216
G1 X118.667 Y140.404 E18.10632
G1 X117.952 Y140.534 E18.13049
G1 X117.131 Y140.585 E18.15785
G1 X110.865 Y140.585 E18.36626
G1 X110.14 Y140.545 E18.39041
G1 X109.423 Y140.426 E18.41458
G1 X108.724 Y140.228 E18.43874
G1 X108.051 Y139.955 E18.4629
G1 X107.412 Y139.61 E18.48705
G1 X106.815 Y139.196 E18.51122
G1 X106.198 Y138.652 E18.53857
G1 X106.081 Y138.535 E18.54408
G1 X105.597 Y137.994 E18.56822
G1 X105.174 Y137.403 E18.59239
G1 X104.82 Y136.769 E18.61655
G1 X104.537 Y136.1 E18.64071
G1 X104.329 Y135.404 E18.66487
G1 X104.199 Y134.689 E18.68904
G1 X104.148 Y133.868 E18.7164
G1 X104.148 Y113.117 E19.40658
G1 X103.811 Y112.687 E19.42475
G1 X103.429 Y112.069 E19.44891
G1 X103.117 Y111.413 E19.47307
G1 X102.962 Y110.997 E19.48784
G1 X96.62 Y91.979 E20.15462
G1 X96.428 Y91.277 E20.17883
G1 X96.318 Y90.765 E20.19625
G1 X96.205 Y90.048 E20.22039
G1 X96.175 Y89.62 E20.23466
G1 X96.157 Y89.127 E20.25107
G1 X96.203 Y88.079 E20.28596
G1 X96.263 Y87.592 E20.30228
G1 X96.391 Y86.878 E20.32641
G1 X96.4 Y86.84 E20.3277
G1 X96.516 Y86.412 E20.34245
G1 X96.661 Y85.943 E20.35878
G1 X96.914 Y85.261 E20.38297
G1 X97.085 Y84.899 E20.39629
G1 X97.317 Y84.443 E20.41331
G1 X97.656 Y83.853 E20.43594
G1 X97.922 Y83.471 E20.45142
G1 X98.218 Y83.075 E20.46787
G1 X98.666 Y82.536 E20.49118
G0 F6000 X98.96 Y82.808
G1 F600 X99.279 Y82.486 E20.50625
G1 X99.654 Y82.135 E20.52334
G1 X100.457 Y81.5 E20.55739
G1 X100.887 Y81.214 E20.57456
G1 X101.495 Y80.858 E20.598
G1 X101.835 Y80.696 E20.61052
G1 X102.285 Y80.499 E20.62686
G1 X103.262 Y80.166 E20.66119
G1 X103.76 Y80.041 E20.67827
G1 X104.321 Y79.927 E20.69731
G1 X104.831 Y79.868 E20.71438
G1 X105.318 Y79.832 E20.73063
G1 X105.791 Y79.815 E20.74637
G1 X106.402 Y79.845 E20.76671
G1 X106.897 Y79.894 E20.78326
G1 X107.323 Y79.951 E20.79755
G1 X107.978 Y80.097 E20.81987
G1 X108.47 Y80.235 E20.83687
G1 X109.448 Y80.601 E20.8716
G1 X109.913 Y80.821 E20.88871
G1 X110.823 Y81.35 E20.92372
G1 X111.229 Y81.635 E20.94022
G1 X111.555 Y81.881 E20.9538
G1 X112.047 Y82.319 E20.97571
G1 X112.395 Y82.664 E20.99201
G1 X112.871 Y83.194 E21.0157
G1 X113.089 Y83.481 E21.02769
G1 X113.378 Y83.886 E21.04424
G1 X113.744 Y84.463 E21.06696
G1 X113.934 Y84.831 E21.08074
G1 X114.148 Y85.279 E21.09725
G1 X114.284 Y85.583 E21.10833
G1 X122.969 Y106.597 E21.8646
G1 X123.2 Y107.262 E21.88801
G1 X123.301 Y107.666 E21.90186
G1 X123.31 Y107.708 E21.90329
G1 X123.419 Y108.404 E21.92672
G1 X123.448 Y109.007 E21.9468
G1 X123.448 Y133.868 E22.77368
G1 X123.408 Y134.571 E22.7971
G1 X123.289 Y135.265 E22.82052
G1 X123.091 Y135.94 E22.84392
G1 X122.819 Y136.589 E22.86732
G1 X122.474 Y137.203 E22.89075
G1 X122.063 Y137.774 E22.91415
G1 X121.632 Y138.252 E22.93556
G1 X121.515 Y138.369 E22.94106
G1 X120.99 Y138.838 E22.96447
G1 X120.415 Y139.244 E22.98788
G1 X119.797 Y139.582 E23.01131
G1 X119.146 Y139.849 E23.03472
G1 X118.468 Y140.039 E23.05813
G1 X117.773 Y140.152 E23.08155
G1 X117.131 Y140.185 E23.10294
G1 X110.865 Y140.185 E23.31134
G1 X110.162 Y140.145 E23.33476
G1 X109.468 Y140.026 E23.35818
G1 X108.793 Y139.828 E23.38158
G1 X108.144 Y139.556 E23.40498
G1 X107.53 Y139.211 E23.42841
G1 X106.959 Y138.8 E23.45181
G1 X106.481 Y138.369 E23.47321
G1 X106.364 Y138.252 E23.47872
G1 X105.895 Y137.727 E23.50213
G1 X105.489 Y137.152 E23.52554
G1 X105.151 Y136.534 E23.54897
G1 X104.884 Y135.883 E23.57237
G1 X104.694 Y135.205 E23.59579
G1 X104.581 Y134.51 E23.61921
G1 X104.548 Y133.868 E23.64059
G1 X104.548 Y112.98 E24.33533
G1 X104.531 Y112.962 E24.33616
G1 X104.102 Y112.404 E24.35957
G1 X103.739 Y111.801 E24.38298
G1 X103.341 Y110.87 E24.41665
G1 X96.999 Y91.852 E25.08344
G1 X96.819 Y91.193 E25.10616
G1 X96.709 Y90.681 E25.12358
G1 X96.601 Y89.986 E25.14697
G1 X96.575 Y89.605 E25.15967
G1 X96.557 Y89.112 E25.17608
G1 X96.6 Y88.128 E25.20884
G1 X96.66 Y87.641 E25.22516
G1 X96.78 Y86.97 E25.24783
G1 X96.789 Y86.932 E25.24913
G1 X96.899 Y86.53 E25.26299
G1 X97.044 Y86.061 E25.27932
G1 X97.289 Y85.401 E25.30273
G1 X97.441 Y85.081 E25.31452
G1 X97.673 Y84.625 E25.33153
G1 X97.993 Y84.069 E25.35287
G1 X98.242 Y83.71 E25.3674
G1 X98.538 Y83.314 E25.38384
G1 X98.96 Y82.808 E25.40576
G0 F6000 X99.254 Y83.079
G1 F600 X99.553 Y82.779 E25.41985
G1 X99.928 Y82.428 E25.43693
G1 X100.679 Y81.833 E25.4688
G1 X101.109 Y81.547 E25.48597
G1 X101.995 Y81.063 E25.51955
G1 X102.445 Y80.866 E25.53589
