;FLAVOR:Marlin
;TIME:2233
;Filament used: 1.10425m
;Layer height: 0.2
;MINX:84.711
;MINY:85.2
;MINZ:0.2
;MAXX:135.289
;MAXY:148.8
;MAXZ:4.5
;Generated with Cura_SteamEngine master
M140 S70
M105
M190 S70
M104 S200
M105
M109 S200
M82 ;absolute extrusion mode
M201 X500.00 Y500.00 Z100.00 E5000.00 ;Setup machine max acceleration
M203 X500.00 Y500.00 Z10.00 E50.00 ;Setup machine max feedrate
M204 P500.00 R1000.00 T500.00 ;Setup Print/Retract/Travel acceleration
M205 X8.00 Y8.00 Z0.40 E5.00 ;Setup Jerk
M220 S100 ;Reset Feedrate
M221 S100 ;Reset Flowrate

G28 ;Home

G92 E0 ;Reset Extruder
G1 Z2.0 F3000 ;Move Z Axis up
G1 X10.1 Y20 Z0.28 F5000.0 ;Move to start position
G1 X10.1 Y200.0 Z0.28 F1500.0 E15 ;Draw the first line
G1 X10.4 Y200.0 Z0.28 F5000.0 ;Move to side a little
G1 X10.4 Y20 Z0.28 F1500.0 E30 ;Draw the second line
G92 E0 ;Reset Extruder
G1 Z2.0 F3000 ;Move Z Axis up

G92 E0
G92 E0
G1 F2700 E-5
;LAYER_COUNT:20
;LAYER:0
M107
G1 F300 Z0.7
G0 F6000 X87.656 Y88.576 Z0.7
;TYPE:SKIRT
G1 F300 Z0.2
G1 F2700 E0
G1 F600 X88.044 Y88.197 E0.01804
G1 X88.408 Y87.865 E0.03443
G1 X89.017 Y87.363 E0.06068
G1 X89.41 Y87.09 E0.07659
G1 X89.825 Y86.82 E0.09306
G1 X90.508 Y86.423 E0.11933
G1 X90.968 Y86.205 E0.13626
G1 X91.421 Y86.008 E0.15269
G1 X92.161 Y85.73 E0.17899
G1 X92.606 Y85.603 E0.19438
G1 X93.073 Y85.484 E0.21041
G1 X93.66 Y85.358 E0.23038
G1 X94.382 Y85.265 E0.25459
G1 X94.86 Y85.226 E0.27054
G1 X95.494 Y85.2 E0.29164
G1 X124.506 Y85.2 E1.25659
G1 X125.14 Y85.226 E1.27769
G1 X125.618 Y85.265 E1.29364
G1 X126.357 Y85.361 E1.31843
G1 X126.927 Y85.484 E1.33782
G1 X127.394 Y85.603 E1.35385
G1 X128.148 Y85.836 E1.3801
G1 X128.579 Y86.008 E1.39553
G1 X129.032 Y86.205 E1.41196
G1 X129.739 Y86.556 E1.43822
G1 X130.175 Y86.82 E1.45517
G1 X130.59 Y87.09 E1.47164
G1 X131.229 Y87.554 E1.4979
G1 X131.592 Y87.865 E1.5138
G1 X131.956 Y88.197 E1.53019
G1 X132.512 Y88.758 E1.55646
G1 X132.863 Y89.179 E1.57469
G1 X133.178 Y89.585 E1.59178
G1 X133.63 Y90.232 E1.61803
G1 X133.882 Y90.666 E1.63472
G1 X134.118 Y91.104 E1.65127
G1 X134.457 Y91.817 E1.67753
G1 X134.629 Y92.274 E1.69377
G1 X134.784 Y92.726 E1.70966
G1 X134.977 Y93.38 E1.73234
G1 X135.103 Y93.982 E1.7528
G1 X135.182 Y94.453 E1.76868
G1 X135.273 Y95.237 E1.79493
G1 X135.289 Y95.743 E1.81177
G1 X135.289 Y96.257 E1.82887
G1 X135.249 Y97.046 E1.85514
G1 X135.182 Y97.547 E1.87196
G1 X135.103 Y98.018 E1.88784
G1 X134.943 Y98.753 E1.91286
G1 X134.786 Y99.268 E1.93077
G1 X134.631 Y99.721 E1.94669
G1 X134.338 Y100.454 E1.97295
G1 X134.124 Y100.885 E1.98895
G1 X133.89 Y101.321 E2.00541
G1 X133.482 Y101.997 E2.03167
G1 X133.176 Y102.418 E2.04898
G1 X132.859 Y102.826 E2.06617
G1 X132.711 Y102.997 E2.07369
G1 X132.863 Y103.179 E2.08157
G1 X133.178 Y103.585 E2.09867
G1 X133.63 Y104.232 E2.12492
G1 X133.882 Y104.666 E2.14161
G1 X134.118 Y105.104 E2.15816
G1 X134.457 Y105.817 E2.18441
G1 X134.629 Y106.274 E2.20065
G1 X134.784 Y106.726 E2.21655
G1 X134.977 Y107.38 E2.23923
G1 X135.103 Y107.982 E2.25968
G1 X135.182 Y108.453 E2.27557
G1 X135.273 Y109.237 E2.30182
G1 X135.289 Y109.743 E2.31866
G1 X135.289 Y110.257 E2.33575
G1 X135.249 Y111.046 E2.36203
G1 X135.182 Y111.547 E2.37884
G1 X135.103 Y112.018 E2.39472
G1 X134.943 Y112.753 E2.41974
G1 X134.786 Y113.268 E2.43765
G1 X134.631 Y113.721 E2.45358
G1 X134.338 Y114.454 E2.47983
G1 X134.124 Y114.885 E2.49584
G1 X133.89 Y115.321 E2.51229
G1 X133.482 Y115.997 E2.53855
G1 X133.176 Y116.418 E2.55587
G1 X132.859 Y116.826 E2.57305
G1 X132.711 Y116.997 E2.58057
G1 X132.863 Y117.179 E2.58846
G1 X133.178 Y117.585 E2.60555
G1 X133.63 Y118.232 E2.6318
G1 X133.882 Y118.666 E2.64849
G1 X134.118 Y119.104 E2.66504
G1 X134.457 Y119.817 E2.6913
G1 X134.629 Y120.274 E2.70754
G1 X134.784 Y120.726 E2.72343
G1 X134.977 Y121.38 E2.74611
G1 X135.103 Y121.982 E2.76657
G1 X135.182 Y122.453 E2.78245
G1 X135.273 Y123.237 E2.8087
G1 X135.289 Y123.743 E2.82554
G1 X135.289 Y124.257 E2.84264
G1 X135.249 Y125.046 E2.86891
G1 X135.182 Y125.547 E2.88573
G1 X135.103 Y126.018 E2.90161
G1 X134.943 Y126.753 E2.92663
G1 X134.786 Y127.268 E2.94454
G1 X134.631 Y127.721 E2.96046
G1 X134.338 Y128.454 E2.98672
G1 X134.124 Y128.885 E3.00272
G1 X133.89 Y129.321 E3.01918
G1 X133.482 Y129.997 E3.04544
G1 X133.176 Y130.418 E3.06275
G1 X132.859 Y130.826 E3.07993
G1 X132.711 Y130.997 E3.08746
G1 X132.863 Y131.179 E3.09534
G1 X133.178 Y131.585 E3.11243
G1 X133.63 Y132.232 E3.13869
G1 X133.882 Y132.666 E3.15538
G1 X134.118 Y133.104 E3.17193
G1 X134.457 Y133.817 E3.19818
G1 X134.629 Y134.274 E3.21442
G1 X134.784 Y134.726 E3.23032
G1 X134.977 Y135.38 E3.253
G1 X135.103 Y135.982 E3.27345
G1 X135.182 Y136.453 E3.28934
G1 X135.273 Y137.237 E3.31559
G1 X135.289 Y137.743 E3.33243
G1 X135.289 Y138.257 E3.34952
G1 X135.249 Y139.046 E3.3758
G1 X135.182 Y139.547 E3.39261
G1 X135.103 Y140.018 E3.40849
G1 X134.943 Y140.753 E3.43351
G1 X134.786 Y141.268 E3.45142
G1 X134.631 Y141.721 E3.46734
G1 X134.338 Y142.454 E3.4936
G1 X134.124 Y142.885 E3.50961
G1 X133.89 Y143.321 E3.52606
G1 X133.482 Y143.997 E3.55232
G1 X133.176 Y144.418 E3.56964
G1 X132.859 Y144.826 E3.58682
G1 X132.344 Y145.424 E3.61307
G1 X131.956 Y145.803 E3.63111
G1 X131.592 Y146.135 E3.64749
G1 X130.983 Y146.637 E3.67374
G1 X130.59 Y146.91 E3.68966
G1 X130.175 Y147.18 E3.70613
G1 X129.492 Y147.577 E3.7324
G1 X129.032 Y147.795 E3.74933
G1 X128.579 Y147.992 E3.76576
G1 X127.839 Y148.27 E3.79206
G1 X127.394 Y148.397 E3.80745
G1 X126.927 Y148.516 E3.82348
G1 X126.34 Y148.642 E3.84344
G1 X125.618 Y148.735 E3.86766
G1 X125.14 Y148.774 E3.88361
G1 X124.506 Y148.8 E3.90471
G1 X95.494 Y148.8 E4.86966
G1 X94.86 Y148.774 E4.89076
G1 X94.382 Y148.735 E4.90671
G1 X93.643 Y148.639 E4.9315
G1 X93.073 Y148.516 E4.95089
G1 X92.606 Y148.397 E4.96692
G1 X91.852 Y148.164 E4.99317
G1 X91.421 Y147.992 E5.0086
G1 X90.968 Y147.795 E5.02503
G1 X90.261 Y147.444 E5.05129
G1 X89.825 Y147.18 E5.06824
G1 X89.41 Y146.91 E5.08471
G1 X88.771 Y146.446 E5.11097
G1 X88.408 Y146.135 E5.12687
G1 X88.044 Y145.803 E5.14326
G1 X87.488 Y145.242 E5.16953
G1 X87.147 Y144.834 E5.18721
G1 X86.84 Y144.44 E5.20383
G1 X86.423 Y143.85 E5.22786
G1 X86.118 Y143.333 E5.24782
G1 X85.883 Y142.897 E5.26429
G1 X85.544 Y142.184 E5.29055
G1 X85.369 Y141.721 E5.30702
G1 X85.214 Y141.268 E5.32294
G1 X85.053 Y140.738 E5.34136
G1 X84.897 Y140.018 E5.36587
G1 X84.818 Y139.547 E5.38175
G1 X84.727 Y138.763 E5.408
G1 X84.711 Y138.257 E5.42484
G1 X84.711 Y137.743 E5.44193
G1 X84.751 Y136.954 E5.46821
G1 X84.818 Y136.453 E5.48502
G1 X84.897 Y135.982 E5.50091
G1 X85.057 Y135.247 E5.52593
G1 X85.214 Y134.732 E5.54383
G1 X85.369 Y134.279 E5.55976
G1 X85.662 Y133.546 E5.58601
G1 X85.876 Y133.115 E5.60202
G1 X86.11 Y132.679 E5.61848
G1 X86.518 Y132.003 E5.64474
G1 X86.824 Y131.582 E5.66205
G1 X87.141 Y131.174 E5.67923
G1 X87.288 Y131.003 E5.68673
G1 X87.147 Y130.834 E5.69405
G1 X86.84 Y130.44 E5.71067
G1 X86.423 Y129.85 E5.7347
G1 X86.118 Y129.333 E5.75466
G1 X85.883 Y128.897 E5.77113
G1 X85.544 Y128.184 E5.79739
G1 X85.369 Y127.721 E5.81386
G1 X85.214 Y127.268 E5.82978
G1 X85.053 Y126.738 E5.8482
G1 X84.897 Y126.018 E5.87271
G1 X84.818 Y125.547 E5.88859
G1 X84.727 Y124.763 E5.91484
G1 X84.711 Y124.257 E5.93168
G1 X84.711 Y123.743 E5.94877
G1 X84.751 Y122.954 E5.97505
G1 X84.818 Y122.453 E5.99186
G1 X84.897 Y121.982 E6.00775
G1 X85.057 Y121.247 E6.03277
G1 X85.214 Y120.732 E6.05067
G1 X85.369 Y120.279 E6.0666
G1 X85.662 Y119.546 E6.09285
G1 X85.876 Y119.115 E6.10886
G1 X86.11 Y118.679 E6.12532
G1 X86.518 Y118.003 E6.15158
G1 X86.824 Y117.582 E6.16889
G1 X87.141 Y117.174 E6.18607
G1 X87.288 Y117.003 E6.19357
G1 X87.147 Y116.834 E6.20089
G1 X86.84 Y116.44 E6.21751
G1 X86.423 Y115.85 E6.24154
G1 X86.118 Y115.333 E6.2615
G1 X85.883 Y114.897 E6.27797
G1 X85.544 Y114.184 E6.30423
G1 X85.369 Y113.721 E6.3207
G1 X85.214 Y113.268 E6.33662
G1 X85.053 Y112.738 E6.35504
G1 X84.897 Y112.018 E6.37955
G1 X84.818 Y111.547 E6.39543
G1 X84.727 Y110.763 E6.42168
G1 X84.711 Y110.257 E6.43852
G1 X84.711 Y109.743 E6.45562
G1 X84.751 Y108.954 E6.48189
G1 X84.818 Y108.453 E6.4987
G1 X84.897 Y107.982 E6.51459
G1 X85.057 Y107.247 E6.53961
G1 X85.214 Y106.732 E6.55751
G1 X85.369 Y106.279 E6.57344
G1 X85.662 Y105.546 E6.59969
G1 X85.876 Y105.115 E6.6157
G1 X86.11 Y104.679 E6.63216
G1 X86.518 Y104.003 E6.65842
G1 X86.824 Y103.582 E6.67573
G1 X87.141 Y103.174 E6.69291
G1 X87.288 Y103.003 E6.70041
G1 X87.147 Y102.834 E6.70773
G1 X86.84 Y102.44 E6.72435
G1 X86.423 Y101.85 E6.74838
G1 X86.118 Y101.333 E6.76834
G1 X85.883 Y100.897 E6.78481
G1 X85.544 Y100.184 E6.81107
G1 X85.369 Y99.721 E6.82754
G1 X85.214 Y99.268 E6.84346
G1 X85.053 Y98.738 E6.86188
G1 X84.897 Y98.018 E6.88639
G1 X84.818 Y97.547 E6.90227
G1 X84.727 Y96.763 E6.92852
G1 X84.711 Y96.257 E6.94536
G1 X84.711 Y95.743 E6.96246
G1 X84.751 Y94.954 E6.98873
G1 X84.818 Y94.453 E7.00554
G1 X84.897 Y93.982 E7.02143
G1 X85.057 Y93.247 E7.04645
G1 X85.214 Y92.732 E7.06435
G1 X85.369 Y92.279 E7.08028
G1 X85.662 Y91.546 E7.10653
G1 X85.876 Y91.115 E7.12254
G1 X86.11 Y90.679 E7.139
G1 X86.518 Y90.003 E7.16526
G1 X86.824 Y89.582 E7.18257
G1 X87.141 Y89.174 E7.19975
G1 X87.656 Y88.576 E7.226
G0 F6000 X87.959 Y88.838
G1 F600 X88.313 Y88.493 E7.24244
G1 X88.677 Y88.161 E7.25883
G1 X89.272 Y87.673 E7.28442
G1 X89.628 Y87.425 E7.29885
G1 X90.043 Y87.155 E7.31532
G1 X90.709 Y86.77 E7.34091
G1 X91.128 Y86.572 E7.35632
G1 X91.581 Y86.375 E7.37275
G1 X92.301 Y86.105 E7.39833
G1 X92.705 Y85.99 E7.4123
G1 X93.172 Y85.871 E7.42833
G1 X93.73 Y85.752 E7.4473
G1 X94.414 Y85.664 E7.47024
G1 X94.892 Y85.625 E7.48619
G1 X95.494 Y85.6 E7.50623
G1 X124.506 Y85.6 E8.47117
G1 X125.108 Y85.625 E8.49121
G1 X125.586 Y85.664 E8.50716
G1 X126.287 Y85.755 E8.53068
G1 X126.828 Y85.871 E8.54908
G1 X127.295 Y85.99 E8.56511
G1 X128.03 Y86.219 E8.59071
G1 X128.419 Y86.375 E8.60465
G1 X128.872 Y86.572 E8.62108
G1 X129.561 Y86.915 E8.64668
G1 X129.957 Y87.155 E8.66208
G1 X130.372 Y87.425 E8.67855
G1 X130.994 Y87.878 E8.70414
G1 X131.323 Y88.161 E8.71858
G1 X131.687 Y88.493 E8.73496
G1 X132.227 Y89.04 E8.76053
G1 X132.547 Y89.424 E8.77715
G1 X132.862 Y89.83 E8.79424
G1 X133.301 Y90.461 E8.81981
G1 X133.53 Y90.856 E8.835
G1 X133.766 Y91.294 E8.85154
G1 X134.095 Y91.989 E8.87712
G1 X134.251 Y92.404 E8.89187
G1 X134.406 Y92.856 E8.90776
G1 X134.589 Y93.477 E8.92929
G1 X134.708 Y94.048 E8.94869
G1 X134.787 Y94.519 E8.96457
G1 X134.875 Y95.283 E8.99015
G1 X134.889 Y95.743 E9.00546
G1 X134.889 Y96.257 E9.02256
G1 X134.849 Y97.025 E9.04813
G1 X134.787 Y97.481 E9.06344
G1 X134.708 Y97.952 E9.07933
G1 X134.556 Y98.65 E9.10308
G1 X134.407 Y99.139 E9.12009
G1 X134.252 Y99.592 E9.13601
G1 X133.966 Y100.305 E9.16156
G1 X133.771 Y100.695 E9.17607
G1 X133.537 Y101.131 E9.19252
G1 X133.139 Y101.789 E9.2181
G1 X132.861 Y102.172 E9.23384
G1 X132.544 Y102.58 E9.25103
G1 X132.184 Y102.996 E9.26932
G1 X132.227 Y103.04 E9.27137
G1 X132.547 Y103.424 E9.288
G1 X132.862 Y103.83 E9.30509
G1 X133.301 Y104.461 E9.33065
G1 X133.53 Y104.856 E9.34584
G1 X133.766 Y105.294 E9.36239
G1 X134.095 Y105.989 E9.38796
G1 X134.251 Y106.404 E9.40271
G1 X134.406 Y106.856 E9.4186
G1 X134.589 Y107.477 E9.44013
G1 X134.708 Y108.048 E9.45953
G1 X134.787 Y108.519 E9.47542
G1 X134.875 Y109.283 E9.501
G1 X134.889 Y109.743 E9.5163
G1 X134.889 Y110.257 E9.5334
G1 X134.849 Y111.025 E9.55898
G1 X134.787 Y111.481 E9.57428
G1 X134.708 Y111.952 E9.59017
G1 X134.556 Y112.65 E9.61393
G1 X134.407 Y113.139 E9.63093
G1 X134.252 Y113.592 E9.64685
G1 X133.966 Y114.305 E9.67241
G1 X133.771 Y114.695 E9.68691
G1 X133.537 Y115.131 E9.70337
G1 X133.139 Y115.789 E9.72894
G1 X132.861 Y116.172 E9.74468
G1 X132.544 Y116.58 E9.76187
G1 X132.184 Y116.996 E9.78017
G1 X132.227 Y117.04 E9.78221
G1 X132.547 Y117.424 E9.79884
G1 X132.862 Y117.83 E9.81593
G1 X133.301 Y118.461 E9.8415
G1 X133.53 Y118.856 E9.85668
G1 X133.766 Y119.294 E9.87323
G1 X134.095 Y119.989 E9.8988
G1 X134.251 Y120.404 E9.91355
G1 X134.406 Y120.856 E9.92944
G1 X134.589 Y121.477 E9.95098
G1 X134.708 Y122.048 E9.97038
G1 X134.787 Y122.519 E9.98626
G1 X134.875 Y123.283 E10.01184
G1 X134.889 Y123.743 E10.02715
G1 X134.889 Y124.257 E10.04424
G1 X134.849 Y125.025 E10.06982
G1 X134.787 Y125.481 E10.08513
G1 X134.708 Y125.952 E10.10101
G1 X134.556 Y126.65 E10.12477
G1 X134.407 Y127.139 E10.14177
G1 X134.252 Y127.592 E10.1577
G1 X133.966 Y128.305 E10.18325
G1 X133.771 Y128.695 E10.19775
G1 X133.537 Y129.131 E10.21421
G1 X133.139 Y129.789 E10.23979
G1 X132.861 Y130.172 E10.25553
G1 X132.544 Y130.58 E10.27271
G1 X132.184 Y130.996 E10.29101
G1 X132.227 Y131.04 E10.29306
G1 X132.547 Y131.424 E10.30968
G1 X132.862 Y131.83 E10.32677
G1 X133.301 Y132.461 E10.35234
G1 X133.53 Y132.856 E10.36752
G1 X133.766 Y133.294 E10.38407
G1 X134.095 Y133.989 E10.40965
G1 X134.251 Y134.404 E10.42439
G1 X134.406 Y134.856 E10.44029
G1 X134.589 Y135.477 E10.46182
G1 X134.708 Y136.048 E10.48122
G1 X134.787 Y136.519 E10.4971
G1 X134.875 Y137.283 E10.52268
G1 X134.889 Y137.743 E10.53799
G1 X134.889 Y138.257 E10.55508
G1 X134.849 Y139.025 E10.58066
G1 X134.787 Y139.481 E10.59597
G1 X134.708 Y139.952 E10.61185
G1 X134.556 Y140.65 E10.63561
G1 X134.407 Y141.139 E10.65262
G1 X134.252 Y141.592 E10.66854
G1 X133.966 Y142.305 E10.69409
G1 X133.771 Y142.695 E10.70859
G1 X133.537 Y143.131 E10.72505
G1 X133.139 Y143.789 E10.75063
G1 X132.861 Y144.172 E10.76637
G1 X132.544 Y144.58 E10.78355
G1 X132.041 Y145.162 E10.80914
G1 X131.687 Y145.507 E10.82558
G1 X131.323 Y145.839 E10.84197
G1 X130.728 Y146.327 E10.86756
G1 X130.372 Y146.575 E10.88199
G1 X129.957 Y146.845 E10.89846
G1 X129.291 Y147.23 E10.92404
G1 X128.872 Y147.428 E10.93946
G1 X128.419 Y147.625 E10.95589
G1 X127.699 Y147.895 E10.98146
G1 X127.295 Y148.01 E10.99543
G1 X126.828 Y148.129 E11.01146
G1 X126.27 Y148.248 E11.03044
G1 X125.586 Y148.336 E11.05338
G1 X125.108 Y148.375 E11.06933
G1 X124.506 Y148.4 E11.08937
G1 X95.494 Y148.4 E12.05431
G1 X94.892 Y148.375 E12.07435
G1 X94.414 Y148.336 E12.0903
G1 X93.713 Y148.245 E12.11381
G1 X93.172 Y148.129 E12.13222
G1 X92.705 Y148.01 E12.14824
G1 X91.97 Y147.781 E12.17385
G1 X91.581 Y147.625 E12.18779
G1 X91.128 Y147.428 E12.20422
G1 X90.439 Y147.085 E12.22982
G1 X90.043 Y146.845 E12.24522
G1 X89.628 Y146.575 E12.26169
G1 X89.006 Y146.122 E12.28728
G1 X88.677 Y145.839 E12.30171
G1 X88.313 Y145.507 E12.3181
G1 X87.773 Y144.96 E12.34366
G1 X87.463 Y144.588 E12.35977
G1 X87.156 Y144.194 E12.37638
G1 X86.759 Y143.634 E12.39921
G1 X86.47 Y143.143 E12.41816
G1 X86.235 Y142.707 E12.43464
G1 X85.906 Y142.012 E12.46021
G1 X85.748 Y141.592 E12.47514
G1 X85.593 Y141.139 E12.49106
G1 X85.44 Y140.635 E12.50858
G1 X85.292 Y139.952 E12.53182
G1 X85.213 Y139.481 E12.54771
G1 X85.125 Y138.717 E12.57329
G1 X85.111 Y138.257 E12.58859
G1 X85.111 Y137.743 E12.60569
G1 X85.151 Y136.975 E12.63127
G1 X85.213 Y136.519 E12.64657
G1 X85.292 Y136.048 E12.66246
G1 X85.444 Y135.35 E12.68622
G1 X85.593 Y134.861 E12.70322
G1 X85.748 Y134.408 E12.71915
G1 X86.034 Y133.695 E12.7447
G1 X86.229 Y133.305 E12.7592
G1 X86.463 Y132.869 E12.77566
G1 X86.861 Y132.211 E12.80123
G1 X87.139 Y131.828 E12.81698
G1 X87.456 Y131.42 E12.83416
G1 X87.816 Y131.004 E12.85246
G1 X87.773 Y130.96 E12.8545
G1 X87.463 Y130.588 E12.87061
G1 X87.156 Y130.194 E12.88722
G1 X86.759 Y129.634 E12.91005
G1 X86.47 Y129.143 E12.929
G1 X86.235 Y128.707 E12.94548
G1 X85.906 Y128.012 E12.97105
G1 X85.748 Y127.592 E12.98598
G1 X85.593 Y127.139 E13.0019
G1 X85.44 Y126.635 E13.01942
G1 X85.292 Y125.952 E13.04266
G1 X85.213 Y125.481 E13.05855
G1 X85.125 Y124.717 E13.08413
G1 X85.111 Y124.257 E13.09943
G1 X85.111 Y123.743 E13.11653
G1 X85.151 Y122.975 E13.14211
G1 X85.213 Y122.519 E13.15741
G1 X85.292 Y122.048 E13.1733
G1 X85.444 Y121.35 E13.19706
G1 X85.593 Y120.861 E13.21406
G1 X85.748 Y120.408 E13.22998
G1 X86.034 Y119.695 E13.25554
G1 X86.229 Y119.305 E13.27004
G1 X86.463 Y118.869 E13.2865
G1 X86.861 Y118.211 E13.31207
G1 X87.139 Y117.828 E13.32781
G1 X87.456 Y117.42 E13.345
G1 X87.816 Y117.004 E13.3633
G1 X87.773 Y116.96 E13.36534
G1 X87.463 Y116.588 E13.38145
G1 X87.156 Y116.194 E13.39806
G1 X86.759 Y115.634 E13.42089
