;FLAVOR:Marlin
;TIME:3363
;Filament used: 1.72516m
;Layer height: 0.2
;MINX:58.958
;MINY:72.215
;MINZ:0.2
;MAXX:143.048
;MAXY:153.785
;MAXZ:4.5
;Generated with Cura_SteamEngine master
M140 S70
M105
M190 S70
M104 S200
M105
M109 S200
M82 ;absolute extrusion mode
M201 X500.00 Y500.00 Z100.00 E5000.00 ;Setup machine max acceleration
M203 X500.00 Y500.00 Z10.00 E50.00 ;Setup machine max feedrate
M204 P500.00 R1000.00 T500.00 ;Setup Print/Retract/Travel acceleration
M205 X8.00 Y8.00 Z0.40 E5.00 ;Setup Jerk
M220 S100 ;Reset Feedrate
M221 S100 ;Reset Flowrate

G28 ;Home

G92 E0 ;Reset Extruder
G1 Z2.0 F3000 ;Move Z Axis up
G1 X10.1 Y20 Z0.28 F5000.0 ;Move to start position
G1 X10.1 Y200.0 Z0.28 F1500.0 E15 ;Draw the first line
G1 X10.4 Y200.0 Z0.28 F5000.0 ;Move to side a little
G1 X10.4 Y20 Z0.28 F1500.0 E30 ;Draw the second line
G92 E0 ;Reset Extruder
G1 Z2.0 F3000 ;Move Z Axis up

G92 E0
G92 E0
G1 F2700 E-5
;LAYER_COUNT:20
;LAYER:0
M107
G1 F300 Z0.7
G0 F6000 X63.571 Y92.167 Z0.7
;TYPE:SKIRT
G1 F300 Z0.2
G1 F2700 E0
G1 F600 X64.001 Y91.881 E0.01718
G1 X64.68 Y91.478 E0.04344
G1 X65.193 Y91.231 E0.06238
G1 X65.643 Y91.034 E0.07871
G1 X66.381 Y90.754 E0.10497
G1 X66.872 Y90.614 E0.12195
G1 X67.37 Y90.489 E0.13903
G1 X68.071 Y90.346 E0.16282
G1 X68.713 Y90.272 E0.18432
G1 X69.2 Y90.236 E0.20056
G1 X69.791 Y90.215 E0.22023
G1 X70.559 Y90.253 E0.2458
G1 X71.054 Y90.302 E0.26235
G1 X71.586 Y90.373 E0.2802
G1 X72.411 Y90.557 E0.30831
G1 X72.903 Y90.695 E0.32531
G1 X73.651 Y90.946 E0.35155
G1 X74.132 Y91.154 E0.36898
G1 X74.597 Y91.374 E0.38609
G1 X75.293 Y91.748 E0.41237
G1 X75.742 Y92.041 E0.4302
G1 X76.148 Y92.326 E0.4467
G1 X76.555 Y92.631 E0.46361
G1 X77.126 Y93.141 E0.48908
G1 X77.223 Y92.601 E0.50733
G1 X77.232 Y92.563 E0.50863
G1 X77.37 Y92.057 E0.52607
G1 X77.515 Y91.588 E0.5424
G1 X77.786 Y90.846 E0.56867
G1 X78.015 Y90.355 E0.58669
G1 X78.247 Y89.899 E0.60371
G1 X78.647 Y89.204 E0.63038
G1 X78.96 Y88.752 E0.64866
G1 X79.256 Y88.356 E0.66511
G1 X79.785 Y87.722 E0.69257
G1 X80.186 Y87.318 E0.7115
G1 X80.561 Y86.967 E0.72859
G1 X81.164 Y86.458 E0.75483
G1 X81.571 Y86.167 E0.77147
G1 X82.001 Y85.881 E0.78865
G1 X82.68 Y85.478 E0.81491
G1 X83.193 Y85.231 E0.83385
G1 X83.643 Y85.034 E0.85019
G1 X84.381 Y84.754 E0.87644
G1 X84.872 Y84.614 E0.89342
G1 X85.37 Y84.489 E0.9105
G1 X86.071 Y84.346 E0.9343
G1 X86.713 Y84.272 E0.95579
G1 X87.2 Y84.236 E0.97203
G1 X87.791 Y84.215 E0.9917
G1 X88.559 Y84.253 E1.01728
G1 X89.054 Y84.302 E1.03382
G1 X89.586 Y84.373 E1.05167
G1 X90.411 Y84.557 E1.07979
G1 X90.903 Y84.695 E1.09678
G1 X91.651 Y84.946 E1.12302
G1 X92.132 Y85.154 E1.14045
G1 X92.597 Y85.374 E1.15756
G1 X93.293 Y85.748 E1.18384
G1 X93.742 Y86.041 E1.20167
G1 X94.148 Y86.326 E1.21817
G1 X94.555 Y86.631 E1.23509
G1 X95.126 Y87.141 E1.26055
G1 X95.223 Y86.601 E1.2788
G1 X95.232 Y86.563 E1.2801
G1 X95.37 Y86.057 E1.29754
G1 X95.515 Y85.588 E1.31387
G1 X95.786 Y84.846 E1.34014
G1 X96.015 Y84.355 E1.35816
G1 X96.247 Y83.899 E1.37518
G1 X96.647 Y83.204 E1.40185
G1 X96.96 Y82.752 E1.42014
G1 X97.256 Y82.356 E1.43658
G1 X97.785 Y81.722 E1.46405
G1 X98.186 Y81.318 E1.48298
G1 X98.561 Y80.967 E1.50006
G1 X99.164 Y80.458 E1.52631
G1 X99.571 Y80.167 E1.54295
G1 X100.001 Y79.881 E1.56012
G1 X100.68 Y79.478 E1.58639
G1 X101.193 Y79.231 E1.60532
G1 X101.643 Y79.034 E1.62166
G1 X102.381 Y78.754 E1.64792
G1 X102.872 Y78.614 E1.6649
G1 X103.37 Y78.489 E1.68197
G1 X104.071 Y78.346 E1.70577
G1 X104.713 Y78.272 E1.72726
G1 X105.2 Y78.236 E1.74351
G1 X105.791 Y78.215 E1.76318
G1 X106.559 Y78.253 E1.78875
G1 X107.054 Y78.302 E1.80529
G1 X107.586 Y78.373 E1.82315
G1 X108.411 Y78.557 E1.85126
G1 X108.903 Y78.695 E1.86826
G1 X109.651 Y78.946 E1.8945
G1 X110.132 Y79.154 E1.91193
G1 X110.597 Y79.374 E1.92904
G1 X111.293 Y79.748 E1.95532
G1 X111.742 Y80.041 E1.97315
G1 X112.148 Y80.326 E1.98965
G1 X112.555 Y80.631 E2.00656
G1 X113.126 Y81.141 E2.03203
G1 X113.223 Y80.601 E2.05027
G1 X113.232 Y80.563 E2.05157
G1 X113.37 Y80.057 E2.06902
G1 X113.515 Y79.588 E2.08535
G1 X113.786 Y78.846 E2.11162
G1 X114.015 Y78.355 E2.12964
G1 X114.247 Y77.899 E2.14666
G1 X114.647 Y77.204 E2.17333
G1 X114.96 Y76.752 E2.19161
G1 X115.256 Y76.356 E2.20806
G1 X115.785 Y75.722 E2.23552
G1 X116.186 Y75.318 E2.25445
G1 X116.561 Y74.967 E2.27154
G1 X117.164 Y74.458 E2.29778
G1 X117.571 Y74.167 E2.31442
G1 X118.001 Y73.881 E2.3316
G1 X118.68 Y73.478 E2.35786
G1 X119.193 Y73.231 E2.3768
G1 X119.643 Y73.034 E2.39314
G1 X120.381 Y72.754 E2.41939
G1 X120.872 Y72.614 E2.43637
G1 X121.37 Y72.489 E2.45345
G1 X122.071 Y72.346 E2.47724
G1 X122.713 Y72.272 E2.49874
G1 X123.2 Y72.236 E2.51498
G1 X123.791 Y72.215 E2.53465
G1 X124.559 Y72.253 E2.56022
G1 X125.054 Y72.302 E2.57677
G1 X125.586 Y72.373 E2.59462
G1 X126.411 Y72.557 E2.62273
G1 X126.903 Y72.695 E2.63973
G1 X127.651 Y72.946 E2.66597
G1 X128.132 Y73.154 E2.6834
G1 X128.597 Y73.374 E2.70051
G1 X129.293 Y73.748 E2.72679
G1 X129.742 Y74.041 E2.74462
G1 X130.148 Y74.326 E2.76112
G1 X130.555 Y74.631 E2.77804
G1 X131.174 Y75.183 E2.80562
G1 X131.522 Y75.528 E2.82192
G1 X132.121 Y76.194 E2.85171
G1 X132.391 Y76.551 E2.8666
G1 X132.68 Y76.956 E2.88315
G1 X133.138 Y77.679 E2.91161
G1 X133.378 Y78.141 E2.92893
G1 X133.592 Y78.589 E2.94544
G1 X133.763 Y78.972 E2.95939
G1 X142.448 Y99.986 E3.71566
G1 X142.712 Y100.73 E3.74192
G1 X142.866 Y101.331 E3.76256
G1 X142.875 Y101.373 E3.76399
G1 X143.001 Y102.152 E3.79023
G1 X143.048 Y103.007 E3.81871
G1 X143.048 Y127.868 E4.64559
G1 X143.008 Y128.657 E4.67187
G1 X142.889 Y129.437 E4.69811
G1 X142.691 Y130.202 E4.72439
G1 X142.417 Y130.942 E4.75064
G1 X142.069 Y131.651 E4.77691
G1 X141.651 Y132.322 E4.8032
G1 X141.168 Y132.946 E4.82945
G1 X140.763 Y133.383 E4.84926
G1 X140.646 Y133.5 E4.85477
G1 X140.06 Y134.03 E4.88105
G1 X139.424 Y134.497 E4.90729
G1 X138.744 Y134.898 E4.93355
G1 X138.026 Y135.228 E4.95983
G1 X137.279 Y135.483 E4.98608
G1 X136.51 Y135.662 E5.01234
G1 X135.726 Y135.762 E5.03863
G1 X135.131 Y135.785 E5.05843
G1 X128.865 Y135.785 E5.26684
G1 X128.076 Y135.745 E5.29312
G1 X127.296 Y135.626 E5.31936
G1 X126.531 Y135.428 E5.34564
G1 X125.791 Y135.154 E5.37189
G1 X125.082 Y134.806 E5.39816
G1 X124.994 Y134.751 E5.40161
G1 X124.889 Y135.437 E5.42469
G1 X124.691 Y136.202 E5.45097
G1 X124.417 Y136.942 E5.47722
G1 X124.069 Y137.651 E5.50349
G1 X123.651 Y138.322 E5.52978
G1 X123.168 Y138.946 E5.55603
G1 X122.763 Y139.383 E5.57585
G1 X122.646 Y139.5 E5.58135
G1 X122.06 Y140.03 E5.60763
G1 X121.424 Y140.497 E5.63387
G1 X120.744 Y140.898 E5.66013
G1 X120.026 Y141.228 E5.68641
G1 X119.279 Y141.483 E5.71266
G1 X118.51 Y141.662 E5.73892
G1 X117.726 Y141.762 E5.76521
G1 X117.131 Y141.785 E5.78502
G1 X110.865 Y141.785 E5.99342
G1 X110.076 Y141.745 E6.0197
G1 X109.296 Y141.626 E6.04594
G1 X108.531 Y141.428 E6.07223
G1 X107.791 Y141.154 E6.09847
G1 X107.082 Y140.806 E6.12474
G1 X106.994 Y140.751 E6.12819
G1 X106.889 Y141.437 E6.15127
G1 X106.691 Y142.202 E6.17756
G1 X106.417 Y142.942 E6.2038
G1 X106.069 Y143.651 E6.23007
G1 X105.651 Y144.322 E6.25636
G1 X105.168 Y144.946 E6.28261
G1 X104.763 Y145.383 E6.30243
G1 X104.646 Y145.5 E6.30793
G1 X104.06 Y146.03 E6.33421
G1 X103.424 Y146.497 E6.36045
G1 X102.744 Y146.898 E6.38671
G1 X102.026 Y147.228 E6.41299
G1 X101.279 Y147.483 E6.43924
G1 X100.51 Y147.662 E6.46551
G1 X99.726 Y147.762 E6.49179
G1 X99.131 Y147.785 E6.5116
G1 X92.865 Y147.785 E6.72001
G1 X92.076 Y147.745 E6.74628
G1 X91.296 Y147.626 E6.77252
G1 X90.531 Y147.428 E6.79881
G1 X89.791 Y147.154 E6.82505
G1 X89.082 Y146.806 E6.85132
G1 X88.994 Y146.751 E6.85477
G1 X88.889 Y147.437 E6.87786
G1 X88.691 Y148.202 E6.90414
G1 X88.417 Y148.942 E6.93038
G1 X88.069 Y149.651 E6.95665
G1 X87.651 Y150.322 E6.98295
G1 X87.168 Y150.946 E7.00919
G1 X86.763 Y151.383 E7.02901
G1 X86.646 Y151.5 E7.03451
G1 X86.06 Y152.03 E7.06079
G1 X85.424 Y152.497 E7.08703
G1 X84.744 Y152.898 E7.11329
G1 X84.026 Y153.228 E7.13957
G1 X83.279 Y153.483 E7.16583
G1 X82.51 Y153.662 E7.19209
G1 X81.726 Y153.762 E7.21837
G1 X81.131 Y153.785 E7.23818
G1 X74.865 Y153.785 E7.44659
G1 X74.076 Y153.745 E7.47286
G1 X73.296 Y153.626 E7.49911
G1 X72.531 Y153.428 E7.52539
G1 X71.791 Y153.154 E7.55163
G1 X71.082 Y152.806 E7.5779
G1 X70.411 Y152.388 E7.6042
G1 X69.787 Y151.905 E7.63044
G1 X69.35 Y151.5 E7.65026
G1 X69.233 Y151.383 E7.65576
G1 X68.703 Y150.797 E7.68204
G1 X68.236 Y150.161 E7.70829
G1 X67.835 Y149.481 E7.73454
G1 X67.505 Y148.763 E7.76082
G1 X67.25 Y148.016 E7.78708
G1 X67.071 Y147.247 E7.81334
G1 X66.971 Y146.463 E7.83963
G1 X66.948 Y145.868 E7.85943
G1 X66.947 Y125.541 E8.53551
G1 X66.511 Y124.883 E8.56176
G1 X66.144 Y124.184 E8.58802
G1 X65.824 Y123.377 E8.61689
G1 X59.482 Y104.359 E9.28368
G1 X59.255 Y103.529 E9.3123
G1 X59.145 Y103.017 E9.32972
G1 X59.018 Y102.238 E9.35597
G1 X58.976 Y101.664 E9.37511
G1 X58.958 Y101.171 E9.39152
G1 X58.969 Y100.381 E9.4178
G1 X59.012 Y99.932 E9.4328
G1 X59.072 Y99.445 E9.44912
G1 X59.223 Y98.601 E9.47764
G1 X59.232 Y98.563 E9.47894
G1 X59.37 Y98.057 E9.49638
G1 X59.515 Y97.588 E9.51271
G1 X59.786 Y96.846 E9.53898
G1 X60.015 Y96.355 E9.557
G1 X60.247 Y95.899 E9.57402
G1 X60.647 Y95.204 E9.60069
G1 X60.96 Y94.752 E9.61897
G1 X61.256 Y94.356 E9.63542
G1 X61.785 Y93.722 E9.66288
G1 X62.186 Y93.318 E9.68181
G1 X62.561 Y92.967 E9.6989
G1 X63.164 Y92.458 E9.72514
G1 X63.571 Y92.167 E9.74178
G0 F6000 X63.793 Y92.5
G1 F600 X64.223 Y92.214 E9.75896
G1 X64.885 Y91.822 E9.78455
G1 X65.353 Y91.597 E9.80182
G1 X65.803 Y91.4 E9.81816
G1 X66.523 Y91.129 E9.84375
G1 X66.969 Y91.002 E9.85917
G1 X67.467 Y90.877 E9.87625
G1 X68.134 Y90.742 E9.89888
G1 X68.742 Y90.671 E9.91924
G1 X69.229 Y90.635 E9.93548
G1 X69.791 Y90.615 E9.95419
G1 X70.52 Y90.651 E9.97846
G1 X71.015 Y90.7 E9.99501
G1 X71.521 Y90.768 E10.01199
G1 X72.302 Y90.942 E10.0386
G1 X72.794 Y91.08 E10.0556
G1 X73.523 Y91.326 E10.08119
G1 X73.961 Y91.516 E10.09707
G1 X74.426 Y91.736 E10.11418
G1 X75.103 Y92.101 E10.13976
G1 X75.513 Y92.368 E10.15603
G1 X75.919 Y92.653 E10.17253
G1 X76.305 Y92.944 E10.18861
G1 X76.892 Y93.467 E10.21476
G1 X77.24 Y93.812 E10.23106
G1 X77.407 Y93.998 E10.23937
G1 X77.469 Y93.494 E10.25626
G1 X77.612 Y92.694 E10.28329
G1 X77.621 Y92.656 E10.28459
G1 X77.752 Y92.175 E10.30117
G1 X77.897 Y91.706 E10.3175
G1 X78.162 Y90.984 E10.34308
G1 X78.372 Y90.536 E10.35953
G1 X78.604 Y90.08 E10.37655
G1 X78.983 Y89.42 E10.40186
G1 X79.281 Y88.992 E10.41921
G1 X79.577 Y88.596 E10.43565
G1 X80.078 Y87.994 E10.4617
G1 X80.459 Y87.61 E10.47969
G1 X80.834 Y87.259 E10.49678
G1 X81.422 Y86.764 E10.52234
G1 X81.793 Y86.5 E10.53749
G1 X82.223 Y86.214 E10.55466
G1 X82.885 Y85.822 E10.58025
G1 X83.353 Y85.597 E10.59752
G1 X83.803 Y85.4 E10.61386
G1 X84.523 Y85.129 E10.63945
G1 X84.969 Y85.002 E10.65487
G1 X85.467 Y84.877 E10.67195
G1 X86.134 Y84.742 E10.69458
G1 X86.742 Y84.671 E10.71494
G1 X87.229 Y84.635 E10.73119
G1 X87.791 Y84.615 E10.74989
G1 X88.52 Y84.651 E10.77417
G1 X89.015 Y84.7 E10.79071
G1 X89.521 Y84.768 E10.80769
G1 X90.302 Y84.942 E10.8343
G1 X90.794 Y85.08 E10.8513
G1 X91.523 Y85.326 E10.87689
G1 X91.961 Y85.516 E10.89277
G1 X92.426 Y85.736 E10.90988
G1 X93.103 Y86.101 E10.93546
G1 X93.513 Y86.368 E10.95173
G1 X93.919 Y86.653 E10.96823
G1 X94.305 Y86.944 E10.98431
G1 X94.892 Y87.467 E11.01046
G1 X95.24 Y87.812 E11.02676
G1 X95.407 Y87.998 E11.03507
G1 X95.469 Y87.494 E11.05196
G1 X95.612 Y86.694 E11.07899
G1 X95.621 Y86.656 E11.08029
G1 X95.752 Y86.175 E11.09687
G1 X95.897 Y85.706 E11.1132
G1 X96.162 Y84.984 E11.13878
G1 X96.372 Y84.536 E11.15523
G1 X96.604 Y84.08 E11.17225
G1 X96.983 Y83.42 E11.19756
G1 X97.281 Y82.992 E11.21491
G1 X97.577 Y82.596 E11.23135
G1 X98.078 Y81.994 E11.2574
G1 X98.459 Y81.61 E11.2754
G1 X98.834 Y81.259 E11.29248
G1 X99.422 Y80.764 E11.31804
G1 X99.793 Y80.5 E11.33319
G1 X100.223 Y80.214 E11.35036
G1 X100.885 Y79.822 E11.37595
G1 X101.353 Y79.597 E11.39322
G1 X101.803 Y79.4 E11.40956
G1 X102.523 Y79.129 E11.43515
G1 X102.969 Y79.002 E11.45057
G1 X103.467 Y78.877 E11.46765
G1 X104.134 Y78.742 E11.49029
G1 X104.742 Y78.671 E11.51065
G1 X105.229 Y78.635 E11.52689
G1 X105.791 Y78.615 E11.54559
G1 X106.52 Y78.651 E11.56987
G1 X107.015 Y78.7 E11.58641
G1 X107.521 Y78.768 E11.60339
G1 X108.302 Y78.942 E11.63001
G1 X108.794 Y79.08 E11.647
G1 X109.523 Y79.326 E11.67259
G1 X109.961 Y79.516 E11.68847
G1 X110.426 Y79.736 E11.70558
G1 X111.103 Y80.101 E11.73116
G1 X111.513 Y80.368 E11.74743
G1 X111.919 Y80.653 E11.76393
G1 X112.305 Y80.944 E11.78001
G1 X112.892 Y81.467 E11.80616
G1 X113.24 Y81.812 E11.82246
G1 X113.407 Y81.998 E11.83077
G1 X113.469 Y81.494 E11.84766
G1 X113.612 Y80.694 E11.87469
G1 X113.621 Y80.656 E11.87599
G1 X113.752 Y80.175 E11.89257
G1 X113.897 Y79.706 E11.9089
G1 X114.162 Y78.984 E11.93448
G1 X114.372 Y78.536 E11.95094
G1 X114.604 Y78.08 E11.96795
G1 X114.983 Y77.42 E11.99327
G1 X115.281 Y76.992 E12.01061
G1 X115.577 Y76.596 E12.02706
G1 X116.078 Y75.994 E12.05311
G1 X116.459 Y75.61 E12.0711
G1 X116.834 Y75.259 E12.08818
G1 X117.422 Y74.764 E12.11375
G1 X117.793 Y74.5 E12.12889
G1 X118.223 Y74.214 E12.14607
G1 X118.885 Y73.822 E12.17166
G1 X119.353 Y73.597 E12.18893
G1 X119.803 Y73.4 E12.20526
G1 X120.523 Y73.129 E12.23085
G1 X120.969 Y73.002 E12.24628
G1 X121.467 Y72.877 E12.26335
G1 X122.134 Y72.742 E12.28599
G1 X122.742 Y72.671 E12.30635
G1 X123.229 Y72.635 E12.32259
G1 X123.791 Y72.615 E12.34129
G1 X124.52 Y72.651 E12.36557
G1 X125.015 Y72.7 E12.38211
G1 X125.521 Y72.768 E12.39909
G1 X126.302 Y72.942 E12.42571
G1 X126.794 Y73.08 E12.4427
G1 X127.523 Y73.326 E12.46829
G1 X127.961 Y73.516 E12.48417
G1 X128.426 Y73.736 E12.50128
G1 X129.103 Y74.101 E12.52686
G1 X129.513 Y74.368 E12.54314
G1 X129.919 Y74.653 E12.55964
G1 X130.305 Y74.944 E12.57571
G1 X130.892 Y75.467 E12.60186
G1 X131.24 Y75.812 E12.61816
G1 X131.808 Y76.444 E12.64642
G1 X132.066 Y76.784 E12.66062
G1 X132.355 Y77.189 E12.67717
G1 X132.79 Y77.875 E12.70418
G1 X133.017 Y78.313 E12.72059
G1 X133.231 Y78.761 E12.73711
G1 X133.393 Y79.125 E12.75036
G1 X142.078 Y100.139 E13.50663
G1 X142.334 Y100.864 E13.5322
G1 X142.475 Y101.414 E13.55108
G1 X142.484 Y101.456 E13.55251
G1 X142.606 Y102.216 E13.57811
G1 X142.648 Y103.007 E13.60446
G1 X142.648 Y127.868 E14.43134
G1 X142.608 Y128.636 E14.45692
G1 X142.489 Y129.396 E14.4825
G1 X142.291 Y130.139 E14.50808
G1 X142.017 Y130.858 E14.53367
G1 X141.67 Y131.544 E14.55924
G1 X141.254 Y132.191 E14.58482
G1 X140.773 Y132.791 E14.6104
G1 X140.481 Y133.101 E14.62456
G1 X140.364 Y133.218 E14.63007
G1 X139.792 Y133.732 E14.65565
G1 X139.17 Y134.185 E14.68124
G1 X138.505 Y134.571 E14.70681
G1 X137.803 Y134.886 E14.7324
G1 X137.072 Y135.126 E14.75799
G1 X136.321 Y135.289 E14.78355
G1 X135.556 Y135.373 E14.80915
G1 X135.131 Y135.385 E14.82329
G1 X128.865 Y135.385 E15.0317
G1 X128.097 Y135.345 E15.05728
G1 X127.337 Y135.226 E15.08286
G1 X126.594 Y135.028 E15.10844
G1 X125.875 Y134.754 E15.13403
G1 X125.189 Y134.407 E15.1596
G1 X124.638 Y134.053 E15.18138
G1 X124.608 Y134.636 E15.2008
G1 X124.489 Y135.396 E15.22638
G1 X124.291 Y136.139 E15.25196
G1 X124.017 Y136.858 E15.27755
G1 X123.67 Y137.544 E15.30312
G1 X123.254 Y138.191 E15.3287
G1 X122.773 Y138.791 E15.35428
G1 X122.481 Y139.101 E15.36844
G1 X122.364 Y139.218 E15.37395
G1 X121.792 Y139.732 E15.39953
G1 X121.17 Y140.185 E15.42512
G1 X120.505 Y140.571 E15.45069
G1 X119.803 Y140.886 E15.47628
G1 X119.072 Y141.126 E15.50187
G1 X118.321 Y141.289 E15.52743
G1 X117.556 Y141.373 E15.55303
G1 X117.131 Y141.385 E15.56717
G1 X110.865 Y141.385 E15.77558
G1 X110.097 Y141.345 E15.80116
G1 X109.337 Y141.226 E15.82674
G1 X108.594 Y141.028 E15.85232
G1 X107.875 Y140.754 E15.87791
G1 X107.189 Y140.407 E15.90348
G1 X106.638 Y140.053 E15.92526
G1 X106.608 Y140.636 E15.94468
G1 X106.489 Y141.396 E15.97026
G1 X106.291 Y142.139 E15.99584
G1 X106.017 Y142.858 E16.02143
G1 X105.67 Y143.544 E16.047
G1 X105.254 Y144.191 E16.07258
G1 X104.773 Y144.791 E16.09816
G1 X104.481 Y145.101 E16.11233
G1 X104.364 Y145.218 E16.11783
G1 X103.792 Y145.732 E16.14341
G1 X103.17 Y146.185 E16.169
G1 X102.505 Y146.571 E16.19457
G1 X101.803 Y146.886 E16.22016
