;FLAVOR:Marlin
;TIME:1154
;Filament used: 0.627899m
;Layer height: 0.2
;MINX:90.128
;MINY:78.987
;MINZ:0.2
;MAXX:129.886
;MAXY:141.013
;MAXZ:4.5
;Generated with Cura_SteamEngine master
M140 S70
M105
M190 S70
M104 S200
M105
M109 S200
M82 ;absolute extrusion mode
M201 X500.00 Y500.00 Z100.00 E5000.00 ;Setup machine max acceleration
M203 X500.00 Y500.00 Z10.00 E50.00 ;Setup machine max feedrate
M204 P500.00 R1000.00 T500.00 ;Setup Print/Retract/Travel acceleration
M205 X8.00 Y8.00 Z0.40 E5.00 ;Setup Jerk
M220 S100 ;Reset Feedrate
M221 S100 ;Reset Flowrate

G28 ;Home

G92 E0 ;Reset Extruder
G1 Z2.0 F3000 ;Move Z Axis up
G1 X10.1 Y20 Z0.28 F5000.0 ;Move to start position
G1 X10.1 Y200.0 Z0.28 F1500.0 E15 ;Draw the first line
G1 X10.4 Y200.0 Z0.28 F5000.0 ;Move to side a little
G1 X10.4 Y20 Z0.28 F1500.0 E30 ;Draw the second line
G92 E0 ;Reset Extruder
G1 Z2.0 F3000 ;Move Z Axis up

G92 E0
G92 E0
G1 F2700 E-5
;LAYER_COUNT:20
;LAYER:0
M107
G1 F300 Z0.7
G0 F6000 X99.711 Y82.923 Z0.7
;TYPE:SKIRT
G1 F300 Z0.2
G1 F2700 E0
G1 F600 X100.061 Y82.504 E0.01816
G1 X100.311 Y82.225 E0.03062
G1 X100.842 Y81.687 E0.05576
G1 X101.255 Y81.331 E0.0739
G1 X101.552 Y81.093 E0.08655
G1 X102.193 Y80.631 E0.11283
G1 X102.666 Y80.348 E0.13117
G1 X103.029 Y80.148 E0.14495
G1 X103.739 Y79.803 E0.17121
G1 X104.203 Y79.622 E0.18777
G1 X104.561 Y79.496 E0.2004
G1 X105.156 Y79.313 E0.2211
G1 X105.903 Y79.153 E0.24651
G1 X106.287 Y79.09 E0.25945
G1 X107.072 Y79.002 E0.28572
G1 X107.55 Y78.987 E0.30163
G1 X107.952 Y78.987 E0.315
G1 X108.741 Y79.027 E0.34128
G1 X109.234 Y79.093 E0.35782
G1 X109.594 Y79.153 E0.36996
G1 X110.337 Y79.314 E0.39524
G1 X110.888 Y79.483 E0.41441
G1 X111.262 Y79.613 E0.42758
G1 X111.994 Y79.91 E0.45386
G1 X112.462 Y80.148 E0.47132
G1 X112.809 Y80.339 E0.48449
G1 X113.481 Y80.754 E0.51076
G1 X113.916 Y81.077 E0.52878
G1 X114.224 Y81.323 E0.54189
G1 X114.66 Y81.699 E0.56104
G1 X115.158 Y82.203 E0.58461
G1 X115.409 Y82.481 E0.59707
G1 X115.446 Y82.527 E0.59903
G1 X115.512 Y82.522 E0.60123
G1 X115.916 Y82.502 E0.61469
G1 X116.706 Y82.502 E0.64096
G1 X117.174 Y82.541 E0.65658
G1 X117.565 Y82.585 E0.66967
G1 X118.344 Y82.713 E0.69592
G1 X118.869 Y82.846 E0.71394
G1 X119.227 Y82.95 E0.72634
G1 X119.896 Y83.177 E0.74983
G1 X120.441 Y83.414 E0.7696
G1 X120.781 Y83.577 E0.78214
G1 X121.293 Y83.846 E0.80138
G1 X121.947 Y84.264 E0.82719
G1 X122.263 Y84.489 E0.8401
G1 X122.882 Y84.979 E0.86635
G1 X123.254 Y85.328 E0.88332
G1 X123.537 Y85.611 E0.89663
G1 X124.067 Y86.197 E0.92291
G1 X124.376 Y86.602 E0.93985
G1 X124.601 Y86.918 E0.95276
G1 X125.054 Y87.634 E0.98094
G1 X125.307 Y88.122 E0.99922
G1 X125.474 Y88.475 E1.01221
G1 X125.775 Y89.205 E1.03847
G1 X125.925 Y89.676 E1.05491
G1 X126.034 Y90.059 E1.06816
G1 X126.212 Y90.828 E1.09441
G1 X126.282 Y91.31 E1.11061
G1 X126.324 Y91.678 E1.12293
G1 X126.373 Y92.466 E1.14919
G1 X126.365 Y92.94 E1.16495
G1 X126.346 Y93.332 E1.17801
G1 X126.339 Y93.42 E1.18094
G1 X126.596 Y93.637 E1.19213
G1 X127.046 Y94.085 E1.21325
G1 X127.312 Y94.372 E1.22627
G1 X127.819 Y94.977 E1.25252
G1 X128.121 Y95.408 E1.27002
G1 X128.334 Y95.734 E1.28298
G1 X128.732 Y96.416 E1.30924
G1 X128.945 Y96.862 E1.32568
G1 X129.101 Y97.217 E1.33858
G1 X129.382 Y97.955 E1.36484
G1 X129.52 Y98.434 E1.38142
G1 X129.614 Y98.804 E1.39412
G1 X129.738 Y99.386 E1.41391
G1 X129.835 Y100.15 E1.43952
G1 X129.864 Y100.531 E1.45223
G1 X129.886 Y101.139 E1.47247
G1 X129.863 Y101.741 E1.49251
G1 X129.836 Y102.09 E1.50415
G1 X129.75 Y102.788 E1.52754
G1 X129.617 Y103.421 E1.54905
G1 X129.522 Y103.796 E1.56192
G1 X129.29 Y104.551 E1.58819
G1 X129.109 Y105.002 E1.60435
G1 X128.954 Y105.357 E1.61724
G1 X128.602 Y106.064 E1.6435
G1 X128.341 Y106.494 E1.66023
G1 X128.126 Y106.824 E1.67333
G1 X127.662 Y107.463 E1.6996
G1 X127.312 Y107.867 E1.71738
G1 X127.047 Y108.153 E1.73035
G1 X126.604 Y108.595 E1.75116
G1 X126.338 Y108.82 E1.76275
G1 X126.343 Y108.886 E1.76495
G1 X126.363 Y109.289 E1.77837
G1 X126.363 Y110.079 E1.80465
G1 X126.327 Y110.526 E1.81956
G1 X126.286 Y110.9 E1.83207
G1 X126.16 Y111.68 E1.85835
G1 X126.033 Y112.188 E1.87577
G1 X125.925 Y112.567 E1.88888
G1 X125.671 Y113.314 E1.91512
G1 X125.471 Y113.772 E1.93174
G1 X125.304 Y114.124 E1.9447
G1 X124.936 Y114.809 E1.97056
G1 X124.606 Y115.315 E1.99066
G1 X124.38 Y115.633 E2.00363
G1 X123.89 Y116.252 E2.02989
G1 X123.537 Y116.629 E2.04707
G1 X123.254 Y116.912 E2.06038
G1 X122.668 Y117.442 E2.08666
G1 X122.263 Y117.751 E2.1036
G1 X121.947 Y117.976 E2.1165
G1 X121.279 Y118.402 E2.14285
G1 X120.781 Y118.663 E2.16155
G1 X120.441 Y118.826 E2.1741
G1 X119.878 Y119.07 E2.1945
G1 X119.227 Y119.29 E2.21736
G1 X118.869 Y119.394 E2.22976
G1 X118.65 Y119.446 E2.23725
G1 X118.65 Y130.131 E2.59263
G1 X118.624 Y130.766 E2.61377
G1 X118.584 Y131.256 E2.63012
G1 X118.48 Y132.038 E2.65636
G1 X118.376 Y132.516 E2.67263
G1 X118.251 Y133.015 E2.68974
G1 X118.021 Y133.771 E2.71602
G1 X117.835 Y134.237 E2.73271
G1 X117.631 Y134.705 E2.74969
G1 X117.279 Y135.412 E2.77596
G1 X117.015 Y135.848 E2.79291
G1 X116.732 Y136.282 E2.81014
G1 X116.267 Y136.921 E2.83643
G1 X115.948 Y137.293 E2.85273
G1 X115.607 Y137.665 E2.86951
G1 X115.151 Y138.123 E2.89101
G1 X114.637 Y138.56 E2.91345
G1 X114.243 Y138.867 E2.93006
G1 X113.596 Y139.32 E2.95633
G1 X113.178 Y139.565 E2.97244
G1 X112.726 Y139.811 E2.98956
G1 X112.014 Y140.153 E3.01583
G1 X111.568 Y140.324 E3.03172
G1 X111.084 Y140.493 E3.04877
G1 X110.327 Y140.715 E3.07501
G1 X109.798 Y140.822 E3.09296
G1 X109.295 Y140.906 E3.10992
G1 X108.51 Y140.997 E3.1362
G1 X108.01 Y141.013 E3.15284
G1 X107.479 Y141.013 E3.1705
G1 X106.69 Y140.973 E3.19678
G1 X106.192 Y140.906 E3.21349
G1 X105.69 Y140.822 E3.23042
G1 X104.918 Y140.652 E3.25671
G1 X104.406 Y140.493 E3.27454
G1 X103.922 Y140.324 E3.29159
G1 X103.19 Y140.026 E3.31788
G1 X102.764 Y139.811 E3.33375
G1 X102.312 Y139.565 E3.35087
G1 X101.639 Y139.153 E3.37711
G1 X101.247 Y138.867 E3.39325
G1 X100.853 Y138.56 E3.40987
G1 X100.325 Y138.11 E3.43294
G1 X99.883 Y137.665 E3.4538
G1 X99.542 Y137.293 E3.47059
G1 X99.039 Y136.684 E3.49686
G1 X98.758 Y136.282 E3.51317
G1 X98.475 Y135.848 E3.5304
G1 X98.078 Y135.166 E3.55665
G1 X97.859 Y134.705 E3.57362
G1 X97.655 Y134.237 E3.5906
G1 X97.376 Y133.498 E3.61688
G1 X97.239 Y133.015 E3.63358
G1 X97.114 Y132.516 E3.65069
G1 X96.961 Y131.742 E3.67693
G1 X96.906 Y131.258 E3.69313
G1 X96.866 Y130.77 E3.70941
G1 X96.84 Y130.133 E3.73062
G1 X96.84 Y114.946 E4.23574
G1 X96.318 Y114.535 E4.25784
G1 X95.524 Y113.816 E4.29346
G1 X94.596 Y112.852 E4.33797
G1 X93.909 Y112.032 E4.37355
G1 X93.104 Y110.926 E4.41905
G1 X92.53 Y110.011 E4.45497
G1 X91.897 Y108.826 E4.49966
G1 X91.457 Y107.846 E4.53539
G1 X90.985 Y106.564 E4.58082
G1 X90.685 Y105.533 E4.61654
G1 X90.397 Y104.214 E4.66144
G1 X90.239 Y103.142 E4.69748
G1 X90.136 Y101.788 E4.74265
G1 X90.128 Y100.724 E4.77804
G1 X90.21 Y99.371 E4.82312
G1 X90.351 Y98.297 E4.85915
G1 X90.619 Y96.972 E4.90411
G1 X90.904 Y95.936 E4.93985
G1 X91.358 Y94.642 E4.98546
G1 X91.786 Y93.648 E5.02145
G1 X92.403 Y92.452 E5.06621
G1 X92.947 Y91.552 E5.10119
G1 X93.724 Y90.443 E5.14623
G1 X94.209 Y89.82 E5.17249
G1 X94.42 Y89.6 E5.18263
G1 X94.414 Y89.594 E5.18291
G1 X95.342 Y88.601 E5.22811
G1 X96.134 Y87.864 E5.2641
G1 X97.199 Y87.002 E5.30967
G1 X97.957 Y86.47 E5.34047
G1 X98.119 Y85.901 E5.36015
G1 X98.298 Y85.426 E5.37703
G1 X98.444 Y85.074 E5.3897
G1 X98.783 Y84.36 E5.41599
G1 X99.038 Y83.923 E5.43282
G1 X99.259 Y83.57 E5.44667
G1 X99.711 Y82.923 E5.47292
G0 F6000 X100.039 Y83.152
G1 F600 X100.359 Y82.771 E5.48947
G1 X100.609 Y82.492 E5.50193
G1 X101.114 Y81.98 E5.52585
G1 X101.506 Y81.643 E5.54304
G1 X101.803 Y81.405 E5.5557
G1 X102.427 Y80.956 E5.58127
G1 X102.859 Y80.699 E5.59799
G1 X103.222 Y80.499 E5.61177
G1 X103.914 Y80.163 E5.63736
G1 X104.336 Y80 E5.65241
G1 X104.694 Y79.874 E5.66503
G1 X105.259 Y79.7 E5.68469
G1 X105.968 Y79.548 E5.70881
G1 X106.352 Y79.485 E5.72175
G1 X107.116 Y79.4 E5.74732
G1 X107.55 Y79.387 E5.76176
G1 X107.952 Y79.387 E5.77513
G1 X108.72 Y79.427 E5.80071
G1 X109.169 Y79.488 E5.81578
G1 X109.529 Y79.548 E5.82792
G1 X110.234 Y79.701 E5.85191
G1 X110.757 Y79.861 E5.87011
G1 X111.131 Y79.991 E5.88327
G1 X111.843 Y80.281 E5.90884
G1 X112.269 Y80.498 E5.92475
G1 X112.616 Y80.689 E5.93792
G1 X113.27 Y81.095 E5.96352
G1 X113.666 Y81.39 E5.97995
G1 X113.974 Y81.636 E5.99306
G1 X114.388 Y81.992 E6.01122
G1 X114.862 Y82.471 E6.03363
G1 X115.113 Y82.749 E6.04609
G1 X115.268 Y82.942 E6.05432
G1 X115.532 Y82.921 E6.06313
G1 X115.936 Y82.901 E6.07658
G1 X116.705 Y82.903 E6.10216
G1 X117.13 Y82.938 E6.11634
G1 X117.521 Y82.982 E6.12943
G1 X118.279 Y83.108 E6.15499
G1 X118.757 Y83.23 E6.1714
G1 X119.115 Y83.334 E6.1838
G1 X119.751 Y83.55 E6.20614
G1 X120.268 Y83.774 E6.22488
G1 X120.608 Y83.937 E6.23742
G1 X121.094 Y84.193 E6.25569
G1 X121.715 Y84.59 E6.2802
G1 X122.031 Y84.815 E6.2931
G1 X122.634 Y85.293 E6.3187
G1 X122.972 Y85.61 E6.33411
G1 X123.255 Y85.893 E6.34742
G1 X123.769 Y86.465 E6.373
G1 X124.05 Y86.834 E6.38842
G1 X124.275 Y87.15 E6.40133
G1 X124.706 Y87.83 E6.4281
G1 X124.945 Y88.293 E6.44543
G1 X125.112 Y88.646 E6.45842
G1 X125.405 Y89.358 E6.48403
G1 X125.54 Y89.785 E6.49893
G1 X125.649 Y90.168 E6.51217
G1 X125.821 Y90.918 E6.53776
G1 X125.884 Y91.355 E6.55245
G1 X125.926 Y91.723 E6.56477
G1 X125.974 Y92.491 E6.59036
G1 X125.965 Y92.92 E6.60463
G1 X125.946 Y93.312 E6.61769
G1 X125.924 Y93.593 E6.62706
G1 X126.325 Y93.932 E6.64452
G1 X126.752 Y94.357 E6.66456
G1 X127.018 Y94.644 E6.67758
G1 X127.511 Y95.234 E6.70315
G1 X127.786 Y95.626 E6.71908
G1 X127.999 Y95.952 E6.73203
G1 X128.386 Y96.617 E6.75762
G1 X128.579 Y97.023 E6.77257
G1 X128.735 Y97.378 E6.78547
G1 X129.007 Y98.097 E6.81104
G1 X129.132 Y98.533 E6.82612
G1 X129.226 Y98.903 E6.83882
G1 X129.344 Y99.456 E6.85763
G1 X129.436 Y100.18 E6.8819
G1 X129.465 Y100.561 E6.89461
G1 X129.486 Y101.139 E6.91385
G1 X129.464 Y101.71 E6.93285
G1 X129.437 Y102.059 E6.94449
G1 X129.355 Y102.723 E6.96675
G1 X129.229 Y103.323 E6.98714
G1 X129.134 Y103.698 E7
G1 X128.907 Y104.433 E7.02559
G1 X128.743 Y104.842 E7.04025
G1 X128.588 Y105.197 E7.05313
G1 X128.244 Y105.885 E7.07871
G1 X128.006 Y106.276 E7.09394
G1 X127.791 Y106.606 E7.10704
G1 X127.338 Y107.227 E7.1326
G1 X127.019 Y107.596 E7.14883
G1 X126.754 Y107.882 E7.16179
G1 X126.332 Y108.302 E7.1816
G1 X125.923 Y108.647 E7.19939
G1 X125.944 Y108.906 E7.20804
G1 X125.964 Y109.309 E7.22146
G1 X125.962 Y110.078 E7.24703
G1 X125.929 Y110.482 E7.26052
G1 X125.888 Y110.856 E7.27303
G1 X125.764 Y111.616 E7.29864
G1 X125.649 Y112.078 E7.31448
G1 X125.541 Y112.457 E7.32758
G1 X125.292 Y113.185 E7.35317
G1 X125.11 Y113.601 E7.36828
G1 X124.943 Y113.953 E7.38124
G1 X124.593 Y114.603 E7.40579
G1 X124.28 Y115.083 E7.42485
G1 X124.054 Y115.401 E7.43782
G1 X123.576 Y116.004 E7.46342
G1 X123.255 Y116.347 E7.47904
G1 X122.972 Y116.63 E7.49235
G1 X122.4 Y117.144 E7.51793
G1 X122.031 Y117.425 E7.53336
G1 X121.715 Y117.65 E7.54626
G1 X121.08 Y118.055 E7.57131
G1 X120.608 Y118.303 E7.58904
G1 X120.268 Y118.466 E7.60158
G1 X119.733 Y118.697 E7.62097
G1 X119.115 Y118.906 E7.64267
G1 X118.757 Y119.01 E7.65506
G1 X118.25 Y119.129 E7.67239
G1 X118.25 Y130.131 E8.03831
G1 X118.225 Y130.733 E8.05835
G1 X118.185 Y131.223 E8.07471
G1 X118.083 Y131.985 E8.10028
G1 X117.988 Y132.419 E8.11505
G1 X117.863 Y132.918 E8.13216
G1 X117.638 Y133.654 E8.15776
G1 X117.469 Y134.077 E8.17291
G1 X117.265 Y134.545 E8.18989
G1 X116.921 Y135.233 E8.21547
G1 X116.68 Y135.63 E8.23092
G1 X116.397 Y136.064 E8.24815
G1 X115.944 Y136.686 E8.27375
G1 X115.653 Y137.022 E8.28853
G1 X115.312 Y137.394 E8.30532
G1 X114.878 Y137.83 E8.32578
G1 X114.391 Y138.244 E8.34704
G1 X113.997 Y138.551 E8.36365
G1 X113.367 Y138.992 E8.38923
G1 X112.986 Y139.214 E8.40389
G1 X112.534 Y139.46 E8.42101
G1 X111.841 Y139.792 E8.44657
G1 X111.436 Y139.946 E8.46098
G1 X110.952 Y140.115 E8.47803
G1 X110.214 Y140.331 E8.5036
G1 X109.732 Y140.428 E8.51996
G1 X109.229 Y140.512 E8.53692
G1 X108.465 Y140.599 E8.56249
G1 X108.01 Y140.613 E8.57763
G1 X107.479 Y140.613 E8.5953
G1 X106.711 Y140.573 E8.62087
G1 X106.258 Y140.512 E8.63608
G1 X105.756 Y140.428 E8.65301
G1 X105.005 Y140.261 E8.67859
G1 X104.538 Y140.115 E8.69487
G1 X104.054 Y139.946 E8.71192
G1 X103.342 Y139.655 E8.7375
G1 X102.956 Y139.46 E8.75188
G1 X102.504 Y139.214 E8.769
G1 X101.848 Y138.811 E8.79461
G1 X101.493 Y138.551 E8.80924
G1 X101.099 Y138.244 E8.82586
G1 X100.598 Y137.817 E8.84775
G1 X100.178 Y137.394 E8.86758
G1 X99.837 Y137.022 E8.88436
G1 X99.347 Y136.429 E8.90995
G1 X99.093 Y136.064 E8.92474
G1 X98.81 Y135.63 E8.94197
G1 X98.424 Y134.965 E8.96754
G1 X98.225 Y134.545 E8.983
G1 X98.021 Y134.077 E8.99998
G1 X97.751 Y133.357 E9.02556
G1 X97.627 Y132.918 E9.04073
G1 X97.502 Y132.419 E9.05784
G1 X97.354 Y131.664 E9.08343
G1 X97.305 Y131.226 E9.09809
G1 X97.265 Y130.738 E9.11437
G1 X97.24 Y130.133 E9.13451
G1 X97.24 Y114.752 E9.64609
G1 X96.566 Y114.221 E9.67463
G1 X95.812 Y113.538 E9.70846
G1 X94.884 Y112.574 E9.75297
G1 X94.232 Y111.797 E9.7867
G1 X93.427 Y110.691 E9.8322
G1 X92.883 Y109.823 E9.86627
G1 X92.25 Y108.638 E9.91096
G1 X91.833 Y107.708 E9.94486
G1 X91.361 Y106.426 E9.99029
G1 X91.075 Y105.448 E10.02418
G1 X90.787 Y104.129 E10.06909
G1 X90.638 Y103.111 E10.10331
G1 X90.535 Y101.757 E10.14847
G1 X90.528 Y100.748 E10.18203
G1 X90.61 Y99.395 E10.22712
G1 X90.743 Y98.376 E10.2613
G1 X91.011 Y97.051 E10.30626
G1 X91.281 Y96.068 E10.34016
G1 X91.735 Y94.774 E10.38577
G1 X92.142 Y93.831 E10.41993
G1 X92.759 Y92.635 E10.4647
G1 X93.274 Y91.782 E10.49784
G1 X94.051 Y90.673 E10.54287
G1 X94.525 Y90.067 E10.56846
G1 X94.712 Y89.873 E10.57742
G1 X94.706 Y89.867 E10.57771
G1 X95.634 Y88.874 E10.62291
G1 X96.385 Y88.175 E10.65704
G1 X97.45 Y87.313 E10.70261
G1 X98.279 Y86.731 E10.7363
G1 X98.302 Y86.717 E10.73719
G1 X98.504 Y86.011 E10.76162
G1 X98.668 Y85.579 E10.77698
G1 X98.814 Y85.227 E10.78966
G1 X99.145 Y84.533 E10.81523
G1 X99.377 Y84.135 E10.83055
G1 X99.598 Y83.782 E10.84441
G1 X100.039 Y83.152 E10.86998
G0 F6000 X100.367 Y83.383
G1 F600 X100.657 Y83.038 E10.88497
G1 X100.907 Y82.759 E10.89743
G1 X101.385 Y82.274 E10.92008
G1 X101.756 Y81.956 E10.93633
G1 X102.053 Y81.718 E10.94899
G1 X102.661 Y81.282 E10.97388
G1 X103.052 Y81.049 E10.98902
G1 X103.415 Y80.849 E11.0028
G1 X104.089 Y80.524 E11.02769
G1 X104.469 Y80.377 E11.04124
G1 X104.827 Y80.251 E11.05386
G1 X105.362 Y80.086 E11.07248
G1 X106.033 Y79.942 E11.09531
G1 X106.417 Y79.879 E11.10825
G1 X107.16 Y79.798 E11.13311
G1 X107.55 Y79.787 E11.14609
G1 X107.952 Y79.787 E11.15946
G1 X108.699 Y79.827 E11.18434
G1 X109.103 Y79.882 E11.1979
G1 X109.463 Y79.942 E11.21004
G1 X110.131 Y80.087 E11.23277
G1 X110.625 Y80.239 E11.24997
G1 X110.999 Y80.369 E11.26313
G1 X111.692 Y80.652 E11.28803
G1 X112.076 Y80.849 E11.30239
G1 X112.423 Y81.04 E11.31556
G1 X113.059 Y81.435 E11.34046
G1 X113.417 Y81.702 E11.35532
G1 X113.725 Y81.948 E11.36843
G1 X114.117 Y82.286 E11.38564
G1 X114.565 Y82.739 E11.40683
G1 X114.816 Y83.017 E11.41929
G1 X115.091 Y83.36 E11.43391
G1 X115.125 Y83.355 E11.43505
G1 X115.552 Y83.321 E11.4493
G1 X115.956 Y83.301 E11.46276
G1 X116.704 Y83.304 E11.48763
G1 X117.085 Y83.336 E11.50035
G1 X117.476 Y83.38 E11.51344
G1 X118.214 Y83.503 E11.53832
G1 X118.646 Y83.614 E11.55316
G1 X119.004 Y83.718 E11.56556
G1 X119.606 Y83.923 E11.58671
G1 X120.095 Y84.135 E11.60444
G1 X120.435 Y84.298 E11.61698
G1 X120.896 Y84.54 E11.63429
G1 X121.483 Y84.916 E11.65748
G1 X121.799 Y85.141 E11.67038
G1 X122.384 Y85.607 E11.69526
G1 X122.689 Y85.893 E11.70916
G1 X122.972 Y86.176 E11.72247
G1 X123.472 Y86.733 E11.74737
G1 X123.724 Y87.066 E11.76126
G1 X123.949 Y87.382 E11.77416
G1 X124.357 Y88.026 E11.79952
G1 X124.584 Y88.464 E11.81593
G1 X124.751 Y88.817 E11.82891
G1 X125.034 Y89.51 E11.85381
G1 X125.156 Y89.895 E11.86724
G1 X125.265 Y90.278 E11.88049
G1 X125.431 Y91.007 E11.90536
G1 X125.487 Y91.4 E11.91856
G1 X125.529 Y91.768 E11.93088
G1 X125.574 Y92.515 E11.95577
G1 X125.566 Y92.901 E11.96861
G1 X125.547 Y93.293 E11.98166
G1 X125.51 Y93.745 E11.99675
G1 X125.506 Y93.769 E11.99756
