;FLAVOR:Marlin
;TIME:4318
;Filament used: 3.71955m
;Layer height: 0.2
;MINX:73.45
;MINY:73.45
;MINZ:0.2
;MAXX:146.55
;MAXY:146.55
;MAXZ:25
;Generated with Cura_SteamEngine master
M140 S50
M105
M190 S50
M104 S200
M105
M109 S200
M82 ;absolute extrusion mode
M201 X500.00 Y500.00 Z100.00 E5000.00 ;Setup machine max acceleration
M203 X500.00 Y500.00 Z10.00 E50.00 ;Setup machine max feedrate
M204 P500.00 R1000.00 T500.00 ;Setup Print/Retract/Travel acceleration
M205 X8.00 Y8.00 Z0.40 E5.00 ;Setup Jerk
M220 S100 ;Reset Feedrate
M221 S100 ;Reset Flowrate

G28 ;Home

G92 E0 ;Reset Extruder
G1 Z2.0 F3000 ;Move Z Axis up
G1 X10.1 Y20 Z0.28 F5000.0 ;Move to start position
G1 X10.1 Y200.0 Z0.28 F1500.0 E15 ;Draw the first line
G1 X10.4 Y200.0 Z0.28 F5000.0 ;Move to side a little
G1 X10.4 Y20 Z0.28 F1500.0 E30 ;Draw the second line
G92 E0 ;Reset Extruder
G1 Z2.0 F3000 ;Move Z Axis up

G92 E0
G92 E0
G1 F2700 E-5
;LAYER_COUNT:125
;LAYER:0
M107
G0 F6000 X84.326 Y83.987 Z0.2
;TYPE:SKIRT
G1 F2700 E0
G1 F1200 X87.479 Y81.211 E0.13972
G1 X87.863 Y80.914 E0.15587
G1 X91.308 Y78.587 E0.29414
G1 X91.444 Y78.499 E0.29953
G1 X91.768 Y78.316 E0.3119
G1 X95.546 Y76.419 E0.45251
G1 X96.004 Y76.225 E0.46906
G1 X100.046 Y74.821 E0.61137
G1 X100.532 Y74.688 E0.62813
G1 X104.799 Y73.816 E0.77299
G1 X105.306 Y73.748 E0.79
G1 X109.746 Y73.45 E0.93801
G1 X110.254 Y73.45 E0.9549
G1 X114.694 Y73.748 E1.10291
G1 X115.201 Y73.816 E1.11992
G1 X119.468 Y74.688 E1.26478
G1 X119.954 Y74.821 E1.28154
G1 X124.005 Y76.228 E1.42417
G1 X124.464 Y76.423 E1.44076
G1 X128.231 Y78.316 E1.58098
G1 X128.539 Y78.489 E1.59273
G1 X128.692 Y78.587 E1.59877
G1 X132.137 Y80.914 E1.73704
G1 X132.521 Y81.211 E1.75319
G1 X135.672 Y83.985 E1.89282
G1 X136.013 Y84.326 E1.90886
G1 X138.789 Y87.479 E2.04858
G1 X139.086 Y87.863 E2.06472
G1 X141.413 Y91.308 E2.203
G1 X141.501 Y91.444 E2.20838
G1 X141.684 Y91.768 E2.22076
G1 X143.581 Y95.546 E2.36137
G1 X143.775 Y96.004 E2.37791
G1 X145.179 Y100.045 E2.5202
G1 X145.312 Y100.531 E2.53696
G1 X146.184 Y104.799 E2.68184
G1 X146.252 Y105.305 E2.69882
G1 X146.55 Y109.744 E2.8468
G1 X146.55 Y110.253 E2.86373
G1 X146.252 Y114.694 E3.01177
G1 X146.184 Y115.201 E3.02878
G1 X145.313 Y119.465 E3.17353
G1 X145.18 Y119.95 E3.19026
G1 X143.773 Y124.002 E3.33292
G1 X143.578 Y124.462 E3.34954
G1 X141.684 Y128.231 E3.48983
G1 X141.502 Y128.554 E3.50217
G1 X141.414 Y128.69 E3.50755
G1 X139.086 Y132.137 E3.6459
G1 X138.789 Y132.521 E3.66204
G1 X136.015 Y135.672 E3.80167
G1 X135.674 Y136.013 E3.81771
G1 X132.521 Y138.789 E3.95744
G1 X132.137 Y139.086 E3.97358
G1 X128.692 Y141.413 E4.11185
G1 X128.556 Y141.501 E4.11724
G1 X128.232 Y141.684 E4.12962
G1 X124.454 Y143.581 E4.27023
G1 X123.996 Y143.775 E4.28677
G1 X119.954 Y145.179 E4.42909
G1 X119.468 Y145.312 E4.44584
G1 X115.201 Y146.184 E4.5907
G1 X114.694 Y146.252 E4.60771
G1 X110.254 Y146.55 E4.75572
G1 X109.746 Y146.55 E4.77262
G1 X105.306 Y146.252 E4.92062
G1 X104.799 Y146.184 E4.93764
G1 X100.532 Y145.312 E5.08249
G1 X100.046 Y145.179 E5.09925
G1 X95.995 Y143.772 E5.24188
G1 X95.536 Y143.577 E5.25847
G1 X91.767 Y141.683 E5.39876
G1 X91.444 Y141.501 E5.4111
G1 X91.308 Y141.413 E5.41648
G1 X87.863 Y139.086 E5.55476
G1 X87.479 Y138.789 E5.5709
G1 X84.326 Y136.013 E5.71062
G1 X83.985 Y135.672 E5.72666
G1 X81.211 Y132.521 E5.86629
G1 X80.914 Y132.137 E5.88244
G1 X78.586 Y128.69 E6.02078
G1 X78.498 Y128.554 E6.02617
G1 X78.315 Y128.23 E6.03855
G1 X76.418 Y124.452 E6.17916
G1 X76.224 Y123.994 E6.1957
G1 X74.82 Y119.951 E6.33805
G1 X74.687 Y119.465 E6.35481
G1 X73.816 Y115.201 E6.49956
G1 X73.748 Y114.695 E6.51654
G1 X73.45 Y110.256 E6.66451
G1 X73.45 Y109.747 E6.68144
G1 X73.748 Y105.306 E6.82948
G1 X73.816 Y104.799 E6.84649
G1 X74.688 Y100.532 E6.99135
G1 X74.821 Y100.046 E7.00811
G1 X76.227 Y95.997 E7.15067
G1 X76.422 Y95.538 E7.16725
G1 X78.316 Y91.769 E7.30755
G1 X78.489 Y91.461 E7.3193
G1 X78.587 Y91.308 E7.32534
G1 X80.914 Y87.863 E7.46361
G1 X81.211 Y87.479 E7.47976
G1 X83.985 Y84.328 E7.61939
G1 X84.326 Y83.987 E7.63543
G0 F6000 X84.59 Y84.287
G1 F1200 X87.743 Y81.511 E7.77515
G1 X88.087 Y81.246 E7.78959
G1 X91.619 Y78.861 E7.93134
G1 X91.657 Y78.837 E7.93284
G1 X91.947 Y78.674 E7.9439
G1 X95.725 Y76.777 E8.08451
G1 X96.135 Y76.603 E8.09932
G1 X100.177 Y75.199 E8.24164
G1 X100.612 Y75.08 E8.25664
G1 X104.879 Y74.208 E8.40149
G1 X105.332 Y74.147 E8.4167
G1 X109.772 Y73.849 E8.5647
G1 X110.228 Y73.849 E8.57987
G1 X114.668 Y74.147 E8.72788
G1 X115.121 Y74.208 E8.74308
G1 X119.388 Y75.08 E8.88793
G1 X119.823 Y75.199 E8.90293
G1 X123.874 Y76.606 E9.04557
G1 X124.285 Y76.78 E9.06041
G1 X128.052 Y78.673 E9.20063
G1 X128.327 Y78.828 E9.21113
G1 X128.468 Y78.919 E9.21671
G1 X131.913 Y81.246 E9.35498
G1 X132.257 Y81.511 E9.36943
G1 X135.408 Y84.285 E9.50906
G1 X135.713 Y84.59 E9.5234
G1 X138.489 Y87.743 E9.66313
G1 X138.754 Y88.087 E9.67757
G1 X141.139 Y91.619 E9.81932
G1 X141.163 Y91.657 E9.82081
G1 X141.326 Y91.947 E9.83188
G1 X143.223 Y95.725 E9.97248
G1 X143.397 Y96.135 E9.9873
G1 X144.801 Y100.176 E10.12958
G1 X144.92 Y100.611 E10.14458
G1 X145.792 Y104.879 E10.28947
G1 X145.853 Y105.332 E10.30467
G1 X146.151 Y109.771 E10.45265
G1 X146.151 Y110.227 E10.46781
G1 X145.853 Y114.668 E10.61585
G1 X145.792 Y115.12 E10.63102
G1 X144.921 Y119.384 E10.77577
G1 X144.802 Y119.819 E10.79077
G1 X143.395 Y123.871 E10.93344
G1 X143.221 Y124.283 E10.94831
G1 X141.327 Y128.052 E11.08861
G1 X141.164 Y128.341 E11.09964
G1 X141.083 Y128.466 E11.1046
G1 X138.755 Y131.913 E11.24294
G1 X138.489 Y132.257 E11.25741
G1 X135.715 Y135.408 E11.39703
G1 X135.41 Y135.713 E11.41138
G1 X132.257 Y138.489 E11.5511
G1 X131.913 Y138.754 E11.56555
G1 X128.381 Y141.139 E11.7073
G1 X128.343 Y141.163 E11.70879
G1 X128.053 Y141.326 E11.71986
G1 X124.275 Y143.223 E11.86046
G1 X123.865 Y143.397 E11.87528
G1 X119.823 Y144.801 E12.01759
G1 X119.388 Y144.92 E12.03259
G1 X115.121 Y145.792 E12.17745
G1 X114.668 Y145.853 E12.19265
G1 X110.228 Y146.151 E12.34066
G1 X109.772 Y146.151 E12.35582
G1 X105.332 Y145.853 E12.50383
G1 X104.879 Y145.792 E12.51903
G1 X100.612 Y144.92 E12.66389
G1 X100.177 Y144.801 E12.67889
G1 X96.126 Y143.394 E12.82152
G1 X95.715 Y143.22 E12.83636
G1 X91.946 Y141.326 E12.97666
G1 X91.657 Y141.163 E12.9877
G1 X91.532 Y141.081 E12.99267
G1 X88.087 Y138.754 E13.13094
G1 X87.743 Y138.489 E13.14538
G1 X84.59 Y135.713 E13.28511
G1 X84.285 Y135.408 E13.29945
G1 X81.511 Y132.257 E13.43908
G1 X81.245 Y131.913 E13.45354
G1 X78.917 Y128.466 E13.59189
G1 X78.836 Y128.341 E13.59684
G1 X78.673 Y128.051 E13.60791
G1 X76.776 Y124.273 E13.74852
G1 X76.602 Y123.862 E13.76336
G1 X75.198 Y119.819 E13.90571
G1 X75.079 Y119.384 E13.92071
G1 X74.208 Y115.12 E14.06546
G1 X74.147 Y114.668 E14.08063
G1 X73.849 Y110.229 E14.2286
G1 X73.849 Y109.773 E14.24377
G1 X74.147 Y105.332 E14.39181
G1 X74.208 Y104.879 E14.40701
G1 X75.08 Y100.612 E14.55187
G1 X75.199 Y100.178 E14.56683
G1 X76.605 Y96.129 E14.70939
G1 X76.779 Y95.717 E14.72427
G1 X78.673 Y91.948 E14.86456
G1 X78.828 Y91.673 E14.87506
G1 X78.919 Y91.532 E14.88064
G1 X81.246 Y88.087 E15.01891
G1 X81.511 Y87.743 E15.03336
G1 X84.285 Y84.592 E15.17299
G1 X84.59 Y84.287 E15.18733
G0 F6000 X84.855 Y84.587
G1 F1200 X88.008 Y81.811 E15.32706
G1 X88.311 Y81.577 E15.33979
G1 X91.756 Y79.25 E15.47806
G1 X91.871 Y79.176 E15.48261
G1 X92.127 Y79.031 E15.49239
G1 X95.905 Y77.134 E15.633
G1 X96.267 Y76.981 E15.64607
G1 X100.309 Y75.577 E15.78839
G1 X100.692 Y75.472 E15.8016
G1 X104.959 Y74.6 E15.94645
G1 X105.359 Y74.546 E15.95988
G1 X109.799 Y74.248 E16.10788
G1 X110.201 Y74.248 E16.12126
G1 X114.641 Y74.546 E16.26926
G1 X115.041 Y74.6 E16.28269
G1 X119.308 Y75.472 E16.42754
G1 X119.691 Y75.577 E16.44075
G1 X123.742 Y76.984 E16.58338
G1 X124.105 Y77.137 E16.59648
G1 X127.872 Y79.03 E16.73671
G1 X128.115 Y79.167 E16.74598
G1 X128.244 Y79.25 E16.75109
G1 X131.689 Y81.577 E16.88936
G1 X131.992 Y81.811 E16.90209
G1 X135.143 Y84.585 E17.04172
G1 X135.413 Y84.855 E17.05442
G1 X138.189 Y88.008 E17.19414
G1 X138.423 Y88.311 E17.20687
G1 X140.75 Y91.756 E17.34515
G1 X140.824 Y91.871 E17.34969
G1 X140.969 Y92.127 E17.35948
G1 X142.866 Y95.905 E17.50009
G1 X143.019 Y96.266 E17.51313
G1 X144.423 Y100.307 E17.65541
G1 X144.528 Y100.691 E17.66866
G1 X145.4 Y104.959 E17.81354
G1 X145.454 Y105.359 E17.82697
G1 X145.752 Y109.798 E17.97494
G1 X145.752 Y110.2 E17.98831
G1 X145.454 Y114.641 E18.13635
G1 X145.4 Y115.04 E18.14974
G1 X144.529 Y119.304 E18.29449
G1 X144.424 Y119.688 E18.30773
G1 X143.017 Y123.74 E18.4504
G1 X142.864 Y124.103 E18.4635
G1 X140.97 Y127.872 E18.6038
G1 X140.825 Y128.127 E18.61355
G1 X140.751 Y128.242 E18.6181
G1 X138.423 Y131.689 E18.75645
G1 X138.189 Y131.992 E18.76918
G1 X135.415 Y135.143 E18.90881
G1 X135.145 Y135.413 E18.92151
G1 X131.992 Y138.189 E19.06123
G1 X131.689 Y138.423 E19.07396
G1 X128.244 Y140.75 E19.21223
G1 X128.129 Y140.824 E19.21678
G1 X127.873 Y140.969 E19.22657
G1 X124.095 Y142.866 E19.36718
G1 X123.733 Y143.019 E19.38025
G1 X119.691 Y144.423 E19.52256
G1 X119.308 Y144.528 E19.53577
G1 X115.041 Y145.4 E19.68063
G1 X114.641 Y145.454 E19.69405
G1 X110.201 Y145.752 E19.84206
G1 X109.799 Y145.752 E19.85543
G1 X105.359 Y145.454 E20.00344
G1 X104.959 Y145.4 E20.01686
G1 X100.692 Y144.528 E20.16172
G1 X100.309 Y144.423 E20.17493
G1 X96.258 Y143.016 E20.31756
G1 X95.895 Y142.863 E20.33066
G1 X92.126 Y140.969 E20.47095
G1 X91.871 Y140.824 E20.48071
G1 X91.756 Y140.75 E20.48526
G1 X88.311 Y138.423 E20.62353
G1 X88.008 Y138.189 E20.63626
G1 X84.855 Y135.413 E20.77599
G1 X84.585 Y135.143 E20.78869
G1 X81.811 Y131.992 E20.92832
G1 X81.577 Y131.689 E20.94105
G1 X79.249 Y128.242 E21.07939
G1 X79.175 Y128.127 E21.08394
G1 X79.03 Y127.871 E21.09373
G1 X77.133 Y124.093 E21.23434
G1 X76.98 Y123.731 E21.24741
G1 X75.576 Y119.688 E21.38976
G1 X75.471 Y119.304 E21.403
G1 X74.6 Y115.04 E21.54775
G1 X74.546 Y114.641 E21.56114
G1 X74.248 Y110.202 E21.70911
G1 X74.248 Y109.8 E21.72248
G1 X74.546 Y105.359 E21.87052
G1 X74.6 Y104.959 E21.88395
G1 X75.472 Y100.692 E22.0288
G1 X75.577 Y100.309 E22.04201
G1 X76.983 Y96.26 E22.18457
G1 X77.136 Y95.897 E22.19767
G1 X79.03 Y92.128 E22.33797
G1 X79.167 Y91.885 E22.34725
G1 X79.25 Y91.756 E22.35235
G1 X81.577 Y88.311 E22.49062
G1 X81.811 Y88.008 E22.50335
G1 X84.585 Y84.857 E22.64298
G1 X84.855 Y84.587 E22.65568
G0 F6000 X85.119 Y84.888
G1 F1200 X88.272 Y82.112 E22.7954
G1 X88.535 Y81.908 E22.80647
G1 X91.98 Y79.581 E22.94475
G1 X92.085 Y79.514 E22.94889
G1 X92.306 Y79.388 E22.95735
G1 X96.084 Y77.491 E23.09796
G1 X96.398 Y77.359 E23.10929
G1 X100.44 Y75.955 E23.2516
G1 X100.772 Y75.864 E23.26305
G1 X105.039 Y74.992 E23.40791
G1 X105.386 Y74.945 E23.41955
G1 X109.826 Y74.647 E23.56756
G1 X110.174 Y74.647 E23.57913
G1 X114.614 Y74.945 E23.72714
G1 X114.961 Y74.992 E23.73879
G1 X119.228 Y75.864 E23.88364
G1 X119.56 Y75.955 E23.89509
G1 X123.611 Y77.362 E24.03772
G1 X123.925 Y77.495 E24.04907
G1 X127.692 Y79.388 E24.18929
G1 X127.903 Y79.506 E24.19733
G1 X128.02 Y79.581 E24.20195
G1 X131.465 Y81.908 E24.34022
G1 X131.728 Y82.111 E24.35127
G1 X134.879 Y84.885 E24.4909
G1 X135.112 Y85.119 E24.50188
G1 X137.888 Y88.272 E24.64161
G1 X138.092 Y88.535 E24.65268
G1 X140.419 Y91.98 E24.79095
G1 X140.486 Y92.085 E24.79509
G1 X140.612 Y92.306 E24.80355
G1 X142.509 Y96.084 E24.94416
G1 X142.641 Y96.398 E24.95549
G1 X144.045 Y100.439 E25.09778
G1 X144.136 Y100.772 E25.10926
G1 X145.008 Y105.04 E25.25414
G1 X145.055 Y105.386 E25.26576
G1 X145.353 Y109.825 E25.41373
G1 X145.353 Y110.173 E25.42531
G1 X145.055 Y114.614 E25.57335
G1 X145.008 Y114.96 E25.58496
G1 X144.137 Y119.224 E25.72971
G1 X144.046 Y119.557 E25.74119
G1 X142.639 Y123.609 E25.88386
G1 X142.506 Y123.923 E25.8952
G1 X140.612 Y127.692 E26.03549
G1 X140.487 Y127.913 E26.04394
G1 X140.42 Y128.018 E26.04808
G1 X138.092 Y131.465 E26.18643
G1 X137.889 Y131.728 E26.19748
G1 X135.115 Y134.879 E26.3371
G1 X134.881 Y135.112 E26.34809
G1 X131.728 Y137.888 E26.48781
G1 X131.465 Y138.092 E26.49888
G1 X128.02 Y140.419 E26.63715
G1 X127.915 Y140.486 E26.64129
G1 X127.694 Y140.612 E26.64976
G1 X123.916 Y142.509 E26.79036
G1 X123.602 Y142.641 E26.80169
G1 X119.56 Y144.045 E26.94401
G1 X119.228 Y144.136 E26.95546
G1 X114.961 Y145.008 E27.10031
G1 X114.614 Y145.055 E27.11196
G1 X110.174 Y145.353 E27.25997
G1 X109.826 Y145.353 E27.27154
G1 X105.386 Y145.055 E27.41955
G1 X105.039 Y145.008 E27.4312
G1 X100.772 Y144.136 E27.57605
G1 X100.44 Y144.045 E27.5875
G1 X96.389 Y142.638 E27.73013
G1 X96.075 Y142.505 E27.74147
G1 X92.306 Y140.611 E27.88177
G1 X92.085 Y140.486 E27.89021
G1 X91.98 Y140.419 E27.89436
G1 X88.535 Y138.092 E28.03263
G1 X88.272 Y137.888 E28.0437
G1 X85.119 Y135.112 E28.18342
G1 X84.885 Y134.879 E28.1944
G1 X82.111 Y131.728 E28.33403
G1 X81.908 Y131.465 E28.34508
G1 X79.58 Y128.018 E28.48343
G1 X79.513 Y127.913 E28.48757
G1 X79.387 Y127.692 E28.49603
G1 X77.49 Y123.914 E28.63664
G1 X77.358 Y123.6 E28.64797
G1 X75.954 Y119.557 E28.79032
G1 X75.863 Y119.224 E28.8018
G1 X74.992 Y114.96 E28.94655
G1 X74.945 Y114.614 E28.95816
G1 X74.647 Y110.175 E29.10614
G1 X74.647 Y109.827 E29.11771
G1 X74.945 Y105.386 E29.26575
G1 X74.992 Y105.039 E29.2774
G1 X75.864 Y100.772 E29.42225
G1 X75.955 Y100.44 E29.4337
G1 X77.361 Y96.391 E29.57626
G1 X77.494 Y96.077 E29.5876
G1 X79.388 Y92.308 E29.7279
G1 X79.506 Y92.097 E29.73594
G1 X79.581 Y91.98 E29.74056
G1 X81.908 Y88.535 E29.87883
G1 X82.111 Y88.272 E29.88988
G1 X84.885 Y85.121 E30.02951
G1 X85.119 Y84.888 E30.04049
G0 F6000 X85.383 Y85.188
G1 F1200 X88.536 Y82.412 E30.18022
G1 X88.759 Y82.24 E30.18958
G1 X92.26 Y79.876 E30.33009
G1 X92.298 Y79.852 E30.33158
G1 X92.486 Y79.746 E30.33876
G1 X96.264 Y77.849 E30.47937
G1 X96.529 Y77.737 E30.48894
G1 X100.571 Y76.333 E30.63125
G1 X100.853 Y76.256 E30.64098
G1 X105.12 Y75.384 E30.78583
G1 X105.413 Y75.344 E30.79567
G1 X109.853 Y75.046 E30.94367
G1 X110.147 Y75.046 E30.95345
G1 X114.587 Y75.344 E31.10146
G1 X114.88 Y75.384 E31.1113
G1 X119.147 Y76.256 E31.25615
G1 X119.429 Y76.333 E31.26587
G1 X123.48 Y77.74 E31.4085
G1 X123.746 Y77.852 E31.4181
G1 X127.513 Y79.745 E31.55833
G1 X127.691 Y79.845 E31.56512
G1 X127.796 Y79.913 E31.56928
G1 X131.241 Y82.24 E31.70755
G1 X131.464 Y82.412 E31.71692
G1 X134.615 Y85.186 E31.85654
G1 X134.812 Y85.383 E31.86581
G1 X137.588 Y88.536 E32.00553
G1 X137.76 Y88.759 E32.0149
G1 X140.124 Y92.26 E32.1554
G1 X140.148 Y92.298 E32.1569
G1 X140.254 Y92.486 E32.16408
G1 X142.151 Y96.264 E32.30468
G1 X142.263 Y96.529 E32.31425
G1 X143.667 Y100.57 E32.45654
G1 X143.744 Y100.852 E32.46626
G1 X144.616 Y105.12 E32.61115
G1 X144.656 Y105.413 E32.62098
G1 X144.954 Y109.852 E32.76896
G1 X144.954 Y110.146 E32.77874
G1 X144.656 Y114.587 E32.92678
G1 X144.616 Y114.88 E32.93661
G1 X143.745 Y119.144 E33.08136
G1 X143.668 Y119.426 E33.09108
G1 X142.261 Y123.478 E33.23375
G1 X142.149 Y123.744 E33.24335
G1 X140.255 Y127.513 E33.38364
G1 X140.149 Y127.7 E33.39079
G1 X140.088 Y127.794 E33.39452
G1 X137.76 Y131.241 E33.53287
G1 X137.588 Y131.464 E33.54223
G1 X134.814 Y134.615 E33.68186
G1 X134.617 Y134.812 E33.69113
G1 X131.464 Y137.588 E33.83085
G1 X131.241 Y137.76 E33.84022
G1 X127.74 Y140.124 E33.98072
G1 X127.702 Y140.148 E33.98222
G1 X127.514 Y140.254 E33.98939
G1 X123.736 Y142.151 E34.13
G1 X123.471 Y142.263 E34.13957
G1 X119.429 Y143.667 E34.28189
G1 X119.147 Y143.744 E34.29161
G1 X114.88 Y144.616 E34.43646
G1 X114.587 Y144.656 E34.4463
G1 X110.147 Y144.954 E34.59431
G1 X109.853 Y144.954 E34.60409
G1 X105.413 Y144.656 E34.75209
G1 X105.12 Y144.616 E34.76193
G1 X100.853 Y143.744 E34.90678
G1 X100.571 Y143.667 E34.91651
G1 X96.52 Y142.26 E35.05914
G1 X96.254 Y142.148 E35.06874
G1 X92.485 Y140.254 E35.20903
G1 X92.298 Y140.148 E35.21618
G1 X92.204 Y140.087 E35.21991
G1 X88.759 Y137.76 E35.35818
G1 X88.536 Y137.588 E35.36755
G1 X85.383 Y134.812 E35.50727
G1 X85.186 Y134.615 E35.51654
G1 X82.412 Y131.464 E35.65616
G1 X82.24 Y131.241 E35.66553
G1 X79.875 Y127.738 E35.80611
G1 X79.851 Y127.7 E35.8076
G1 X79.745 Y127.512 E35.81478
G1 X77.848 Y123.734 E35.95539
G1 X77.736 Y123.469 E35.96496
G1 X76.332 Y119.426 E36.10731
