;FLAVOR:Marlin
;TIME:998
;Filament used: 0.57074m
;Layer height: 0.2
;MINX:90.773
;MINY:87.542
;MINZ:0.2
;MAXX:129.226
;MAXY:132.452
;MAXZ:3
;Generated with Cura_SteamEngine master
M140 S50
M105
M190 S50
M104 S200
M105
M109 S200
M82 ;absolute extrusion mode
M201 X500.00 Y500.00 Z100.00 E5000.00 ;Setup machine max acceleration
M203 X500.00 Y500.00 Z10.00 E50.00 ;Setup machine max feedrate
M204 P500.00 R1000.00 T500.00 ;Setup Print/Retract/Travel acceleration
M205 X8.00 Y8.00 Z0.40 E5.00 ;Setup Jerk
M220 S100 ;Reset Feedrate
M221 S100 ;Reset Flowrate

G28 ;Home

G92 E0 ;Reset Extruder
G1 Z2.0 F3000 ;Move Z Axis up
G1 X10.1 Y20 Z0.28 F5000.0 ;Move to start position
G1 X10.1 Y200.0 Z0.28 F1500.0 E15 ;Draw the first line
G1 X10.4 Y200.0 Z0.28 F5000.0 ;Move to side a little
G1 X10.4 Y20 Z0.28 F1500.0 E30 ;Draw the second line
G92 E0 ;Reset Extruder
G1 Z2.0 F3000 ;Move Z Axis up

G92 E0
G92 E0
G1 F2700 E-5
;LAYER_COUNT:15
;LAYER:0
M107
G0 F6000 X99.387 Y95.325 Z0.2
;TYPE:SKIRT
G1 F2700 E0
G1 F1200 X99.772 Y94.923 E0.01851
G1 X100.306 Y94.372 E0.04403
G1 X100.382 Y94.296 E0.04761
G1 X101.336 Y93.366 E0.09192
G1 X101.417 Y93.29 E0.09562
G1 X102.822 Y91.998 E0.1591
G1 X102.986 Y91.855 E0.16634
G1 X104.529 Y90.591 E0.23268
G1 X105.551 Y89.798 E0.2757
G1 X105.644 Y89.728 E0.27958
G1 X106.701 Y88.96 E0.32303
G1 X106.78 Y88.904 E0.32625
G1 X107.785 Y88.212 E0.36684
G1 X108.26 Y87.933 E0.38516
G1 X108.771 Y87.726 E0.4035
G1 X109.306 Y87.595 E0.42182
G1 X109.94 Y87.542 E0.44298
G1 X110.057 Y87.542 E0.44687
G1 X110.607 Y87.582 E0.46521
G1 X111.145 Y87.701 E0.48354
G1 X111.66 Y87.897 E0.50186
G1 X112.172 Y88.185 E0.5214
G1 X112.693 Y88.534 E0.54226
G1 X112.777 Y88.592 E0.54565
G1 X113.817 Y89.331 E0.58809
G1 X114.822 Y90.084 E0.62986
G1 X115.871 Y90.906 E0.67418
G1 X115.968 Y90.985 E0.67834
G1 X116.303 Y91.266 E0.69288
G1 X116.348 Y91.308 E0.69493
G1 X116.958 Y91.822 E0.72146
G1 X117.039 Y91.892 E0.72502
G1 X118.003 Y92.752 E0.76799
G1 X118.077 Y92.82 E0.77133
G1 X119.071 Y93.755 E0.81672
G1 X119.167 Y93.849 E0.82119
G1 X119.354 Y94.038 E0.83003
G1 X119.976 Y94.659 E0.85927
G1 X120.05 Y94.735 E0.8628
G1 X120.787 Y95.514 E0.89846
G1 X121.09 Y95.839 E0.91324
G1 X121.878 Y96.721 E0.95258
G1 X121.952 Y96.807 E0.95635
G1 X122.805 Y97.821 E1.00043
G1 X122.871 Y97.902 E1.0039
G1 X123.643 Y98.873 E1.04516
G1 X123.954 Y99.328 E1.06349
G1 X124.085 Y99.574 E1.07276
G1 X124.515 Y100.457 E1.10543
G1 X124.576 Y100.587 E1.1102
G1 X124.984 Y101.512 E1.14383
G1 X125.428 Y102.582 E1.18236
G1 X125.499 Y102.747 E1.18833
G1 X125.981 Y103.911 E1.23024
G1 X126.111 Y104.277 E1.24315
G1 X126.599 Y105.911 E1.29987
G1 X126.708 Y106.241 E1.31143
G1 X126.764 Y106.427 E1.31789
G1 X127.122 Y107.734 E1.36296
G1 X127.152 Y107.85 E1.36695
G1 X127.433 Y109.019 E1.40694
G1 X127.578 Y109.704 E1.43023
G1 X127.676 Y110.22 E1.4477
G1 X127.987 Y111.785 E1.50077
G1 X128.055 Y112.332 E1.5191
G1 X128.043 Y112.883 E1.53743
G1 X127.952 Y113.426 E1.55574
G1 X127.783 Y113.951 E1.57409
G1 X127.686 Y114.148 E1.58139
G1 X127.683 Y116.342 E1.65436
G1 X128.065 Y116.691 E1.67157
G1 X128.414 Y117.118 E1.68991
G1 X128.698 Y117.59 E1.70824
G1 X128.91 Y118.098 E1.72654
G1 X129.079 Y118.848 E1.75211
G1 X129.199 Y119.838 E1.78528
G1 X129.226 Y120.388 E1.8036
G1 X129.172 Y120.937 E1.82195
G1 X129.04 Y121.471 E1.84024
G1 X128.832 Y121.982 E1.85859
G1 X128.663 Y122.287 E1.87019
G1 X128.591 Y122.404 E1.87476
G1 X128.269 Y122.851 E1.89308
G1 X127.886 Y123.246 E1.91138
G1 X127.449 Y123.583 E1.92974
G1 X126.969 Y123.852 E1.94804
G1 X126.694 Y123.968 E1.95796
G1 X126.439 Y124.064 E1.96703
G1 X125.91 Y124.221 E1.98538
G1 X125.613 Y124.263 E1.99536
G1 X125.525 Y124.308 E1.99864
G1 X123.311 Y125.305 E2.0794
G1 X123.212 Y125.348 E2.08299
G1 X122.688 Y125.566 E2.10187
G1 X122.473 Y125.678 E2.10993
G1 X122.336 Y125.745 E2.115
G1 X121.895 Y125.952 E2.13121
G1 X121.717 Y126.034 E2.13773
G1 X121.104 Y126.326 E2.16031
G1 X120.906 Y126.422 E2.16763
G1 X119.294 Y127.243 E2.2278
G1 X119.137 Y127.337 E2.23388
G1 X118.978 Y127.427 E2.23996
G1 X118.764 Y127.541 E2.24802
G1 X117.74 Y128.118 E2.28712
G1 X117.652 Y128.172 E2.29055
G1 X116.558 Y128.826 E2.33294
G1 X115.564 Y129.453 E2.37203
G1 X114.362 Y130.251 E2.42002
G1 X113.291 Y130.998 E2.46345
G1 X112.326 Y131.71 E2.50334
G1 X111.86 Y132.004 E2.52166
G1 X111.356 Y132.228 E2.54001
G1 X110.826 Y132.376 E2.55831
G1 X110.07 Y132.452 E2.58358
G1 X109.935 Y132.452 E2.58807
G1 X109.385 Y132.412 E2.60641
G1 X108.847 Y132.293 E2.62474
G1 X108.332 Y132.097 E2.64307
G1 X107.686 Y131.715 E2.66803
G1 X106.812 Y131.073 E2.7041
G1 X105.778 Y130.343 E2.74619
G1 X104.658 Y129.581 E2.79125
G1 X104.391 Y129.423 E2.80157
G1 X104.294 Y129.363 E2.80536
G1 X103.481 Y128.85 E2.83734
G1 X103.225 Y128.683 E2.8475
G1 X102.104 Y128.031 E2.89063
G1 X101.938 Y127.941 E2.89691
G1 X101.327 Y127.593 E2.9203
G1 X100.38 Y127.079 E2.95614
G1 X99.145 Y126.448 E3.00227
G1 X98.029 Y125.911 E3.04346
G1 X97.105 Y125.493 E3.07719
G1 X96.983 Y125.434 E3.0817
G1 X95.73 Y124.902 E3.12697
G1 X94.486 Y124.407 E3.1715
G1 X94.086 Y124.213 E3.18629
G1 X93.938 Y124.185 E3.1913
G1 X93.579 Y124.072 E3.20382
G1 X93.323 Y123.977 E3.2129
G1 X92.822 Y123.748 E3.23122
G1 X92.359 Y123.449 E3.24955
G1 X91.944 Y123.087 E3.26787
G1 X91.586 Y122.668 E3.2862
G1 X91.421 Y122.426 E3.29594
G1 X91.348 Y122.309 E3.30053
G1 X91.091 Y121.821 E3.31887
G1 X90.907 Y121.302 E3.33719
G1 X90.8 Y120.761 E3.35553
G1 X90.773 Y120.211 E3.37384
G1 X90.797 Y119.861 E3.38551
G1 X90.871 Y119.228 E3.40671
G1 X90.927 Y118.796 E3.4212
G1 X91.037 Y118.257 E3.43949
G1 X91.224 Y117.738 E3.45784
G1 X91.484 Y117.253 E3.47615
G1 X91.812 Y116.81 E3.49448
G1 X92.2 Y116.419 E3.5128
G1 X92.315 Y116.333 E3.51758
G1 X92.314 Y114.098 E3.59191
G1 X92.143 Y113.683 E3.60684
G1 X92.008 Y113.149 E3.62516
G1 X91.953 Y112.601 E3.64348
G1 X92.011 Y111.816 E3.66966
G1 X92.119 Y111.218 E3.68987
G1 X92.733 Y108.187 E3.79273
G1 X92.816 Y107.853 E3.80418
G1 X93.48 Y105.634 E3.88121
G1 X93.795 Y104.674 E3.91482
G1 X93.889 Y104.398 E3.92452
G1 X94.312 Y103.242 E3.96546
G1 X94.353 Y103.136 E3.96924
G1 X94.809 Y101.997 E4.01005
G1 X94.859 Y101.878 E4.01434
G1 X95.356 Y100.751 E4.05531
G1 X95.89 Y99.621 E4.09687
G1 X96.161 Y99.142 E4.11518
G1 X96.332 Y98.905 E4.1249
G1 X96.682 Y98.458 E4.14378
G1 X97.392 Y97.577 E4.18142
G1 X97.479 Y97.473 E4.18593
G1 X98.43 Y96.375 E4.23424
G1 X98.494 Y96.303 E4.23744
G1 X99.387 Y95.325 E4.28149
G0 F6000 X99.618 Y95.664
G1 F1200 X100.059 Y95.202 E4.30273
G1 X100.593 Y94.651 E4.32825
G1 X100.662 Y94.582 E4.3315
G1 X101.616 Y93.652 E4.37581
G1 X101.688 Y93.584 E4.37911
G1 X103.093 Y92.292 E4.44259
G1 X103.239 Y92.165 E4.44903
G1 X104.782 Y90.901 E4.51537
G1 X104.855 Y90.843 E4.51847
G1 X105.879 Y90.051 E4.56153
G1 X106.936 Y89.283 E4.60498
G1 X108.012 Y88.542 E4.64844
G1 X108.462 Y88.28 E4.66576
G1 X108.948 Y88.09 E4.68311
G1 X109.456 Y87.977 E4.70042
G1 X109.94 Y87.942 E4.71656
G1 X110.057 Y87.942 E4.72045
G1 X110.577 Y87.982 E4.7378
G1 X111.084 Y88.101 E4.75512
G1 X111.567 Y88.296 E4.77244
G1 X111.949 Y88.517 E4.78712
G1 X112.47 Y88.866 E4.80798
G1 X113.505 Y89.599 E4.85016
G1 X113.577 Y89.651 E4.85312
G1 X114.582 Y90.404 E4.89488
G1 X115.624 Y91.221 E4.93892
G1 X115.711 Y91.291 E4.94264
G1 X116.046 Y91.572 E4.95718
G1 X116.1 Y91.623 E4.95965
G1 X116.7 Y92.128 E4.98574
G1 X117.803 Y93.111 E5.03488
G1 X118.797 Y94.046 E5.08026
G1 X119.693 Y94.942 E5.12241
G1 X119.759 Y95.01 E5.12556
G1 X120.495 Y95.786 E5.16113
G1 X120.743 Y96.052 E5.17323
G1 X121.646 Y97.064 E5.21834
G1 X122.499 Y98.078 E5.26241
G1 X123.33 Y99.122 E5.30679
G1 X123.726 Y99.749 E5.33146
G1 X124.156 Y100.632 E5.36412
G1 X124.21 Y100.749 E5.36841
G1 X124.648 Y101.744 E5.40457
G1 X125.061 Y102.741 E5.44046
G1 X125.129 Y102.9 E5.44621
G1 X125.611 Y104.064 E5.48812
G1 X125.728 Y104.392 E5.4997
G1 X126.219 Y106.036 E5.55676
G1 X126.328 Y106.366 E5.56832
G1 X126.378 Y106.533 E5.57412
G1 X126.736 Y107.84 E5.61919
G1 X126.763 Y107.943 E5.62274
G1 X127.044 Y109.112 E5.66272
G1 X127.172 Y109.714 E5.68319
G1 X127.284 Y110.298 E5.70297
G1 X127.595 Y111.863 E5.75604
G1 X127.657 Y112.381 E5.77339
G1 X127.639 Y112.902 E5.79073
G1 X127.542 Y113.414 E5.80806
G1 X127.368 Y113.905 E5.82539
G1 X127.286 Y114.057 E5.83113
G1 X127.282 Y116.55 E5.91405
G1 X127.52 Y116.724 E5.92386
G1 X127.888 Y117.092 E5.94117
G1 X128.196 Y117.513 E5.95852
G1 X128.436 Y117.975 E5.97583
G1 X128.603 Y118.469 E5.99318
G1 X128.682 Y118.896 E6.00762
G1 X128.802 Y119.886 E6.04079
G1 X128.825 Y120.407 E6.05813
G1 X128.768 Y120.925 E6.07547
G1 X128.633 Y121.428 E6.09279
G1 X128.323 Y122.077 E6.11671
G1 X128.251 Y122.194 E6.12128
G1 X127.944 Y122.616 E6.13864
G1 X127.577 Y122.985 E6.15595
G1 X127.158 Y123.295 E6.17328
G1 X126.553 Y123.594 E6.19573
G1 X126.298 Y123.69 E6.20479
G1 X125.798 Y123.836 E6.22211
G1 X125.487 Y123.876 E6.23254
G1 X125.361 Y123.943 E6.23729
G1 X123.058 Y124.979 E6.32128
G1 X122.513 Y125.206 E6.34092
G1 X122.288 Y125.323 E6.34935
G1 X122.166 Y125.383 E6.35388
G1 X121.753 Y125.577 E6.36905
G1 X121.545 Y125.673 E6.37667
G1 X120.749 Y126.053 E6.40601
G1 X119.1 Y126.894 E6.46758
G1 X118.933 Y126.993 E6.47403
G1 X118.79 Y127.074 E6.4795
G1 X118.573 Y127.189 E6.48767
G1 X117.537 Y127.773 E6.52722
G1 X117.447 Y127.829 E6.53075
G1 X116.332 Y128.496 E6.57396
G1 X115.33 Y129.127 E6.61335
G1 X114.154 Y129.908 E6.6603
G1 X113.046 Y130.681 E6.70523
G1 X112.088 Y131.388 E6.74483
G1 X111.646 Y131.664 E6.76217
G1 X111.167 Y131.87 E6.77951
G1 X110.663 Y132 E6.79682
G1 X110.07 Y132.052 E6.81662
G1 X109.935 Y132.052 E6.82111
G1 X109.415 Y132.012 E6.83846
G1 X108.908 Y131.893 E6.85578
G1 X108.425 Y131.698 E6.8731
G1 X107.922 Y131.392 E6.89268
G1 X107.057 Y130.757 E6.92837
G1 X106.023 Y130.026 E6.97049
G1 X104.869 Y129.241 E7.01691
G1 X104.595 Y129.079 E7.0275
G1 X104.508 Y129.026 E7.03089
G1 X103.806 Y128.581 E7.05853
G1 X103.699 Y128.515 E7.06271
G1 X103.441 Y128.347 E7.07295
G1 X102.283 Y127.673 E7.11752
G1 X102.137 Y127.593 E7.12305
G1 X101.539 Y127.252 E7.14595
G1 X100.589 Y126.736 E7.18191
G1 X99.321 Y126.09 E7.22924
G1 X98.172 Y125.536 E7.27167
G1 X97.27 Y125.128 E7.30459
G1 X97.158 Y125.074 E7.30873
G1 X95.855 Y124.521 E7.35581
G1 X94.634 Y124.035 E7.39952
G1 X94.197 Y123.821 E7.4157
G1 X93.718 Y123.697 E7.43216
G1 X93.462 Y123.602 E7.44124
G1 X92.989 Y123.383 E7.45858
G1 X92.554 Y123.095 E7.47593
G1 X92.169 Y122.744 E7.49326
G1 X91.76 Y122.214 E7.51552
G1 X91.687 Y122.097 E7.52011
G1 X91.446 Y121.635 E7.53744
G1 X91.279 Y121.141 E7.55478
G1 X91.188 Y120.628 E7.57211
G1 X91.194 Y119.907 E7.59609
G1 X91.267 Y119.28 E7.61709
G1 X91.323 Y118.848 E7.63158
G1 X91.43 Y118.338 E7.64891
G1 X91.613 Y117.85 E7.66624
G1 X91.868 Y117.396 E7.68356
G1 X92.19 Y116.986 E7.7009
G1 X92.571 Y116.63 E7.71825
G1 X92.715 Y116.532 E7.72404
G1 X92.714 Y113.999 E7.80829
G1 X92.628 Y113.834 E7.81448
G1 X92.459 Y113.341 E7.83181
G1 X92.368 Y112.828 E7.84914
G1 X92.356 Y112.307 E7.86647
G1 X92.405 Y111.887 E7.88054
G1 X92.513 Y111.289 E7.90075
G1 X93.125 Y108.266 E8.00333
G1 X93.199 Y107.968 E8.01354
G1 X93.834 Y105.843 E8.08731
G1 X94.174 Y104.803 E8.1237
G1 X94.265 Y104.536 E8.13309
G1 X94.688 Y103.38 E8.17403
G1 X94.725 Y103.284 E8.17745
G1 X95.181 Y102.145 E8.21826
G1 X95.225 Y102.04 E8.22204
G1 X95.718 Y100.922 E8.26268
G1 X96.252 Y99.792 E8.30425
G1 X96.647 Y99.151 E8.32929
G1 X96.962 Y98.748 E8.34631
G1 X97.704 Y97.828 E8.38562
G1 X97.781 Y97.735 E8.38963
G1 X98.732 Y96.637 E8.43795
G1 X99.618 Y95.664 E8.48172
G0 F6000 X99.964 Y95.879
G1 F1200 X100.347 Y95.48 E8.50011
G1 X100.881 Y94.929 E8.52563
G1 X100.941 Y94.869 E8.52845
G1 X101.958 Y93.879 E8.57566
G1 X103.363 Y92.587 E8.63914
G1 X103.493 Y92.474 E8.64487
G1 X105.036 Y91.21 E8.71121
G1 X105.1 Y91.159 E8.71394
G1 X106.041 Y90.43 E8.75353
G1 X107.172 Y89.607 E8.80005
G1 X107.234 Y89.563 E8.80258
G1 X108.239 Y88.871 E8.84316
G1 X108.663 Y88.627 E8.85943
G1 X109.122 Y88.456 E8.87572
G1 X109.602 Y88.361 E8.892
G1 X109.94 Y88.342 E8.90326
G1 X110.057 Y88.342 E8.90715
G1 X110.545 Y88.382 E8.92344
G1 X111.02 Y88.501 E8.93972
G1 X111.469 Y88.695 E8.95599
G1 X111.727 Y88.85 E8.966
G1 X112.314 Y89.244 E8.98952
G1 X113.274 Y89.925 E9.02866
G1 X114.342 Y90.724 E9.07303
G1 X115.377 Y91.535 E9.11676
G1 X115.789 Y91.879 E9.13461
G1 X115.84 Y91.926 E9.13692
G1 X116.506 Y92.489 E9.16592
G1 X117.47 Y93.349 E9.20889
G1 X118.522 Y94.338 E9.25691
G1 X118.599 Y94.412 E9.26047
G1 X118.789 Y94.604 E9.26945
G1 X119.411 Y95.225 E9.29868
G1 X120.202 Y96.059 E9.33691
G1 X120.493 Y96.372 E9.35113
G1 X121.281 Y97.254 E9.39047
G1 X121.34 Y97.322 E9.39346
G1 X122.193 Y98.336 E9.43753
G1 X123.017 Y99.371 E9.48154
G1 X123.366 Y99.925 E9.50331
G1 X123.796 Y100.808 E9.53598
G1 X123.844 Y100.91 E9.53973
G1 X124.252 Y101.835 E9.57335
G1 X124.694 Y102.901 E9.61174
G1 X124.76 Y103.053 E9.61725
G1 X125.242 Y104.217 E9.65915
G1 X125.344 Y104.506 E9.66934
G1 X125.832 Y106.138 E9.726
G1 X125.948 Y106.491 E9.73836
G1 X125.992 Y106.638 E9.74346
G1 X126.35 Y107.945 E9.78853
G1 X126.374 Y108.037 E9.7917
G1 X126.674 Y109.289 E9.83452
G1 X126.792 Y109.854 E9.85371
G1 X126.891 Y110.376 E9.87138
G1 X127.202 Y111.941 E9.92445
G1 X127.258 Y112.428 E9.94076
G1 X127.234 Y112.916 E9.95701
G1 X127.131 Y113.395 E9.97331
G1 X126.952 Y113.85 E9.98957
G1 X126.887 Y113.959 E9.99379
G1 X126.882 Y116.76 E10.08695
G1 X126.988 Y116.82 E10.091
G1 X127.37 Y117.127 E10.1073
G1 X127.697 Y117.491 E10.12358
G1 X127.96 Y117.904 E10.13986
G1 X128.152 Y118.354 E10.15613
G1 X128.285 Y118.944 E10.17625
G1 X128.405 Y119.934 E10.20942
G1 X128.424 Y120.423 E10.22569
G1 X128.364 Y120.909 E10.24198
G1 X128.225 Y121.378 E10.25825
G1 X127.982 Y121.867 E10.27641
G1 X127.91 Y121.984 E10.28098
G1 X127.62 Y122.379 E10.29728
G1 X127.27 Y122.721 E10.31356
G1 X126.869 Y123.002 E10.32984
G1 X126.412 Y123.22 E10.34668
G1 X126.157 Y123.316 E10.35575
G1 X125.686 Y123.45 E10.37203
G1 X125.362 Y123.487 E10.38288
G1 X125.197 Y123.578 E10.38915
G1 X122.905 Y124.609 E10.47274
G1 X122.35 Y124.84 E10.49273
G1 X122.104 Y124.968 E10.50195
G1 X121.995 Y125.021 E10.50599
G1 X121.56 Y125.226 E10.52198
G1 X121.336 Y125.329 E10.53018
G1 X120.76 Y125.603 E10.55139
G1 X120.581 Y125.69 E10.55801
G1 X118.915 Y126.539 E10.62021
G1 X118.728 Y126.65 E10.62744
G1 X118.602 Y126.721 E10.63225
G1 X118.367 Y126.846 E10.6411
G1 X117.335 Y127.428 E10.68051
G1 X117.242 Y127.486 E10.68415
G1 X116.126 Y128.154 E10.72741
G1 X115.108 Y128.795 E10.76743
G1 X113.916 Y129.587 E10.81502
G1 X112.82 Y130.352 E10.85948
G1 X111.851 Y131.066 E10.89951
G1 X111.435 Y131.324 E10.91579
G1 X110.982 Y131.51 E10.93208
G1 X110.505 Y131.62 E10.94836
G1 X110.07 Y131.652 E10.96287
G1 X109.935 Y131.652 E10.96736
G1 X109.447 Y131.612 E10.98365
G1 X108.972 Y131.493 E10.99993
G1 X108.523 Y131.299 E11.0162
G1 X108.159 Y131.07 E11.0305
G1 X107.259 Y130.409 E11.06764
G1 X106.248 Y129.695 E11.10881
G1 X105.088 Y128.906 E11.15547
G1 X104.799 Y128.735 E11.16664
G1 X104.012 Y128.238 E11.1976
G1 X103.917 Y128.18 E11.2013
G1 X103.644 Y128.002 E11.21214
G1 X102.473 Y127.321 E11.25719
G1 X102.335 Y127.246 E11.26242
G1 X101.73 Y126.901 E11.28558
G1 X100.737 Y126.362 E11.32316
G1 X99.538 Y125.75 E11.36794
G1 X98.348 Y125.177 E11.41186
G1 X97.435 Y124.764 E11.44519
G1 X97.315 Y124.706 E11.44963
G1 X95.997 Y124.146 E11.49726
G1 X94.782 Y123.663 E11.54074
G1 X94.363 Y123.456 E11.55629
G1 X94.299 Y123.448 E11.55843
G1 X93.857 Y123.322 E11.57372
G1 X93.601 Y123.227 E11.5828
G1 X93.158 Y123.019 E11.59908
G1 X92.754 Y122.743 E11.61535
G1 X92.4 Y122.404 E11.63165
G1 X92.1 Y122.002 E11.64834
G1 X92.027 Y121.885 E11.65292
G1 X91.802 Y121.45 E11.66921
G1 X91.652 Y120.984 E11.6855
G1 X91.579 Y120.5 E11.70178
G1 X91.592 Y119.953 E11.71997
G1 X91.664 Y119.331 E11.7408
G1 X91.72 Y118.899 E11.75529
G1 X91.822 Y118.421 E11.77154
G1 X92.001 Y117.965 E11.78784
G1 X92.252 Y117.544 E11.80414
G1 X92.567 Y117.17 E11.8204
G1 X92.939 Y116.852 E11.83668
G1 X93.115 Y116.746 E11.84351
G1 X93.114 Y113.921 E11.93747
G1 X92.919 Y113.482 E11.95345
G1 X92.796 Y113.009 E11.96971
G1 X92.751 Y112.521 E11.98601
G1 X92.799 Y111.958 E12.0048
