;FLAVOR:Marlin
;TIME:5850
;Filament used: 3.67332m
;Layer height: 0.2
;MINX:75.335
;MINY:68.843
;MINZ:0.2
;MAXX:144.664
;MAXY:151.151
;MAXZ:6.7
;Generated with Cura_SteamEngine master
M140 S50
M105
M190 S50
M104 S200
M105
M109 S200
M82 ;absolute extrusion mode
M201 X500.00 Y500.00 Z100.00 E5000.00 ;Setup machine max acceleration
M203 X500.00 Y500.00 Z10.00 E50.00 ;Setup machine max feedrate
M204 P500.00 R1000.00 T500.00 ;Setup Print/Retract/Travel acceleration
M205 X8.00 Y8.00 Z0.40 E5.00 ;Setup Jerk
M220 S100 ;Reset Feedrate
M221 S100 ;Reset Flowrate

G28 ;Home

G92 E0 ;Reset Extruder
G1 Z2.0 F3000 ;Move Z Axis up
G1 X10.1 Y20 Z0.28 F5000.0 ;Move to start position
G1 X10.1 Y200.0 Z0.28 F1500.0 E15 ;Draw the first line
G1 X10.4 Y200.0 Z0.28 F5000.0 ;Move to side a little
G1 X10.4 Y20 Z0.28 F1500.0 E30 ;Draw the second line
G92 E0 ;Reset Extruder
G1 Z2.0 F3000 ;Move Z Axis up

G92 E0
G92 E0
G1 F2700 E-5
;LAYER_COUNT:31
;LAYER:0
M107
G1 F300 Z0.7
G0 F6000 X91.466 Y83.333 Z0.7
;TYPE:SKIRT
G1 F300 Z0.2
G1 F2700 E0
G1 F600 X91.536 Y83.258 E0.00341
G1 X92.216 Y82.551 E0.03604
G1 X92.319 Y82.449 E0.04086
G1 X93.262 Y81.466 E0.08617
G1 X93.354 Y81.373 E0.09052
G1 X95.302 Y79.478 E0.18091
G1 X97.28 Y77.649 E0.27051
G1 X97.366 Y77.572 E0.27435
G1 X99.301 Y75.89 E0.35962
G1 X99.386 Y75.818 E0.36333
G1 X101.355 Y74.205 E0.44799
G1 X101.442 Y74.136 E0.45168
G1 X103.581 Y72.487 E0.54151
G1 X105.688 Y70.951 E0.62823
G1 X107.786 Y69.51 E0.71289
G1 X108.261 Y69.232 E0.73119
G1 X108.772 Y69.026 E0.74952
G1 X109.307 Y68.895 E0.76784
G1 X109.936 Y68.843 E0.78883
G1 X110.063 Y68.843 E0.79305
G1 X110.613 Y68.883 E0.8114
G1 X111.151 Y69.002 E0.82972
G1 X111.666 Y69.198 E0.84805
G1 X112.195 Y69.497 E0.86826
G1 X113.122 Y70.126 E0.90552
G1 X114.057 Y70.785 E0.94357
G1 X115.67 Y71.928 E1.00932
G1 X115.782 Y72.01 E1.01394
G1 X116.426 Y72.503 E1.04091
G1 X117.346 Y73.191 E1.07912
G1 X117.435 Y73.26 E1.08287
G1 X119.564 Y74.954 E1.17336
G1 X121.253 Y76.373 E1.24673
G1 X121.458 Y76.537 E1.25546
G1 X121.613 Y76.668 E1.26221
G1 X123.603 Y78.447 E1.35099
G1 X123.706 Y78.543 E1.35567
G1 X123.924 Y78.753 E1.36574
G1 X124.071 Y78.901 E1.37268
G1 X125.453 Y80.196 E1.43567
G1 X125.54 Y80.281 E1.43972
G1 X127.291 Y82.029 E1.52201
G1 X127.365 Y82.105 E1.52554
G1 X129.064 Y83.899 E1.60772
G1 X129.137 Y83.979 E1.61132
G1 X130.822 Y85.863 E1.69539
G1 X130.89 Y85.941 E1.69883
G1 X132.656 Y88.027 E1.78973
G1 X132.728 Y88.114 E1.79349
G1 X134.306 Y90.095 E1.87773
G1 X134.617 Y90.55 E1.89606
G1 X134.754 Y90.807 E1.90574
G1 X135.462 Y92.271 E1.95983
G1 X136.473 Y94.515 E2.04169
G1 X137.45 Y96.87 E2.12649
G1 X137.539 Y97.098 E2.13463
G1 X138.231 Y98.897 E2.19874
G1 X138.278 Y99.027 E2.20334
G1 X139.126 Y101.496 E2.29017
G1 X139.163 Y101.609 E2.29412
G1 X139.918 Y104.054 E2.37923
G1 X139.953 Y104.174 E2.38339
G1 X140.559 Y106.394 E2.45993
G1 X140.588 Y106.508 E2.46384
G1 X141.189 Y109.015 E2.54959
G1 X141.35 Y109.762 E2.575
G1 X141.431 Y110.183 E2.58926
G1 X142.217 Y114.149 E2.72374
G1 X142.449 Y115.531 E2.77035
G1 X142.513 Y115.825 E2.78035
G1 X142.54 Y115.962 E2.785
G1 X142.948 Y118.237 E2.86187
G1 X143.486 Y121.589 E2.97479
G1 X143.534 Y122.138 E2.99312
G1 X143.501 Y122.688 E3.01144
G1 X143.39 Y123.227 E3.02975
G1 X143.202 Y123.745 E3.04807
G1 X143.163 Y123.818 E3.05083
G1 X143.159 Y126.778 E3.14928
G1 X143.505 Y127.094 E3.16486
G1 X143.854 Y127.52 E3.18318
G1 X144.138 Y127.993 E3.20153
G1 X144.35 Y128.501 E3.21984
G1 X144.519 Y129.249 E3.24534
G1 X144.637 Y130.219 E3.27784
G1 X144.664 Y130.769 E3.29616
G1 X144.611 Y131.318 E3.3145
G1 X144.479 Y131.853 E3.33283
G1 X144.271 Y132.363 E3.35115
G1 X144.084 Y132.697 E3.36388
G1 X144.01 Y132.815 E3.36851
G1 X143.685 Y133.259 E3.38681
G1 X143.298 Y133.652 E3.40516
G1 X142.859 Y133.984 E3.42347
G1 X142.376 Y134.25 E3.44181
G1 X142.114 Y134.358 E3.45123
G1 X141.861 Y134.452 E3.46021
G1 X141.328 Y134.607 E3.47867
G1 X140.835 Y134.831 E3.49668
G1 X140.089 Y135.106 E3.52313
G1 X139.704 Y135.254 E3.53684
G1 X137.516 Y136.119 E3.6151
G1 X135.01 Y137.173 E3.70552
G1 X134.185 Y137.53 E3.73542
G1 X133.759 Y137.735 E3.75114
G1 X132.776 Y138.175 E3.78696
G1 X132.512 Y138.301 E3.79669
G1 X131.988 Y138.505 E3.81539
G1 X131.914 Y138.528 E3.81797
G1 X127.381 Y140.836 E3.98716
G1 X127.017 Y141.042 E4.00107
G1 X125.666 Y141.764 E4.05202
G1 X123.505 Y142.989 E4.13464
G1 X120.997 Y144.493 E4.2319
G1 X119.035 Y145.729 E4.30903
G1 X116.612 Y147.338 E4.40577
G1 X114.271 Y148.977 E4.50082
G1 X112.318 Y150.413 E4.58144
G1 X111.851 Y150.706 E4.59978
G1 X111.347 Y150.929 E4.61811
G1 X110.817 Y151.076 E4.6364
G1 X110.067 Y151.151 E4.66147
G1 X109.935 Y151.151 E4.66586
G1 X109.385 Y151.111 E4.68421
G1 X108.847 Y150.992 E4.70253
G1 X108.332 Y150.796 E4.72086
G1 X107.683 Y150.412 E4.74594
G1 X106.231 Y149.344 E4.80589
G1 X103.897 Y147.688 E4.90107
G1 X101.371 Y145.991 E5.00229
G1 X99.713 Y144.933 E5.06771
G1 X99.56 Y144.84 E5.07366
G1 X99.48 Y144.783 E5.07693
G1 X96.992 Y143.278 E5.17364
G1 X94.678 Y141.954 E5.26231
G1 X92.181 Y140.597 E5.35683
G1 X91.94 Y140.486 E5.36566
G1 X91.795 Y140.416 E5.37101
G1 X90.08 Y139.54 E5.43507
G1 X88.484 Y138.772 E5.49398
G1 X88.371 Y138.715 E5.49818
G1 X88.164 Y138.607 E5.50595
G1 X87.722 Y138.405 E5.52211
G1 X86.092 Y137.667 E5.58163
G1 X85.178 Y137.255 E5.61497
G1 X84.964 Y137.164 E5.62271
G1 X83.278 Y136.435 E5.6838
G1 X80.327 Y135.264 E5.7894
G1 X79.168 Y134.834 E5.83051
G1 X78.667 Y134.606 E5.84882
G1 X78.653 Y134.597 E5.84937
G1 X78.503 Y134.569 E5.85445
G1 X78.145 Y134.456 E5.86693
G1 X77.886 Y134.36 E5.87612
G1 X77.385 Y134.132 E5.89443
G1 X76.922 Y133.833 E5.91276
G1 X76.507 Y133.471 E5.93108
G1 X76.148 Y133.052 E5.94943
G1 X75.983 Y132.809 E5.9592
G1 X75.91 Y132.692 E5.96378
G1 X75.653 Y132.204 E5.98213
G1 X75.469 Y131.685 E6.00044
G1 X75.362 Y131.144 E6.01879
G1 X75.335 Y130.594 E6.0371
G1 X75.359 Y130.242 E6.04884
G1 X75.481 Y129.19 E6.08406
G1 X75.584 Y128.649 E6.10238
G1 X75.764 Y128.128 E6.12071
G1 X76.018 Y127.639 E6.13904
G1 X76.34 Y127.192 E6.15736
G1 X76.723 Y126.796 E6.17568
G1 X76.843 Y126.704 E6.18071
G1 X76.836 Y123.84 E6.27597
G1 X76.679 Y123.48 E6.28903
G1 X76.536 Y122.948 E6.30736
G1 X76.47 Y122.401 E6.32568
G1 X76.506 Y121.677 E6.34979
G1 X76.595 Y121.063 E6.37043
G1 X76.654 Y120.685 E6.38315
G1 X77.231 Y117.205 E6.50048
G1 X77.575 Y115.308 E6.5646
G1 X77.612 Y115.124 E6.57084
G1 X77.986 Y113.08 E6.63995
G1 X78.787 Y109.121 E6.7743
G1 X78.811 Y109.012 E6.77801
G1 X79.179 Y107.433 E6.83194
G1 X79.204 Y107.332 E6.8354
G1 X79.802 Y105.051 E6.91383
G1 X79.831 Y104.946 E6.91745
G1 X79.984 Y104.426 E6.93548
G1 X80.563 Y102.481 E7.00298
G1 X80.598 Y102.369 E7.00688
G1 X80.736 Y101.953 E7.02146
G1 X81.211 Y100.504 E7.07217
G1 X81.277 Y100.321 E7.07864
G1 X81.311 Y100.232 E7.08181
G1 X81.36 Y100.078 E7.08719
G1 X81.414 Y99.919 E7.09277
G1 X82.173 Y97.842 E7.16632
G1 X82.213 Y97.736 E7.17009
G1 X83.113 Y95.483 E7.25078
G1 X83.163 Y95.365 E7.25505
G1 X84.134 Y93.154 E7.33536
G1 X84.179 Y93.055 E7.33898
G1 X85.218 Y90.862 E7.41969
G1 X85.621 Y90.196 E7.44558
G1 X85.808 Y89.95 E7.45586
G1 X86.154 Y89.509 E7.4745
G1 X87.357 Y88.023 E7.53809
G1 X87.969 Y87.279 E7.57014
G1 X89.585 Y85.4 E7.65257
G1 X89.657 Y85.319 E7.65617
G1 X91.466 Y83.333 E7.74552
G0 F6000 X91.761 Y83.602
G1 F600 X92.505 Y82.828 E7.78123
G1 X92.606 Y82.728 E7.78595
G1 X93.551 Y81.743 E7.83136
G1 X93.633 Y81.66 E7.83524
G1 X95.581 Y79.765 E7.92563
G1 X97.552 Y77.943 E8.0149
G1 X97.628 Y77.874 E8.01831
G1 X99.563 Y76.192 E8.10359
G1 X99.639 Y76.128 E8.10689
G1 X101.608 Y74.515 E8.19155
G1 X101.686 Y74.453 E8.19487
G1 X103.743 Y72.866 E8.28128
G1 X105.924 Y71.275 E8.37107
G1 X106.003 Y71.219 E8.37429
G1 X108.012 Y69.84 E8.45533
G1 X108.463 Y69.579 E8.47267
G1 X108.949 Y69.39 E8.49001
G1 X109.457 Y69.277 E8.50732
G1 X109.936 Y69.243 E8.52329
G1 X110.063 Y69.243 E8.52751
G1 X110.583 Y69.283 E8.54486
G1 X111.09 Y69.402 E8.56218
G1 X111.573 Y69.597 E8.57951
G1 X111.971 Y69.829 E8.59483
G1 X112.892 Y70.454 E8.63185
G1 X113.826 Y71.111 E8.66983
G1 X115.439 Y72.254 E8.73558
G1 X115.539 Y72.328 E8.73972
G1 X116.186 Y72.823 E8.76681
G1 X117.106 Y73.511 E8.80502
G1 X117.186 Y73.573 E8.80839
G1 X119.307 Y75.26 E8.89853
G1 X121.006 Y76.687 E8.97232
G1 X121.208 Y76.849 E8.98094
G1 X121.346 Y76.966 E8.98695
G1 X123.336 Y78.745 E9.07573
G1 X123.429 Y78.831 E9.07995
G1 X123.647 Y79.041 E9.09001
G1 X123.791 Y79.188 E9.09686
G1 X125.179 Y80.488 E9.16011
G1 X125.257 Y80.564 E9.16373
G1 X127.075 Y82.38 E9.2492
G1 X128.774 Y84.174 E9.33138
G1 X128.839 Y84.245 E9.33458
G1 X130.524 Y86.129 E9.41865
G1 X130.585 Y86.199 E9.42174
G1 X132.351 Y88.285 E9.51264
G1 X133.993 Y90.345 E9.60026
G1 X134.394 Y90.981 E9.62527
G1 X135.097 Y92.435 E9.67898
G1 X136.108 Y94.679 E9.76084
G1 X136.149 Y94.774 E9.76429
G1 X137.077 Y97.015 E9.84496
G1 X137.857 Y99.04 E9.91714
G1 X137.9 Y99.157 E9.92128
G1 X138.748 Y101.626 E10.00811
G1 X138.781 Y101.727 E10.01164
G1 X139.536 Y104.172 E10.09675
G1 X139.567 Y104.28 E10.10049
G1 X140.173 Y106.5 E10.17703
G1 X140.199 Y106.602 E10.18053
G1 X140.798 Y109.1 E10.26597
G1 X140.959 Y109.847 E10.29139
G1 X141.039 Y110.261 E10.30541
G1 X141.804 Y114.116 E10.43613
G1 X141.822 Y114.215 E10.43947
G1 X142.054 Y115.599 E10.48615
G1 X142.122 Y115.91 E10.49674
G1 X142.146 Y116.033 E10.50091
G1 X142.553 Y118.3 E10.57751
G1 X143.091 Y121.652 E10.69043
G1 X143.134 Y122.172 E10.70778
G1 X143.097 Y122.691 E10.72509
G1 X142.981 Y123.199 E10.74242
G1 X142.789 Y123.684 E10.75977
G1 X142.763 Y123.728 E10.76147
G1 X142.758 Y126.979 E10.8696
G1 X142.96 Y127.126 E10.8779
G1 X143.328 Y127.495 E10.89524
G1 X143.636 Y127.915 E10.91256
G1 X143.876 Y128.378 E10.92991
G1 X144.043 Y128.872 E10.94725
G1 X144.122 Y129.297 E10.96163
G1 X144.24 Y130.267 E10.99413
G1 X144.263 Y130.788 E11.01147
G1 X144.206 Y131.306 E11.02881
G1 X144.071 Y131.809 E11.04613
G1 X143.745 Y132.484 E11.07106
G1 X143.671 Y132.602 E11.07569
G1 X143.362 Y133.021 E11.09301
G1 X142.991 Y133.388 E11.11036
G1 X142.569 Y133.694 E11.1277
G1 X141.975 Y133.983 E11.14967
G1 X141.722 Y134.077 E11.15865
G1 X141.221 Y134.221 E11.17599
G1 X141.177 Y134.226 E11.17746
G1 X140.696 Y134.456 E11.19519
G1 X139.956 Y134.729 E11.22143
G1 X139.56 Y134.881 E11.23554
G1 X137.354 Y135.753 E11.31443
G1 X134.819 Y136.819 E11.4059
G1 X134.041 Y137.155 E11.43408
G1 X133.686 Y137.327 E11.4472
G1 X133.596 Y137.369 E11.45051
G1 X132.636 Y137.799 E11.48549
G1 X132.34 Y137.94 E11.4964
G1 X131.871 Y138.123 E11.51314
G1 X131.765 Y138.156 E11.51684
G1 X127.172 Y140.494 E11.68825
G1 X126.819 Y140.694 E11.70175
G1 X125.475 Y141.412 E11.75243
G1 X123.296 Y142.648 E11.83575
G1 X120.814 Y144.136 E11.932
G1 X118.784 Y145.415 E12.0118
G1 X116.382 Y147.01 E12.1077
G1 X114.037 Y148.652 E12.20292
G1 X112.081 Y150.09 E12.28366
G1 X111.639 Y150.366 E12.30099
G1 X111.159 Y150.571 E12.31835
G1 X110.654 Y150.7 E12.33569
G1 X110.067 Y150.751 E12.35529
G1 X109.935 Y150.751 E12.35968
G1 X109.415 Y150.711 E12.37702
G1 X108.908 Y150.592 E12.39434
G1 X108.425 Y150.397 E12.41167
G1 X107.92 Y150.09 E12.43133
G1 X106.453 Y149.011 E12.49189
G1 X104.13 Y147.363 E12.58663
G1 X101.597 Y145.661 E12.68813
G1 X99.938 Y144.603 E12.75357
G1 X99.768 Y144.499 E12.7602
G1 X99.691 Y144.443 E12.76337
G1 X97.186 Y142.928 E12.86073
G1 X94.889 Y141.614 E12.94875
G1 X92.366 Y140.242 E13.04427
G1 X92.106 Y140.123 E13.05378
G1 X91.976 Y140.06 E13.05859
G1 X90.239 Y139.173 E13.12346
G1 X88.658 Y138.412 E13.18181
G1 X88.556 Y138.361 E13.18561
G1 X88.329 Y138.242 E13.19413
G1 X86.257 Y137.302 E13.26981
G1 X85.355 Y136.896 E13.30271
G1 X85.122 Y136.797 E13.31113
G1 X83.418 Y136.061 E13.37286
G1 X80.473 Y134.891 E13.47826
G1 X79.307 Y134.459 E13.51962
G1 X78.834 Y134.241 E13.53694
G1 X78.791 Y134.213 E13.53865
G1 X78.284 Y134.081 E13.55607
G1 X78.025 Y133.985 E13.56526
G1 X77.552 Y133.767 E13.58258
G1 X77.118 Y133.479 E13.59991
G1 X76.732 Y133.128 E13.61726
G1 X76.322 Y132.597 E13.63957
G1 X76.249 Y132.48 E13.64416
G1 X76.008 Y132.018 E13.66149
G1 X75.841 Y131.524 E13.67883
G1 X75.75 Y131.011 E13.69616
G1 X75.757 Y130.288 E13.72021
G1 X75.879 Y129.236 E13.75544
G1 X75.978 Y128.725 E13.77275
G1 X76.155 Y128.234 E13.79011
G1 X76.404 Y127.777 E13.80742
G1 X76.721 Y127.363 E13.82476
G1 X77.097 Y127.002 E13.8421
G1 X77.243 Y126.899 E13.84804
G1 X77.236 Y123.748 E13.95284
G1 X77.167 Y123.622 E13.95762
G1 X76.989 Y123.132 E13.97496
G1 X76.889 Y122.62 E13.99231
G1 X76.868 Y122.1 E14.00962
G1 X76.901 Y121.734 E14.02184
G1 X76.99 Y121.125 E14.04231
G1 X77.049 Y120.75 E14.05494
G1 X77.625 Y117.276 E14.17206
G1 X77.969 Y115.379 E14.23618
G1 X77.999 Y115.229 E14.24127
G1 X78.366 Y113.222 E14.30913
G1 X79.18 Y109.201 E14.44558
G1 X79.201 Y109.103 E14.44892
G1 X79.591 Y107.434 E14.50592
G1 X80.189 Y105.153 E14.58435
G1 X80.215 Y105.059 E14.5876
G1 X80.367 Y104.54 E14.60559
G1 X80.946 Y102.595 E14.67308
G1 X80.978 Y102.494 E14.67661
G1 X81.116 Y102.078 E14.69118
G1 X81.591 Y100.629 E14.7419
G1 X81.65 Y100.465 E14.7477
G1 X81.688 Y100.365 E14.75126
G1 X81.741 Y100.199 E14.75705
G1 X81.79 Y100.056 E14.76208
G1 X82.549 Y97.979 E14.83563
G1 X82.585 Y97.885 E14.83898
G1 X83.485 Y95.632 E14.91967
G1 X83.529 Y95.526 E14.92349
G1 X84.54 Y93.226 E15.00705
G1 X85.579 Y91.033 E15.08776
G1 X85.94 Y90.438 E15.11091
G1 X86.123 Y90.197 E15.12097
G1 X86.501 Y89.716 E15.14132
G1 X87.666 Y88.277 E15.2029
G1 X88.272 Y87.54 E15.23464
G1 X89.952 Y85.588 E15.32029
G1 X91.761 Y83.602 E15.40964
G0 F6000 X92.057 Y83.872
G1 F600 X92.113 Y83.812 E15.41237
G1 X92.793 Y83.105 E15.445
G1 X92.896 Y83.003 E15.44982
G1 X93.839 Y82.02 E15.49513
G1 X93.912 Y81.947 E15.49856
G1 X95.86 Y80.052 E15.58895
G1 X97.823 Y78.237 E15.67787
G1 X97.891 Y78.176 E15.68091
G1 X99.893 Y76.437 E15.76911
G1 X101.862 Y74.824 E15.85377
G1 X101.93 Y74.77 E15.85666
G1 X103.987 Y73.183 E15.94307
G1 X106.16 Y71.598 E16.03253
G1 X106.229 Y71.549 E16.03534
G1 X108.238 Y70.17 E16.11639
G1 X108.663 Y69.926 E16.13269
G1 X109.122 Y69.756 E16.14897
G1 X109.602 Y69.662 E16.16523
G1 X109.936 Y69.643 E16.17636
G1 X110.063 Y69.643 E16.18058
G1 X110.551 Y69.683 E16.19687
G1 X111.026 Y69.802 E16.21316
G1 X111.475 Y69.996 E16.22942
G1 X111.746 Y70.16 E16.23996
G1 X112.662 Y70.781 E16.27677
G1 X113.595 Y71.437 E16.3147
G1 X115.208 Y72.58 E16.38046
G1 X115.296 Y72.645 E16.38409
G1 X115.947 Y73.143 E16.41136
G1 X116.867 Y73.831 E16.44956
G1 X118.987 Y75.516 E16.53964
G1 X120.715 Y76.966 E16.61466
G1 X120.958 Y77.161 E16.62503
G1 X121.079 Y77.264 E16.63031
G1 X123.069 Y79.043 E16.71909
G1 X123.151 Y79.119 E16.72281
G1 X123.369 Y79.329 E16.73288
G1 X123.502 Y79.465 E16.7392
G1 X124.906 Y80.78 E16.80318
G1 X124.975 Y80.847 E16.80638
G1 X126.726 Y82.595 E16.88867
G1 X128.483 Y84.449 E16.97363
G1 X128.541 Y84.512 E16.97648
G1 X130.226 Y86.396 E17.06055
G1 X130.28 Y86.458 E17.06328
G1 X132.046 Y88.544 E17.15419
G1 X132.103 Y88.613 E17.15716
G1 X133.681 Y90.594 E17.2414
G1 X134.034 Y91.155 E17.26345
G1 X134.697 Y92.524 E17.31404
G1 X135.743 Y94.844 E17.39868
G1 X135.779 Y94.927 E17.40169
G1 X136.705 Y97.161 E17.48212
G1 X137.484 Y99.184 E17.55422
G1 X137.521 Y99.286 E17.55783
G1 X138.369 Y101.755 E17.64466
G1 X138.398 Y101.845 E17.64781
G1 X139.153 Y104.29 E17.73292
G1 X139.181 Y104.385 E17.73621
G1 X139.787 Y106.605 E17.81275
G1 X139.81 Y106.695 E17.81584
G1 X140.407 Y109.184 E17.90097
G1 X140.568 Y109.931 E17.92639
G1 X140.647 Y110.339 E17.94021
G1 X141.412 Y114.194 E18.07093
G1 X141.428 Y114.282 E18.0739
G1 X141.663 Y115.685 E18.12122
G1 X141.731 Y115.995 E18.13177
G1 X141.753 Y116.104 E18.13547
G1 X142.158 Y118.364 E18.21184
G1 X142.696 Y121.716 E18.32475
G1 X142.734 Y122.204 E18.34103
G1 X142.692 Y122.691 E18.35729
G1 X142.571 Y123.166 E18.37359
G1 X142.375 Y123.614 E18.38986
G1 X142.363 Y123.632 E18.39058
G1 X142.358 Y127.184 E18.50872
G1 X142.428 Y127.223 E18.51138
G1 X142.81 Y127.53 E18.52768
G1 X143.136 Y127.894 E18.54393
G1 X143.4 Y128.307 E18.56024
G1 X143.592 Y128.757 E18.57651
G1 X143.725 Y129.346 E18.59659
G1 X143.843 Y130.316 E18.62909
G1 X143.862 Y130.805 E18.64537
G1 X143.802 Y131.291 E18.66166
G1 X143.663 Y131.76 E18.67793
