;FLAVOR:Marlin
;TIME:3166
;Filament used: 1.829m
;Layer height: 0.2
;MINX:84.349
;MINY:93.314
;MINZ:0.2
;MAXX:135.65
;MAXY:126.685
;MAXZ:30.8
;Generated with Cura_SteamEngine master
M140 S50
M105
M190 S50
M104 S200
M105
M109 S200
M82 ;absolute extrusion mode
M201 X500.00 Y500.00 Z100.00 E5000.00 ;Setup machine max acceleration
M203 X500.00 Y500.00 Z10.00 E50.00 ;Setup machine max feedrate
M204 P500.00 R1000.00 T500.00 ;Setup Print/Retract/Travel acceleration
M205 X8.00 Y8.00 Z0.40 E5.00 ;Setup Jerk
M220 S100 ;Reset Feedrate
M221 S100 ;Reset Flowrate

G28 ;Home

G92 E0 ;Reset Extruder
G1 Z2.0 F3000 ;Move Z Axis up
G1 X10.1 Y20 Z0.28 F5000.0 ;Move to start position
G1 X10.1 Y200.0 Z0.28 F1500.0 E15 ;Draw the first line
G1 X10.4 Y200.0 Z0.28 F5000.0 ;Move to side a little
G1 X10.4 Y20 Z0.28 F1500.0 E30 ;Draw the second line
G92 E0 ;Reset Extruder
G1 Z2.0 F3000 ;Move Z Axis up

G92 E0
G92 E0
G1 F2700 E-5
;LAYER_COUNT:154
;LAYER:0
M107
G0 F6000 X85.824 Y110.445 Z0.2
;TYPE:SKIRT
G1 F2700 E0
G1 F1200 X86.272 Y110.124 E0.01833
G1 X86.835 Y109.841 E0.03929
G1 X87.036 Y109.76 E0.0465
G1 X87.56 Y109.592 E0.0648
G1 X88.104 Y109.501 E0.08314
G1 X88.456 Y109.485 E0.09486
G1 X108.361 Y109.487 E0.75691
G1 X108.433 Y109.484 E0.7593
G1 X109.075 Y109.444 E0.7807
G1 X110.582 Y109.072 E0.83232
G1 X111.846 Y108.408 E0.87981
G1 X112.928 Y107.45 E0.92788
G1 X113.744 Y106.266 E0.97571
G1 X114.395 Y104.545 E1.03691
G1 X114.527 Y104.159 E1.05047
G1 X114.657 Y103.863 E1.06123
G1 X115.246 Y102.499 E1.11064
G1 X115.573 Y101.897 E1.13343
G1 X115.595 Y101.864 E1.13475
G1 X116.04 Y101.315 E1.15825
G1 X116.35 Y100.998 E1.173
G1 X117.298 Y100.018 E1.21835
G1 X117.896 Y99.515 E1.24434
G1 X117.924 Y99.496 E1.24546
G1 X118.438 Y99.202 E1.26516
G1 X119.449 Y98.725 E1.30234
G1 X119.449 Y97.81 E1.33277
G1 X119.451 Y97.397 E1.34651
G1 X119.494 Y96.847 E1.36486
G1 X119.615 Y96.31 E1.38317
G1 X119.867 Y95.686 E1.40555
G1 X119.984 Y95.457 E1.4141
G1 X120.27 Y94.986 E1.43243
G1 X120.62 Y94.561 E1.45074
G1 X121.029 Y94.191 E1.46909
G1 X121.487 Y93.884 E1.48742
G1 X122.017 Y93.634 E1.50692
G1 X122.201 Y93.564 E1.51346
G1 X122.729 Y93.406 E1.53179
G1 X123.535 Y93.316 E1.55877
G1 X123.792 Y93.315 E1.56732
G1 X125.902 Y93.321 E1.6375
G1 X126.451 Y93.363 E1.65581
G1 X126.989 Y93.483 E1.67414
G1 X127.503 Y93.68 E1.69245
G1 X127.554 Y93.709 E1.6944
G1 X127.646 Y93.659 E1.69788
G1 X128.163 Y93.469 E1.7162
G1 X128.703 Y93.356 E1.73455
G1 X129.196 Y93.322 E1.75099
G1 X131.365 Y93.314 E1.82313
G1 X131.605 Y93.317 E1.83111
G1 X132.155 Y93.364 E1.84947
G1 X132.691 Y93.49 E1.86779
G1 X133.225 Y93.702 E1.8869
G1 X133.436 Y93.805 E1.89471
G1 X133.912 Y94.082 E1.91302
G1 X134.344 Y94.425 E1.93137
G1 X134.721 Y94.827 E1.9497
G1 X135.036 Y95.279 E1.96803
G1 X135.291 Y95.794 E1.98714
G1 X135.372 Y95.994 E1.99432
G1 X135.541 Y96.518 E2.01263
G1 X135.633 Y97.061 E2.03095
G1 X135.65 Y97.421 E2.04293
G1 X135.648 Y112.08 E2.53049
G1 X135.629 Y112.455 E2.54298
G1 X135.608 Y112.666 E2.55003
G1 X135.494 Y113.884 E2.59072
G1 X135.424 Y114.337 E2.60597
G1 X135.419 Y114.36 E2.60675
G1 X135.321 Y114.726 E2.61935
G1 X134.724 Y116.566 E2.68369
G1 X134.537 Y117.033 E2.70042
G1 X134.526 Y117.056 E2.70127
G1 X134.295 Y117.47 E2.71704
G1 X134.153 Y117.691 E2.72578
G1 X133.277 Y119.075 E2.78025
G1 X133.049 Y119.398 E2.7934
G1 X133.034 Y119.417 E2.79421
G1 X132.65 Y119.834 E2.81306
G1 X131.239 Y121.157 E2.8774
G1 X130.894 Y121.444 E2.89232
G1 X130.875 Y121.458 E2.89311
G1 X130.453 Y121.728 E2.90977
G1 X128.767 Y122.656 E2.97378
G1 X128.478 Y122.799 E2.9845
G1 X128.451 Y122.811 E2.98549
G1 X127.826 Y123.026 E3.00747
G1 X127.603 Y123.082 E3.01512
G1 X125.988 Y123.498 E3.07059
G1 X125.577 Y123.58 E3.08453
G1 X125.259 Y123.613 E3.09516
G1 X124.28 Y123.675 E3.12779
G1 X124.04 Y123.683 E3.13577
G1 X103.936 Y123.685 E3.80443
G1 X103.691 Y124.298 E3.82639
G1 X103.571 Y124.536 E3.83526
G1 X103.288 Y125.009 E3.85359
G1 X102.94 Y125.435 E3.87189
G1 X102.533 Y125.807 E3.89022
G1 X102.077 Y126.116 E3.90855
G1 X101.338 Y126.444 E3.93544
G1 X101.154 Y126.503 E3.94186
G1 X100.619 Y126.632 E3.96017
G1 X99.994 Y126.684 E3.98103
G1 X88.53 Y126.685 E4.36232
G1 X87.981 Y126.645 E4.38063
G1 X87.443 Y126.526 E4.39896
G1 X87.116 Y126.412 E4.41047
G1 X86.874 Y126.315 E4.41915
G1 X86.379 Y126.074 E4.43746
G1 X85.924 Y125.763 E4.45579
G1 X85.518 Y125.39 E4.47412
G1 X85.171 Y124.962 E4.49245
G1 X84.795 Y124.285 E4.51821
G1 X84.708 Y124.082 E4.52555
G1 X84.528 Y123.561 E4.54389
G1 X84.426 Y123.02 E4.5622
G1 X84.401 Y122.587 E4.57662
G1 X84.4 Y120.204 E4.65588
G1 X84.44 Y119.654 E4.67422
G1 X84.558 Y119.116 E4.69254
G1 X84.754 Y118.601 E4.71087
G1 X85.022 Y118.119 E4.72921
G1 X85.026 Y118.114 E4.72943
G1 X84.808 Y117.774 E4.74286
G1 X84.582 Y117.271 E4.7612
G1 X84.431 Y116.741 E4.77953
G1 X84.352 Y115.973 E4.80521
G1 X84.349 Y113.786 E4.87795
G1 X84.352 Y113.538 E4.8862
G1 X84.399 Y112.989 E4.90452
G1 X84.524 Y112.452 E4.92286
G1 X84.716 Y111.961 E4.9404
G1 X84.819 Y111.743 E4.94842
G1 X85.09 Y111.263 E4.96675
G1 X85.428 Y110.827 E4.9851
G1 X85.824 Y110.445 E5.0034
G0 F6000 X86.146 Y110.699
G1 F1200 X86.578 Y110.408 E5.02072
G1 X86.984 Y110.212 E5.03572
G1 X87.185 Y110.131 E5.04293
G1 X87.682 Y109.974 E5.06026
G1 X88.456 Y109.885 E5.08617
G1 X108.38 Y109.887 E5.74885
G1 X109.135 Y109.841 E5.77401
G1 X110.726 Y109.448 E5.82851
G1 X112.074 Y108.74 E5.87916
G1 X113.23 Y107.716 E5.93052
G1 X114.1 Y106.453 E5.98153
G1 X114.744 Y104.753 E6.04199
G1 X114.892 Y104.32 E6.05721
G1 X115.036 Y103.996 E6.06901
G1 X115.614 Y102.657 E6.11751
G1 X115.906 Y102.119 E6.13787
G1 X115.928 Y102.086 E6.13919
G1 X116.326 Y101.595 E6.16021
G1 X116.636 Y101.278 E6.17496
G1 X117.586 Y100.296 E6.22041
G1 X118.121 Y99.846 E6.24366
G1 X118.149 Y99.827 E6.24478
G1 X118.609 Y99.564 E6.26241
G1 X119.85 Y98.98 E6.30802
G1 X119.849 Y97.812 E6.34687
G1 X119.851 Y97.399 E6.36061
G1 X119.893 Y96.879 E6.37796
G1 X120.015 Y96.372 E6.3953
G1 X120.223 Y95.868 E6.41344
G1 X120.34 Y95.639 E6.42199
G1 X120.612 Y95.195 E6.43931
G1 X120.949 Y94.797 E6.45666
G1 X121.343 Y94.455 E6.47401
G1 X121.784 Y94.178 E6.49133
G1 X122.159 Y94.008 E6.50502
G1 X122.343 Y93.938 E6.51157
G1 X122.843 Y93.791 E6.52891
G1 X123.537 Y93.716 E6.55212
G1 X123.791 Y93.715 E6.56057
G1 X125.901 Y93.721 E6.63075
G1 X126.42 Y93.762 E6.64807
G1 X126.927 Y93.883 E6.6654
G1 X127.41 Y94.079 E6.68274
G1 X127.552 Y94.164 E6.68824
G1 X127.836 Y94.012 E6.69896
G1 X128.328 Y93.838 E6.71631
G1 X128.84 Y93.742 E6.73364
G1 X129.197 Y93.722 E6.74553
G1 X131.36 Y93.714 E6.81748
G1 X131.6 Y93.717 E6.82546
G1 X132.12 Y93.764 E6.84282
G1 X132.625 Y93.889 E6.86013
G1 X133.049 Y94.062 E6.87536
G1 X133.26 Y94.165 E6.88317
G1 X133.71 Y94.428 E6.9005
G1 X134.114 Y94.758 E6.91785
G1 X134.463 Y95.145 E6.93519
G1 X134.748 Y95.581 E6.95251
G1 X134.92 Y95.944 E6.96587
G1 X135.001 Y96.144 E6.97305
G1 X135.159 Y96.64 E6.99036
G1 X135.24 Y97.155 E7.0077
G1 X135.25 Y97.42 E7.01652
G1 X135.248 Y112.079 E7.50408
G1 X135.231 Y112.416 E7.5153
G1 X135.21 Y112.627 E7.52236
G1 X135.096 Y113.847 E7.56311
G1 X135.033 Y114.252 E7.57674
G1 X135.028 Y114.275 E7.57753
G1 X134.94 Y114.602 E7.58879
G1 X134.343 Y116.442 E7.65313
G1 X134.176 Y116.86 E7.6681
G1 X134.165 Y116.883 E7.66895
G1 X133.958 Y117.254 E7.68308
G1 X133.816 Y117.475 E7.69182
G1 X132.939 Y118.861 E7.74637
G1 X132.735 Y119.15 E7.75813
G1 X132.72 Y119.169 E7.75894
G1 X132.377 Y119.542 E7.77579
G1 X130.966 Y120.865 E7.84012
G1 X130.657 Y121.122 E7.85349
G1 X130.638 Y121.136 E7.85428
G1 X130.26 Y121.378 E7.86921
G1 X128.574 Y122.306 E7.93322
G1 X128.316 Y122.434 E7.94279
G1 X128.289 Y122.446 E7.94378
G1 X127.73 Y122.638 E7.96344
G1 X127.503 Y122.695 E7.97122
G1 X125.888 Y123.111 E8.02669
G1 X125.521 Y123.184 E8.03913
G1 X125.234 Y123.214 E8.04873
G1 X124.255 Y123.276 E8.08136
G1 X124.04 Y123.283 E8.08851
G1 X103.617 Y123.285 E8.76779
G1 X103.535 Y123.627 E8.77948
G1 X103.334 Y124.118 E8.79713
G1 X103.214 Y124.356 E8.80599
G1 X102.944 Y124.802 E8.82333
G1 X102.61 Y125.201 E8.84064
G1 X102.218 Y125.545 E8.85799
G1 X101.778 Y125.825 E8.87533
G1 X101.216 Y126.063 E8.89563
G1 X101.032 Y126.122 E8.90206
G1 X100.525 Y126.242 E8.91939
G1 X99.994 Y126.284 E8.93711
G1 X88.53 Y126.285 E9.3184
G1 X88.011 Y126.245 E9.33571
G1 X87.265 Y126.041 E9.36144
G1 X87.023 Y125.944 E9.37011
G1 X86.556 Y125.714 E9.38742
G1 X86.129 Y125.414 E9.40478
G1 X85.753 Y125.054 E9.42209
G1 X85.436 Y124.639 E9.43946
G1 X85.163 Y124.127 E9.45876
G1 X85.076 Y123.924 E9.46611
G1 X84.908 Y123.431 E9.48343
G1 X84.817 Y122.918 E9.50076
G1 X84.801 Y122.586 E9.51181
G1 X84.8 Y120.203 E9.59107
G1 X84.84 Y119.684 E9.60838
G1 X84.958 Y119.176 E9.62573
G1 X85.153 Y118.693 E9.64305
G1 X85.42 Y118.245 E9.6604
G1 X85.529 Y118.116 E9.66602
G1 X85.409 Y117.976 E9.67215
G1 X85.134 Y117.534 E9.68947
G1 X84.93 Y117.054 E9.70681
G1 X84.802 Y116.549 E9.72414
G1 X84.752 Y115.973 E9.74337
G1 X84.749 Y113.791 E9.81594
G1 X84.752 Y113.543 E9.82419
G1 X84.798 Y113.024 E9.84152
G1 X84.923 Y112.518 E9.85886
G1 X85.078 Y112.132 E9.87269
G1 X85.181 Y111.914 E9.88071
G1 X85.439 Y111.461 E9.89805
G1 X85.763 Y111.053 E9.91538
G1 X86.146 Y110.699 E9.93273
G0 F6000 X86.465 Y110.959
G1 F1200 X86.88 Y110.7 E9.949
G1 X87.134 Y110.583 E9.9583
G1 X87.335 Y110.502 E9.96551
G1 X87.802 Y110.357 E9.98177
G1 X88.456 Y110.285 E10.00365
G1 X108.379 Y110.287 E10.66629
G1 X108.483 Y110.282 E10.66976
G1 X109.19 Y110.239 E10.69332
G1 X110.87 Y109.825 E10.75086
G1 X112.306 Y109.07 E10.80483
G1 X113.528 Y107.987 E10.85913
G1 X114.458 Y106.639 E10.9136
G1 X115.113 Y104.908 E10.97516
G1 X115.258 Y104.482 E10.99013
G1 X115.401 Y104.158 E11.00191
G1 X115.981 Y102.816 E11.05053
G1 X116.239 Y102.341 E11.06851
G1 X116.261 Y102.308 E11.06983
G1 X116.612 Y101.874 E11.08839
G1 X116.922 Y101.557 E11.10314
G1 X117.873 Y100.574 E11.14863
G1 X118.345 Y100.177 E11.16915
G1 X118.373 Y100.158 E11.17027
G1 X118.779 Y99.926 E11.18582
G1 X120.25 Y99.233 E11.23991
G1 X120.249 Y97.813 E11.28714
G1 X120.251 Y97.4 E11.30087
G1 X120.293 Y96.913 E11.31713
G1 X120.414 Y96.439 E11.3334
G1 X120.579 Y96.05 E11.34746
G1 X120.696 Y95.821 E11.35601
G1 X120.954 Y95.405 E11.37229
G1 X121.276 Y95.036 E11.38858
G1 X121.653 Y94.724 E11.40486
G1 X122.301 Y94.382 E11.42923
G1 X122.485 Y94.312 E11.43577
G1 X122.955 Y94.176 E11.45205
G1 X123.539 Y94.116 E11.47157
G1 X123.79 Y94.115 E11.47992
G1 X125.9 Y94.121 E11.5501
G1 X126.387 Y94.162 E11.56636
G1 X126.862 Y94.282 E11.58265
G1 X127.31 Y94.478 E11.59891
G1 X127.542 Y94.628 E11.6081
G1 X127.593 Y94.595 E11.61012
G1 X128.025 Y94.366 E11.62639
G1 X128.489 Y94.21 E11.64267
G1 X129.199 Y94.122 E11.66646
G1 X131.355 Y94.114 E11.73817
G1 X131.595 Y94.117 E11.74616
G1 X132.083 Y94.163 E11.76246
G1 X132.556 Y94.288 E11.77873
G1 X132.874 Y94.421 E11.79019
G1 X133.085 Y94.524 E11.798
G1 X133.506 Y94.774 E11.81429
G1 X133.881 Y95.089 E11.83058
G1 X134.199 Y95.461 E11.84686
G1 X134.55 Y96.094 E11.87093
G1 X134.631 Y96.294 E11.87811
G1 X134.777 Y96.761 E11.89438
G1 X134.85 Y97.42 E11.91643
G1 X134.848 Y112.079 E12.40399
G1 X134.833 Y112.376 E12.41388
G1 X134.812 Y112.587 E12.42094
G1 X134.698 Y113.809 E12.46176
G1 X134.643 Y114.167 E12.4738
G1 X134.638 Y114.19 E12.47459
G1 X134.56 Y114.479 E12.48454
G1 X133.963 Y116.319 E12.54888
G1 X133.815 Y116.687 E12.56207
G1 X133.804 Y116.71 E12.56292
G1 X133.622 Y117.038 E12.5754
G1 X133.48 Y117.259 E12.58414
G1 X132.601 Y118.648 E12.63881
G1 X132.421 Y118.902 E12.64916
G1 X132.406 Y118.921 E12.64997
G1 X132.103 Y119.25 E12.66484
G1 X130.692 Y120.573 E12.72918
G1 X130.42 Y120.8 E12.74096
G1 X130.401 Y120.814 E12.74174
G1 X130.068 Y121.027 E12.75489
G1 X128.382 Y121.955 E12.8189
G1 X128.153 Y122.068 E12.8274
G1 X128.126 Y122.08 E12.82838
G1 X127.633 Y122.25 E12.84572
G1 X127.38 Y122.313 E12.85439
G1 X125.788 Y122.723 E12.90907
G1 X125.464 Y122.788 E12.92006
G1 X125.209 Y122.815 E12.92859
G1 X124.23 Y122.877 E12.96122
G1 X124.04 Y122.883 E12.96754
G1 X103.273 Y122.885 E13.65825
G1 X103.256 Y123.087 E13.665
G1 X103.135 Y123.561 E13.68127
G1 X102.977 Y123.938 E13.69486
G1 X102.857 Y124.176 E13.70373
G1 X102.601 Y124.593 E13.72
G1 X102.282 Y124.964 E13.73628
G1 X101.906 Y125.277 E13.75255
G1 X101.484 Y125.526 E13.76885
G1 X101.094 Y125.682 E13.78282
G1 X100.91 Y125.741 E13.78924
G1 X100.433 Y125.852 E13.80553
G1 X99.994 Y125.884 E13.82017
G1 X88.53 Y125.885 E14.20147
G1 X88.042 Y125.845 E14.21775
G1 X87.414 Y125.67 E14.23944
G1 X87.172 Y125.573 E14.24811
G1 X86.734 Y125.354 E14.26439
G1 X86.337 Y125.067 E14.28069
G1 X85.993 Y124.72 E14.29694
G1 X85.709 Y124.321 E14.31323
G1 X85.531 Y123.97 E14.32632
G1 X85.444 Y123.767 E14.33366
G1 X85.288 Y123.303 E14.34995
G1 X85.201 Y122.586 E14.37397
G1 X85.2 Y120.203 E14.45323
G1 X85.24 Y119.715 E14.46951
G1 X85.358 Y119.24 E14.48579
G1 X85.552 Y118.791 E14.50206
G1 X85.817 Y118.379 E14.51835
G1 X86.053 Y118.111 E14.53023
G1 X86.031 Y118.089 E14.53126
G1 X85.714 Y117.716 E14.54754
G1 X85.462 Y117.296 E14.56384
G1 X85.282 Y116.841 E14.58011
G1 X85.178 Y116.363 E14.59638
G1 X85.152 Y115.972 E14.60941
G1 X85.149 Y113.796 E14.68179
G1 X85.152 Y113.548 E14.69004
G1 X85.198 Y113.06 E14.70634
G1 X85.323 Y112.587 E14.72261
G1 X85.44 Y112.302 E14.73286
G1 X85.543 Y112.084 E14.74088
G1 X85.787 Y111.66 E14.75715
G1 X86.097 Y111.282 E14.77341
G1 X86.465 Y110.959 E14.78969
G0 F6000 X86.429 Y111.515
G1 F1200 X86.78 Y111.225 E14.80484
G1 X87.283 Y110.954 E14.82384
G1 X87.484 Y110.873 E14.83105
G1 X87.92 Y110.741 E14.8462
G1 X88.456 Y110.685 E14.86412
G1 X108.398 Y110.687 E15.5274
G1 X108.49 Y110.683 E15.53046
G1 X109.254 Y110.635 E15.55592
G1 X111.009 Y110.203 E15.61604
G1 X112.534 Y109.402 E15.67333
G1 X113.833 Y108.251 E15.73105
G1 X114.814 Y106.828 E15.78854
G1 X115.48 Y105.066 E15.85119
G1 X115.624 Y104.643 E15.86605
G1 X115.767 Y104.319 E15.87783
G1 X116.348 Y102.974 E15.92656
G1 X116.572 Y102.563 E15.94213
G1 X116.594 Y102.53 E15.94345
G1 X116.898 Y102.154 E15.95953
G1 X117.208 Y101.837 E15.97428
G1 X118.161 Y100.852 E16.01986
G1 X118.57 Y100.508 E16.03764
G1 X118.598 Y100.489 E16.03876
G1 X118.95 Y100.288 E16.05225
G1 X120.612 Y99.505 E16.11335
G1 X120.65 Y99.491 E16.1147
G1 X120.649 Y97.815 E16.17044
G1 X120.651 Y97.402 E16.18418
G1 X120.693 Y96.949 E16.19931
G1 X120.814 Y96.509 E16.21449
G1 X120.936 Y96.232 E16.22456
G1 X121.053 Y96.003 E16.23311
G1 X121.295 Y95.617 E16.24826
G1 X121.6 Y95.279 E16.2634
G1 X121.96 Y95 E16.27855
G1 X122.444 Y94.756 E16.29658
G1 X122.628 Y94.686 E16.30313
G1 X123.066 Y94.562 E16.31827
G1 X123.541 Y94.516 E16.33414
G1 X123.788 Y94.515 E16.34236
G1 X125.898 Y94.521 E16.41254
G1 X126.352 Y94.562 E16.4277
G1 X126.792 Y94.682 E16.44287
G1 X127.204 Y94.877 E16.45803
G1 X127.551 Y95.123 E16.47217
G1 X127.708 Y94.996 E16.47889
G1 X127.808 Y94.932 E16.48284
G1 X128.212 Y94.721 E16.498
G1 X128.647 Y94.584 E16.51317
G1 X129.2 Y94.522 E16.53168
G1 X131.35 Y94.514 E16.60319
G1 X131.59 Y94.517 E16.61117
G1 X132.044 Y94.563 E16.62635
G1 X132.482 Y94.687 E16.64149
G1 X132.699 Y94.781 E16.64935
G1 X132.91 Y94.884 E16.65716
G1 X133.3 Y95.119 E16.67231
G1 X133.643 Y95.418 E16.68744
G1 X133.929 Y95.773 E16.7026
G1 X134.179 Y96.244 E16.72034
G1 X134.26 Y96.444 E16.72751
G1 X134.393 Y96.88 E16.74268
G1 X134.45 Y97.42 E16.76074
G1 X134.448 Y112.079 E17.2483
G1 X134.435 Y112.336 E17.25686
G1 X134.3 Y113.772 E17.30483
G1 X134.252 Y114.082 E17.31526
G1 X134.247 Y114.105 E17.31604
G1 X134.179 Y114.355 E17.32466
G1 X133.582 Y116.195 E17.389
G1 X133.455 Y116.515 E17.40045
G1 X133.444 Y116.538 E17.4013
G1 X133.285 Y116.821 E17.4121
G1 X132.263 Y118.434 E17.47561
G1 X132.107 Y118.654 E17.48458
G1 X132.092 Y118.673 E17.48538
G1 X131.829 Y118.959 E17.4983
G1 X130.418 Y120.282 E17.56264
G1 X130.182 Y120.478 E17.57284
G1 X130.163 Y120.492 E17.57363
G1 X129.875 Y120.677 E17.58501
G1 X128.189 Y121.605 E17.64902
G1 X127.991 Y121.703 E17.65637
G1 X127.964 Y121.715 E17.65735
G1 X127.536 Y121.862 E17.6724
G1 X127.304 Y121.92 E17.68036
G1 X125.689 Y122.336 E17.73582
G1 X125.408 Y122.392 E17.74535
G1 X125.183 Y122.416 E17.75288
G1 X124.204 Y122.478 E17.78551
G1 X124.04 Y122.483 E17.79096
