;FLAVOR:Marlin
;TIME:2906
;Filament used: 3.42896m
;Layer height: 0.2
;MINX:54.346
;MINY:71.796
;MINZ:0.24
;MAXX:166.137
;MAXY:154.635
;MAXZ:4.59
;Generated with Cura_SteamEngine master
M140 S70
M105
M190 S70
M104 S200
M105
M109 S200
M82 ;absolute extrusion mode
M201 X500.00 Y500.00 Z100.00 E5000.00 ;Setup machine max acceleration
M203 X500.00 Y500.00 Z10.00 E50.00 ;Setup machine max feedrate
M204 P500.00 R1000.00 T500.00 ;Setup Print/Retract/Travel acceleration
M205 X8.00 Y8.00 Z0.40 E5.00 ;Setup Jerk
M220 S100 ;Reset Feedrate
M221 S100 ;Reset Flowrate

G28 ;Home

G92 E0 ;Reset Extruder
G1 Z2.0 F3000 ;Move Z Axis up
G1 X10.1 Y20 Z0.28 F5000.0 ;Move to start position
G1 X10.1 Y200.0 Z0.28 F1500.0 E15 ;Draw the first line
G1 X10.4 Y200.0 Z0.28 F5000.0 ;Move to side a little
G1 X10.4 Y20 Z0.28 F1500.0 E30 ;Draw the second line
G92 E0 ;Reset Extruder
G1 Z2.0 F3000 ;Move Z Axis up

G92 E0
G92 E0
G1 F2700 E-5
;LAYER_COUNT:15
;LAYER:-6
M107
G0 F12000 X62.528 Y75.138 Z0.24
;TYPE:SUPPORT-INTERFACE
G1 F2700 E0
G1 F1800 X62.655 Y75.039 E0.01285
G1 X63.388 Y74.516 E0.08473
G1 X63.53 Y74.422 E0.09833
G1 X64.282 Y73.964 E0.16861
G1 X64.457 Y73.866 E0.18462
G1 X65.248 Y73.46 E0.25559
G1 X65.388 Y73.394 E0.26795
G1 X66.216 Y73.043 E0.33974
G1 X66.382 Y72.98 E0.35391
G1 X67.224 Y72.693 E0.42492
G1 X67.387 Y72.644 E0.43851
G1 X68.271 Y72.413 E0.51144
G1 X68.412 Y72.381 E0.52298
G1 X69.298 Y72.218 E0.59489
G1 X69.472 Y72.193 E0.60892
G1 X70.358 Y72.097 E0.68006
G1 X70.545 Y72.08 E0.69505
G1 X71.065 Y72.054 E0.73661
G1 X73.077 Y71.997 E0.89728
G1 X74.014 Y72.005 E0.97208
G1 X74.177 Y72.013 E0.98511
G1 X75.098 Y72.087 E1.05886
G1 X75.232 Y72.102 E1.06963
G1 X76.137 Y72.242 E1.14273
G1 X76.289 Y72.273 E1.15511
G1 X77.157 Y72.473 E1.22621
G1 X77.351 Y72.525 E1.24225
G1 X78.18 Y72.782 E1.31153
G1 X78.364 Y72.846 E1.32708
G1 X79.187 Y73.168 E1.39762
G1 X79.325 Y73.228 E1.40963
G1 X80.143 Y73.619 E1.48201
G1 X80.315 Y73.709 E1.4975
G1 X81.067 Y74.138 E1.56661
G1 X81.226 Y74.237 E1.58156
G1 X81.964 Y74.734 E1.65259
G1 X82.52 Y75.137 E1.7074
G1 X82.53 Y75.123 E1.70877
G1 X82.593 Y75.166 E1.71486
G1 X83.199 Y75.479 E1.76931
G1 X83.841 Y75.713 E1.82385
G1 X84.51 Y75.864 E1.8786
G1 X85.347 Y75.932 E1.94563
G1 X150.996 Y75.98 E7.18602
G1 X151.129 Y75.983 E7.19664
G1 X152.044 Y76.017 E7.26973
G1 X152.205 Y76.029 E7.28262
G1 X153.12 Y76.13 E7.3561
G1 X153.276 Y76.153 E7.36869
G1 X154.162 Y76.317 E7.44061
G1 X154.311 Y76.351 E7.45281
G1 X155.202 Y76.585 E7.52635
G1 X155.335 Y76.625 E7.53743
G1 X156.206 Y76.922 E7.61089
G1 X156.346 Y76.976 E7.62287
G1 X157.185 Y77.333 E7.69565
G1 X157.353 Y77.411 E7.71044
G1 X158.116 Y77.805 E7.77899
G1 X158.281 Y77.897 E7.79407
G1 X159.029 Y78.354 E7.86404
G1 X159.199 Y78.466 E7.88029
G1 X159.925 Y78.987 E7.95162
G1 X160.027 Y79.066 E7.96192
G1 X160.752 Y79.669 E8.03719
G1 X160.865 Y79.77 E8.04929
G1 X161.357 Y80.234 E8.10327
G1 X161.441 Y80.318 E8.11275
G1 X162.133 Y81.056 E8.19351
G1 X162.235 Y81.173 E8.2059
G1 X162.795 Y81.866 E8.27702
G1 X162.908 Y82.016 E8.29201
G1 X163.413 Y82.743 E8.36267
G1 X163.5 Y82.878 E8.37549
G1 X163.955 Y83.649 E8.44696
G1 X164.042 Y83.808 E8.46142
G1 X164.435 Y84.6 E8.532
G1 X164.508 Y84.761 E8.54611
G1 X164.847 Y85.589 E8.61753
G1 X164.907 Y85.754 E8.63155
G1 X165.183 Y86.601 E8.70266
G1 X165.227 Y86.756 E8.71552
G1 X165.448 Y87.648 E8.78887
G1 X165.479 Y87.792 E8.80063
G1 X165.631 Y88.691 E8.87341
G1 X165.652 Y88.849 E8.88614
G1 X165.741 Y89.77 E8.96
G1 X165.748 Y89.883 E8.96903
G1 X165.771 Y90.541 E9.02159
G1 X165.937 Y106.245 E10.27522
G1 X165.936 Y106.366 E10.28488
G1 X165.913 Y107.288 E10.3585
G1 X165.903 Y107.447 E10.37122
G1 X165.813 Y108.356 E10.44413
G1 X165.792 Y108.512 E10.4567
G1 X165.636 Y109.404 E10.52898
G1 X165.601 Y109.571 E10.5426
G1 X165.391 Y110.411 E10.61172
G1 X165.336 Y110.601 E10.62751
G1 X165.055 Y111.458 E10.6995
G1 X164.966 Y111.699 E10.72001
G1 X164.773 Y112.34 E10.77345
G1 X164.66 Y113.011 E10.82776
G1 X164.632 Y113.518 E10.86829
G1 X164.585 Y119.984 E11.38445
G1 X164.543 Y120.959 E11.46235
G1 X164.53 Y121.125 E11.47564
G1 X164.426 Y122.012 E11.54693
G1 X164.4 Y122.176 E11.56019
G1 X164.226 Y123.087 E11.63422
G1 X164.197 Y123.211 E11.64439
G1 X163.958 Y124.101 E11.71795
G1 X163.915 Y124.239 E11.72949
G1 X163.608 Y125.119 E11.80388
G1 X163.377 Y125.713 E11.85476
G1 X163.396 Y125.721 E11.8564
G1 X163.264 Y126.19 E11.8953
G1 X163.165 Y126.865 E11.94975
G1 X163.15 Y127.548 E12.00429
G1 X163.221 Y128.221 E12.05831
G1 X163.29 Y128.559 E12.08584
G1 X163.447 Y129.218 E12.13992
G1 X163.471 Y129.339 E12.14977
G1 X163.617 Y130.241 E12.22271
G1 X163.64 Y130.427 E12.23767
G1 X163.718 Y131.308 E12.30827
G1 X163.727 Y131.474 E12.32154
G1 X163.744 Y132.242 E12.38286
G1 X163.69 Y139.728 E12.98044
G1 X163.647 Y140.754 E13.06241
G1 X163.634 Y140.92 E13.0757
G1 X163.53 Y141.807 E13.14699
G1 X163.504 Y141.971 E13.16025
G1 X163.33 Y142.882 E13.23428
G1 X163.301 Y143.006 E13.24445
G1 X163.062 Y143.896 E13.31801
G1 X163.019 Y144.034 E13.32954
G1 X162.708 Y144.927 E13.40503
G1 X162.667 Y145.033 E13.4141
G1 X162.296 Y145.887 E13.48842
G1 X162.226 Y146.035 E13.50149
G1 X161.815 Y146.819 E13.57215
G1 X161.73 Y146.969 E13.58592
G1 X161.251 Y147.742 E13.65851
G1 X161.164 Y147.871 E13.67093
G1 X160.632 Y148.605 E13.74329
G1 X160.537 Y148.725 E13.75551
G1 X159.559 Y149.846 E13.87426
G1 X159.437 Y149.968 E13.88803
G1 X158.768 Y150.613 E13.96221
G1 X158.651 Y150.717 E13.97471
G1 X157.956 Y151.294 E14.04681
G1 X157.829 Y151.393 E14.05966
G1 X157.096 Y151.916 E14.13154
G1 X156.954 Y152.01 E14.14514
G1 X156.202 Y152.468 E14.21542
G1 X156.027 Y152.566 E14.23143
G1 X155.236 Y152.972 E14.3024
G1 X155.096 Y153.038 E14.31476
G1 X154.268 Y153.389 E14.38655
G1 X154.102 Y153.452 E14.40072
G1 X153.26 Y153.739 E14.47173
G1 X153.097 Y153.788 E14.48532
G1 X152.213 Y154.019 E14.55825
G1 X152.072 Y154.051 E14.56979
G1 X151.186 Y154.214 E14.6417
G1 X151.012 Y154.239 E14.65574
G1 X150.126 Y154.335 E14.72687
G1 X149.939 Y154.352 E14.74186
G1 X149.419 Y154.378 E14.78342
G1 X147.407 Y154.435 E14.94409
G1 X146.47 Y154.427 E15.01889
G1 X146.307 Y154.419 E15.03192
G1 X145.386 Y154.345 E15.10567
G1 X145.252 Y154.33 E15.11644
G1 X144.347 Y154.19 E15.18954
G1 X144.195 Y154.159 E15.20192
G1 X143.327 Y153.959 E15.27302
G1 X143.133 Y153.907 E15.28906
G1 X142.305 Y153.65 E15.35826
G1 X142.12 Y153.586 E15.37389
G1 X141.297 Y153.264 E15.44443
G1 X141.159 Y153.204 E15.45644
G1 X140.341 Y152.813 E15.52882
G1 X140.169 Y152.723 E15.54431
G1 X139.417 Y152.294 E15.61342
G1 X139.258 Y152.195 E15.62837
G1 X138.52 Y151.698 E15.6994
G1 X137.948 Y151.283 E15.75581
G1 X137.937 Y151.301 E15.75749
G1 X137.844 Y151.239 E15.76641
G1 X137.234 Y150.932 E15.82092
G1 X136.59 Y150.704 E15.87546
G1 X135.92 Y150.56 E15.93016
G1 X135.137 Y150.501 E15.99284
G1 X69.488 Y150.452 E21.23323
G1 X69.355 Y150.449 E21.24385
G1 X68.439 Y150.415 E21.31702
G1 X68.278 Y150.403 E21.32991
G1 X67.365 Y150.302 E21.40323
G1 X67.208 Y150.279 E21.4159
G1 X66.34 Y150.118 E21.48637
G1 X66.151 Y150.075 E21.50184
G1 X65.317 Y149.857 E21.57065
G1 X65.115 Y149.797 E21.58747
G1 X64.293 Y149.515 E21.65684
G1 X64.134 Y149.454 E21.67043
G1 X63.299 Y149.099 E21.74286
G1 X63.131 Y149.021 E21.75765
G1 X62.368 Y148.627 E21.82619
G1 X62.2 Y148.533 E21.84156
G1 X61.457 Y148.079 E21.91106
G1 X61.28 Y147.962 E21.928
G1 X60.559 Y147.446 E21.99877
G1 X60.436 Y147.35 E22.01123
G1 X59.75 Y146.778 E22.08253
G1 X59.612 Y146.656 E22.09723
G1 X59.125 Y146.197 E22.15065
G1 X59.04 Y146.111 E22.1603
G1 X58.351 Y145.376 E22.24072
G1 X58.249 Y145.259 E22.25311
G1 X57.681 Y144.556 E22.32526
G1 X57.576 Y144.416 E22.33923
G1 X57.071 Y143.689 E22.40988
G1 X56.984 Y143.554 E22.4227
G1 X56.529 Y142.783 E22.49417
G1 X56.442 Y142.624 E22.50864
G1 X56.043 Y141.819 E22.58035
G1 X55.976 Y141.671 E22.59332
G1 X55.636 Y140.84 E22.66499
G1 X55.577 Y140.678 E22.67876
G1 X55.301 Y139.831 E22.74987
G1 X55.257 Y139.676 E22.76273
G1 X55.036 Y138.784 E22.83608
G1 X55.005 Y138.64 E22.84784
G1 X54.853 Y137.741 E22.92062
G1 X54.832 Y137.583 E22.93335
G1 X54.742 Y136.65 E23.00817
G1 X54.736 Y136.549 E23.01624
G1 X54.713 Y135.881 E23.0696
G1 X54.547 Y120.185 E24.32259
G1 X54.548 Y120.066 E24.33209
G1 X54.571 Y119.143 E24.40579
G1 X54.581 Y118.985 E24.41843
G1 X54.671 Y118.075 E24.49142
G1 X54.692 Y117.92 E24.50391
G1 X54.848 Y117.028 E24.57619
G1 X54.883 Y116.861 E24.58981
G1 X55.093 Y116.02 E24.65901
G1 X55.153 Y115.812 E24.67629
G1 X55.317 Y115.312 E24.71829
G1 X55.486 Y114.663 E24.77182
G1 X55.571 Y113.991 E24.82589
G1 X55.582 Y113.592 E24.85776
G1 X55.443 Y100.39 E25.91166
G1 X55.444 Y100.271 E25.92115
G1 X55.467 Y99.348 E25.99486
G1 X55.477 Y99.19 E26.00749
G1 X55.567 Y98.28 E26.08049
G1 X55.588 Y98.125 E26.09297
G1 X55.744 Y97.233 E26.16526
G1 X55.779 Y97.066 E26.17888
G1 X55.989 Y96.226 E26.24799
G1 X56.044 Y96.036 E26.26378
G1 X56.325 Y95.179 E26.33578
G1 X56.414 Y94.938 E26.35628
G1 X56.607 Y94.297 E26.40972
G1 X56.72 Y93.626 E26.46404
G1 X56.748 Y93.119 E26.50457
G1 X56.794 Y86.703 E27.01673
G1 X56.837 Y85.678 E27.09863
G1 X56.85 Y85.512 E27.11192
G1 X56.954 Y84.625 E27.18321
G1 X56.98 Y84.461 E27.19646
G1 X57.154 Y83.549 E27.27058
G1 X57.183 Y83.426 E27.28066
G1 X57.422 Y82.536 E27.35422
G1 X57.465 Y82.398 E27.36576
G1 X57.776 Y81.505 E27.44124
G1 X57.817 Y81.399 E27.45032
G1 X58.188 Y80.545 E27.52464
G1 X58.258 Y80.397 E27.53771
G1 X58.676 Y79.599 E27.60962
G1 X58.754 Y79.463 E27.62213
G1 X59.234 Y78.689 E27.69483
G1 X59.32 Y78.561 E27.70714
G1 X59.853 Y77.825 E27.77968
G1 X59.947 Y77.707 E27.79173
G1 X60.876 Y76.64 E27.90466
G1 X60.937 Y76.574 E27.91183
G1 X61.06 Y76.451 E27.92572
G1 X61.716 Y75.819 E27.99843
G1 X61.833 Y75.715 E28.01093
G1 X62.273 Y75.35 E28.05656
G0 F1620 X62.528 Y75.138
G0 F12000 X62.4 Y75.244
G1 F1800 X62.4 Y148.643 E33.91559
G1 F2700 E28.91559
G1 F300 Z0.74
G0 F12000 X64 Y149.397 Z0.74
G1 F300 Z0.24
G1 F2700 E33.91559
G1 F1800 X64 Y74.135 E39.92332
G1 F2700 E34.92332
G1 F300 Z0.74
G0 F12000 X65.6 Y73.304 Z0.74
G1 F300 Z0.24
G1 F2700 E39.92332
G1 F1800 X65.6 Y149.93 E46.03994
G1 F2700 E41.03994
G1 F300 Z0.74
G0 F12000 X67.2 Y150.277 Z0.74
G1 F300 Z0.24
G1 F2700 E46.03994
G1 F1800 X67.2 Y72.701 E52.23239
G1 F2700 E47.23239
G1 F300 Z0.74
G0 F12000 X68.8 Y72.309 Z0.74
G1 F300 Z0.24
G1 F2700 E52.23239
G1 F1800 X68.8 Y150.428 E58.46819
G1 F2700 E53.46819
G1 F300 Z0.74
G0 F12000 X70.4 Y150.452 Z0.74
G1 F300 Z0.24
G1 F2700 E58.46819
G1 F1800 X70.4 Y72.093 E64.72314
G1 F2700 E59.72314
G1 F300 Z0.74
G0 F12000 X72 Y72.027 Z0.74
G1 F300 Z0.24
G1 F2700 E64.72314
G1 F1800 X72 Y150.453 E70.98345
G1 F2700 E65.98345
G1 F300 Z0.74
G0 F12000 X73.6 Y150.455 Z0.74
G1 F300 Z0.24
G1 F2700 E70.98345
G1 F1800 X73.6 Y72.002 E77.2459
G1 F2700 E72.2459
G1 F300 Z0.74
G0 F12000 X75.2 Y72.099 Z0.74
G1 F300 Z0.24
G1 F2700 E77.2459
G1 F1800 X75.2 Y150.456 E83.5007
G1 F2700 E78.5007
G1 F300 Z0.74
G0 F12000 X76.8 Y150.457 Z0.74
G1 F300 Z0.24
G1 F2700 E83.5007
G1 F1800 X76.8 Y72.391 E89.73226
G1 F2700 E84.73226
G1 F300 Z0.74
G0 F12000 X78.4 Y72.861 Z0.74
G1 F300 Z0.24
G1 F2700 E89.73226
G1 F1800 X78.4 Y150.458 E95.92639
G1 F2700 E90.92639
G1 F300 Z0.74
G0 F12000 X80 Y150.459 Z0.74
G1 F300 Z0.24
G1 F2700 E95.92639
G1 F1800 X80 Y73.551 E102.06552
G1 F2700 E97.06552
G1 F300 Z0.74
G0 F12000 X81.6 Y74.489 Z0.74
G1 F300 Z0.24
G1 F2700 E102.06552
G1 F1800 X81.6 Y150.461 E108.12994
G1 F2700 E103.12994
G1 F300 Z0.74
G0 F12000 X83.2 Y150.462 Z0.74
G1 F300 Z0.24
G1 F2700 E108.12994
G1 F1800 X83.2 Y75.48 E114.11532
G1 F2700 E109.11532
G1 F300 Z0.74
G0 F12000 X84.8 Y75.888 Z0.74
G1 F300 Z0.24
G1 F2700 E114.11532
G1 F1800 X84.8 Y150.463 E120.06822
G1 F2700 E115.06822
G1 F300 Z0.74
G0 F12000 X86.4 Y150.464 Z0.74
G1 F300 Z0.24
G1 F2700 E120.06822
G1 F1800 X86.4 Y75.933 E126.01761
G1 F2700 E121.01761
G1 F300 Z0.74
G0 F12000 X88 Y75.934 Z0.74
G1 F300 Z0.24
G1 F2700 E126.01761
G1 F1800 X88 Y150.465 E131.967
G1 F2700 E126.967
G1 F300 Z0.74
G0 F12000 X89.6 Y150.467 Z0.74
G1 F300 Z0.24
G1 F2700 E131.967
G1 F1800 X89.6 Y75.936 E137.91638
G1 F2700 E132.91638
G1 F300 Z0.74
G0 F12000 X91.2 Y75.937 Z0.74
G1 F300 Z0.24
G1 F2700 E137.91638
G1 F1800 X91.2 Y150.468 E143.86577
G1 F2700 E138.86577
G1 F300 Z0.74
G0 F12000 X92.8 Y150.469 Z0.74
G1 F300 Z0.24
G1 F2700 E143.86577
G1 F1800 X92.8 Y75.938 E149.81516
G1 F2700 E144.81516
G1 F300 Z0.74
G0 F12000 X94.4 Y75.939 Z0.74
G1 F300 Z0.24
G1 F2700 E149.81516
G1 F1800 X94.4 Y150.47 E155.76454
G1 F2700 E150.76454
G1 F300 Z0.74
G0 F12000 X96 Y150.471 Z0.74
G1 F300 Z0.24
G1 F2700 E155.76454
G1 F1800 X96 Y75.94 E161.71393
G1 F2700 E156.71393
G1 F300 Z0.74
G0 F12000 X97.6 Y75.941 Z0.74
G1 F300 Z0.24
G1 F2700 E161.71393
G1 F1800 X97.6 Y150.472 E167.66332
G1 F2700 E162.66332
G1 F300 Z0.74
G0 F12000 X99.2 Y150.474 Z0.74
G1 F300 Z0.24
G1 F2700 E167.66332
G1 F1800 X99.2 Y75.943 E173.6127
G1 F2700 E168.6127
G1 F300 Z0.74
G0 F12000 X100.8 Y75.944 Z0.74
G1 F300 Z0.24
G1 F2700 E173.6127
G1 F1800 X100.8 Y150.475 E179.56209
G1 F2700 E174.56209
G1 F300 Z0.74
G0 F12000 X102.4 Y150.476 Z0.74
G1 F300 Z0.24
G1 F2700 E179.56209
G1 F1800 X102.4 Y75.945 E185.51148
G1 F2700 E180.51148
G1 F300 Z0.74
G0 F12000 X104 Y75.946 Z0.74
G1 F300 Z0.24
G1 F2700 E185.51148
G1 F1800 X104 Y150.477 E191.46086
G1 F2700 E186.46086
G1 F300 Z0.74
G0 F12000 X105.6 Y150.478 Z0.74
G1 F300 Z0.24
G1 F2700 E191.46086
G1 F1800 X105.6 Y75.947 E197.41025
G1 F2700 E192.41025
G1 F300 Z0.74
G0 F12000 X107.2 Y75.948 Z0.74
G1 F300 Z0.24
G1 F2700 E197.41025
G1 F1800 X107.2 Y150.48 E203.35972
G1 F2700 E198.35972
G1 F300 Z0.74
G0 F12000 X108.8 Y150.481 Z0.74
G1 F300 Z0.24
G1 F2700 E203.35972
G1 F1800 X108.8 Y75.95 E209.3091
G1 F2700 E204.3091
G1 F300 Z0.74
G0 F12000 X110.4 Y75.951 Z0.74
G1 F300 Z0.24
G1 F2700 E209.3091
G1 F1800 X110.4 Y150.482 E215.25849
G1 F2700 E210.25849
G1 F300 Z0.74
G0 F12000 X112 Y150.483 Z0.74
G1 F300 Z0.24
G1 F2700 E215.25849
G1 F1800 X112 Y75.952 E221.20788
G1 F2700 E216.20788
G1 F300 Z0.74
G0 F12000 X113.6 Y75.953 Z0.74
G1 F300 Z0.24
G1 F2700 E221.20788
G1 F1800 X113.6 Y150.484 E227.15726
G1 F2700 E222.15726
G1 F300 Z0.74
G0 F12000 X115.2 Y150.486 Z0.74
G1 F300 Z0.24
G1 F2700 E227.15726
G1 F1800 X115.2 Y75.954 E233.10673
G1 F2700 E228.10673
G1 F300 Z0.74
G0 F12000 X116.8 Y75.955 Z0.74
G1 F300 Z0.24
G1 F2700 E233.10673
G1 F1800 X116.8 Y150.487 E239.0562
G1 F2700 E234.0562
G1 F300 Z0.74
G0 F12000 X118.4 Y150.488 Z0.74
G1 F300 Z0.24
G1 F2700 E239.0562
G1 F1800 X118.4 Y75.957 E245.00558
G1 F2700 E240.00558
G1 F300 Z0.74
G0 F12000 X120 Y75.958 Z0.74
G1 F300 Z0.24
G1 F2700 E245.00558
G1 F1800 X120 Y150.489 E250.95497
G1 F2700 E245.95497
G1 F300 Z0.74
G0 F12000 X121.6 Y150.49 Z0.74
G1 F300 Z0.24
G1 F2700 E250.95497
G1 F1800 X121.6 Y75.959 E256.90436
G1 F2700 E251.90436
G1 F300 Z0.74
G0 F12000 X123.2 Y75.96 Z0.74
G1 F300 Z0.24
G1 F2700 E256.90436
G1 F1800 X123.2 Y150.492 E262.85382
G1 F2700 E257.85382
G1 F300 Z0.74
G0 F12000 X124.8 Y150.493 Z0.74
G1 F300 Z0.24
G1 F2700 E262.85382
G1 F1800 X124.8 Y75.961 E268.80329
G1 F2700 E263.80329
G1 F300 Z0.74
G0 F12000 X126.4 Y75.963 Z0.74
G1 F300 Z0.24
G1 F2700 E268.80329
G1 F1800 X126.4 Y150.494 E274.75268
G1 F2700 E269.75268
G1 F300 Z0.74
G0 F12000 X128 Y150.495 Z0.74
G1 F300 Z0.24
G1 F2700 E274.75268
G1 F1800 X128 Y75.964 E280.70206
G1 F2700 E275.70206
G1 F300 Z0.74
G0 F12000 X129.6 Y75.965 Z0.74
G1 F300 Z0.24
G1 F2700 E280.70206
G1 F1800 X129.6 Y150.496 E286.65145
G1 F2700 E281.65145
G1 F300 Z0.74
G0 F12000 X131.2 Y150.498 Z0.74
G1 F300 Z0.24
G1 F2700 E286.65145
G1 F1800 X131.2 Y75.966 E292.60092
G1 F2700 E287.60092
G1 F300 Z0.74
G0 F12000 X132.8 Y75.967 Z0.74
G1 F300 Z0.24
G1 F2700 E292.60092
G1 F1800 X132.8 Y150.499 E298.55038
G1 F2700 E293.55038
G1 F300 Z0.74
G0 F12000 X134.4 Y150.5 Z0.74
G1 F300 Z0.24
G1 F2700 E298.55038
G1 F1800 X134.4 Y75.968 E304.49985
G1 F2700 E299.49985
G1 F300 Z0.74
G0 F12000 X136 Y75.97 Z0.74
G1 F300 Z0.24
G1 F2700 E304.49985
G1 F1800 X136 Y150.577 E310.4553
G1 F2700 E305.4553
G1 F300 Z0.74
G0 F12000 X137.6 Y151.116 Z0.74
G1 F300 Z0.24
G1 F2700 E310.4553
G1 F1800 X137.6 Y75.971 E316.4537
G1 F2700 E311.4537
G1 F300 Z0.74
G0 F12000 X139.2 Y75.972 Z0.74
