;FLAVOR:Marlin
;TIME:2612
;Filament used: 1.59547m
;Layer height: 0.2
;MINX:82.851
;MINY:93.2
;MINZ:0.2
;MAXX:137.3
;MAXY:126.8
;MAXZ:20.5
;Generated with Cura_SteamEngine master
M140 S70
M105
M190 S70
M104 S200
M105
M109 S200
M82 ;absolute extrusion mode
M201 X500.00 Y500.00 Z100.00 E5000.00 ;Setup machine max acceleration
M203 X500.00 Y500.00 Z10.00 E50.00 ;Setup machine max feedrate
M204 P500.00 R1000.00 T500.00 ;Setup Print/Retract/Travel acceleration
M205 X8.00 Y8.00 Z0.40 E5.00 ;Setup Jerk
M220 S100 ;Reset Feedrate
M221 S100 ;Reset Flowrate

G28 ;Home

G92 E0 ;Reset Extruder
G1 Z2.0 F3000 ;Move Z Axis up
G1 X10.1 Y20 Z0.28 F5000.0 ;Move to start position
G1 X10.1 Y200.0 Z0.28 F1500.0 E15 ;Draw the first line
G1 X10.4 Y200.0 Z0.28 F5000.0 ;Move to side a little
G1 X10.4 Y20 Z0.28 F1500.0 E30 ;Draw the second line
G92 E0 ;Reset Extruder
G1 Z2.0 F3000 ;Move Z Axis up

G92 E0
G92 E0
G1 F2700 E-5
;LAYER_COUNT:100
;LAYER:0
M107
G1 F300 Z0.7
G0 F6000 X85.839 Y94.955 Z0.7
;TYPE:SKIRT
G1 F300 Z0.2
G1 F2700 E0
G1 F600 X86.475 Y94.488 E0.02624
G1 X87.155 Y94.087 E0.0525
G1 X87.873 Y93.757 E0.07878
G1 X88.62 Y93.502 E0.10504
G1 X89.389 Y93.323 E0.1313
G1 X90.173 Y93.223 E0.15758
G1 X90.768 Y93.2 E0.17739
G1 X122.383 Y93.2 E1.22891
G1 X123.172 Y93.24 E1.25518
G1 X123.952 Y93.359 E1.28143
G1 X124.488 Y93.498 E1.29984
G1 X125.238 Y93.323 E1.32546
G1 X126.022 Y93.223 E1.35175
G1 X126.617 Y93.2 E1.37155
G1 X129.383 Y93.2 E1.46355
G1 X130.172 Y93.24 E1.48982
G1 X130.952 Y93.359 E1.51607
G1 X131.717 Y93.557 E1.54235
G1 X132.457 Y93.831 E1.56859
G1 X133.166 Y94.179 E1.59486
G1 X133.837 Y94.597 E1.62116
G1 X134.461 Y95.08 E1.6474
G1 X134.898 Y95.485 E1.66722
G1 X135.015 Y95.602 E1.67272
G1 X135.545 Y96.188 E1.699
G1 X136.012 Y96.824 E1.72525
G1 X136.413 Y97.504 E1.7515
G1 X136.743 Y98.222 E1.77779
G1 X136.998 Y98.969 E1.80404
G1 X137.177 Y99.738 E1.8303
G1 X137.277 Y100.522 E1.85659
G1 X137.3 Y101.117 E1.87639
G1 X137.3 Y118.883 E2.46729
G1 X137.26 Y119.672 E2.49357
G1 X137.141 Y120.452 E2.51981
G1 X136.943 Y121.217 E2.54609
G1 X136.669 Y121.957 E2.57234
G1 X136.321 Y122.666 E2.59861
G1 X135.903 Y123.337 E2.6249
G1 X135.42 Y123.961 E2.65115
G1 X135.015 Y124.398 E2.67096
G1 X134.898 Y124.515 E2.67647
G1 X134.312 Y125.045 E2.70274
G1 X133.676 Y125.512 E2.72899
G1 X132.996 Y125.913 E2.75525
G1 X132.278 Y126.243 E2.78153
G1 X131.531 Y126.498 E2.80778
G1 X130.762 Y126.677 E2.83404
G1 X129.978 Y126.777 E2.86033
G1 X129.383 Y126.8 E2.88013
G1 X126.617 Y126.8 E2.97213
G1 X125.828 Y126.76 E2.99841
G1 X125.048 Y126.641 E3.02465
G1 X124.512 Y126.502 E3.04307
G1 X123.762 Y126.677 E3.06868
G1 X122.978 Y126.777 E3.09497
G1 X122.383 Y126.8 E3.11477
G1 X90.768 Y126.8 E4.16629
G1 X89.979 Y126.76 E4.19257
G1 X89.199 Y126.641 E4.21881
G1 X88.434 Y126.443 E4.24509
G1 X87.694 Y126.169 E4.27134
G1 X86.985 Y125.821 E4.29761
G1 X86.314 Y125.403 E4.3239
G1 X85.69 Y124.92 E4.35015
G1 X85.253 Y124.515 E4.36996
G1 X85.136 Y124.398 E4.37547
G1 X84.606 Y123.812 E4.40175
G1 X84.139 Y123.176 E4.42799
G1 X83.738 Y122.496 E4.45425
G1 X83.408 Y121.778 E4.48053
G1 X83.153 Y121.031 E4.50678
G1 X82.974 Y120.262 E4.53304
G1 X82.874 Y119.478 E4.55933
G1 X82.851 Y118.883 E4.57914
G1 X82.851 Y101.117 E5.17004
G1 X82.891 Y100.328 E5.19631
G1 X83.01 Y99.548 E5.22255
G1 X83.208 Y98.783 E5.24884
G1 X83.482 Y98.043 E5.27508
G1 X83.83 Y97.334 E5.30135
G1 X84.248 Y96.663 E5.32764
G1 X84.731 Y96.039 E5.35389
G1 X85.136 Y95.602 E5.37371
G1 X85.253 Y95.485 E5.37921
G1 X85.839 Y94.955 E5.40549
G0 F6000 X86.107 Y95.253
G1 F600 X86.729 Y94.8 E5.43108
G1 X87.394 Y94.414 E5.45666
G1 X88.096 Y94.099 E5.48225
G1 X88.827 Y93.859 E5.50784
G1 X89.578 Y93.696 E5.5334
G1 X90.343 Y93.612 E5.559
G1 X90.768 Y93.6 E5.57314
G1 X122.383 Y93.6 E6.62466
G1 X123.151 Y93.64 E6.65023
G1 X123.911 Y93.759 E6.67582
G1 X124.501 Y93.916 E6.69613
G1 X124.676 Y93.859 E6.70225
G1 X125.427 Y93.696 E6.72781
G1 X126.192 Y93.612 E6.7534
G1 X126.617 Y93.6 E6.76755
G1 X129.383 Y93.6 E6.85954
G1 X130.151 Y93.64 E6.88512
G1 X130.911 Y93.759 E6.91071
G1 X131.654 Y93.957 E6.93628
G1 X132.373 Y94.231 E6.96187
G1 X133.059 Y94.578 E6.98744
G1 X133.706 Y94.994 E7.01303
G1 X134.306 Y95.475 E7.0386
G1 X134.616 Y95.767 E7.05277
G1 X134.733 Y95.884 E7.05827
G1 X135.247 Y96.456 E7.08385
G1 X135.7 Y97.078 E7.10944
G1 X136.086 Y97.743 E7.13502
G1 X136.401 Y98.445 E7.16061
G1 X136.641 Y99.176 E7.1862
G1 X136.804 Y99.927 E7.21176
G1 X136.888 Y100.692 E7.23735
G1 X136.9 Y101.117 E7.2515
G1 X136.9 Y118.883 E7.84239
G1 X136.86 Y119.651 E7.86797
G1 X136.741 Y120.411 E7.89356
G1 X136.543 Y121.154 E7.91913
G1 X136.269 Y121.873 E7.94473
G1 X135.922 Y122.559 E7.97029
G1 X135.506 Y123.206 E7.99588
G1 X135.025 Y123.806 E8.02146
G1 X134.733 Y124.116 E8.03562
G1 X134.616 Y124.233 E8.04112
G1 X134.044 Y124.747 E8.0667
G1 X133.422 Y125.2 E8.09229
G1 X132.757 Y125.586 E8.11787
G1 X132.055 Y125.901 E8.14346
G1 X131.324 Y126.141 E8.16905
G1 X130.573 Y126.304 E8.19461
G1 X129.808 Y126.388 E8.22021
G1 X129.383 Y126.4 E8.23435
G1 X126.617 Y126.4 E8.32634
G1 X125.849 Y126.36 E8.35192
G1 X125.089 Y126.241 E8.37751
G1 X124.499 Y126.084 E8.39781
G1 X124.324 Y126.141 E8.40394
G1 X123.573 Y126.304 E8.4295
G1 X122.808 Y126.388 E8.45509
G1 X122.383 Y126.4 E8.46923
G1 X90.768 Y126.4 E9.52075
G1 X90 Y126.36 E9.54633
G1 X89.24 Y126.241 E9.57192
G1 X88.497 Y126.043 E9.59749
G1 X87.778 Y125.769 E9.62308
G1 X87.092 Y125.422 E9.64865
G1 X86.445 Y125.006 E9.67424
G1 X85.845 Y124.525 E9.69981
G1 X85.535 Y124.233 E9.71398
G1 X85.418 Y124.116 E9.71948
G1 X84.904 Y123.544 E9.74506
G1 X84.451 Y122.922 E9.77065
G1 X84.065 Y122.257 E9.79623
G1 X83.75 Y121.555 E9.82182
G1 X83.51 Y120.824 E9.84741
G1 X83.347 Y120.073 E9.87297
G1 X83.263 Y119.308 E9.89856
G1 X83.251 Y118.883 E9.91271
G1 X83.251 Y101.117 E10.50361
G1 X83.291 Y100.349 E10.52918
G1 X83.41 Y99.589 E10.55477
G1 X83.608 Y98.846 E10.58034
G1 X83.882 Y98.127 E10.60594
G1 X84.229 Y97.441 E10.63151
G1 X84.645 Y96.794 E10.65709
G1 X85.126 Y96.194 E10.68267
G1 X85.418 Y95.884 E10.69683
G1 X85.535 Y95.767 E10.70233
G1 X86.107 Y95.253 E10.72791
G0 F6000 X86.375 Y95.55
G1 F600 X86.981 Y95.113 E10.75276
G1 X87.631 Y94.742 E10.77765
G1 X88.317 Y94.443 E10.80254
G1 X89.031 Y94.219 E10.82743
G1 X89.764 Y94.072 E10.8523
G1 X90.768 Y94 E10.88578
G1 X122.383 Y94 E11.9373
G1 X123.13 Y94.04 E11.96218
G1 X123.868 Y94.159 E11.98704
G1 X124.51 Y94.335 E12.00918
G1 X124.88 Y94.219 E12.02208
G1 X125.613 Y94.072 E12.04694
G1 X126.617 Y94 E12.08042
G1 X129.383 Y94 E12.17242
G1 X130.13 Y94.04 E12.1973
G1 X130.868 Y94.159 E12.22216
G1 X131.59 Y94.357 E12.24706
G1 X132.286 Y94.63 E12.27193
G1 X132.949 Y94.977 E12.29682
G1 X133.572 Y95.392 E12.32172
G1 X134.333 Y96.05 E12.35518
G1 X134.45 Y96.167 E12.36068
G1 X134.95 Y96.724 E12.38557
G1 X135.387 Y97.33 E12.41042
G1 X135.758 Y97.98 E12.43532
G1 X136.057 Y98.666 E12.46021
G1 X136.281 Y99.38 E12.4851
G1 X136.428 Y100.113 E12.50996
G1 X136.5 Y101.117 E12.54344
G1 X136.5 Y118.883 E13.13434
G1 X136.46 Y119.63 E13.15922
G1 X136.341 Y120.368 E13.18408
G1 X136.143 Y121.09 E13.20898
G1 X135.87 Y121.786 E13.23385
G1 X135.523 Y122.449 E13.25874
G1 X135.108 Y123.072 E13.28364
G1 X134.45 Y123.833 E13.3171
G1 X134.333 Y123.95 E13.3226
G1 X133.776 Y124.45 E13.3475
G1 X133.17 Y124.887 E13.37234
G1 X132.52 Y125.258 E13.39724
G1 X131.834 Y125.557 E13.42213
G1 X131.12 Y125.781 E13.44702
G1 X130.387 Y125.928 E13.47188
G1 X129.383 Y126 E13.50536
G1 X126.617 Y126 E13.59736
G1 X125.87 Y125.96 E13.62224
G1 X125.132 Y125.841 E13.6471
G1 X124.49 Y125.665 E13.66924
G1 X124.12 Y125.781 E13.68214
G1 X123.387 Y125.928 E13.707
G1 X122.383 Y126 E13.74048
G1 X90.768 Y126 E14.792
G1 X90.021 Y125.96 E14.81688
G1 X89.283 Y125.841 E14.84175
G1 X88.561 Y125.643 E14.86665
G1 X87.865 Y125.37 E14.89151
G1 X87.202 Y125.023 E14.9164
G1 X86.579 Y124.608 E14.9413
G1 X85.818 Y123.95 E14.97476
G1 X85.701 Y123.833 E14.98026
G1 X85.201 Y123.276 E15.00516
G1 X84.764 Y122.67 E15.03001
G1 X84.393 Y122.02 E15.0549
G1 X84.094 Y121.334 E15.07979
G1 X83.87 Y120.62 E15.10468
G1 X83.723 Y119.887 E15.12954
G1 X83.651 Y118.883 E15.16302
G1 X83.651 Y101.117 E15.75392
G1 X83.691 Y100.37 E15.7788
G1 X83.81 Y99.632 E15.80367
G1 X84.008 Y98.91 E15.82857
G1 X84.281 Y98.214 E15.85343
G1 X84.628 Y97.551 E15.87832
G1 X85.043 Y96.928 E15.90322
G1 X85.701 Y96.167 E15.93668
G1 X85.818 Y96.05 E15.94218
G1 X86.375 Y95.55 E15.96708
G0 F6000 X86.642 Y95.849
G1 F600 X87.233 Y95.426 E15.99125
G1 X87.867 Y95.072 E16.0154
G1 X88.536 Y94.789 E16.03956
G1 X89.232 Y94.581 E16.06372
G1 X89.947 Y94.451 E16.08789
G1 X90.768 Y94.4 E16.11525
G1 X122.383 Y94.4 E17.16677
G1 X123.108 Y94.44 E17.19092
G1 X123.825 Y94.559 E17.2151
G1 X124.508 Y94.752 E17.2387
G1 X125.081 Y94.581 E17.25859
G1 X125.796 Y94.451 E17.28276
G1 X126.617 Y94.4 E17.31012
G1 X129.383 Y94.4 E17.40212
G1 X130.108 Y94.44 E17.42627
G1 X130.825 Y94.559 E17.45044
G1 X131.524 Y94.757 E17.47461
G1 X132.197 Y95.03 E17.49876
G1 X132.836 Y95.375 E17.52292
G1 X133.433 Y95.789 E17.54708
G1 X134.05 Y96.333 E17.57444
G1 X134.167 Y96.45 E17.57994
G1 X134.651 Y96.991 E17.60409
G1 X135.074 Y97.582 E17.62826
G1 X135.428 Y98.216 E17.65241
G1 X135.711 Y98.885 E17.67657
G1 X135.919 Y99.581 E17.70073
G1 X136.049 Y100.296 E17.7249
G1 X136.1 Y101.117 E17.75226
G1 X136.1 Y118.883 E18.34316
G1 X136.06 Y119.608 E18.36731
G1 X135.941 Y120.325 E18.39148
G1 X135.743 Y121.024 E18.41565
G1 X135.47 Y121.697 E18.4398
G1 X135.125 Y122.336 E18.46396
G1 X134.711 Y122.933 E18.48812
G1 X134.167 Y123.55 E18.51548
G1 X134.05 Y123.667 E18.52098
G1 X133.509 Y124.151 E18.54513
G1 X132.918 Y124.574 E18.5693
G1 X132.284 Y124.928 E18.59345
G1 X131.615 Y125.211 E18.61761
G1 X130.919 Y125.419 E18.64177
G1 X130.204 Y125.549 E18.66594
G1 X129.383 Y125.6 E18.6933
G1 X126.617 Y125.6 E18.7853
G1 X125.892 Y125.56 E18.80945
G1 X125.175 Y125.441 E18.83362
G1 X124.492 Y125.248 E18.85723
G1 X123.919 Y125.419 E18.87712
G1 X123.204 Y125.549 E18.90129
G1 X122.383 Y125.6 E18.92865
G1 X90.768 Y125.6 E19.98017
G1 X90.043 Y125.56 E20.00432
G1 X89.326 Y125.441 E20.02849
G1 X88.627 Y125.243 E20.05265
G1 X87.954 Y124.97 E20.07681
G1 X87.315 Y124.625 E20.10096
G1 X86.718 Y124.211 E20.12513
G1 X86.101 Y123.667 E20.15248
G1 X85.984 Y123.55 E20.15799
G1 X85.5 Y123.009 E20.18213
G1 X85.077 Y122.418 E20.2063
G1 X84.723 Y121.784 E20.23046
G1 X84.44 Y121.115 E20.25462
G1 X84.232 Y120.419 E20.27878
G1 X84.102 Y119.704 E20.30295
G1 X84.051 Y118.883 E20.33031
G1 X84.051 Y101.117 E20.92121
G1 X84.091 Y100.392 E20.94536
G1 X84.21 Y99.675 E20.96953
G1 X84.408 Y98.976 E20.99369
G1 X84.681 Y98.303 E21.01785
G1 X85.026 Y97.664 E21.042
G1 X85.44 Y97.067 E21.06617
G1 X85.984 Y96.45 E21.09352
G1 X86.101 Y96.333 E21.09903
G1 X86.642 Y95.849 E21.12317
G0 F6000 X86.909 Y96.147
G1 F600 X87.484 Y95.741 E21.14658
G1 X88.102 Y95.403 E21.17001
G1 X88.753 Y95.136 E21.19341
G1 X89.431 Y94.946 E21.21683
G1 X90.126 Y94.833 E21.24025
G1 X90.768 Y94.8 E21.26163
G1 X122.383 Y94.8 E22.31315
G1 X123.086 Y94.84 E22.33657
G1 X123.78 Y94.959 E22.35999
G1 X124.455 Y95.157 E22.38339
G1 X124.502 Y95.177 E22.38509
G1 X124.602 Y95.136 E22.38868
G1 X125.28 Y94.946 E22.4121
G1 X125.975 Y94.833 E22.43552
G1 X126.617 Y94.8 E22.4569
G1 X129.383 Y94.8 E22.5489
G1 X130.086 Y94.84 E22.57232
G1 X130.78 Y94.959 E22.59574
G1 X131.455 Y95.157 E22.61914
G1 X132.104 Y95.429 E22.64254
G1 X132.718 Y95.774 E22.66596
G1 X133.289 Y96.185 E22.68936
G1 X133.767 Y96.616 E22.71077
G1 X133.884 Y96.733 E22.71627
G1 X134.353 Y97.258 E22.73969
G1 X134.759 Y97.833 E22.7631
G1 X135.097 Y98.451 E22.78653
G1 X135.364 Y99.102 E22.80993
G1 X135.554 Y99.78 E22.83335
G1 X135.667 Y100.475 E22.85677
G1 X135.7 Y101.117 E22.87815
G1 X135.7 Y118.883 E23.46905
G1 X135.66 Y119.586 E23.49247
G1 X135.541 Y120.28 E23.51589
G1 X135.343 Y120.955 E23.53929
G1 X135.071 Y121.604 E23.56269
G1 X134.726 Y122.218 E23.58612
G1 X134.315 Y122.789 E23.60952
G1 X133.884 Y123.267 E23.63092
G1 X133.767 Y123.384 E23.63643
G1 X133.242 Y123.853 E23.65984
G1 X132.667 Y124.259 E23.68325
G1 X132.049 Y124.597 E23.70668
G1 X131.398 Y124.864 E23.73008
G1 X130.72 Y125.054 E23.7535
G1 X130.025 Y125.167 E23.77692
G1 X129.383 Y125.2 E23.7983
G1 X126.617 Y125.2 E23.8903
G1 X125.914 Y125.16 E23.91372
G1 X125.22 Y125.041 E23.93714
G1 X124.545 Y124.843 E23.96054
G1 X124.498 Y124.823 E23.96223
G1 X124.398 Y124.864 E23.96583
G1 X123.72 Y125.054 E23.98925
G1 X123.025 Y125.167 E24.01267
G1 X122.383 Y125.2 E24.03405
G1 X90.768 Y125.2 E25.08557
G1 X90.065 Y125.16 E25.10899
G1 X89.371 Y125.041 E25.13241
G1 X88.696 Y124.843 E25.1558
G1 X88.047 Y124.571 E25.17921
G1 X87.433 Y124.226 E25.20263
G1 X86.862 Y123.815 E25.22603
G1 X86.384 Y123.384 E25.24744
G1 X86.267 Y123.267 E25.25294
G1 X85.798 Y122.742 E25.27636
G1 X85.392 Y122.167 E25.29977
G1 X85.054 Y121.549 E25.3232
G1 X84.787 Y120.898 E25.3466
G1 X84.597 Y120.22 E25.37002
G1 X84.484 Y119.525 E25.39344
G1 X84.451 Y118.883 E25.41482
G1 X84.451 Y101.117 E26.00572
G1 X84.491 Y100.414 E26.02914
G1 X84.61 Y99.72 E26.05256
G1 X84.808 Y99.045 E26.07595
G1 X85.08 Y98.396 E26.09936
G1 X85.425 Y97.782 E26.12278
G1 X85.836 Y97.211 E26.14618
G1 X86.267 Y96.733 E26.16759
G1 X86.384 Y96.616 E26.17309
G1 X86.909 Y96.147 E26.19651
G0 F6000 X87.176 Y96.446
G1 F600 X87.734 Y96.057 E26.21913
G1 X88.334 Y95.735 E26.24178
G1 X88.968 Y95.486 E26.26444
G1 X89.627 Y95.313 E26.2871
G1 X90.301 Y95.219 E26.30973
G1 X90.768 Y95.2 E26.32528
G1 X122.383 Y95.2 E27.3768
G1 X123.063 Y95.24 E27.39945
G1 X123.733 Y95.359 E27.42208
G1 X124.385 Y95.556 E27.44474
G1 X124.505 Y95.608 E27.44909
G1 X124.817 Y95.486 E27.46023
G1 X125.476 Y95.313 E27.48289
G1 X126.15 Y95.219 E27.50553
G1 X126.617 Y95.2 E27.52107
G1 X129.383 Y95.2 E27.61307
G1 X130.063 Y95.24 E27.63572
G1 X130.733 Y95.359 E27.65836
G1 X131.385 Y95.556 E27.68101
G1 X132.009 Y95.828 E27.70365
G1 X132.597 Y96.172 E27.72631
G1 X133.141 Y96.582 E27.74897
G1 X133.484 Y96.899 E27.7645
G1 X133.601 Y97.016 E27.77
G1 X134.054 Y97.525 E27.79267
G1 X134.443 Y98.083 E27.81529
G1 X134.765 Y98.683 E27.83794
G1 X135.014 Y99.317 E27.86059
G1 X135.187 Y99.976 E27.88326
G1 X135.281 Y100.65 E27.90589
G1 X135.3 Y101.117 E27.92144
G1 X135.3 Y118.883 E28.51233
G1 X135.26 Y119.563 E28.53499
G1 X135.141 Y120.233 E28.55762
G1 X134.944 Y120.885 E28.58028
G1 X134.672 Y121.509 E28.60292
G1 X134.328 Y122.097 E28.62558
G1 X133.918 Y122.641 E28.64823
G1 X133.601 Y122.984 E28.66377
G1 X133.484 Y123.101 E28.66927
G1 X132.975 Y123.554 E28.69193
G1 X132.417 Y123.943 E28.71456
G1 X131.817 Y124.265 E28.73721
G1 X131.183 Y124.514 E28.75986
G1 X130.524 Y124.687 E28.78252
G1 X129.85 Y124.781 E28.80516
G1 X129.383 Y124.8 E28.8207
G1 X126.617 Y124.8 E28.9127
G1 X125.937 Y124.76 E28.93535
G1 X125.267 Y124.641 E28.95799
G1 X124.615 Y124.444 E28.98064
G1 X124.495 Y124.392 E28.98499
G1 X124.183 Y124.514 E28.99613
G1 X123.524 Y124.687 E29.01879
G1 X122.85 Y124.781 E29.04143
G1 X122.383 Y124.8 E29.05697
G1 X90.768 Y124.8 E30.10849
G1 X90.088 Y124.76 E30.13115
G1 X89.418 Y124.641 E30.15378
G1 X88.766 Y124.444 E30.17644
G1 X88.142 Y124.172 E30.19908
G1 X87.554 Y123.828 E30.22173
G1 X87.01 Y123.418 E30.24439
G1 X86.667 Y123.101 E30.25993
G1 X86.55 Y122.984 E30.26543
G1 X86.097 Y122.475 E30.28809
G1 X85.708 Y121.917 E30.31072
G1 X85.386 Y121.317 E30.33336
G1 X85.137 Y120.683 E30.35602
G1 X84.964 Y120.024 E30.37868
G1 X84.87 Y119.35 E30.40131
G1 X84.851 Y118.883 E30.41686
G1 X84.851 Y101.117 E31.00776
G1 X84.891 Y100.437 E31.03042
G1 X85.01 Y99.767 E31.05305
G1 X85.207 Y99.115 E31.0757
G1 X85.479 Y98.491 E31.09834
G1 X85.823 Y97.903 E31.121
G1 X86.233 Y97.359 E31.14366
G1 X86.55 Y97.016 E31.15919
G1 X86.667 Y96.899 E31.1647
G1 X87.176 Y96.446 E31.18736
G0 F6000 X87.442 Y96.746
G1 F600 X87.983 Y96.374 E31.2092
G1 X88.565 Y96.07 E31.23103
G1 X89.18 Y95.839 E31.25288
G1 X89.819 Y95.684 E31.27475
G1 X90.768 Y95.6 E31.30644
G1 X122.383 Y95.6 E32.35796
G1 X123.039 Y95.64 E32.37982
G1 X123.685 Y95.759 E32.40167
G1 X124.312 Y95.956 E32.42353
G1 X124.495 Y96.039 E32.43021
G1 X125.029 Y95.839 E32.44918
G1 X125.668 Y95.684 E32.47105
G1 X126.617 Y95.6 E32.50273
