;FLAVOR:Marlin
;TIME:2670
;Filament used: 2.9701m
;Layer height: 0.2
;MINX:72.204
;MINY:72.204
;MINZ:0.24
;MAXX:147.795
;MAXY:147.795
;MAXZ:10.59
;Generated with Cura_SteamEngine master
M140 S70
M105
M190 S70
M104 S200
M105
M109 S200
M82 ;absolute extrusion mode
M201 X500.00 Y500.00 Z100.00 E5000.00 ;Setup machine max acceleration
M203 X500.00 Y500.00 Z10.00 E50.00 ;Setup machine max feedrate
M204 P500.00 R1000.00 T500.00 ;Setup Print/Retract/Travel acceleration
M205 X8.00 Y8.00 Z0.40 E5.00 ;Setup Jerk
M220 S100 ;Reset Feedrate
M221 S100 ;Reset Flowrate

G28 ;Home

G92 E0 ;Reset Extruder
G1 Z2.0 F3000 ;Move Z Axis up
G1 X10.1 Y20 Z0.28 F5000.0 ;Move to start position
G1 X10.1 Y200.0 Z0.28 F1500.0 E15 ;Draw the first line
G1 X10.4 Y200.0 Z0.28 F5000.0 ;Move to side a little
G1 X10.4 Y20 Z0.28 F1500.0 E30 ;Draw the second line
G92 E0 ;Reset Extruder
G1 Z2.0 F3000 ;Move Z Axis up

G92 E0
G92 E0
G1 F2700 E-5
;LAYER_COUNT:45
;LAYER:-6
M107
G0 F12000 X79.894 Y79.906 Z0.24
;TYPE:SUPPORT-INTERFACE
G1 F2700 E0
G1 F1800 X79.944 Y79.858 E0.00553
G1 X80.932 Y78.963 E0.11195
G1 X81.011 Y78.895 E0.12027
G1 X82.632 Y77.565 E0.28764
G1 X83.618 Y76.825 E0.38605
G1 X83.664 Y76.794 E0.39048
G1 X84.496 Y76.266 E0.46914
G1 X84.584 Y76.214 E0.4773
G1 X85.01 Y75.976 E0.51625
G1 X86.857 Y74.987 E0.68349
G1 X88.051 Y74.415 E0.78917
G1 X88.177 Y74.361 E0.80012
G1 X89.519 Y73.877 E0.91399
G1 X89.626 Y73.842 E0.92298
G1 X91.523 Y73.267 E1.08121
G1 X91.668 Y73.227 E1.09322
G1 X92.977 Y72.899 E1.20094
G1 X94.394 Y72.687 E1.31531
G1 X94.5 Y72.674 E1.32383
G1 X96.588 Y72.47 E1.4913
G1 X98 Y72.403 E1.60414
G1 X98.071 Y72.405 E1.60981
G1 X99.412 Y72.47 E1.71698
G1 X101.5 Y72.674 E1.88444
G1 X101.606 Y72.687 E1.89297
G1 X103.023 Y72.899 E2.00734
G1 X104.332 Y73.227 E2.11506
G1 X104.477 Y73.267 E2.12707
G1 X106.374 Y73.842 E2.2853
G1 X106.481 Y73.877 E2.29428
G1 X107.823 Y74.361 E2.40816
G1 X108.35 Y74.568 E2.45336
G1 X108.354 Y74.559 E2.45414
G1 X108.984 Y74.722 E2.50609
G1 X109.661 Y74.807 E2.56055
G1 X110.343 Y74.807 E2.61499
G1 X111.021 Y74.721 E2.66955
G1 X111.646 Y74.558 E2.72111
G1 X111.65 Y74.568 E2.72197
G1 X112.177 Y74.361 E2.76716
G1 X113.519 Y73.877 E2.88104
G1 X113.626 Y73.842 E2.89003
G1 X115.523 Y73.267 E3.04826
G1 X115.668 Y73.227 E3.06027
G1 X116.977 Y72.899 E3.16799
G1 X118.394 Y72.687 E3.28236
G1 X118.5 Y72.674 E3.29088
G1 X120.588 Y72.47 E3.45835
G1 X122 Y72.403 E3.57119
G1 X122.071 Y72.405 E3.57686
G1 X123.412 Y72.47 E3.68403
G1 X125.5 Y72.674 E3.85149
G1 X125.606 Y72.687 E3.86002
G1 X127.023 Y72.899 E3.97439
G1 X128.332 Y73.227 E4.08211
G1 X128.477 Y73.267 E4.09412
G1 X130.374 Y73.842 E4.25235
G1 X130.481 Y73.877 E4.26133
G1 X131.823 Y74.361 E4.37521
G1 X131.949 Y74.415 E4.38615
G1 X133.143 Y74.987 E4.49184
G1 X134.996 Y75.98 E4.65965
G1 X135.864 Y76.486 E4.73985
G1 X135.966 Y76.55 E4.74946
G1 X136.35 Y76.802 E4.78613
G1 X136.411 Y76.845 E4.79208
G1 X137.402 Y77.592 E4.89115
G1 X138.982 Y78.889 E5.05432
G1 X139.061 Y78.957 E5.06264
G1 X140.056 Y79.858 E5.16979
G1 X140.106 Y79.906 E5.17532
G1 X141.037 Y80.932 E5.28592
G1 X141.105 Y81.011 E5.29424
G1 X142.435 Y82.632 E5.46161
G1 X143.169 Y83.609 E5.55916
G1 X143.206 Y83.664 E5.56445
G1 X143.728 Y84.486 E5.64218
G1 X143.781 Y84.575 E5.65044
G1 X144.024 Y85.01 E5.69022
G1 X145.008 Y86.847 E5.85657
G1 X145.585 Y88.051 E5.96314
G1 X145.635 Y88.166 E5.97315
G1 X146.123 Y89.519 E6.08797
G1 X146.158 Y89.626 E6.09695
G1 X146.733 Y91.523 E6.25518
G1 X146.771 Y91.66 E6.26653
G1 X147.099 Y92.965 E6.37394
G1 X147.112 Y93.041 E6.3801
G1 X147.313 Y94.394 E6.48928
G1 X147.326 Y94.5 E6.49781
G1 X147.524 Y96.507 E6.65879
G1 X147.595 Y97.929 E6.77245
G1 X147.597 Y97.991 E6.7774
G1 X147.595 Y98.071 E6.78379
G1 X147.525 Y99.481 E6.89648
G1 X147.327 Y101.492 E7.05778
G1 X147.313 Y101.606 E7.06695
G1 X147.103 Y103.017 E7.18082
G1 X146.773 Y104.332 E7.28904
G1 X146.736 Y104.467 E7.30022
G1 X146.161 Y106.365 E7.45852
G1 X146.127 Y106.47 E7.46733
G1 X145.639 Y107.823 E7.58215
G1 X145.432 Y108.35 E7.62734
G1 X145.441 Y108.354 E7.62813
G1 X145.278 Y108.984 E7.68007
G1 X145.193 Y109.661 E7.73454
G1 X145.193 Y110.343 E7.78898
G1 X145.279 Y111.021 E7.84353
G1 X145.442 Y111.646 E7.89509
G1 X145.432 Y111.65 E7.89595
G1 X145.635 Y112.166 E7.94022
G1 X146.123 Y113.519 E8.05503
G1 X146.158 Y113.626 E8.06401
G1 X146.733 Y115.523 E8.22224
G1 X146.771 Y115.66 E8.23359
G1 X147.099 Y116.965 E8.341
G1 X147.112 Y117.041 E8.34716
G1 X147.313 Y118.394 E8.45635
G1 X147.326 Y118.5 E8.46487
G1 X147.524 Y120.507 E8.62586
G1 X147.595 Y121.929 E8.73951
G1 X147.597 Y121.991 E8.74446
G1 X147.595 Y122.071 E8.75085
G1 X147.525 Y123.481 E8.86354
G1 X147.327 Y125.492 E9.02484
G1 X147.313 Y125.606 E9.03401
G1 X147.103 Y127.017 E9.14788
G1 X146.773 Y128.332 E9.25611
G1 X146.736 Y128.467 E9.26728
G1 X146.161 Y130.365 E9.42559
G1 X146.127 Y130.47 E9.4344
G1 X145.64 Y131.821 E9.54903
G1 X145.585 Y131.949 E9.56015
G1 X145.013 Y133.143 E9.66584
G1 X144.025 Y134.988 E9.8329
G1 X143.514 Y135.864 E9.91385
G1 X143.45 Y135.966 E9.92346
G1 X143.19 Y136.362 E9.96128
G1 X142.441 Y137.36 E10.06088
G1 X141.111 Y138.982 E10.22832
G1 X141.043 Y139.061 E10.23664
G1 X140.106 Y140.094 E10.34797
G1 X140.056 Y140.142 E10.3535
G1 X139.068 Y141.037 E10.45992
G1 X138.989 Y141.105 E10.46824
G1 X137.368 Y142.435 E10.63561
G1 X136.432 Y143.139 E10.7291
G1 X136.336 Y143.206 E10.73845
G1 X135.506 Y143.733 E10.81693
G1 X135.416 Y143.786 E10.82526
G1 X134.99 Y144.024 E10.86422
G1 X133.143 Y145.013 E11.03146
G1 X131.957 Y145.581 E11.13643
G1 X131.834 Y145.635 E11.14715
G1 X130.481 Y146.123 E11.26196
G1 X130.374 Y146.158 E11.27095
G1 X128.477 Y146.733 E11.42918
G1 X128.332 Y146.773 E11.44119
G1 X127.023 Y147.101 E11.54891
G1 X125.606 Y147.313 E11.66328
G1 X125.5 Y147.326 E11.6718
G1 X123.412 Y147.53 E11.83927
G1 X122 Y147.597 E11.95211
G1 X121.929 Y147.595 E11.95778
G1 X120.588 Y147.53 E12.06495
G1 X118.5 Y147.326 E12.23241
G1 X118.394 Y147.313 E12.24094
G1 X116.977 Y147.101 E12.35531
G1 X115.668 Y146.773 E12.46303
G1 X115.523 Y146.733 E12.47504
G1 X113.626 Y146.158 E12.63327
G1 X113.519 Y146.123 E12.64225
G1 X112.176 Y145.639 E12.75621
G1 X111.65 Y145.432 E12.80133
G1 X111.646 Y145.441 E12.80211
G1 X111.016 Y145.278 E12.85406
G1 X110.339 Y145.193 E12.90852
G1 X109.657 Y145.193 E12.96296
G1 X108.979 Y145.279 E13.01752
G1 X108.354 Y145.442 E13.06908
G1 X108.35 Y145.432 E13.06994
G1 X107.824 Y145.639 E13.11506
G1 X106.481 Y146.123 E13.22901
G1 X106.374 Y146.158 E13.238
G1 X104.477 Y146.733 E13.39623
G1 X104.332 Y146.773 E13.40824
G1 X103.023 Y147.101 E13.51596
G1 X101.606 Y147.313 E13.63033
G1 X101.5 Y147.326 E13.63885
G1 X99.412 Y147.53 E13.80632
G1 X98 Y147.597 E13.91916
G1 X97.929 Y147.595 E13.92483
G1 X96.588 Y147.53 E14.032
G1 X94.5 Y147.326 E14.19946
G1 X94.394 Y147.313 E14.20799
G1 X92.977 Y147.101 E14.32236
G1 X91.668 Y146.773 E14.43008
G1 X91.523 Y146.733 E14.44209
G1 X89.626 Y146.158 E14.60032
G1 X89.519 Y146.123 E14.6093
G1 X88.139 Y145.624 E14.72644
G1 X88.043 Y145.581 E14.73484
G1 X86.857 Y145.013 E14.83981
G1 X85.004 Y144.02 E15.00762
G1 X84.136 Y143.514 E15.08782
G1 X84.034 Y143.45 E15.09743
G1 X83.652 Y143.199 E15.13392
G1 X83.57 Y143.14 E15.14198
G1 X82.632 Y142.435 E15.23565
G1 X81.011 Y141.105 E15.40303
G1 X80.932 Y141.037 E15.41135
G1 X79.944 Y140.142 E15.51776
G1 X79.894 Y140.094 E15.52329
G1 X78.957 Y139.061 E15.63462
G1 X78.889 Y138.982 E15.64294
G1 X77.559 Y137.36 E15.81038
G1 X76.813 Y136.366 E15.90958
G1 X76.266 Y135.504 E15.99108
G1 X76.214 Y135.416 E15.99924
G1 X75.976 Y134.99 E16.03819
G1 X74.987 Y133.143 E16.20543
G1 X74.415 Y131.949 E16.31111
G1 X74.36 Y131.821 E16.32223
G1 X73.873 Y130.47 E16.43687
G1 X73.839 Y130.365 E16.44568
G1 X73.264 Y128.467 E16.60399
G1 X73.227 Y128.332 E16.61516
G1 X72.897 Y127.017 E16.72338
G1 X72.687 Y125.606 E16.83726
G1 X72.673 Y125.492 E16.84642
G1 X72.475 Y123.481 E17.00773
G1 X72.405 Y122.071 E17.12042
G1 X72.403 Y122.009 E17.12537
G1 X72.405 Y121.929 E17.13176
G1 X72.475 Y120.519 E17.24445
G1 X72.673 Y118.508 E17.40575
G1 X72.687 Y118.394 E17.41492
G1 X72.899 Y116.977 E17.52929
G1 X73.227 Y115.668 E17.63701
G1 X73.264 Y115.533 E17.64818
G1 X73.839 Y113.635 E17.80649
G1 X73.873 Y113.53 E17.8153
G1 X74.361 Y112.177 E17.93011
G1 X74.568 Y111.65 E17.97531
G1 X74.559 Y111.646 E17.97609
G1 X74.722 Y111.016 E18.02804
G1 X74.807 Y110.339 E18.08251
G1 X74.807 Y109.657 E18.13695
G1 X74.721 Y108.979 E18.1915
G1 X74.558 Y108.354 E18.24306
G1 X74.568 Y108.35 E18.24392
G1 X74.361 Y107.823 E18.28912
G1 X73.873 Y106.47 E18.40393
G1 X73.839 Y106.365 E18.41274
G1 X73.264 Y104.467 E18.57104
G1 X73.227 Y104.332 E18.58222
G1 X72.897 Y103.017 E18.69044
G1 X72.687 Y101.606 E18.80431
G1 X72.673 Y101.492 E18.81348
G1 X72.475 Y99.481 E18.97479
G1 X72.405 Y98.071 E19.08748
G1 X72.403 Y98.009 E19.09243
G1 X72.405 Y97.929 E19.09882
G1 X72.475 Y96.519 E19.21151
G1 X72.673 Y94.508 E19.37281
G1 X72.687 Y94.394 E19.38198
G1 X72.899 Y92.977 E19.49635
G1 X73.227 Y91.668 E19.60407
G1 X73.264 Y91.533 E19.61524
G1 X73.839 Y89.635 E19.77355
G1 X73.873 Y89.53 E19.78236
G1 X74.36 Y88.179 E19.89699
G1 X74.415 Y88.051 E19.90812
G1 X74.987 Y86.857 E20.0138
G1 X75.976 Y85.01 E20.18104
G1 X76.486 Y84.136 E20.26182
G1 X76.55 Y84.034 E20.27143
G1 X76.802 Y83.65 E20.30809
G1 X76.845 Y83.589 E20.31405
G1 X77.592 Y82.598 E20.41311
G1 X78.889 Y81.018 E20.57628
G1 X78.957 Y80.939 E20.58461
G1 X79.671 Y80.152 E20.66943
G0 F1620 X79.894 Y79.906
G0 F12000 X80 Y79.807
G1 F1800 X80 Y140.192 E25.48962
G1 F2700 E20.48962
G1 F300 Z0.74
G0 F12000 X81.6 Y141.588 Z0.74
G1 F300 Z0.24
G1 F2700 E25.48962
G1 F1800 X81.6 Y78.411 E30.53268
G1 F2700 E25.53268
G1 F300 Z0.74
G0 F12000 X83.2 Y77.138 Z0.74
G1 F300 Z0.24
G1 F2700 E30.53268
G1 F1800 X83.2 Y142.861 E35.77898
G1 F2700 E30.77898
G1 F300 Z0.74
G0 F12000 X84.8 Y143.901 Z0.74
G1 F300 Z0.24
G1 F2700 E35.77898
G1 F1800 X84.8 Y76.093 E41.1917
G1 F2700 E36.1917
G1 F300 Z0.74
G0 F12000 X86.4 Y75.231 Z0.74
G1 F300 Z0.24
G1 F2700 E41.1917
G1 F1800 X86.4 Y144.768 E46.74245
G1 F2700 E41.74245
G1 F300 Z0.74
G0 F12000 X88 Y145.56 Z0.74
G1 F300 Z0.24
G1 F2700 E46.74245
G1 F1800 X88 Y74.439 E52.41963
G1 F2700 E47.41963
G1 F300 Z0.74
G0 F12000 X89.6 Y73.85 Z0.74
G1 F300 Z0.24
G1 F2700 E52.41963
G1 F1800 X89.6 Y146.149 E58.19085
G1 F2700 E53.19085
G1 F300 Z0.74
G0 F12000 X91.2 Y146.635 Z0.74
G1 F300 Z0.24
G1 F2700 E58.19085
G1 F1800 X91.2 Y73.364 E64.03966
G1 F2700 E59.03966
G1 F300 Z0.74
G0 F12000 X92.8 Y72.943 Z0.74
G1 F300 Z0.24
G1 F2700 E64.03966
G1 F1800 X92.8 Y147.056 E69.95568
G1 F2700 E64.95568
G1 F300 Z0.74
G0 F12000 X94.4 Y147.313 Z0.74
G1 F300 Z0.24
G1 F2700 E69.95568
G1 F1800 X94.4 Y72.686 E75.91273
G1 F2700 E70.91273
G1 F300 Z0.74
G0 F12000 X96 Y72.527 Z0.74
G1 F300 Z0.24
G1 F2700 E75.91273
G1 F1800 X96 Y147.472 E81.89516
G1 F2700 E76.89516
G1 F300 Z0.74
G0 F12000 X97.6 Y147.579 Z0.74
G1 F300 Z0.24
G1 F2700 E81.89516
G1 F1800 X97.6 Y72.421 E87.8946
G1 F2700 E82.8946
G1 F300 Z0.74
G0 F12000 X99.2 Y72.46 Z0.74
G1 F300 Z0.24
G1 F2700 E87.8946
G1 F1800 X99.2 Y147.541 E93.88789
G1 F2700 E88.88789
G1 F300 Z0.74
G0 F12000 X100.8 Y147.395 Z0.74
G1 F300 Z0.24
G1 F2700 E93.88789
G1 F1800 X100.8 Y72.606 E99.85787
G1 F2700 E94.85787
G1 F300 Z0.74
G0 F12000 X102.4 Y72.806 Z0.74
G1 F300 Z0.24
G1 F2700 E99.85787
G1 F1800 X102.4 Y147.195 E105.79592
G1 F2700 E100.79592
G1 F300 Z0.74
G0 F12000 X104 Y146.857 Z0.74
G1 F300 Z0.24
G1 F2700 E105.79592
G1 F1800 X104 Y73.144 E111.68001
G1 F2700 E106.68001
G1 F300 Z0.74
G0 F12000 X105.6 Y73.608 Z0.74
G1 F300 Z0.24
G1 F2700 E111.68001
G1 F1800 X105.6 Y146.393 E117.49003
G1 F2700 E112.49003
G1 F300 Z0.74
G0 F12000 X107.2 Y145.864 Z0.74
G1 F300 Z0.24
G1 F2700 E117.49003
G1 F1800 X107.2 Y74.137 E123.21559
G1 F2700 E118.21559
G1 F300 Z0.74
G0 F12000 X108.8 Y74.675 Z0.74
G1 F300 Z0.24
G1 F2700 E123.21559
G1 F1800 X108.8 Y145.326 E128.85525
G1 F2700 E123.85525
G1 F300 Z0.74
G0 F12000 X110.4 Y145.2 Z0.74
G1 F300 Z0.24
G1 F2700 E128.85525
G1 F1800 X110.4 Y74.799 E134.47497
G1 F2700 E129.47497
G1 F300 Z0.74
G0 F12000 X112 Y74.43 Z0.74
G1 F300 Z0.24
G1 F2700 E134.47497
G1 F1800 X112 Y145.569 E140.15359
G1 F2700 E135.15359
G1 F300 Z0.74
G0 F12000 X113.6 Y146.149 Z0.74
G1 F300 Z0.24
G1 F2700 E140.15359
G1 F1800 X113.6 Y73.85 E145.92481
G1 F2700 E140.92481
G1 F300 Z0.74
G0 F12000 X115.2 Y73.364 Z0.74
G1 F300 Z0.24
G1 F2700 E145.92481
G1 F1800 X115.2 Y146.635 E151.77362
G1 F2700 E146.77362
G1 F300 Z0.74
G0 F12000 X116.8 Y147.056 Z0.74
G1 F300 Z0.24
G1 F2700 E151.77362
G1 F1800 X116.8 Y72.943 E157.68964
G1 F2700 E152.68964
G1 F300 Z0.74
G0 F12000 X118.4 Y72.686 Z0.74
G1 F300 Z0.24
G1 F2700 E157.68964
G1 F1800 X118.4 Y147.313 E163.64669
G1 F2700 E158.64669
G1 F300 Z0.74
G0 F12000 X120 Y147.472 Z0.74
G1 F300 Z0.24
G1 F2700 E163.64669
G1 F1800 X120 Y72.527 E169.62912
G1 F2700 E164.62912
G1 F300 Z0.74
G0 F12000 X121.6 Y72.421 Z0.74
G1 F300 Z0.24
G1 F2700 E169.62912
G1 F1800 X121.6 Y147.579 E175.62856
G1 F2700 E170.62856
G1 F300 Z0.74
G0 F12000 X123.2 Y147.541 Z0.74
G1 F300 Z0.24
G1 F2700 E175.62856
G1 F1800 X123.2 Y72.46 E181.62185
G1 F2700 E176.62185
G1 F300 Z0.74
G0 F12000 X124.8 Y72.606 Z0.74
G1 F300 Z0.24
G1 F2700 E181.62185
G1 F1800 X124.8 Y147.395 E187.59183
G1 F2700 E182.59183
G1 F300 Z0.74
G0 F12000 X126.4 Y147.195 Z0.74
G1 F300 Z0.24
G1 F2700 E187.59183
G1 F1800 X126.4 Y72.806 E193.52988
G1 F2700 E188.52988
G1 F300 Z0.74
G0 F12000 X128 Y73.144 Z0.74
G1 F300 Z0.24
G1 F2700 E193.52988
G1 F1800 X128 Y146.857 E199.41397
G1 F2700 E194.41397
G1 F300 Z0.74
G0 F12000 X129.6 Y146.393 Z0.74
G1 F300 Z0.24
G1 F2700 E199.41397
G1 F1800 X129.6 Y73.608 E205.22398
G1 F2700 E200.22398
G1 F300 Z0.74
G0 F12000 X131.2 Y74.137 Z0.74
G1 F300 Z0.24
G1 F2700 E205.22398
G1 F1800 X131.2 Y145.864 E210.94954
G1 F2700 E205.94954
G1 F300 Z0.74
G0 F12000 X132.8 Y145.178 Z0.74
G1 F300 Z0.24
G1 F2700 E210.94954
G1 F1800 X132.8 Y74.823 E216.56558
G1 F2700 E211.56558
G1 F300 Z0.74
G0 F12000 X134.4 Y75.661 Z0.74
G1 F300 Z0.24
G1 F2700 E216.56558
G1 F1800 X134.4 Y144.34 E222.04784
G1 F2700 E217.04784
G1 F300 Z0.74
G0 F12000 X136 Y143.42 Z0.74
G1 F300 Z0.24
G1 F2700 E222.04784
G1 F1800 X136 Y76.573 E227.38385
G1 F2700 E222.38385
G1 F300 Z0.74
G0 F12000 X137.6 Y77.755 Z0.74
G1 F300 Z0.24
G1 F2700 E227.38385
G1 F1800 X137.6 Y142.245 E232.53173
G1 F2700 E227.53173
G1 F300 Z0.74
G0 F12000 X139.2 Y140.918 Z0.74
G1 F300 Z0.24
G1 F2700 E232.53173
G1 F1800 X139.2 Y79.083 E237.46766
G1 F2700 E232.46766
G1 F300 Z0.74
G0 F12000 X140.8 Y80.671 Z0.74
G1 F300 Z0.24
G1 F2700 E237.46766
G1 F1800 X140.8 Y139.329 E242.15
G1 F2700 E237.15
G1 F300 Z0.74
G0 F12000 X142.4 Y137.411 Z0.74
G1 F300 Z0.24
G1 F2700 E242.15
G1 F1800 X142.4 Y82.59 E246.52605
G1 F2700 E241.52605
G1 F300 Z0.74
G0 F12000 X144 Y84.968 Z0.74
G1 F300 Z0.24
G1 F2700 E246.52605
G1 F1800 X144 Y135.031 E250.52229
G1 F2700 E245.52229
G1 F300 Z0.74
G0 F12000 X145.6 Y131.915 Z0.74
G1 F300 Z0.24
G1 F2700 E250.52229
G1 F1800 X145.6 Y112.078 E252.10577
G1 F2700 E247.10577
G1 F300 Z0.74
G0 F12000 X145.6 Y107.923 Z0.74
G1 F300 Z0.24
G1 F2700 E252.10577
G1 F1800 X145.6 Y88.086 E253.68924
G1 F2700 E248.68924
G1 F300 Z0.74
G0 F12000 X147.2 Y93.634 Z0.74
G1 F300 Z0.24
G1 F2700 E253.68924
G1 F1800 X147.2 Y102.366 E254.38627
G1 F2700 E249.38627
G1 F300 Z0.74
G0 F12000 X147.2 Y117.634 Z0.74
G1 F300 Z0.24
G1 F2700 E254.38627
G1 F1800 X147.2 Y126.366 E255.08329
G1 F2700 E250.08329
G1 F300 Z0.74
G0 F12000 X78.4 Y138.385 Z0.74
G1 F300 Z0.24
G1 F2700 E255.08329
G1 F1800 X78.4 Y81.613 E259.61508
G1 F2700 E254.61508
G1 F300 Z0.74
G0 F12000 X76.8 Y83.653 Z0.74
G1 F300 Z0.24
G1 F2700 E259.61508
G1 F1800 X76.8 Y136.345 E263.82118
G1 F2700 E258.82118
G1 F300 Z0.74
G0 F12000 X75.2 Y133.54 Z0.74
G1 F300 Z0.24
G1 F2700 E263.82118
G1 F1800 X75.2 Y86.459 E267.57939
G1 F2700 E262.57939
G1 F300 Z0.74
G0 F12000 X73.6 Y90.423 Z0.74
G1 F300 Z0.24
G1 F2700 E267.57939
G1 F1800 X73.6 Y105.576 E268.78897
G1 F2700 E263.78897
G1 F300 Z0.74
G0 F12000 X73.6 Y114.423 Z0.74
G1 F300 Z0.24
G1 F2700 E268.78897
G1 F1800 X73.6 Y129.576 E269.99855
G1 F2700 E264.99855
G1 F300 Z0.74
G0 F12000 X76.813 Y136.365 Z0.74
