;FLAVOR:Marlin
;TIME:1981
;Filament used: 1.82908m
;Layer height: 0.2
;MINX:72.201
;MINY:84.699
;MINZ:0.24
;MAXX:147.8
;MAXY:135.3
;MAXZ:8.59
;Generated with Cura_SteamEngine master
M140 S70
M105
M190 S70
M104 S200
M105
M109 S200
M82 ;absolute extrusion mode
M201 X500.00 Y500.00 Z100.00 E5000.00 ;Setup machine max acceleration
M203 X500.00 Y500.00 Z10.00 E50.00 ;Setup machine max feedrate
M204 P500.00 R1000.00 T500.00 ;Setup Print/Retract/Travel acceleration
M205 X8.00 Y8.00 Z0.40 E5.00 ;Setup Jerk
M220 S100 ;Reset Feedrate
M221 S100 ;Reset Flowrate

G28 ;Home

G92 E0 ;Reset Extruder
G1 Z2.0 F3000 ;Move Z Axis up
G1 X10.1 Y20 Z0.28 F5000.0 ;Move to start position
G1 X10.1 Y200.0 Z0.28 F1500.0 E15 ;Draw the first line
G1 X10.4 Y200.0 Z0.28 F5000.0 ;Move to side a little
G1 X10.4 Y20 Z0.28 F1500.0 E30 ;Draw the second line
G92 E0 ;Reset Extruder
G1 Z2.0 F3000 ;Move Z Axis up

G92 E0
G92 E0
G1 F2700 E-5
;LAYER_COUNT:35
;LAYER:-6
M107
G0 F12000 X80.784 Y91.317 Z0.24
;TYPE:SUPPORT-INTERFACE
G1 F2700 E0
G1 F1800 X80.884 Y91.231 E0.01053
G1 X82.351 Y90.029 E0.16192
G1 X82.453 Y89.948 E0.17232
G1 X83.398 Y89.24 E0.26657
G1 X84.274 Y88.682 E0.34948
G1 X84.362 Y88.63 E0.35764
G1 X84.788 Y88.392 E0.39659
G1 X86.549 Y87.449 E0.55605
G1 X87.743 Y86.877 E0.66173
G1 X87.812 Y86.846 E0.66777
G1 X89.17 Y86.354 E0.78307
G1 X89.333 Y86.299 E0.7968
G1 X91.219 Y85.729 E0.95407
G1 X92.556 Y85.393 E1.06412
G1 X92.652 Y85.377 E1.07188
G1 X93.96 Y85.182 E1.17745
G1 X94.111 Y85.163 E1.1896
G1 X95.975 Y84.979 E1.33911
G1 X96.116 Y84.969 E1.3504
G1 X97.5 Y84.902 E1.461
G1 X98.884 Y84.969 E1.57161
G1 X99.025 Y84.979 E1.58289
G1 X100.889 Y85.163 E1.73241
G1 X101.04 Y85.182 E1.74456
G1 X102.348 Y85.376 E1.85011
G1 X102.444 Y85.393 E1.85789
G1 X103.749 Y85.721 E1.9653
G1 X103.987 Y85.79 E1.98508
G1 X104.639 Y85.943 E2.03854
G1 X105.319 Y86.014 E2.09312
G1 X106.002 Y85.998 E2.14765
G1 X106.674 Y85.897 E2.2019
G1 X107.179 Y85.762 E2.24362
G1 X108.08 Y85.473 E2.31915
G1 X108.244 Y85.427 E2.33275
G1 X109.116 Y85.215 E2.40439
G1 X109.278 Y85.182 E2.41758
G1 X110.171 Y85.034 E2.48984
G1 X110.348 Y85.011 E2.50409
G1 X111.242 Y84.928 E2.57576
G1 X111.384 Y84.921 E2.5871
G1 X112.125 Y84.9 E2.64628
G1 X132.886 Y84.901 E4.30351
G1 X133.887 Y84.937 E4.38347
G1 X134.01 Y84.946 E4.39331
G1 X134.927 Y85.048 E4.46696
G1 X135.102 Y85.073 E4.48107
G1 X135.991 Y85.237 E4.55323
G1 X136.114 Y85.265 E4.5633
G1 X137.008 Y85.499 E4.63707
G1 X137.171 Y85.548 E4.65066
G1 X138.013 Y85.834 E4.72164
G1 X138.179 Y85.898 E4.73584
G1 X138.982 Y86.239 E4.80548
G1 X139.171 Y86.327 E4.82212
G1 X139.965 Y86.735 E4.89338
G1 X140.082 Y86.802 E4.90414
G1 X140.861 Y87.276 E4.97693
G1 X141.012 Y87.376 E4.99139
G1 X141.726 Y87.887 E5.06148
G1 X141.874 Y88 E5.07634
G1 X142.566 Y88.577 E5.14826
G1 X142.674 Y88.673 E5.1598
G1 X143.216 Y89.185 E5.21931
G1 X143.342 Y89.312 E5.23359
G1 X143.984 Y90.004 E5.30894
G1 X144.099 Y90.137 E5.32298
G1 X144.661 Y90.838 E5.3947
G1 X144.765 Y90.977 E5.40856
G1 X145.257 Y91.692 E5.47784
G1 X145.367 Y91.865 E5.4942
G1 X145.817 Y92.632 E5.56519
G1 X145.894 Y92.774 E5.57808
G1 X146.297 Y93.593 E5.65094
G1 X146.353 Y93.719 E5.66195
G1 X146.695 Y94.564 E5.73472
G1 X146.754 Y94.729 E5.7487
G1 X147.026 Y95.576 E5.81972
G1 X147.072 Y95.738 E5.83316
G1 X147.284 Y96.612 E5.90495
G1 X147.317 Y96.77 E5.91783
G1 X147.465 Y97.662 E5.99001
G1 X147.489 Y97.848 E6.00498
G1 X147.571 Y98.732 E6.07585
G1 X147.579 Y98.884 E6.088
G1 X147.6 Y99.617 E6.14653
G1 X147.6 Y120.369 E7.80305
G1 X147.564 Y121.375 E7.8834
G1 X147.554 Y121.51 E7.89421
G1 X147.452 Y122.427 E7.96786
G1 X147.427 Y122.602 E7.98197
G1 X147.265 Y123.48 E8.05324
G1 X147.235 Y123.614 E8.0642
G1 X147.004 Y124.499 E8.13721
G1 X146.952 Y124.671 E8.15155
G1 X146.666 Y125.513 E8.22254
G1 X146.602 Y125.679 E8.23674
G1 X146.262 Y126.482 E8.30635
G1 X146.182 Y126.652 E8.32135
G1 X145.764 Y127.465 E8.39432
G1 X145.699 Y127.582 E8.405
G1 X145.224 Y128.361 E8.47783
G1 X145.124 Y128.512 E8.49229
G1 X144.613 Y129.226 E8.56238
G1 X144.5 Y129.374 E8.57724
G1 X143.923 Y130.066 E8.64916
G1 X143.827 Y130.174 E8.6607
G1 X143.345 Y130.686 E8.71683
G1 X143.196 Y130.834 E8.73359
G1 X142.492 Y131.488 E8.8103
G1 X142.353 Y131.607 E8.8249
G1 X141.662 Y132.161 E8.8956
G1 X141.523 Y132.265 E8.90946
G1 X140.808 Y132.757 E8.97874
G1 X140.624 Y132.874 E8.99614
G1 X139.868 Y133.317 E9.06609
G1 X139.726 Y133.394 E9.07898
G1 X138.898 Y133.801 E9.15263
G1 X138.781 Y133.853 E9.16285
G1 X137.926 Y134.198 E9.23645
G1 X137.763 Y134.256 E9.25026
G1 X136.92 Y134.527 E9.32094
G1 X136.756 Y134.573 E9.33454
G1 X135.884 Y134.785 E9.40617
G1 X135.722 Y134.818 E9.41937
G1 X134.829 Y134.966 E9.49162
G1 X134.652 Y134.989 E9.50587
G1 X133.758 Y135.072 E9.57754
G1 X133.616 Y135.079 E9.58889
G1 X132.875 Y135.1 E9.64806
G1 X112.114 Y135.099 E11.3053
G1 X111.113 Y135.063 E11.38525
G1 X110.99 Y135.054 E11.3951
G1 X110.073 Y134.952 E11.46875
G1 X109.898 Y134.927 E11.48286
G1 X109.009 Y134.763 E11.55502
G1 X108.886 Y134.735 E11.56509
G1 X108 Y134.503 E11.6382
G1 X107.844 Y134.456 E11.6512
G1 X107.275 Y134.263 E11.69917
G1 X106.628 Y134.088 E11.75267
G1 X105.952 Y133.994 E11.80715
G1 X105.269 Y133.987 E11.86167
G1 X104.592 Y134.064 E11.91606
G1 X104.004 Y134.206 E11.96435
G1 X103.855 Y134.251 E11.97677
G1 X102.444 Y134.607 E12.09293
G1 X102.348 Y134.623 E12.1007
G1 X101.04 Y134.818 E12.20627
G1 X100.889 Y134.837 E12.21841
G1 X99.025 Y135.021 E12.36793
G1 X98.884 Y135.031 E12.37921
G1 X97.5 Y135.098 E12.48982
G1 X96.116 Y135.031 E12.60043
G1 X95.975 Y135.021 E12.61171
G1 X94.111 Y134.837 E12.76123
G1 X93.96 Y134.818 E12.77337
G1 X92.652 Y134.624 E12.87893
G1 X92.556 Y134.607 E12.88671
G1 X91.17 Y134.257 E13.00082
G1 X89.333 Y133.701 E13.15403
G1 X89.17 Y133.646 E13.16776
G1 X87.812 Y133.154 E13.28305
G1 X87.743 Y133.123 E13.28909
G1 X86.549 Y132.551 E13.39477
G1 X84.783 Y131.605 E13.5547
G1 X83.914 Y131.098 E13.63501
G1 X83.812 Y131.034 E13.64462
G1 X83.415 Y130.773 E13.68254
G1 X82.453 Y130.052 E13.77851
G1 X82.347 Y129.968 E13.7893
G1 X80.884 Y128.769 E13.9403
G1 X80.784 Y128.683 E13.95082
G1 X79.753 Y127.747 E14.06198
G1 X78.81 Y126.708 E14.17398
G1 X78.725 Y126.609 E14.1844
G1 X77.524 Y125.143 E14.33568
G1 X77.442 Y125.039 E14.34625
G1 X76.736 Y124.097 E14.44022
G1 X76.182 Y123.226 E14.52262
G1 X76.13 Y123.138 E14.53078
G1 X75.892 Y122.712 E14.56973
G1 X74.949 Y120.951 E14.72919
G1 X74.377 Y119.757 E14.83487
G1 X74.341 Y119.676 E14.84194
G1 X74.311 Y119.598 E14.84862
G1 X73.849 Y118.316 E14.95739
G1 X73.795 Y118.155 E14.97095
G1 X73.227 Y116.274 E15.12779
G1 X72.888 Y114.919 E15.23929
G1 X72.682 Y113.54 E15.35059
G1 X72.663 Y113.389 E15.36274
G1 X72.478 Y111.515 E15.51306
G1 X72.469 Y111.384 E15.52354
G1 X72.402 Y110 E15.63414
G1 X72.469 Y108.616 E15.74475
G1 X72.478 Y108.485 E15.75523
G1 X72.663 Y106.611 E15.90555
G1 X72.682 Y106.46 E15.9177
G1 X72.889 Y105.077 E16.02932
G1 X73.227 Y103.726 E16.14049
G1 X73.795 Y101.845 E16.29734
G1 X73.851 Y101.678 E16.3114
G1 X74.349 Y100.305 E16.42798
G1 X74.92 Y99.107 E16.53392
G1 X74.949 Y99.049 E16.53909
G1 X75.892 Y97.288 E16.69855
G1 X76.402 Y96.414 E16.77933
G1 X76.466 Y96.312 E16.78894
G1 X76.724 Y95.919 E16.82647
G1 X77.442 Y94.961 E16.92203
G1 X77.543 Y94.833 E16.93505
G1 X78.725 Y93.391 E17.08388
G1 X78.81 Y93.292 E17.0943
G1 X79.753 Y92.253 E17.2063
G1 X80.539 Y91.54 E17.29101
G0 F1620 X80.784 Y91.317
G0 F12000 X81.6 Y90.644
G1 F1800 X81.6 Y129.355 E20.38109
G1 F2700 E15.38109
G1 F300 Z0.74
G0 F12000 X83.2 Y130.611 Z0.74
G1 F300 Z0.24
G1 F2700 E20.38109
G1 F1800 X83.2 Y89.388 E23.67169
G1 F2700 E18.67169
G1 F300 Z0.74
G0 F12000 X84.8 Y88.385 Z0.74
G1 F300 Z0.24
G1 F2700 E23.67169
G1 F1800 X84.8 Y131.614 E27.12242
G1 F2700 E22.12242
G1 F300 Z0.74
G0 F12000 X86.4 Y132.471 Z0.74
G1 F300 Z0.24
G1 F2700 E27.12242
G1 F1800 X86.4 Y87.528 E30.70996
G1 F2700 E25.70996
G1 F300 Z0.74
G0 F12000 X88 Y86.777 Z0.74
G1 F300 Z0.24
G1 F2700 E30.70996
G1 F1800 X88 Y133.222 E34.4174
G1 F2700 E29.4174
G1 F300 Z0.74
G0 F12000 X89.6 Y133.781 Z0.74
G1 F300 Z0.24
G1 F2700 E34.4174
G1 F1800 X89.6 Y86.218 E38.21408
G1 F2700 E33.21408
G1 F300 Z0.74
G0 F12000 X91.2 Y85.734 Z0.74
G1 F300 Z0.24
G1 F2700 E38.21408
G1 F1800 X91.2 Y134.264 E42.08796
G1 F2700 E37.08796
G1 F300 Z0.74
G0 F12000 X92.8 Y134.645 Z0.74
G1 F300 Z0.24
G1 F2700 E42.08796
G1 F1800 X92.8 Y85.354 E46.02258
G1 F2700 E41.02258
G1 F300 Z0.74
G0 F12000 X94.4 Y85.134 Z0.74
G1 F300 Z0.24
G1 F2700 E46.02258
G1 F1800 X94.4 Y134.865 E49.99232
G1 F2700 E44.99232
G1 F300 Z0.74
G0 F12000 X96 Y135.022 Z0.74
G1 F300 Z0.24
G1 F2700 E49.99232
G1 F1800 X96 Y84.977 E53.98713
G1 F2700 E48.98713
G1 F300 Z0.74
G0 F12000 X97.6 Y84.907 Z0.74
G1 F300 Z0.24
G1 F2700 E53.98713
G1 F1800 X97.6 Y135.094 E57.99328
G1 F2700 E52.99328
G1 F300 Z0.74
G0 F12000 X99.2 Y135.004 Z0.74
G1 F300 Z0.24
G1 F2700 E57.99328
G1 F1800 X99.2 Y84.997 E61.98505
G1 F2700 E56.98505
G1 F300 Z0.74
G0 F12000 X100.8 Y85.155 Z0.74
G1 F300 Z0.24
G1 F2700 E61.98505
G1 F1800 X100.8 Y134.846 E65.9516
G1 F2700 E60.9516
G1 F300 Z0.74
G0 F12000 X102.4 Y134.615 Z0.74
G1 F300 Z0.24
G1 F2700 E65.9516
G1 F1800 X102.4 Y85.386 E69.88127
G1 F2700 E64.88127
G1 F300 Z0.74
G0 F12000 X104 Y85.794 Z0.74
G1 F300 Z0.24
G1 F2700 E69.88127
G1 F1800 X104 Y134.208 E73.74589
G1 F2700 E68.74589
G1 F300 Z0.74
G0 F12000 X105.6 Y133.99 Z0.74
G1 F300 Z0.24
G1 F2700 E73.74589
G1 F1800 X105.6 Y86.007 E77.5761
G1 F2700 E72.5761
G1 F300 Z0.74
G0 F12000 X107.2 Y85.755 Z0.74
G1 F300 Z0.24
G1 F2700 E77.5761
G1 F1800 X107.2 Y134.242 E81.44654
G1 F2700 E76.44654
G1 F300 Z0.74
G0 F12000 X108.8 Y134.712 Z0.74
G1 F300 Z0.24
G1 F2700 E81.44654
G1 F1800 X108.8 Y85.291 E85.39154
G1 F2700 E80.39154
G1 F300 Z0.74
G0 F12000 X110.4 Y85.006 Z0.74
G1 F300 Z0.24
G1 F2700 E85.39154
G1 F1800 X110.4 Y134.988 E89.38132
G1 F2700 E84.38132
G1 F300 Z0.74
G0 F12000 X112 Y135.094 Z0.74
G1 F300 Z0.24
G1 F2700 E89.38132
G1 F1800 X112 Y84.903 E93.38778
G1 F2700 E88.38778
G1 F300 Z0.74
G0 F12000 X113.6 Y84.901 Z0.74
G1 F300 Z0.24
G1 F2700 E93.38778
G1 F1800 X113.6 Y135.099 E97.3948
G1 F2700 E92.3948
G1 F300 Z0.74
G0 F12000 X115.2 Y135.099 Z0.74
G1 F300 Z0.24
G1 F2700 E97.3948
G1 F1800 X115.2 Y84.901 E101.40182
G1 F2700 E96.40182
G1 F300 Z0.74
G0 F12000 X116.8 Y84.901 Z0.74
G1 F300 Z0.24
G1 F2700 E101.40182
G1 F1800 X116.8 Y135.099 E105.40884
G1 F2700 E100.40884
G1 F300 Z0.74
G0 F12000 X118.4 Y135.099 Z0.74
G1 F300 Z0.24
G1 F2700 E105.40884
G1 F1800 X118.4 Y84.901 E109.41587
G1 F2700 E104.41587
G1 F300 Z0.74
G0 F12000 X120 Y84.901 Z0.74
G1 F300 Z0.24
G1 F2700 E109.41587
G1 F1800 X120 Y135.099 E113.42289
G1 F2700 E108.42289
G1 F300 Z0.74
G0 F12000 X121.6 Y135.099 Z0.74
G1 F300 Z0.24
G1 F2700 E113.42289
G1 F1800 X121.6 Y84.901 E117.42991
G1 F2700 E112.42991
G1 F300 Z0.74
G0 F12000 X123.2 Y84.901 Z0.74
G1 F300 Z0.24
G1 F2700 E117.42991
G1 F1800 X123.2 Y135.099 E121.43693
G1 F2700 E116.43693
G1 F300 Z0.74
G0 F12000 X124.8 Y135.099 Z0.74
G1 F300 Z0.24
G1 F2700 E121.43693
G1 F1800 X124.8 Y84.901 E125.44395
G1 F2700 E120.44395
G1 F300 Z0.74
G0 F12000 X126.4 Y84.901 Z0.74
G1 F300 Z0.24
G1 F2700 E125.44395
G1 F1800 X126.4 Y135.099 E129.45097
G1 F2700 E124.45097
G1 F300 Z0.74
G0 F12000 X128 Y135.099 Z0.74
G1 F300 Z0.24
G1 F2700 E129.45097
G1 F1800 X128 Y84.901 E133.45799
G1 F2700 E128.45799
G1 F300 Z0.74
G0 F12000 X129.6 Y84.901 Z0.74
G1 F300 Z0.24
G1 F2700 E133.45799
G1 F1800 X129.6 Y135.099 E137.46502
G1 F2700 E132.46502
G1 F300 Z0.74
G0 F12000 X131.2 Y135.099 Z0.74
G1 F300 Z0.24
G1 F2700 E137.46502
G1 F1800 X131.2 Y84.901 E141.47204
G1 F2700 E136.47204
G1 F300 Z0.74
G0 F12000 X132.8 Y84.901 Z0.74
G1 F300 Z0.24
G1 F2700 E141.47204
G1 F1800 X132.8 Y135.099 E145.47906
G1 F2700 E140.47906
G1 F300 Z0.74
G0 F12000 X134.4 Y135.013 Z0.74
G1 F300 Z0.24
G1 F2700 E145.47906
G1 F1800 X134.4 Y84.99 E149.47211
G1 F2700 E144.47211
G1 F300 Z0.74
G0 F12000 X136 Y85.24 Z0.74
G1 F300 Z0.24
G1 F2700 E149.47211
G1 F1800 X136 Y134.757 E153.42477
G1 F2700 E148.42477
G1 F300 Z0.74
G0 F12000 X137.6 Y134.309 Z0.74
G1 F300 Z0.24
G1 F2700 E153.42477
G1 F1800 X137.6 Y85.694 E157.30543
G1 F2700 E152.30543
G1 F300 Z0.74
G0 F12000 X139.2 Y86.342 Z0.74
G1 F300 Z0.24
G1 F2700 E157.30543
G1 F1800 X139.2 Y133.653 E161.082
G1 F2700 E156.082
G1 F300 Z0.74
G0 F12000 X140.8 Y132.763 Z0.74
G1 F300 Z0.24
G1 F2700 E161.082
G1 F1800 X140.8 Y87.239 E164.71592
G1 F2700 E159.71592
G1 F300 Z0.74
G0 F12000 X142.4 Y88.439 Z0.74
G1 F300 Z0.24
G1 F2700 E164.71592
G1 F1800 X142.4 Y131.567 E168.15859
G1 F2700 E163.15859
G1 F300 Z0.74
G0 F12000 X144 Y129.974 Z0.74
G1 F300 Z0.24
G1 F2700 E168.15859
G1 F1800 X144 Y90.023 E171.34765
G1 F2700 E166.34765
G1 F300 Z0.74
G0 F12000 X145.6 Y92.263 Z0.74
G1 F300 Z0.24
G1 F2700 E171.34765
G1 F1800 X145.6 Y127.745 E174.17997
G1 F2700 E169.17997
G1 F300 Z0.74
G0 F12000 X147.2 Y123.749 Z0.74
G1 F300 Z0.24
G1 F2700 E174.17997
G1 F1800 X147.2 Y96.266 E176.37379
G1 F2700 E171.37379
G1 F300 Z0.74
G0 F12000 X80 Y92.028 Z0.74
G1 F300 Z0.24
G1 F2700 E176.37379
G1 F1800 X80 Y127.971 E179.24291
G1 F2700 E174.24291
G1 F300 Z0.74
G0 F12000 X78.4 Y126.212 Z0.74
G1 F300 Z0.24
G1 F2700 E179.24291
G1 F1800 X78.4 Y93.787 E181.83121
G1 F2700 E176.83121
G1 F300 Z0.74
G0 F12000 X76.8 Y95.817 Z0.74
G1 F300 Z0.24
G1 F2700 E181.83121
G1 F1800 X76.8 Y124.182 E184.09543
G1 F2700 E179.09543
G1 F300 Z0.74
G0 F12000 X75.2 Y121.419 Z0.74
G1 F300 Z0.24
G1 F2700 E184.09543
G1 F1800 X75.2 Y98.58 E185.91854
G1 F2700 E180.91854
G1 F300 Z0.74
G0 F12000 X73.6 Y102.49 Z0.74
G1 F300 Z0.24
G1 F2700 E185.91854
G1 F1800 X73.6 Y117.509 E187.11742
G1 F2700 E182.11742
G1 F300 Z0.74
G0 F12000 X75.719 Y122.388 Z0.74
;TIME_ELAPSED:111.435277
;LAYER:-5
M140 S65
G0 X75.719 Y122.388 Z1.04
;TYPE:SUPPORT
G1 F300 Z0.54
G1 F2700 E187.11742
G1 F1800 X85.111 Y131.78 E188.44273
G1 X84.782 Y131.604 E188.47996
G1 X83.913 Y131.097 E188.58035
G1 X83.812 Y131.033 E188.59228
G1 X83.414 Y130.772 E188.63977
G1 X82.452 Y130.051 E188.75973
G1 X82.346 Y129.967 E188.77322
G1 X80.884 Y128.768 E188.96189
G1 X80.784 Y128.682 E188.97505
G1 X79.753 Y127.745 E189.11406
G1 X78.809 Y126.707 E189.25406
G1 X78.725 Y126.608 E189.26701
G1 X77.524 Y125.142 E189.45611
G1 X77.441 Y125.038 E189.46939
G1 X76.735 Y124.096 E189.58685
G1 X76.181 Y123.225 E189.68985
G1 X76.129 Y123.136 E189.70013
G1 X75.892 Y122.711 E189.74869
G1 F2700 E184.74869
G1 F300 Z1.04
G0 F12000 X85.111 Y131.78 Z1.04
G1 F300 Z0.54
G1 F2700 E189.74869
G1 F1800 X86.549 Y132.55 E189.91145
G1 X87.742 Y133.122 E190.04346
G1 X87.812 Y133.153 E190.0511
G1 X87.947 Y133.201 E190.06539
G1 X74.293 Y119.548 E191.99205
G1 X73.849 Y118.315 E192.12281
G1 X73.795 Y118.154 E192.13976
G1 X73.57 Y117.41 E192.21731
G1 X90.087 Y133.928 E194.54811
G1 X91.169 Y134.256 E194.66093
G1 X92.052 Y134.478 E194.75177
G1 X73.02 Y115.446 E197.4374
G1 X72.887 Y114.918 E197.49172
G1 X72.708 Y113.721 E197.61249
G1 X93.777 Y134.789 E200.58548
G1 X93.96 Y134.816 E200.60394
G1 X94.11 Y134.836 E200.61904
G1 X95.361 Y134.959 E200.74447
G1 X72.539 Y112.137 E203.9649
G1 X72.477 Y111.514 E204.02737
G1 X72.468 Y111.383 E204.04047
G1 X72.431 Y110.614 E204.11729
G1 X96.883 Y135.067 E207.5678
G1 X97.5 Y135.096 E207.62943
G1 X98.288 Y135.058 E207.70815
G1 X72.44 Y109.209 E211.35566
G1 X72.469 Y108.615 E211.415
G1 X72.478 Y108.484 E211.4281
G1 X72.536 Y107.891 E211.48755
G1 X99.607 Y134.962 E215.30756
G1 X100.889 Y134.836 E215.4361
G1 X100.894 Y134.835 E215.4366
G1 X72.662 Y106.604 E219.42037
G1 X72.682 Y106.459 E219.43498
G1 X72.844 Y105.37 E219.54484
G1 X102.127 Y134.654 E223.67705
G1 X102.348 Y134.621 E223.69935
G1 X102.444 Y134.606 E223.70904
G1 X103.282 Y134.394 E223.79529
G1 X73.103 Y104.216 E228.05381
G1 X73.226 Y103.725 E228.10431
G1 X73.411 Y103.11 E228.16839
G1 X104.408 Y134.107 E232.54241
G1 X104.592 Y134.063 E232.56128
G1 X105.269 Y133.986 E232.62927
G1 X105.706 Y133.99 E232.67288
G1 X73.739 Y102.024 E237.18369
G1 X73.795 Y101.844 E237.2025
G1 X73.85 Y101.677 E237.22005
G1 X74.105 Y100.975 E237.29457
G1 X107.451 Y134.322 E242.00012
G1 X107.843 Y134.454 E242.04139
G1 X107.999 Y134.502 E242.05768
G1 X108.885 Y134.734 E242.14907
