;FLAVOR:Marlin
;TIME:1039
;Filament used: 0.959543m
;Layer height: 0.2
;MINX:84.701
;MINY:84.701
;MINZ:0.24
;MAXX:135.298
;MAXY:135.298
;MAXZ:9.99
;Generated with Cura_SteamEngine master
M140 S70
M105
M190 S70
M104 S200
M105
M109 S200
M82 ;absolute extrusion mode
M201 X500.00 Y500.00 Z100.00 E5000.00 ;Setup machine max acceleration
M203 X500.00 Y500.00 Z10.00 E50.00 ;Setup machine max feedrate
M204 P500.00 R1000.00 T500.00 ;Setup Print/Retract/Travel acceleration
M205 X8.00 Y8.00 Z0.40 E5.00 ;Setup Jerk
M220 S100 ;Reset Feedrate
M221 S100 ;Reset Flowrate

G28 ;Home

G92 E0 ;Reset Extruder
G1 Z2.0 F3000 ;Move Z Axis up
G1 X10.1 Y20 Z0.28 F5000.0 ;Move to start position
G1 X10.1 Y200.0 Z0.28 F1500.0 E15 ;Draw the first line
G1 X10.4 Y200.0 Z0.28 F5000.0 ;Move to side a little
G1 X10.4 Y20 Z0.28 F1500.0 E30 ;Draw the second line
G92 E0 ;Reset Extruder
G1 Z2.0 F3000 ;Move Z Axis up

G92 E0
G92 E0
G1 F2700 E-5
;LAYER_COUNT:43
;LAYER:-6
M107
G0 F12000 X92.253 Y92.253 Z0.24
;TYPE:SUPPORT-INTERFACE
G1 F2700 E0
G1 F1800 X93.284 Y91.317 E0.11116
G1 X93.384 Y91.231 E0.12168
G1 X94.851 Y90.029 E0.27307
G1 X94.953 Y89.948 E0.28347
G1 X95.899 Y89.239 E0.37784
G1 X96.774 Y88.682 E0.46064
G1 X96.862 Y88.63 E0.4688
G1 X97.288 Y88.392 E0.50775
G1 X99.049 Y87.449 E0.6672
G1 X100.243 Y86.877 E0.77289
G1 X100.312 Y86.846 E0.77893
G1 X101.67 Y86.354 E0.89422
G1 X101.833 Y86.299 E0.90795
G1 X103.719 Y85.729 E1.06523
G1 X105.056 Y85.393 E1.17527
G1 X105.152 Y85.377 E1.18304
G1 X106.46 Y85.182 E1.28861
G1 X106.611 Y85.163 E1.30075
G1 X108.475 Y84.979 E1.45027
G1 X108.616 Y84.969 E1.46155
G1 X110 Y84.902 E1.57216
G1 X111.384 Y84.969 E1.68277
G1 X111.525 Y84.979 E1.69405
G1 X113.389 Y85.163 E1.84356
G1 X113.54 Y85.182 E1.85571
G1 X114.848 Y85.376 E1.96127
G1 X114.944 Y85.393 E1.96905
G1 X116.314 Y85.738 E2.08182
G1 X118.167 Y86.299 E2.23637
G1 X118.33 Y86.354 E2.2501
G1 X119.688 Y86.846 E2.36539
G1 X119.757 Y86.877 E2.37143
G1 X120.951 Y87.449 E2.47712
G1 X122.718 Y88.396 E2.63715
G1 X123.586 Y88.902 E2.71735
G1 X123.688 Y88.966 E2.72696
G1 X124.081 Y89.224 E2.76449
G1 X125.039 Y89.942 E2.86005
G1 X125.143 Y90.024 E2.87062
G1 X126.609 Y91.225 E3.0219
G1 X126.708 Y91.31 E3.03232
G1 X127.747 Y92.253 E3.14432
G1 X128.683 Y93.284 E3.25548
G1 X128.769 Y93.384 E3.266
G1 X129.952 Y94.827 E3.41495
G1 X130.052 Y94.953 E3.42779
G1 X130.72 Y95.843 E3.51662
G1 X130.79 Y95.942 E3.5263
G1 X131.312 Y96.764 E3.60403
G1 X131.365 Y96.853 E3.6123
G1 X131.608 Y97.288 E3.65207
G1 X132.546 Y99.039 E3.81063
G1 X133.123 Y100.243 E3.91721
G1 X133.151 Y100.305 E3.92264
G1 X133.646 Y101.67 E4.03854
G1 X133.701 Y101.833 E4.05228
G1 X134.271 Y103.719 E4.20955
G1 X134.611 Y105.077 E4.3213
G1 X134.817 Y106.45 E4.43212
G1 X134.836 Y106.601 E4.44427
G1 X135.021 Y108.475 E4.59459
G1 X135.031 Y108.616 E4.60587
G1 X135.098 Y109.984 E4.7152
G1 X135.031 Y111.384 E4.82709
G1 X135.022 Y111.515 E4.83757
G1 X134.837 Y113.389 E4.98788
G1 X134.818 Y113.54 E5.00003
G1 X134.612 Y114.919 E5.11133
G1 X134.273 Y116.274 E5.22283
G1 X133.705 Y118.155 E5.37967
G1 X133.651 Y118.316 E5.39323
G1 X133.189 Y119.598 E5.50201
G1 X133.159 Y119.676 E5.50868
G1 X133.123 Y119.757 E5.51575
G1 X132.551 Y120.951 E5.62144
G1 X131.609 Y122.71 E5.78071
G1 X131.098 Y123.586 E5.86167
G1 X131.034 Y123.688 E5.87128
G1 X130.777 Y124.079 E5.90863
G1 X130.058 Y125.039 E6.00437
G1 X129.976 Y125.143 E6.01494
G1 X128.775 Y126.609 E6.16622
G1 X128.69 Y126.708 E6.17664
G1 X127.747 Y127.747 E6.28864
G1 X126.716 Y128.683 E6.3998
G1 X126.616 Y128.769 E6.41032
G1 X125.153 Y129.968 E6.56132
G1 X125.047 Y130.052 E6.57211
G1 X124.101 Y130.762 E6.66653
G1 X123.228 Y131.317 E6.7491
G1 X123.138 Y131.37 E6.75744
G1 X122.712 Y131.608 E6.79639
G1 X120.951 Y132.551 E6.95585
G1 X119.757 Y133.123 E7.06153
G1 X119.688 Y133.154 E7.06757
G1 X118.33 Y133.646 E7.18287
G1 X118.167 Y133.701 E7.1966
G1 X116.281 Y134.271 E7.35387
G1 X114.944 Y134.607 E7.46392
G1 X114.848 Y134.623 E7.47169
G1 X113.54 Y134.818 E7.57725
G1 X113.389 Y134.837 E7.5894
G1 X111.525 Y135.021 E7.73892
G1 X111.384 Y135.031 E7.7502
G1 X110 Y135.098 E7.86081
G1 X108.616 Y135.031 E7.97141
G1 X108.475 Y135.021 E7.98269
G1 X106.611 Y134.837 E8.13221
G1 X106.46 Y134.818 E8.14436
G1 X105.152 Y134.624 E8.24991
G1 X105.056 Y134.607 E8.25769
G1 X103.686 Y134.262 E8.37047
G1 X101.833 Y133.701 E8.52501
G1 X101.67 Y133.646 E8.53874
G1 X100.312 Y133.154 E8.65404
G1 X100.243 Y133.123 E8.66008
G1 X99.049 Y132.551 E8.76576
G1 X97.282 Y131.604 E8.92579
G1 X96.414 Y131.098 E9.00599
G1 X96.312 Y131.034 E9.0156
G1 X95.919 Y130.776 E9.05313
G1 X95.847 Y130.724 E9.06022
G1 X94.953 Y130.052 E9.1495
G1 X94.847 Y129.968 E9.16029
G1 X93.384 Y128.769 E9.31128
G1 X93.284 Y128.683 E9.32181
G1 X92.253 Y127.747 E9.43297
G1 X91.31 Y126.708 E9.54497
G1 X91.225 Y126.609 E9.55539
G1 X90.024 Y125.143 E9.70667
G1 X89.942 Y125.039 E9.71724
G1 X89.236 Y124.097 E9.81121
G1 X88.682 Y123.226 E9.89361
G1 X88.63 Y123.138 E9.90177
G1 X88.392 Y122.712 E9.94072
G1 X87.449 Y120.951 E10.10017
G1 X86.877 Y119.757 E10.20586
G1 X86.841 Y119.676 E10.21293
G1 X86.811 Y119.598 E10.2196
G1 X86.349 Y118.316 E10.32838
G1 X86.295 Y118.155 E10.34194
G1 X85.727 Y116.274 E10.49878
G1 X85.388 Y114.919 E10.61028
G1 X85.182 Y113.54 E10.72158
G1 X85.163 Y113.389 E10.73372
G1 X84.978 Y111.515 E10.88404
G1 X84.969 Y111.384 E10.89452
G1 X84.902 Y110 E11.00513
G1 X84.969 Y108.616 E11.11574
G1 X84.978 Y108.485 E11.12622
G1 X85.163 Y106.611 E11.27654
G1 X85.182 Y106.46 E11.28869
G1 X85.389 Y105.077 E11.40031
G1 X85.727 Y103.726 E11.51148
G1 X86.295 Y101.845 E11.66832
G1 X86.351 Y101.678 E11.68238
G1 X86.849 Y100.305 E11.79897
G1 X87.42 Y99.107 E11.90491
G1 X87.449 Y99.049 E11.91008
G1 X88.392 Y97.288 E12.06954
G1 X88.902 Y96.414 E12.15031
G1 X88.966 Y96.312 E12.15993
G1 X89.224 Y95.919 E12.19745
G1 X89.942 Y94.961 E12.29302
G1 X90.043 Y94.833 E12.30603
G1 X91.225 Y93.391 E12.45487
G1 X91.31 Y93.292 E12.46529
G1 X92.03 Y92.498 E12.55084
G0 F1620 X92.253 Y92.253
G0 F12000 X92.8 Y91.756
G1 F1800 X92.8 Y128.243 E15.46339
G1 F2700 E10.46339
G1 F300 Z0.74
G0 F12000 X94.4 Y129.601 Z0.74
G1 F300 Z0.24
G1 F2700 E15.46339
G1 F1800 X94.4 Y90.398 E18.59275
G1 F2700 E13.59275
G1 F300 Z0.74
G0 F12000 X96 Y89.174 Z0.74
G1 F300 Z0.24
G1 F2700 E18.59275
G1 F1800 X96 Y130.829 E21.91783
G1 F2700 E16.91783
G1 F300 Z0.74
G0 F12000 X97.6 Y131.774 Z0.74
G1 F300 Z0.24
G1 F2700 E21.91783
G1 F1800 X97.6 Y88.224 E25.39418
G1 F2700 E20.39418
G1 F300 Z0.74
G0 F12000 X99.2 Y87.376 Z0.74
G1 F300 Z0.24
G1 F2700 E25.39418
G1 F1800 X99.2 Y132.623 E29.00599
G1 F2700 E24.00599
G1 F300 Z0.74
G0 F12000 X100.8 Y133.33 Z0.74
G1 F300 Z0.24
G1 F2700 E29.00599
G1 F1800 X100.8 Y86.669 E32.73067
G1 F2700 E27.73067
G1 F300 Z0.74
G0 F12000 X102.4 Y86.127 Z0.74
G1 F300 Z0.24
G1 F2700 E32.73067
G1 F1800 X102.4 Y133.872 E36.54189
G1 F2700 E31.54189
G1 F300 Z0.74
G0 F12000 X104 Y134.341 Z0.74
G1 F300 Z0.24
G1 F2700 E36.54189
G1 F1800 X104 Y85.658 E40.42797
G1 F2700 E35.42797
G1 F300 Z0.74
G0 F12000 X105.6 Y85.31 Z0.74
G1 F300 Z0.24
G1 F2700 E40.42797
G1 F1800 X105.6 Y134.69 E44.3697
G1 F2700 E39.3697
G1 F300 Z0.74
G0 F12000 X107.2 Y134.895 Z0.74
G1 F300 Z0.24
G1 F2700 E44.3697
G1 F1800 X107.2 Y85.104 E48.34423
G1 F2700 E43.34423
G1 F300 Z0.74
G0 F12000 X108.8 Y84.96 Z0.74
G1 F300 Z0.24
G1 F2700 E48.34423
G1 F1800 X108.8 Y135.039 E52.34175
G1 F2700 E47.34175
G1 F300 Z0.74
G0 F12000 X110.4 Y135.079 Z0.74
G1 F300 Z0.24
G1 F2700 E52.34175
G1 F1800 X110.4 Y84.922 E56.3455
G1 F2700 E51.3455
G1 F300 Z0.74
G0 F12000 X112 Y85.026 Z0.74
G1 F300 Z0.24
G1 F2700 E56.3455
G1 F1800 X112 Y134.975 E60.33265
G1 F2700 E55.33265
G1 F300 Z0.74
G0 F12000 X113.6 Y134.81 Z0.74
G1 F300 Z0.24
G1 F2700 E60.33265
G1 F1800 X113.6 Y85.191 E64.29345
G1 F2700 E59.29345
G1 F300 Z0.74
G0 F12000 X115.2 Y85.458 Z0.74
G1 F300 Z0.24
G1 F2700 E64.29345
G1 F1800 X115.2 Y134.543 E68.21163
G1 F2700 E63.21163
G1 F300 Z0.74
G0 F12000 X116.8 Y134.115 Z0.74
G1 F300 Z0.24
G1 F2700 E68.21163
G1 F1800 X116.8 Y85.886 E72.06147
G1 F2700 E67.06147
G1 F300 Z0.74
G0 F12000 X118.4 Y86.38 Z0.74
G1 F300 Z0.24
G1 F2700 E72.06147
G1 F1800 X118.4 Y133.621 E75.83246
G1 F2700 E70.83246
G1 F300 Z0.74
G0 F12000 X120 Y133.007 Z0.74
G1 F300 Z0.24
G1 F2700 E75.83246
G1 F1800 X120 Y86.994 E79.50541
G1 F2700 E74.50541
G1 F300 Z0.74
G0 F12000 X121.6 Y87.797 Z0.74
G1 F300 Z0.24
G1 F2700 E79.50541
G1 F1800 X121.6 Y132.204 E83.05017
G1 F2700 E78.05017
G1 F300 Z0.74
G0 F12000 X123.2 Y131.334 Z0.74
G1 F300 Z0.24
G1 F2700 E83.05017
G1 F1800 X123.2 Y88.677 E86.45524
G1 F2700 E81.45524
G1 F300 Z0.74
G0 F12000 X124.8 Y89.763 Z0.74
G1 F300 Z0.24
G1 F2700 E86.45524
G1 F1800 X124.8 Y130.238 E89.68613
G1 F2700 E84.68613
G1 F300 Z0.74
G0 F12000 X126.4 Y128.947 Z0.74
G1 F300 Z0.24
G1 F2700 E89.68613
G1 F1800 X126.4 Y91.054 E92.71091
G1 F2700 E87.71091
G1 F300 Z0.74
G0 F12000 X128 Y92.532 Z0.74
G1 F300 Z0.24
G1 F2700 E92.71091
G1 F1800 X128 Y127.469 E95.49973
G1 F2700 E90.49973
G1 F300 Z0.74
G0 F12000 X129.6 Y125.602 Z0.74
G1 F300 Z0.24
G1 F2700 E95.49973
G1 F1800 X129.6 Y94.398 E97.99057
G1 F2700 E92.99057
G1 F300 Z0.74
G0 F12000 X131.2 Y96.588 Z0.74
G1 F300 Z0.24
G1 F2700 E97.99057
G1 F1800 X131.2 Y123.412 E100.13178
G1 F2700 E95.13178
G1 F300 Z0.74
G0 F12000 X132.8 Y120.432 Z0.74
G1 F300 Z0.24
G1 F2700 E100.13178
G1 F1800 X132.8 Y99.57 E101.79707
G1 F2700 E96.79707
G1 F300 Z0.74
G0 F12000 X134.4 Y104.235 Z0.74
G1 F300 Z0.24
G1 F2700 E101.79707
G1 F1800 X134.4 Y115.767 E102.71761
G1 F2700 E97.71761
G1 F300 Z0.74
G0 F12000 X91.2 Y126.578 Z0.74
G1 F300 Z0.24
G1 F2700 E102.71761
G1 F1800 X91.2 Y93.421 E105.36434
G1 F2700 E100.36434
G1 F300 Z0.74
G0 F12000 X89.6 Y95.417 Z0.74
G1 F300 Z0.24
G1 F2700 E105.36434
G1 F1800 X89.6 Y124.582 E107.69242
G1 F2700 E102.69242
G1 F300 Z0.74
G0 F12000 X88 Y121.979 Z0.74
G1 F300 Z0.24
G1 F2700 E107.69242
G1 F1800 X88 Y98.02 E109.60493
G1 F2700 E104.60493
G1 F300 Z0.74
G0 F12000 X86.4 Y101.542 Z0.74
G1 F300 Z0.24
G1 F2700 E109.60493
G1 F1800 X86.4 Y118.457 E110.95516
G1 F2700 E105.95516
G1 F300 Z0.74
G0 F12000 X91.096 Y126.451 Z0.74
;TIME_ELAPSED:69.562858
;LAYER:-5
M140 S65
G0 X91.096 Y126.451 Z1.04
;TYPE:SUPPORT
G1 F300 Z0.54
G1 F2700 E110.95516
G1 F1800 X93.541 Y128.896 E111.30017
G1 X93.384 Y128.767 E111.32045
G1 X93.284 Y128.682 E111.33354
G1 X92.252 Y127.746 E111.47256
G1 X91.31 Y126.707 E111.6125
G1 X91.224 Y126.608 E111.62559
G1 F2700 E106.62559
G1 F300 Z1.04
G0 F12000 X93.541 Y128.896 Z1.04
G1 F300 Z0.54
G1 F2700 E111.62559
G1 F1800 X94.847 Y129.967 E111.79411
G1 X94.953 Y130.051 E111.80761
G1 X95.846 Y130.722 E111.91906
G1 X95.919 Y130.775 E111.92806
G1 X96.311 Y131.033 E111.97489
G1 X96.414 Y131.097 E111.98699
G1 X97.281 Y131.603 E112.08715
G1 X98.101 Y132.042 E112.17996
G1 X87.956 Y121.897 E113.61153
G1 X87.449 Y120.95 E113.71871
G1 X86.877 Y119.756 E113.85082
G1 X86.841 Y119.674 E113.85975
G1 X86.811 Y119.597 E113.868
G1 X86.665 Y119.192 E113.91095
G1 X100.804 Y133.331 E115.90612
G1 X101.669 Y133.645 E115.99794
G1 X101.832 Y133.7 E116.01511
G1 X102.915 Y134.027 E116.12799
G1 X85.972 Y117.084 E118.51883
G1 X85.727 Y116.273 E118.60336
G1 X85.443 Y115.142 E118.71972
G1 X104.857 Y134.556 E121.45924
G1 X105.056 Y134.606 E121.47971
G1 X105.152 Y134.623 E121.48944
G1 X106.459 Y134.817 E121.62128
G1 X106.543 Y134.827 E121.62973
G1 X85.171 Y113.455 E124.64555
G1 X85.163 Y113.388 E124.65228
G1 X85.014 Y111.884 E124.80308
G1 X108.113 Y134.983 E128.0626
G1 X108.475 Y135.019 E128.0989
G1 X108.615 Y135.03 E128.11291
G1 X109.622 Y135.078 E128.2135
G1 X84.919 Y110.375 E131.69936
G1 X84.902 Y109.998 E131.73702
G1 X84.951 Y108.992 E131.83752
G1 X111.005 Y135.047 E135.51409
G1 X111.384 Y135.029 E135.55195
G1 X111.524 Y135.02 E135.56595
G1 X112.314 Y134.942 E135.64516
G1 X85.056 Y107.683 E139.49163
G1 X85.162 Y106.61 E139.59921
G1 X85.182 Y106.459 E139.61441
G1 X85.19 Y106.403 E139.62005
G1 X113.595 Y134.808 E143.62831
G1 X114.826 Y134.625 E143.75249
G1 X85.373 Y105.172 E147.90862
G1 X85.388 Y105.076 E147.91832
G1 X85.649 Y104.033 E148.0256
G1 X115.964 Y134.349 E152.30344
G1 X116.281 Y134.27 E152.33604
G1 X117.062 Y134.033 E152.41748
G1 X85.965 Y102.935 E156.80567
G1 X86.293 Y101.849 E156.91887
G1 X118.149 Y133.705 E161.41409
G1 X118.166 Y133.7 E161.41586
G1 X118.329 Y133.645 E161.43303
G1 X119.19 Y133.332 E161.52444
G1 X86.665 Y100.807 E166.11407
G1 X86.848 Y100.303 E166.16757
G1 X87.083 Y99.81 E166.22206
G1 X120.187 Y132.915 E170.89347
G1 X120.95 Y132.549 E170.9779
G1 X121.136 Y132.45 E170.99893
G1 X87.548 Y98.862 E175.73856
G1 X88.041 Y97.941 E175.84279
G1 X122.057 Y131.956 E180.64275
G1 X122.712 Y131.607 E180.7168
G1 X122.975 Y131.46 E180.74687
G1 X88.542 Y97.027 E185.60573
G1 X88.902 Y96.413 E185.67675
G1 X88.966 Y96.311 E185.68877
G1 X89.074 Y96.145 E185.70853
G1 X123.849 Y130.92 E190.61566
G1 X124.1 Y130.761 E190.6453
G1 X124.674 Y130.331 E190.71687
G1 X89.668 Y95.325 E195.65659
G1 X89.942 Y94.96 E195.70213
G1 X90.042 Y94.832 E195.71834
G1 X90.289 Y94.531 E195.75719
G1 X125.466 Y129.709 E200.72112
G1 X126.244 Y129.072 E200.82145
G1 X90.926 Y93.754 E205.8052
G1 X91.225 Y93.39 E205.8522
G1 X91.31 Y93.291 E205.86522
G1 X91.579 Y92.993 E205.90528
G1 X127.004 Y128.419 E210.9042
G1 X127.746 Y127.746 E211.00415
G1 X92.252 Y92.252 E216.01274
G1 X92.994 Y91.58 E216.11263
G1 X128.419 Y127.005 E221.11148
G1 X128.689 Y126.707 E221.1516
G1 X128.774 Y126.608 E221.16462
G1 X129.073 Y126.244 E221.21162
G1 X93.755 Y90.926 E226.19537
G1 X94.532 Y90.289 E226.29563
G1 X129.71 Y125.467 E231.25962
G1 X129.975 Y125.143 E231.30139
G1 X130.056 Y125.039 E231.31454
G1 X130.331 Y124.674 E231.36014
G1 X95.325 Y89.668 E236.29987
G1 X95.898 Y89.238 E236.37135
G1 X96.15 Y89.079 E236.40108
G1 X130.925 Y123.853 E241.30814
G1 X131.033 Y123.687 E241.3279
G1 X131.096 Y123.586 E241.33978
G1 X131.456 Y122.97 E241.41097
G1 X97.024 Y88.538 E246.26969
G1 X97.287 Y88.391 E246.29976
G1 X97.942 Y88.042 E246.37381
G1 X131.957 Y122.057 E251.1737
G1 X132.45 Y121.137 E251.27784
G1 X98.862 Y87.549 E256.01747
G1 X99.048 Y87.449 E256.03854
G1 X99.811 Y87.083 E256.12298
G1 X132.916 Y120.188 E260.79446
G1 X133.122 Y119.757 E260.84212
G1 X133.158 Y119.676 E260.85097
G1 X133.188 Y119.597 E260.8594
G1 X133.334 Y119.192 E260.90235
G1 X100.808 Y86.666 E265.49212
G1 X101.669 Y86.354 E265.5835
G1 X101.832 Y86.298 E265.6007
G1 X101.85 Y86.293 E265.60256
G1 X133.706 Y118.149 E270.09779
G1 X134.034 Y117.063 E270.21098
G1 X102.936 Y85.965 E274.59925
G1 X103.717 Y85.728 E274.68069
G1 X104.034 Y85.649 E274.71328
G1 X134.35 Y115.965 E278.9912
G1 X134.611 Y114.918 E279.09887
G1 X134.626 Y114.827 E279.10807
G1 X105.172 Y85.373 E283.26435
G1 X106.404 Y85.19 E283.38862
G1 X134.809 Y113.595 E287.39688
G1 X134.816 Y113.54 E287.40241
G1 X134.836 Y113.388 E287.41771
G1 X134.942 Y112.315 E287.52529
G1 X107.684 Y85.057 E291.37169
G1 X108.474 Y84.978 E291.45091
G1 X108.615 Y84.969 E291.46501
G1 X108.993 Y84.951 E291.50277
G1 X135.048 Y111.006 E295.17941
G1 X135.097 Y109.984 E295.2815
G1 X135.08 Y109.624 E295.31746
G1 X110.376 Y84.92 E298.80346
G1 X111.383 Y84.968 E298.90406
G1 X111.524 Y84.979 E298.91817
G1 X111.885 Y85.015 E298.95437
G1 X134.984 Y108.114 E302.21389
G1 X134.835 Y106.6 E302.36568
G1 X134.828 Y106.544 E302.37131
G1 X113.455 Y85.171 E305.38728
G1 X113.539 Y85.181 E305.39572
G1 X114.846 Y85.376 E305.52757
G1 X114.943 Y85.393 E305.5374
G1 X115.141 Y85.443 E305.55778
G1 X134.555 Y104.856 E308.29723
G1 X134.27 Y103.719 E308.41419
G1 X134.027 Y102.915 E308.498
G1 X117.084 Y85.971 E310.88891
G1 X118.166 Y86.298 E311.00169
G1 X118.329 Y86.354 E311.01889
G1 X119.194 Y86.667 E311.11068
G1 X133.332 Y100.805 E313.1057
G1 X133.15 Y100.305 E313.1588
G1 X133.122 Y100.242 E313.16567
G1 X132.545 Y99.038 E313.29889
G1 X132.043 Y98.102 E313.40487
G1 X121.898 Y87.957 E314.83644
G1 X122.717 Y88.396 E314.92916
G1 X123.585 Y88.901 E315.02936
G1 X123.687 Y88.966 E315.04143
G1 X124.08 Y89.224 E315.08834
G1 X125.038 Y89.941 E315.20774
G1 X125.142 Y90.024 E315.22101
G1 X126.452 Y91.097 E315.38998
G1 X128.897 Y93.541 E315.73492
G0 F12000 X128.767 Y93.384
G1 F1800 X128.682 Y93.284 E315.74802
