;FLAVOR:Marlin
;TIME:1092
;Filament used: 1.01688m
;Layer height: 0.2
;MINX:84.204
;MINY:84.204
;MINZ:0.24
;MAXX:135.795
;MAXY:135.795
;MAXZ:10.59
;Generated with Cura_SteamEngine master
M140 S70
M105
M190 S70
M104 S200
M105
M109 S200
M82 ;absolute extrusion mode
M201 X500.00 Y500.00 Z100.00 E5000.00 ;Setup machine max acceleration
M203 X500.00 Y500.00 Z10.00 E50.00 ;Setup machine max feedrate
M204 P500.00 R1000.00 T500.00 ;Setup Print/Retract/Travel acceleration
M205 X8.00 Y8.00 Z0.40 E5.00 ;Setup Jerk
M220 S100 ;Reset Feedrate
M221 S100 ;Reset Flowrate

G28 ;Home

G92 E0 ;Reset Extruder
G1 Z2.0 F3000 ;Move Z Axis up
G1 X10.1 Y20 Z0.28 F5000.0 ;Move to start position
G1 X10.1 Y200.0 Z0.28 F1500.0 E15 ;Draw the first line
G1 X10.4 Y200.0 Z0.28 F5000.0 ;Move to side a little
G1 X10.4 Y20 Z0.28 F1500.0 E30 ;Draw the second line
G92 E0 ;Reset Extruder
G1 Z2.0 F3000 ;Move Z Axis up

G92 E0
G92 E0
G1 F2700 E-5
;LAYER_COUNT:45
;LAYER:-6
M107
G0 F12000 X91.894 Y91.906 Z0.24
;TYPE:SUPPORT-INTERFACE
G1 F2700 E0
G1 F1800 X91.944 Y91.858 E0.00553
G1 X92.932 Y90.963 E0.11195
G1 X93.011 Y90.895 E0.12027
G1 X94.632 Y89.565 E0.28764
G1 X95.618 Y88.825 E0.38605
G1 X95.664 Y88.794 E0.39048
G1 X96.496 Y88.266 E0.46914
G1 X96.584 Y88.214 E0.4773
G1 X97.01 Y87.976 E0.51625
G1 X98.857 Y86.987 E0.68349
G1 X100.051 Y86.415 E0.78917
G1 X100.171 Y86.363 E0.79961
G1 X101.519 Y85.877 E0.91399
G1 X101.626 Y85.842 E0.92298
G1 X103.523 Y85.267 E1.08121
G1 X103.668 Y85.227 E1.09322
G1 X104.977 Y84.899 E1.20094
G1 X106.394 Y84.687 E1.31531
G1 X106.5 Y84.674 E1.32383
G1 X108.588 Y84.47 E1.4913
G1 X110 Y84.403 E1.60414
G1 X110.071 Y84.405 E1.60981
G1 X111.412 Y84.47 E1.71698
G1 X113.5 Y84.674 E1.88445
G1 X113.606 Y84.687 E1.89297
G1 X115.023 Y84.899 E2.00734
G1 X116.332 Y85.227 E2.11506
G1 X116.477 Y85.267 E2.12707
G1 X118.374 Y85.842 E2.2853
G1 X118.481 Y85.877 E2.29428
G1 X119.829 Y86.363 E2.40867
G1 X119.949 Y86.415 E2.41911
G1 X121.143 Y86.987 E2.52479
G1 X122.996 Y87.98 E2.6926
G1 X123.864 Y88.486 E2.77281
G1 X123.966 Y88.55 E2.78242
G1 X124.35 Y88.802 E2.81908
G1 X124.411 Y88.845 E2.82504
G1 X125.402 Y89.592 E2.9241
G1 X126.982 Y90.889 E3.08727
G1 X127.061 Y90.957 E3.0956
G1 X128.056 Y91.858 E3.20275
G1 X128.106 Y91.906 E3.20828
G1 X129.037 Y92.932 E3.31887
G1 X129.105 Y93.011 E3.32719
G1 X130.435 Y94.632 E3.49457
G1 X131.169 Y95.609 E3.59211
G1 X131.206 Y95.664 E3.5974
G1 X131.728 Y96.486 E3.67513
G1 X131.781 Y96.575 E3.6834
G1 X132.024 Y97.01 E3.72317
G1 X133.008 Y98.847 E3.88952
G1 X133.585 Y100.051 E3.9961
G1 X133.635 Y100.166 E4.00611
G1 X134.123 Y101.519 E4.12092
G1 X134.158 Y101.626 E4.12991
G1 X134.733 Y103.523 E4.28814
G1 X134.771 Y103.66 E4.29949
G1 X135.099 Y104.965 E4.4069
G1 X135.112 Y105.041 E4.41305
G1 X135.313 Y106.394 E4.52224
G1 X135.326 Y106.5 E4.53076
G1 X135.524 Y108.507 E4.69175
G1 X135.595 Y109.929 E4.8054
G1 X135.597 Y109.991 E4.81035
G1 X135.595 Y110.071 E4.81674
G1 X135.525 Y111.481 E4.92943
G1 X135.327 Y113.492 E5.09073
G1 X135.313 Y113.606 E5.0999
G1 X135.103 Y115.017 E5.21377
G1 X134.773 Y116.332 E5.322
G1 X134.736 Y116.467 E5.33317
G1 X134.161 Y118.365 E5.49148
G1 X134.127 Y118.47 E5.50029
G1 X133.64 Y119.821 E5.61492
G1 X133.585 Y119.949 E5.62604
G1 X133.013 Y121.143 E5.73173
G1 X132.025 Y122.988 E5.89879
G1 X131.514 Y123.864 E5.97974
G1 X131.45 Y123.966 E5.98936
G1 X131.19 Y124.362 E6.02717
G1 X130.441 Y125.36 E6.12678
G1 X129.111 Y126.982 E6.29421
G1 X129.043 Y127.061 E6.30253
G1 X128.106 Y128.094 E6.41386
G1 X128.056 Y128.142 E6.41939
G1 X127.068 Y129.037 E6.52581
G1 X126.989 Y129.105 E6.53413
G1 X125.368 Y130.435 E6.7015
G1 X124.432 Y131.139 E6.79499
G1 X124.336 Y131.206 E6.80434
G1 X123.506 Y131.733 E6.88282
G1 X123.416 Y131.786 E6.89116
G1 X122.99 Y132.024 E6.93011
G1 X121.143 Y133.013 E7.09735
G1 X119.957 Y133.581 E7.20232
G1 X119.834 Y133.635 E7.21304
G1 X118.481 Y134.123 E7.32786
G1 X118.374 Y134.158 E7.33684
G1 X116.477 Y134.733 E7.49507
G1 X116.332 Y134.773 E7.50708
G1 X115.023 Y135.101 E7.6148
G1 X113.606 Y135.313 E7.72917
G1 X113.5 Y135.326 E7.73769
G1 X111.412 Y135.53 E7.90516
G1 X110 Y135.597 E8.018
G1 X109.929 Y135.595 E8.02367
G1 X108.588 Y135.53 E8.13084
G1 X106.5 Y135.326 E8.29831
G1 X106.394 Y135.313 E8.30683
G1 X104.977 Y135.101 E8.4212
G1 X103.668 Y134.773 E8.52892
G1 X103.523 Y134.733 E8.54093
G1 X101.626 Y134.158 E8.69916
G1 X101.519 Y134.123 E8.70814
G1 X100.139 Y133.624 E8.82528
G1 X100.043 Y133.581 E8.83368
G1 X98.857 Y133.013 E8.93865
G1 X97.004 Y132.02 E9.10646
G1 X96.136 Y131.514 E9.18666
G1 X96.034 Y131.45 E9.19628
G1 X95.652 Y131.199 E9.23276
G1 X95.57 Y131.14 E9.24083
G1 X94.632 Y130.435 E9.33449
G1 X93.011 Y129.105 E9.50187
G1 X92.932 Y129.037 E9.51019
G1 X91.944 Y128.142 E9.6166
G1 X91.894 Y128.094 E9.62213
G1 X90.957 Y127.061 E9.73346
G1 X90.889 Y126.982 E9.74178
G1 X89.559 Y125.36 E9.90922
G1 X88.813 Y124.366 E10.00842
G1 X88.266 Y123.504 E10.08992
G1 X88.214 Y123.416 E10.09808
G1 X87.976 Y122.99 E10.13703
G1 X86.987 Y121.143 E10.30427
G1 X86.415 Y119.949 E10.40995
G1 X86.36 Y119.821 E10.42107
G1 X85.873 Y118.47 E10.53571
G1 X85.839 Y118.365 E10.54452
G1 X85.264 Y116.467 E10.70283
G1 X85.227 Y116.332 E10.714
G1 X84.897 Y115.017 E10.82222
G1 X84.687 Y113.606 E10.9361
G1 X84.673 Y113.492 E10.94527
G1 X84.475 Y111.481 E11.10657
G1 X84.405 Y110.071 E11.21926
G1 X84.403 Y110.009 E11.22421
G1 X84.405 Y109.929 E11.2306
G1 X84.475 Y108.519 E11.34329
G1 X84.673 Y106.508 E11.50459
G1 X84.687 Y106.394 E11.51376
G1 X84.899 Y104.977 E11.62813
G1 X85.227 Y103.668 E11.73585
G1 X85.264 Y103.533 E11.74702
G1 X85.839 Y101.635 E11.90533
G1 X85.873 Y101.53 E11.91414
G1 X86.36 Y100.179 E12.02878
G1 X86.415 Y100.051 E12.0399
G1 X86.987 Y98.857 E12.14558
G1 X87.976 Y97.01 E12.31282
G1 X88.486 Y96.136 E12.3936
G1 X88.55 Y96.034 E12.40321
G1 X88.802 Y95.65 E12.43987
G1 X88.845 Y95.589 E12.44583
G1 X89.592 Y94.598 E12.54489
G1 X90.889 Y93.018 E12.70807
G1 X90.957 Y92.939 E12.71639
G1 X91.671 Y92.152 E12.80121
G0 F1620 X91.894 Y91.906
G0 F12000 X91.2 Y92.671
G1 F1800 X91.2 Y127.328 E15.56768
G1 F2700 E10.56768
G1 F300 Z0.74
G0 F12000 X92.8 Y128.917 Z0.74
G1 F300 Z0.24
G1 F2700 E15.56768
G1 F1800 X92.8 Y91.082 E18.58784
G1 F2700 E13.58784
G1 F300 Z0.74
G0 F12000 X94.4 Y89.755 Z0.74
G1 F300 Z0.24
G1 F2700 E18.58784
G1 F1800 X94.4 Y130.244 E21.81984
G1 F2700 E16.81984
G1 F300 Z0.74
G0 F12000 X96 Y131.427 Z0.74
G1 F300 Z0.24
G1 F2700 E21.81984
G1 F1800 X96 Y88.58 E25.24008
G1 F2700 E20.24008
G1 F300 Z0.74
G0 F12000 X97.6 Y87.66 Z0.74
G1 F300 Z0.24
G1 F2700 E25.24008
G1 F1800 X97.6 Y132.339 E28.80655
G1 F2700 E23.80655
G1 F300 Z0.74
G0 F12000 X99.2 Y133.177 Z0.74
G1 F300 Z0.24
G1 F2700 E28.80655
G1 F1800 X99.2 Y86.822 E32.5068
G1 F2700 E27.5068
G1 F300 Z0.74
G0 F12000 X100.8 Y86.136 Z0.74
G1 F300 Z0.24
G1 F2700 E32.5068
G1 F1800 X100.8 Y133.863 E36.31658
G1 F2700 E31.31658
G1 F300 Z0.74
G0 F12000 X102.4 Y134.392 Z0.74
G1 F300 Z0.24
G1 F2700 E36.31658
G1 F1800 X102.4 Y85.607 E40.21081
G1 F2700 E35.21081
G1 F300 Z0.74
G0 F12000 X104 Y85.143 Z0.74
G1 F300 Z0.24
G1 F2700 E40.21081
G1 F1800 X104 Y134.856 E44.17911
G1 F2700 E39.17911
G1 F300 Z0.74
G0 F12000 X105.6 Y135.194 Z0.74
G1 F300 Z0.24
G1 F2700 E44.17911
G1 F1800 X105.6 Y84.805 E48.20138
G1 F2700 E43.20138
G1 F300 Z0.74
G0 F12000 X107.2 Y84.605 Z0.74
G1 F300 Z0.24
G1 F2700 E48.20138
G1 F1800 X107.2 Y135.394 E52.25558
G1 F2700 E47.25558
G1 F300 Z0.74
G0 F12000 X108.8 Y135.54 Z0.74
G1 F300 Z0.24
G1 F2700 E52.25558
G1 F1800 X108.8 Y84.459 E56.33309
G1 F2700 E51.33309
G1 F300 Z0.74
G0 F12000 X110.4 Y84.421 Z0.74
G1 F300 Z0.24
G1 F2700 E56.33309
G1 F1800 X110.4 Y135.579 E60.41674
G1 F2700 E55.41674
G1 F300 Z0.74
G0 F12000 X112 Y135.473 Z0.74
G1 F300 Z0.24
G1 F2700 E60.41674
G1 F1800 X112 Y84.528 E64.48339
G1 F2700 E59.48339
G1 F300 Z0.74
G0 F12000 X113.6 Y84.687 Z0.74
G1 F300 Z0.24
G1 F2700 E64.48339
G1 F1800 X113.6 Y135.314 E68.52466
G1 F2700 E63.52466
G1 F300 Z0.74
G0 F12000 X115.2 Y135.057 Z0.74
G1 F300 Z0.24
G1 F2700 E68.52466
G1 F1800 X115.2 Y84.944 E72.52489
G1 F2700 E67.52489
G1 F300 Z0.74
G0 F12000 X116.8 Y85.365 Z0.74
G1 F300 Z0.24
G1 F2700 E72.52489
G1 F1800 X116.8 Y134.636 E76.45792
G1 F2700 E71.45792
G1 F300 Z0.74
G0 F12000 X118.4 Y134.15 Z0.74
G1 F300 Z0.24
G1 F2700 E76.45792
G1 F1800 X118.4 Y85.851 E80.31335
G1 F2700 E75.31335
G1 F300 Z0.74
G0 F12000 X120 Y86.44 Z0.74
G1 F300 Z0.24
G1 F2700 E80.31335
G1 F1800 X120 Y133.561 E84.07475
G1 F2700 E79.07475
G1 F300 Z0.74
G0 F12000 X121.6 Y132.769 Z0.74
G1 F300 Z0.24
G1 F2700 E84.07475
G1 F1800 X121.6 Y87.232 E87.70971
G1 F2700 E82.70971
G1 F300 Z0.74
G0 F12000 X123.2 Y88.099 Z0.74
G1 F300 Z0.24
G1 F2700 E87.70971
G1 F1800 X123.2 Y131.907 E91.20666
G1 F2700 E86.20666
G1 F300 Z0.74
G0 F12000 X124.8 Y130.863 Z0.74
G1 F300 Z0.24
G1 F2700 E91.20666
G1 F1800 X124.8 Y89.139 E94.53725
G1 F2700 E89.53725
G1 F300 Z0.74
G0 F12000 X126.4 Y90.412 Z0.74
G1 F300 Z0.24
G1 F2700 E94.53725
G1 F1800 X126.4 Y129.589 E97.66452
G1 F2700 E92.66452
G1 F300 Z0.74
G0 F12000 X128 Y128.193 Z0.74
G1 F300 Z0.24
G1 F2700 E97.66452
G1 F1800 X128 Y91.808 E100.56893
G1 F2700 E95.56893
G1 F300 Z0.74
G0 F12000 X129.6 Y93.615 Z0.74
G1 F300 Z0.24
G1 F2700 E100.56893
G1 F1800 X129.6 Y126.386 E103.18486
G1 F2700 E98.18486
G1 F300 Z0.74
G0 F12000 X131.2 Y124.347 Z0.74
G1 F300 Z0.24
G1 F2700 E103.18486
G1 F1800 X131.2 Y95.656 E105.4751
G1 F2700 E100.4751
G1 F300 Z0.74
G0 F12000 X132.8 Y98.459 Z0.74
G1 F300 Z0.24
G1 F2700 E105.4751
G1 F1800 X132.8 Y121.541 E107.3176
G1 F2700 E102.3176
G1 F300 Z0.74
G0 F12000 X134.4 Y117.577 Z0.74
G1 F300 Z0.24
G1 F2700 E107.3176
G1 F1800 X134.4 Y102.425 E108.5271
G1 F2700 E103.5271
G1 F300 Z0.74
G0 F12000 X89.6 Y94.588 Z0.74
G1 F300 Z0.24
G1 F2700 E108.5271
G1 F1800 X89.6 Y125.41 E110.98744
G1 F2700 E105.98744
G1 F300 Z0.74
G0 F12000 X88 Y123.032 Z0.74
G1 F300 Z0.24
G1 F2700 E110.98744
G1 F1800 X88 Y96.968 E113.06799
G1 F2700 E108.06799
G1 F300 Z0.74
G0 F12000 X86.4 Y100.085 Z0.74
G1 F300 Z0.24
G1 F2700 E113.06799
G1 F1800 X86.4 Y119.914 E114.65082
G1 F2700 E109.65082
G1 F300 Z0.74
G0 F12000 X84.8 Y114.365 Z0.74
G1 F300 Z0.24
G1 F2700 E114.65082
G1 F1800 X84.8 Y105.638 E115.34745
G1 F2700 E110.34745
G1 F300 Z0.74
G0 F12000 X84.475 Y108.516 Z0.74
;TIME_ELAPSED:72.149266
;LAYER:-5
M140 S65
G0 X84.475 Y108.516 Z1.04
;TYPE:SUPPORT
G1 F300 Z0.54
G1 F2700 E115.34745
G1 F1800 X111.481 Y135.522 E119.15829
G1 X112.769 Y135.396 E119.28742
G1 X84.601 Y107.229 E123.26216
G1 X84.673 Y106.507 E123.33455
G1 X84.686 Y106.393 E123.346
G1 X84.75 Y105.963 E123.38938
G1 X114.035 Y135.248 E127.52181
G1 X115.022 Y135.1 E127.6214
G1 X115.245 Y135.044 E127.64434
G1 X84.953 Y104.752 E131.91887
G1 X85.226 Y103.666 E132.0306
G1 X85.238 Y103.622 E132.03515
G1 X116.375 Y134.76 E136.42899
G1 X116.477 Y134.732 E136.43954
G1 X117.462 Y134.433 E136.54225
G1 X85.565 Y102.536 E141.04326
G1 X85.839 Y101.634 E141.13733
G1 X85.872 Y101.529 E141.14831
G1 X85.898 Y101.454 E141.15623
G1 X118.543 Y134.099 E145.76279
G1 X119.582 Y133.724 E145.87301
G1 X86.273 Y100.415 E150.57327
G1 X86.359 Y100.177 E150.59852
G1 X86.414 Y100.05 E150.61233
G1 X86.708 Y99.436 E150.68026
G1 X120.562 Y133.29 E155.45742
G1 X121.142 Y133.012 E155.5216
G1 X121.504 Y132.817 E155.56263
G1 X87.18 Y98.494 E160.40604
G1 X87.673 Y97.572 E160.51037
G1 X122.425 Y132.325 E165.41432
G1 X122.989 Y132.023 E165.47816
G1 X123.341 Y131.826 E165.5184
G1 X88.177 Y96.662 E170.48042
G1 X88.485 Y96.135 E170.54133
G1 X88.55 Y96.032 E170.55348
G1 X88.712 Y95.783 E170.58312
G1 X124.212 Y131.283 E175.59256
G1 X124.336 Y131.205 E175.60718
G1 X124.431 Y131.137 E175.61883
G1 X125.03 Y130.687 E175.69359
G1 X89.311 Y94.967 E180.734
G1 X89.591 Y94.596 E180.78037
G1 X89.935 Y94.178 E180.83439
G1 X125.82 Y130.063 E185.89815
G1 X126.596 Y129.425 E185.99839
G1 X90.572 Y93.401 E191.08177
G1 X90.888 Y93.017 E191.13139
G1 X90.957 Y92.938 E191.14185
G1 X91.226 Y92.64 E191.18191
G1 X127.358 Y128.772 E196.28053
G1 X128.056 Y128.141 E196.37441
G1 X128.098 Y128.098 E196.38041
G1 X91.9 Y91.9 E201.48834
G1 X91.942 Y91.858 E201.49427
G1 X92.64 Y91.226 E201.58822
G1 X128.772 Y127.358 E206.68684
G1 X129.042 Y127.06 E206.72696
G1 X129.11 Y126.982 E206.73728
G1 X129.425 Y126.597 E206.78692
G1 X93.402 Y90.574 E211.87015
G1 X94.178 Y89.936 E211.97039
G1 X130.063 Y125.82 E217.03408
G1 X130.439 Y125.36 E217.09337
G1 X130.687 Y125.03 E217.13455
G1 X94.968 Y89.311 E222.17489
G1 X95.617 Y88.824 E222.25585
G1 X95.663 Y88.794 E222.26133
G1 X95.786 Y88.715 E222.27592
G1 X131.286 Y124.215 E227.28535
G1 X131.449 Y123.966 E227.31505
G1 X131.513 Y123.863 E227.32715
G1 X131.821 Y123.336 E227.38805
G1 X96.657 Y88.172 E232.35007
G1 X97.009 Y87.975 E232.39032
G1 X97.573 Y87.674 E232.45411
G1 X132.325 Y122.426 E237.358
G1 X132.818 Y121.504 E237.46232
G1 X98.495 Y87.181 E242.30567
G1 X98.856 Y86.986 E242.3466
G1 X99.436 Y86.708 E242.41078
G1 X133.291 Y120.563 E247.18809
G1 X133.584 Y119.948 E247.25606
G1 X133.638 Y119.82 E247.26992
G1 X133.725 Y119.583 E247.29511
G1 X100.416 Y86.274 E251.99537
G1 X101.455 Y85.899 E252.10559
G1 X134.1 Y118.544 E256.71215
G1 X134.126 Y118.47 E256.71998
G1 X134.16 Y118.364 E256.73109
G1 X134.433 Y117.463 E256.82503
G1 X102.536 Y85.566 E261.32604
G1 X103.521 Y85.267 E261.42875
G1 X103.623 Y85.238 E261.43933
G1 X134.761 Y116.376 E265.83324
G1 X134.772 Y116.332 E265.83776
G1 X135.045 Y115.246 E265.9495
G1 X104.753 Y84.954 E270.22403
G1 X104.976 Y84.898 E270.24697
G1 X105.964 Y84.75 E270.34665
G1 X135.249 Y114.035 E274.47908
G1 X135.312 Y113.605 E274.52244
G1 X135.326 Y113.492 E274.53381
G1 X135.397 Y112.77 E274.60619
G1 X107.229 Y84.602 E278.581
G1 X108.518 Y84.476 E278.71023
G1 X135.524 Y111.482 E282.52107
G0 F12000 X135.524 Y111.481
G1 F1800 X135.591 Y110.136 E282.65544
G1 X109.865 Y84.409 E286.28573
G1 X109.998 Y84.403 E286.29901
G1 X110.07 Y84.405 E286.3062
G1 X111.336 Y84.466 E286.43267
G1 X135.53 Y108.66 E289.8467
G1 X135.522 Y108.506 E289.86209
G1 X135.384 Y107.1 E290.00306
G1 X112.9 Y84.615 E293.17586
G1 X113.499 Y84.673 E293.23591
G1 X113.605 Y84.687 E293.24658
G1 X114.523 Y84.825 E293.33921
G1 X135.176 Y105.477 E296.2535
G1 X135.111 Y105.04 E296.29758
G1 X135.097 Y104.965 E296.30519
G1 X134.77 Y103.66 E296.43943
G0 F12000 X134.769 Y103.656
G1 F1800 X116.343 Y85.23 E299.03954
G1 X116.476 Y85.267 E299.05332
G1 X118.367 Y85.84 E299.25047
G1 X134.159 Y101.632 E301.47889
G1 X134.157 Y101.626 E301.47952
G1 X134.122 Y101.519 E301.49076
G1 X133.634 Y100.165 E301.63437
G1 X133.584 Y100.05 E301.64688
G1 X133.209 Y99.268 E301.73342
G1 X120.732 Y86.79 E303.49413
G1 X121.142 Y86.987 E303.53951
G1 X122.995 Y87.979 E303.74923
G1 X123.81 Y88.454 E303.84336
G1 X131.528 Y96.172 E304.93245
G0 F12000 X131.205 Y95.664
G1 F1800 X131.168 Y95.609 E304.93907
G1 X130.434 Y94.632 E305.061
G1 X129.104 Y93.01 E305.27029
G1 X129.036 Y92.931 E305.28069
G1 X128.105 Y91.905 E305.41893
G1 X128.054 Y91.858 E305.42585
G1 X127.06 Y90.957 E305.55972
G1 X126.981 Y90.889 E305.57012
G1 X125.401 Y89.591 E305.77415
G1 X124.409 Y88.845 E305.898
G1 X124.349 Y88.802 E305.90536
G1 X123.965 Y88.55 E305.95119
G1 X123.863 Y88.485 E305.96326
G1 X123.81 Y88.454 E305.96939
G1 F2700 E300.96939
G1 F300 Z1.04
G0 F12000 X84.475 Y108.518 Z1.04
G1 F300 Z0.54
G1 F2700 E305.96939
G1 F1800 X84.407 Y109.863 E306.10376
G1 X110.134 Y135.589 E309.73405
G1 X110 Y135.596 E309.74744
G1 X109.928 Y135.594 E309.75463
G1 X108.662 Y135.532 E309.8811
G1 X84.467 Y111.337 E313.29528
G1 X84.474 Y111.48 E313.30956
G1 X84.613 Y112.898 E313.45173
G1 X107.099 Y135.383 E316.62467
G1 X106.499 Y135.325 E316.68482
G1 X106.394 Y135.311 E316.69539
G1 X105.475 Y135.174 E316.7881
G1 X84.823 Y114.521 E319.70239
G1 X84.896 Y115.016 E319.75232
G1 X85.226 Y116.331 E319.8876
G1 X85.229 Y116.342 E319.88874
G1 X103.656 Y134.768 E322.48892
G1 X103.523 Y134.732 E322.50266
G1 X101.631 Y134.158 E322.69994
G1 X85.839 Y118.366 E324.92837
G1 X85.873 Y118.469 E324.93919
G1 X86.359 Y119.819 E325.08236
G1 X86.414 Y119.948 E325.09635
G1 X86.79 Y120.731 E325.18302
G1 X99.266 Y133.207 E326.94352
G1 X98.857 Y133.011 E326.98877
G1 X97.003 Y132.019 E327.19858
G1 X96.189 Y131.544 E327.29262
