;FLAVOR:Marlin
;TIME:2507
;Filament used: 2.80506m
;Layer height: 0.2
;MINX:72.701
;MINY:72.701
;MINZ:0.24
;MAXX:147.298
;MAXY:147.298
;MAXZ:10.19
;Generated with Cura_SteamEngine master
M140 S70
M105
M190 S70
M104 S200
M105
M109 S200
M82 ;absolute extrusion mode
M201 X500.00 Y500.00 Z100.00 E5000.00 ;Setup machine max acceleration
M203 X500.00 Y500.00 Z10.00 E50.00 ;Setup machine max feedrate
M204 P500.00 R1000.00 T500.00 ;Setup Print/Retract/Travel acceleration
M205 X8.00 Y8.00 Z0.40 E5.00 ;Setup Jerk
M220 S100 ;Reset Feedrate
M221 S100 ;Reset Flowrate

G28 ;Home

G92 E0 ;Reset Extruder
G1 Z2.0 F3000 ;Move Z Axis up
G1 X10.1 Y20 Z0.28 F5000.0 ;Move to start position
G1 X10.1 Y200.0 Z0.28 F1500.0 E15 ;Draw the first line
G1 X10.4 Y200.0 Z0.28 F5000.0 ;Move to side a little
G1 X10.4 Y20 Z0.28 F1500.0 E30 ;Draw the second line
G92 E0 ;Reset Extruder
G1 Z2.0 F3000 ;Move Z Axis up

G92 E0
G92 E0
G1 F2700 E-5
;LAYER_COUNT:43
;LAYER:-6
M107
G0 F12000 X80.253 Y80.253 Z0.24
;TYPE:SUPPORT-INTERFACE
G1 F2700 E0
G1 F1800 X81.284 Y79.317 E0.11116
G1 X81.384 Y79.231 E0.12168
G1 X82.851 Y78.029 E0.27307
G1 X82.953 Y77.948 E0.28347
G1 X83.899 Y77.239 E0.37784
G1 X84.774 Y76.682 E0.46064
G1 X84.862 Y76.63 E0.4688
G1 X85.288 Y76.392 E0.50775
G1 X87.049 Y75.449 E0.6672
G1 X88.243 Y74.877 E0.77289
G1 X88.312 Y74.846 E0.77893
G1 X89.67 Y74.354 E0.89422
G1 X89.833 Y74.299 E0.90795
G1 X91.719 Y73.729 E1.06523
G1 X93.056 Y73.393 E1.17527
G1 X93.152 Y73.377 E1.18304
G1 X94.46 Y73.182 E1.28861
G1 X94.611 Y73.163 E1.30075
G1 X96.475 Y72.979 E1.45027
G1 X96.616 Y72.969 E1.46155
G1 X98 Y72.902 E1.57216
G1 X99.384 Y72.969 E1.68277
G1 X99.525 Y72.979 E1.69405
G1 X101.389 Y73.163 E1.84356
G1 X101.54 Y73.182 E1.85571
G1 X102.848 Y73.376 E1.96127
G1 X102.944 Y73.393 E1.96905
G1 X104.314 Y73.738 E2.08182
G1 X106.167 Y74.299 E2.23637
G1 X106.33 Y74.354 E2.2501
G1 X107.681 Y74.843 E2.36479
G1 X107.794 Y74.894 E2.37468
G1 X108.422 Y75.13 E2.42824
G1 X109.086 Y75.288 E2.48272
G1 X109.765 Y75.36 E2.53722
G1 X110.448 Y75.347 E2.59175
G1 X111.124 Y75.248 E2.64629
G1 X111.777 Y75.064 E2.70045
G1 X112.209 Y74.892 E2.73756
G1 X112.319 Y74.843 E2.74718
G1 X113.67 Y74.354 E2.86187
G1 X113.833 Y74.299 E2.8756
G1 X115.719 Y73.729 E3.03287
G1 X117.056 Y73.393 E3.14292
G1 X117.152 Y73.377 E3.15068
G1 X118.46 Y73.182 E3.25625
G1 X118.611 Y73.163 E3.2684
G1 X120.475 Y72.979 E3.41791
G1 X120.616 Y72.969 E3.4292
G1 X122 Y72.902 E3.5398
G1 X123.384 Y72.969 E3.65041
G1 X123.525 Y72.979 E3.66169
G1 X125.389 Y73.163 E3.81121
G1 X125.54 Y73.182 E3.82336
G1 X126.848 Y73.376 E3.92891
G1 X126.944 Y73.393 E3.93669
G1 X128.314 Y73.738 E4.04946
G1 X130.167 Y74.299 E4.20401
G1 X130.33 Y74.354 E4.21774
G1 X131.688 Y74.846 E4.33304
G1 X131.757 Y74.877 E4.33908
G1 X132.951 Y75.449 E4.44476
G1 X134.718 Y76.396 E4.60479
G1 X135.586 Y76.902 E4.68499
G1 X135.688 Y76.966 E4.6946
G1 X136.081 Y77.224 E4.73213
G1 X137.039 Y77.942 E4.82769
G1 X137.143 Y78.024 E4.83827
G1 X138.609 Y79.225 E4.98954
G1 X138.708 Y79.31 E4.99996
G1 X139.747 Y80.253 E5.11196
G1 X140.683 Y81.284 E5.22312
G1 X140.769 Y81.384 E5.23365
G1 X141.952 Y82.827 E5.38259
G1 X142.052 Y82.953 E5.39544
G1 X142.72 Y83.843 E5.48426
G1 X142.79 Y83.942 E5.49394
G1 X143.312 Y84.764 E5.57167
G1 X143.365 Y84.853 E5.57994
G1 X143.608 Y85.288 E5.61971
G1 X144.546 Y87.039 E5.77828
G1 X145.123 Y88.243 E5.88485
G1 X145.151 Y88.305 E5.89028
G1 X145.646 Y89.67 E6.00619
G1 X145.701 Y89.833 E6.01992
G1 X146.271 Y91.719 E6.17719
G1 X146.611 Y93.077 E6.28894
G1 X146.817 Y94.45 E6.39977
G1 X146.836 Y94.601 E6.41191
G1 X147.021 Y96.475 E6.56223
G1 X147.031 Y96.616 E6.57352
G1 X147.098 Y97.984 E6.68285
G1 X147.031 Y99.384 E6.79473
G1 X147.022 Y99.515 E6.80521
G1 X146.837 Y101.389 E6.95553
G1 X146.818 Y101.54 E6.96768
G1 X146.612 Y102.919 E7.07898
G1 X146.273 Y104.274 E7.19047
G1 X145.705 Y106.155 E7.34732
G1 X145.651 Y106.316 E7.36087
G1 X145.159 Y107.676 E7.47632
G1 X145.106 Y107.794 E7.48664
G1 X144.87 Y108.422 E7.5402
G1 X144.712 Y109.086 E7.59468
G1 X144.64 Y109.765 E7.64918
G1 X144.653 Y110.448 E7.70371
G1 X144.752 Y111.124 E7.75825
G1 X144.936 Y111.777 E7.81241
G1 X145.108 Y112.209 E7.84952
G1 X145.159 Y112.324 E7.85957
G1 X145.646 Y113.67 E7.97383
G1 X145.701 Y113.833 E7.98756
G1 X146.271 Y115.719 E8.14483
G1 X146.611 Y117.077 E8.25658
G1 X146.817 Y118.45 E8.3674
G1 X146.836 Y118.601 E8.37955
G1 X147.021 Y120.475 E8.52987
G1 X147.031 Y120.616 E8.54115
G1 X147.098 Y121.984 E8.65048
G1 X147.031 Y123.384 E8.76237
G1 X147.022 Y123.515 E8.77285
G1 X146.837 Y125.389 E8.92317
G1 X146.818 Y125.54 E8.93532
G1 X146.612 Y126.919 E9.04661
G1 X146.273 Y128.274 E9.15811
G1 X145.705 Y130.155 E9.31496
G1 X145.651 Y130.316 E9.32851
G1 X145.189 Y131.598 E9.43729
G1 X145.159 Y131.676 E9.44396
G1 X145.123 Y131.757 E9.45103
G1 X144.551 Y132.951 E9.55672
G1 X143.609 Y134.71 E9.716
G1 X143.098 Y135.586 E9.79695
G1 X143.034 Y135.688 E9.80656
G1 X142.777 Y136.079 E9.84391
G1 X142.058 Y137.039 E9.93965
G1 X141.976 Y137.143 E9.95022
G1 X140.775 Y138.609 E10.1015
G1 X140.69 Y138.708 E10.11192
G1 X139.747 Y139.747 E10.22392
G1 X138.716 Y140.683 E10.33508
G1 X138.616 Y140.769 E10.34561
G1 X137.153 Y141.968 E10.4966
G1 X137.047 Y142.052 E10.50739
G1 X136.101 Y142.762 E10.60181
G1 X135.228 Y143.317 E10.68439
G1 X135.138 Y143.37 E10.69272
G1 X134.712 Y143.608 E10.73168
G1 X132.951 Y144.551 E10.89113
G1 X131.757 Y145.123 E10.99682
G1 X131.688 Y145.154 E11.00285
G1 X130.33 Y145.646 E11.11815
G1 X130.167 Y145.701 E11.13188
G1 X128.281 Y146.271 E11.28916
G1 X126.944 Y146.607 E11.3992
G1 X126.848 Y146.623 E11.40697
G1 X125.54 Y146.818 E11.51253
G1 X125.389 Y146.837 E11.52468
G1 X123.525 Y147.021 E11.6742
G1 X123.384 Y147.031 E11.68548
G1 X122 Y147.098 E11.79609
G1 X120.616 Y147.031 E11.90669
G1 X120.475 Y147.021 E11.91798
G1 X118.611 Y146.837 E12.06749
G1 X118.46 Y146.818 E12.07964
G1 X117.152 Y146.624 E12.18519
G1 X117.056 Y146.607 E12.19298
G1 X115.686 Y146.262 E12.30575
G1 X113.833 Y145.701 E12.46029
G1 X113.67 Y145.646 E12.47403
G1 X112.319 Y145.157 E12.58872
G1 X112.206 Y145.106 E12.59861
G1 X111.578 Y144.87 E12.65216
G1 X110.914 Y144.712 E12.70665
G1 X110.235 Y144.64 E12.76115
G1 X109.552 Y144.653 E12.81568
G1 X108.876 Y144.752 E12.87022
G1 X108.223 Y144.936 E12.92437
G1 X107.791 Y145.108 E12.96149
G1 X107.681 Y145.157 E12.9711
G1 X106.33 Y145.646 E13.08579
G1 X106.167 Y145.701 E13.09953
G1 X104.281 Y146.271 E13.2568
G1 X102.944 Y146.607 E13.36684
G1 X102.848 Y146.623 E13.37461
G1 X101.54 Y146.818 E13.48018
G1 X101.389 Y146.837 E13.49232
G1 X99.525 Y147.021 E13.64184
G1 X99.384 Y147.031 E13.65312
G1 X98 Y147.098 E13.76373
G1 X96.616 Y147.031 E13.87434
G1 X96.475 Y147.021 E13.88562
G1 X94.611 Y146.837 E14.03514
G1 X94.46 Y146.818 E14.04728
G1 X93.152 Y146.624 E14.15284
G1 X93.056 Y146.607 E14.16062
G1 X91.686 Y146.262 E14.27339
G1 X89.833 Y145.701 E14.42794
G1 X89.67 Y145.646 E14.44167
G1 X88.312 Y145.154 E14.55697
G1 X88.243 Y145.123 E14.563
G1 X87.049 Y144.551 E14.66869
G1 X85.282 Y143.604 E14.82872
G1 X84.414 Y143.098 E14.90892
G1 X84.312 Y143.034 E14.91853
G1 X83.919 Y142.776 E14.95606
G1 X83.847 Y142.724 E14.96315
G1 X82.953 Y142.052 E15.05242
G1 X82.847 Y141.968 E15.06322
G1 X81.384 Y140.769 E15.21421
G1 X81.284 Y140.683 E15.22474
G1 X80.253 Y139.747 E15.33589
G1 X79.31 Y138.708 E15.4479
G1 X79.225 Y138.609 E15.45831
G1 X78.024 Y137.143 E15.60959
G1 X77.942 Y137.039 E15.62016
G1 X77.236 Y136.097 E15.71413
G1 X76.682 Y135.226 E15.79653
G1 X76.63 Y135.138 E15.80469
G1 X76.392 Y134.712 E15.84364
G1 X75.449 Y132.951 E16.0031
G1 X74.877 Y131.757 E16.10878
G1 X74.841 Y131.676 E16.11586
G1 X74.811 Y131.598 E16.12253
G1 X74.349 Y130.316 E16.23131
G1 X74.295 Y130.155 E16.24486
G1 X73.727 Y128.274 E16.40171
G1 X73.388 Y126.919 E16.5132
G1 X73.182 Y125.54 E16.6245
G1 X73.163 Y125.389 E16.63665
G1 X72.978 Y123.515 E16.78697
G1 X72.969 Y123.384 E16.79745
G1 X72.902 Y122 E16.90806
G1 X72.969 Y120.616 E17.01866
G1 X72.978 Y120.485 E17.02914
G1 X73.163 Y118.611 E17.17946
G1 X73.182 Y118.46 E17.19161
G1 X73.389 Y117.077 E17.30324
G1 X73.727 Y115.726 E17.4144
G1 X74.295 Y113.845 E17.57125
G1 X74.351 Y113.678 E17.58531
G1 X74.841 Y112.324 E17.70025
G1 X74.894 Y112.206 E17.71058
G1 X75.13 Y111.578 E17.76413
G1 X75.288 Y110.914 E17.81861
G1 X75.36 Y110.235 E17.87312
G1 X75.347 Y109.552 E17.92765
G1 X75.248 Y108.876 E17.98218
G1 X75.064 Y108.223 E18.03634
G1 X74.892 Y107.791 E18.07346
G1 X74.841 Y107.676 E18.0835
G1 X74.349 Y106.316 E18.19894
G1 X74.295 Y106.155 E18.2125
G1 X73.727 Y104.274 E18.36935
G1 X73.388 Y102.919 E18.48084
G1 X73.182 Y101.54 E18.59214
G1 X73.163 Y101.389 E18.60429
G1 X72.978 Y99.515 E18.75461
G1 X72.969 Y99.384 E18.76509
G1 X72.902 Y98 E18.87569
G1 X72.969 Y96.616 E18.9863
G1 X72.978 Y96.485 E18.99678
G1 X73.163 Y94.611 E19.1471
G1 X73.182 Y94.46 E19.15925
G1 X73.389 Y93.077 E19.27088
G1 X73.727 Y91.726 E19.38204
G1 X74.295 Y89.845 E19.53889
G1 X74.351 Y89.678 E19.55295
G1 X74.849 Y88.305 E19.66953
G1 X75.42 Y87.107 E19.77547
G1 X75.449 Y87.049 E19.78065
G1 X76.392 Y85.288 E19.9401
G1 X76.902 Y84.414 E20.02088
G1 X76.966 Y84.312 E20.03049
G1 X77.224 Y83.919 E20.06802
G1 X77.942 Y82.961 E20.16358
G1 X78.043 Y82.833 E20.1766
G1 X79.225 Y81.391 E20.32543
G1 X79.31 Y81.292 E20.33585
G1 X80.03 Y80.498 E20.42141
G0 F1620 X80.253 Y80.253
G0 F12000 X80 Y80.531
G1 F1800 X80 Y139.468 E25.12601
G1 F2700 E20.12601
G1 F300 Z0.74
G0 F12000 X81.6 Y140.946 Z0.74
G1 F300 Z0.24
G1 F2700 E25.12601
G1 F1800 X81.6 Y79.054 E30.0665
G1 F2700 E25.0665
G1 F300 Z0.74
G0 F12000 X83.2 Y77.762 Z0.74
G1 F300 Z0.24
G1 F2700 E30.0665
G1 F1800 X83.2 Y142.237 E35.21317
G1 F2700 E30.21317
G1 F300 Z0.74
G0 F12000 X84.8 Y143.323 Z0.74
G1 F300 Z0.24
G1 F2700 E35.21317
G1 F1800 X84.8 Y76.666 E40.53402
G1 F2700 E35.53402
G1 F300 Z0.74
G0 F12000 X86.4 Y75.796 Z0.74
G1 F300 Z0.24
G1 F2700 E40.53402
G1 F1800 X86.4 Y144.203 E45.99457
G1 F2700 E40.99457
G1 F300 Z0.74
G0 F12000 X88 Y145.006 Z0.74
G1 F300 Z0.24
G1 F2700 E45.99457
G1 F1800 X88 Y74.993 E51.58331
G1 F2700 E46.58331
G1 F300 Z0.74
G0 F12000 X89.6 Y74.379 Z0.74
G1 F300 Z0.24
G1 F2700 E51.58331
G1 F1800 X89.6 Y145.62 E57.27007
G1 F2700 E52.27007
G1 F300 Z0.74
G0 F12000 X91.2 Y146.114 Z0.74
G1 F300 Z0.24
G1 F2700 E57.27007
G1 F1800 X91.2 Y73.885 E63.0357
G1 F2700 E58.0357
G1 F300 Z0.74
G0 F12000 X92.8 Y73.457 Z0.74
G1 F300 Z0.24
G1 F2700 E63.0357
G1 F1800 X92.8 Y146.542 E68.86966
G1 F2700 E63.86966
G1 F300 Z0.74
G0 F12000 X94.4 Y146.809 Z0.74
G1 F300 Z0.24
G1 F2700 E68.86966
G1 F1800 X94.4 Y73.19 E74.74625
G1 F2700 E69.74625
G1 F300 Z0.74
G0 F12000 X96 Y73.025 Z0.74
G1 F300 Z0.24
G1 F2700 E74.74625
G1 F1800 X96 Y146.974 E80.64918
G1 F2700 E75.64918
G1 F300 Z0.74
G0 F12000 X97.6 Y147.078 Z0.74
G1 F300 Z0.24
G1 F2700 E80.64918
G1 F1800 X97.6 Y72.921 E86.56871
G1 F2700 E81.56871
G1 F300 Z0.74
G0 F12000 X99.2 Y72.961 Z0.74
G1 F300 Z0.24
G1 F2700 E86.56871
G1 F1800 X99.2 Y147.04 E92.48202
G1 F2700 E87.48202
G1 F300 Z0.74
G0 F12000 X100.8 Y146.896 Z0.74
G1 F300 Z0.24
G1 F2700 E92.48202
G1 F1800 X100.8 Y73.105 E98.37234
G1 F2700 E93.37234
G1 F300 Z0.74
G0 F12000 X102.4 Y73.31 Z0.74
G1 F300 Z0.24
G1 F2700 E98.37234
G1 F1800 X102.4 Y146.69 E104.22984
G1 F2700 E99.22984
G1 F300 Z0.74
G0 F12000 X104 Y146.342 Z0.74
G1 F300 Z0.24
G1 F2700 E104.22984
G1 F1800 X104 Y73.659 E110.03172
G1 F2700 E105.03172
G1 F300 Z0.74
G0 F12000 X105.6 Y74.128 Z0.74
G1 F300 Z0.24
G1 F2700 E110.03172
G1 F1800 X105.6 Y145.873 E115.75871
G1 F2700 E110.75871
G1 F300 Z0.74
G0 F12000 X107.2 Y145.332 Z0.74
G1 F300 Z0.24
G1 F2700 E115.75871
G1 F1800 X107.2 Y74.669 E121.39934
G1 F2700 E116.39934
G1 F300 Z0.74
G0 F12000 X108.8 Y75.22 Z0.74
G1 F300 Z0.24
G1 F2700 E121.39934
G1 F1800 X108.8 Y144.774 E126.95144
G1 F2700 E121.95144
G1 F300 Z0.74
G0 F12000 X110.4 Y144.657 Z0.74
G1 F300 Z0.24
G1 F2700 E126.95144
G1 F1800 X110.4 Y75.347 E132.48406
G1 F2700 E127.48406
G1 F300 Z0.74
G0 F12000 X112 Y74.975 Z0.74
G1 F300 Z0.24
G1 F2700 E132.48406
G1 F1800 X112 Y145.028 E138.076
G1 F2700 E133.076
G1 F300 Z0.74
G0 F12000 X113.6 Y145.62 Z0.74
G1 F300 Z0.24
G1 F2700 E138.076
G1 F1800 X113.6 Y74.379 E143.76276
G1 F2700 E138.76276
G1 F300 Z0.74
G0 F12000 X115.2 Y73.885 Z0.74
G1 F300 Z0.24
G1 F2700 E143.76276
G1 F1800 X115.2 Y146.114 E149.52839
G1 F2700 E144.52839
G1 F300 Z0.74
G0 F12000 X116.8 Y146.542 Z0.74
G1 F300 Z0.24
G1 F2700 E149.52839
G1 F1800 X116.8 Y73.457 E155.36235
G1 F2700 E150.36235
G1 F300 Z0.74
G0 F12000 X118.4 Y73.19 Z0.74
G1 F300 Z0.24
G1 F2700 E155.36235
G1 F1800 X118.4 Y146.809 E161.23894
G1 F2700 E156.23894
G1 F300 Z0.74
G0 F12000 X120 Y146.974 Z0.74
G1 F300 Z0.24
G1 F2700 E161.23894
G1 F1800 X120 Y73.025 E167.14187
G1 F2700 E162.14187
G1 F300 Z0.74
G0 F12000 X121.6 Y72.921 Z0.74
G1 F300 Z0.24
G1 F2700 E167.14187
G1 F1800 X121.6 Y147.078 E173.0614
G1 F2700 E168.0614
G1 F300 Z0.74
G0 F12000 X123.2 Y147.04 Z0.74
G1 F300 Z0.24
G1 F2700 E173.0614
G1 F1800 X123.2 Y72.961 E178.97471
G1 F2700 E173.97471
G1 F300 Z0.74
G0 F12000 X124.8 Y73.105 Z0.74
G1 F300 Z0.24
G1 F2700 E178.97471
G1 F1800 X124.8 Y146.896 E184.86502
G1 F2700 E179.86502
G1 F300 Z0.74
G0 F12000 X126.4 Y146.69 Z0.74
G1 F300 Z0.24
G1 F2700 E184.86502
G1 F1800 X126.4 Y73.31 E190.72253
G1 F2700 E185.72253
G1 F300 Z0.74
G0 F12000 X128 Y73.659 Z0.74
G1 F300 Z0.24
G1 F2700 E190.72253
G1 F1800 X128 Y146.342 E196.5244
G1 F2700 E191.5244
G1 F300 Z0.74
G0 F12000 X129.6 Y145.873 Z0.74
G1 F300 Z0.24
G1 F2700 E196.5244
G1 F1800 X129.6 Y74.128 E202.2514
G1 F2700 E197.2514
G1 F300 Z0.74
G0 F12000 X131.2 Y74.67 Z0.74
G1 F300 Z0.24
G1 F2700 E202.2514
G1 F1800 X131.2 Y145.331 E207.89187
G1 F2700 E202.89187
G1 F300 Z0.74
G0 F12000 X132.8 Y144.624 Z0.74
G1 F300 Z0.24
G1 F2700 E207.89187
G1 F1800 X132.8 Y75.377 E213.41946
G1 F2700 E208.41946
G1 F300 Z0.74
G0 F12000 X134.4 Y76.226 Z0.74
G1 F300 Z0.24
G1 F2700 E213.41946
G1 F1800 X134.4 Y143.776 E218.81159
G1 F2700 E213.81159
G1 F300 Z0.74
G0 F12000 X136 Y142.827 Z0.74
G1 F300 Z0.24
G1 F2700 E218.81159
G1 F1800 X136 Y77.171 E224.05254
G1 F2700 E219.05254
G1 F300 Z0.74
G0 F12000 X137.6 Y78.399 Z0.74
G1 F300 Z0.24
G1 F2700 E224.05254
G1 F1800 X137.6 Y141.602 E229.09768
G1 F2700 E224.09768
G1 F300 Z0.74
G0 F12000 X139.2 Y140.244 Z0.74
G1 F300 Z0.24
G1 F2700 E229.09768
G1 F1800 X139.2 Y79.757 E233.92601
G1 F2700 E228.92601
G1 F300 Z0.74
G0 F12000 X140.8 Y81.422 Z0.74
G1 F300 Z0.24
G1 F2700 E233.92601
G1 F1800 X140.8 Y138.579 E238.48853
G1 F2700 E233.48853
G1 F300 Z0.74
G0 F12000 X142.4 Y136.583 Z0.74
G1 F300 Z0.24
G1 F2700 E238.48853
G1 F1800 X142.4 Y83.417 E242.73247
G1 F2700 E237.73247
G1 F300 Z0.74
G0 F12000 X144 Y86.02 Z0.74
G1 F300 Z0.24
G1 F2700 E242.73247
G1 F1800 X144 Y133.98 E246.56084
G1 F2700 E241.56084
G1 F300 Z0.74
G0 F12000 X145.6 Y130.458 Z0.74
G1 F300 Z0.24
G1 F2700 E246.56084
G1 F1800 X145.6 Y113.543 E247.91107
G1 F2700 E242.91107
G1 F300 Z0.74
G0 F12000 X145.6 Y106.457 Z0.74
G1 F300 Z0.24
G1 F2700 E247.91107
G1 F1800 X145.6 Y89.544 E249.26114
G1 F2700 E244.26114
G1 F300 Z0.74
G0 F12000 X78.4 Y82.397 Z0.74
G1 F300 Z0.24
G1 F2700 E249.26114
G1 F1800 X78.4 Y137.601 E253.66776
G1 F2700 E248.66776
G1 F300 Z0.74
G0 F12000 X76.8 Y135.411 Z0.74
G1 F300 Z0.24
G1 F2700 E253.66776
G1 F1800 X76.8 Y84.588 E257.72468
G1 F2700 E252.72468
G1 F300 Z0.74
G0 F12000 X75.2 Y87.568 Z0.74
G1 F300 Z0.24
G1 F2700 E257.72468
G1 F1800 X75.2 Y108.705 E259.41192
G1 F2700 E254.41192
G1 F300 Z0.74
G0 F12000 X75.2 Y111.283 Z0.74
G1 F300 Z0.24
G1 F2700 E259.41192
G1 F1800 X75.2 Y132.431 E261.10005
G1 F2700 E256.10005
G1 F300 Z0.74
G0 F12000 X73.6 Y127.766 Z0.74
G1 F300 Z0.24
G1 F2700 E261.10005
G1 F1800 X73.6 Y116.233 E262.02066
G1 F2700 E257.02066
G1 F300 Z0.74
G0 F12000 X73.6 Y103.766 Z0.74
G1 F300 Z0.24
G1 F2700 E262.02066
G1 F1800 X73.6 Y92.233 E262.94128
G1 F2700 E257.94128
G1 F300 Z0.74
G0 F12000 X80.252 Y80.252 Z0.74
;TIME_ELAPSED:144.290799
;LAYER:-5
M140 S65
G0 X80.252 Y80.252 Z1.04
;TYPE:SUPPORT
G1 F300 Z0.54
G1 F2700 E262.94128
G1 F1800 X80.994 Y79.579 E263.04123
G1 X140.42 Y139.005 E271.42688
G1 X140.689 Y138.708 E271.46686
G1 X140.774 Y138.609 E271.47988
G1 X141.073 Y138.245 E271.52689
