;FLAVOR:Marlin
;TIME:3617
;Filament used: 3.78381m
;Layer height: 0.2
;MINX:55.199
;MINY:72.718
;MINZ:0.24
;MAXX:164.8
;MAXY:147.281
;MAXZ:6.59
;Generated with Cura_SteamEngine master
M140 S70
M105
M190 S70
M104 S200
M105
M109 S200
M82 ;absolute extrusion mode
M201 X500.00 Y500.00 Z100.00 E5000.00 ;Setup machine max acceleration
M203 X500.00 Y500.00 Z10.00 E50.00 ;Setup machine max feedrate
M204 P500.00 R1000.00 T500.00 ;Setup Print/Retract/Travel acceleration
M205 X8.00 Y8.00 Z0.40 E5.00 ;Setup Jerk
M220 S100 ;Reset Feedrate
M221 S100 ;Reset Flowrate

G28 ;Home

G92 E0 ;Reset Extruder
G1 Z2.0 F3000 ;Move Z Axis up
G1 X10.1 Y20 Z0.28 F5000.0 ;Move to start position
G1 X10.1 Y200.0 Z0.28 F1500.0 E15 ;Draw the first line
G1 X10.4 Y200.0 Z0.28 F5000.0 ;Move to side a little
G1 X10.4 Y20 Z0.28 F1500.0 E30 ;Draw the second line
G92 E0 ;Reset Extruder
G1 Z2.0 F3000 ;Move Z Axis up

G92 E0
G92 E0
G1 F2700 E-5
;LAYER_COUNT:25
;LAYER:-6
M107
G0 F12000 X62.258 Y93.137 Z0.24
;TYPE:SUPPORT-INTERFACE
G1 F2700 E0
G1 F1800 X62.395 Y93.051 E0.01291
G1 X63.183 Y92.598 E0.08547
G1 X63.328 Y92.521 E0.09857
G1 X64.108 Y92.141 E0.16783
G1 X103.914 Y74.228 E3.65223
G1 X104.877 Y73.835 E3.73525
G1 X105.034 Y73.778 E3.74859
G1 X105.889 Y73.501 E3.82033
G1 X106.063 Y73.452 E3.83476
G1 X106.898 Y73.247 E3.90339
G1 X107.116 Y73.201 E3.92118
G1 X107.968 Y73.058 E3.99014
G1 X108.125 Y73.037 E4.00278
G1 X109.037 Y72.95 E4.07591
G1 X109.194 Y72.941 E4.08846
G1 X110.019 Y72.919 E4.15434
G1 X111.047 Y72.956 E4.23646
G1 X111.17 Y72.965 E4.2463
G1 X112.087 Y73.067 E4.31995
G1 X112.262 Y73.092 E4.33406
G1 X113.151 Y73.256 E4.40622
G1 X113.274 Y73.284 E4.41629
G1 X114.168 Y73.518 E4.49006
G1 X114.331 Y73.567 E4.50365
G1 X115.192 Y73.86 E4.57624
G1 X115.332 Y73.913 E4.58819
G1 X115.99 Y74.187 E4.64509
G1 X116.081 Y74.226 E4.65299
G1 X155.949 Y92.167 E8.14282
G1 X156.787 Y92.582 E8.21747
G1 X156.968 Y92.68 E8.2339
G1 X157.726 Y93.127 E8.30414
G1 X157.867 Y93.217 E8.31749
G1 X158.619 Y93.737 E8.39048
G1 X158.743 Y93.83 E8.40285
G1 X159.432 Y94.387 E8.47357
G1 X159.579 Y94.514 E8.48908
G1 X160.223 Y95.115 E8.55939
G1 X160.335 Y95.227 E8.57204
G1 X160.952 Y95.894 E8.64457
G1 X161.067 Y96.028 E8.65866
G1 X161.621 Y96.723 E8.72961
G1 X161.727 Y96.865 E8.74375
G1 X162.213 Y97.569 E8.81204
G1 X162.294 Y97.7 E8.82433
G1 X162.743 Y98.452 E8.89425
G1 X162.848 Y98.643 E8.91165
G1 X163.248 Y99.442 E8.98297
G1 X163.314 Y99.587 E8.99569
G1 X163.658 Y100.42 E9.06763
G1 X163.718 Y100.582 E9.08142
G1 X164.003 Y101.445 E9.15397
G1 X164.039 Y101.569 E9.16427
G1 X164.267 Y102.481 E9.23931
G1 X164.292 Y102.598 E9.24886
G1 X164.452 Y103.517 E9.32333
G1 X164.472 Y103.663 E9.33509
G1 X164.563 Y104.566 E9.40754
G1 X164.574 Y104.727 E9.42042
G1 X164.599 Y105.527 E9.48431
G1 X164.6 Y114.416 E10.19387
G1 X164.564 Y115.422 E10.27422
G1 X164.554 Y115.557 E10.28503
G1 X164.453 Y116.469 E10.35827
G1 X164.427 Y116.649 E10.37279
G1 X164.265 Y117.527 E10.44406
G1 X164.235 Y117.661 E10.45502
G1 X164.004 Y118.546 E10.52803
G1 X163.952 Y118.718 E10.54237
G1 X163.666 Y119.56 E10.61336
G1 X163.602 Y119.726 E10.62756
G1 X163.261 Y120.529 E10.6972
G1 X163.18 Y120.704 E10.71259
G1 X162.768 Y121.505 E10.78449
G1 X162.7 Y121.627 E10.79564
G1 X162.281 Y122.323 E10.86049
G1 X162.229 Y122.406 E10.86831
G1 X161.65 Y123.237 E10.94916
G1 X161.522 Y123.407 E10.96614
G1 X160.969 Y124.088 E11.03617
G1 X160.869 Y124.202 E11.04827
G1 X160.247 Y124.861 E11.12061
G1 X160.11 Y124.996 E11.13596
G1 X159.451 Y125.599 E11.20727
G1 X159.33 Y125.701 E11.2199
G1 X158.63 Y126.254 E11.29111
G1 X158.475 Y126.367 E11.30642
G1 X157.742 Y126.863 E11.37707
G1 X157.605 Y126.949 E11.38998
G1 X156.82 Y127.4 E11.46225
G1 X156.675 Y127.478 E11.47539
G1 X155.892 Y127.859 E11.5449
G1 X116 Y145.809 E15.03677
G1 X115.138 Y146.16 E15.11106
G1 X114.966 Y146.222 E15.12566
G1 X114.112 Y146.499 E15.19732
G1 X113.937 Y146.548 E15.21183
G1 X113.102 Y146.753 E15.28046
G1 X112.884 Y146.799 E15.29825
G1 X112.032 Y146.942 E15.36721
G1 X111.875 Y146.963 E15.37985
G1 X110.963 Y147.05 E15.45298
G1 X110.806 Y147.059 E15.46554
G1 X109.981 Y147.081 E15.53142
G1 X108.953 Y147.044 E15.61353
G1 X108.83 Y147.035 E15.62337
G1 X107.913 Y146.933 E15.69702
G1 X107.738 Y146.908 E15.71113
G1 X106.849 Y146.744 E15.7833
G1 X106.726 Y146.716 E15.79336
G1 X105.832 Y146.482 E15.86713
G1 X105.669 Y146.433 E15.88072
G1 X104.808 Y146.14 E15.95332
G1 X104.668 Y146.087 E15.96527
G1 X104.01 Y145.813 E16.02216
G1 X103.919 Y145.774 E16.03007
G1 X64.051 Y127.833 E19.51989
G1 X63.212 Y127.417 E19.59465
G1 X63.033 Y127.32 E19.6109
G1 X62.274 Y126.873 E19.68121
G1 X62.133 Y126.783 E19.69456
G1 X61.381 Y126.263 E19.76755
G1 X61.257 Y126.17 E19.77992
G1 X60.568 Y125.613 E19.85064
G1 X60.421 Y125.486 E19.86615
G1 X59.777 Y124.885 E19.93646
G1 X59.665 Y124.773 E19.94911
G1 X59.043 Y124.1 E20.02226
G1 X58.933 Y123.972 E20.03573
G1 X58.379 Y123.277 E20.10668
G1 X58.273 Y123.135 E20.12082
G1 X57.778 Y122.417 E20.19044
G1 X57.703 Y122.295 E20.20187
G1 X57.239 Y121.519 E20.27404
G1 X57.156 Y121.365 E20.28801
G1 X56.752 Y120.558 E20.36005
G1 X56.686 Y120.413 E20.37276
G1 X56.342 Y119.58 E20.4447
G1 X56.282 Y119.418 E20.45849
G1 X55.997 Y118.555 E20.53104
G1 X55.961 Y118.43 E20.54142
G1 X55.73 Y117.505 E20.61753
G1 X55.705 Y117.387 E20.62716
G1 X55.546 Y116.469 E20.70153
G1 X55.528 Y116.337 E20.71216
G1 X55.436 Y115.421 E20.78565
G1 X55.426 Y115.272 E20.79757
G1 X55.401 Y114.465 E20.86202
G1 X55.4 Y105.584 E21.57094
G1 X55.436 Y104.578 E21.65129
G1 X55.446 Y104.443 E21.6621
G1 X55.548 Y103.526 E21.73575
G1 X55.573 Y103.351 E21.74986
G1 X55.735 Y102.473 E21.82113
G1 X55.765 Y102.339 E21.83209
G1 X55.996 Y101.454 E21.9051
G1 X56.048 Y101.282 E21.91945
G1 X56.334 Y100.44 E21.99043
G1 X56.398 Y100.274 E22.00463
G1 X56.739 Y99.471 E22.07427
G1 X56.82 Y99.296 E22.08966
G1 X57.232 Y98.495 E22.16156
G1 X57.3 Y98.373 E22.17271
G1 X57.719 Y97.677 E22.23756
G1 X57.765 Y97.604 E22.24445
G1 X57.841 Y97.491 E22.25532
G1 X58.35 Y96.763 E22.32623
G1 X58.478 Y96.593 E22.34321
G1 X59.036 Y95.906 E22.41386
G1 X59.131 Y95.798 E22.42534
G1 X59.753 Y95.139 E22.49768
G1 X59.89 Y95.004 E22.51303
G1 X60.549 Y94.401 E22.58434
G1 X60.67 Y94.299 E22.59697
G1 X61.374 Y93.743 E22.66858
G1 X61.525 Y93.633 E22.68349
G1 X61.984 Y93.323 E22.7277
G0 F1620 X62.258 Y93.137
G0 F12000 X62.4 Y93.048
G1 F1800 X62.4 Y126.947 E25.43367
G1 F2700 E20.43367
G1 F300 Z0.74
G0 F12000 X64 Y127.807 Z0.74
G1 F300 Z0.24
G1 F2700 E25.43367
G1 F1800 X64 Y92.193 E28.27653
G1 F2700 E23.27653
G1 F300 Z0.74
G0 F12000 X65.6 Y91.469 Z0.74
G1 F300 Z0.24
G1 F2700 E28.27653
G1 F1800 X65.6 Y128.53 E31.2349
G1 F2700 E26.2349
G1 F300 Z0.74
G0 F12000 X67.2 Y129.25 Z0.74
G1 F300 Z0.24
G1 F2700 E31.2349
G1 F1800 X67.2 Y90.749 E34.30822
G1 F2700 E29.30822
G1 F300 Z0.74
G0 F12000 X68.8 Y90.029 Z0.74
G1 F300 Z0.24
G1 F2700 E34.30822
G1 F1800 X68.8 Y129.97 E37.49648
G1 F2700 E32.49648
G1 F300 Z0.74
G0 F12000 X70.4 Y130.69 Z0.74
G1 F300 Z0.24
G1 F2700 E37.49648
G1 F1800 X70.4 Y89.309 E40.79969
G1 F2700 E35.79969
G1 F300 Z0.74
G0 F12000 X72 Y88.589 Z0.74
G1 F300 Z0.24
G1 F2700 E40.79969
G1 F1800 X72 Y131.41 E44.21785
G1 F2700 E39.21785
G1 F300 Z0.74
G0 F12000 X73.6 Y132.13 Z0.74
G1 F300 Z0.24
G1 F2700 E44.21785
G1 F1800 X73.6 Y87.869 E47.75095
G1 F2700 E42.75095
G1 F300 Z0.74
G0 F12000 X75.2 Y87.149 Z0.74
G1 F300 Z0.24
G1 F2700 E47.75095
G1 F1800 X75.2 Y132.85 E51.399
G1 F2700 E46.399
G1 F300 Z0.74
G0 F12000 X76.8 Y133.57 Z0.74
G1 F300 Z0.24
G1 F2700 E51.399
G1 F1800 X76.8 Y86.429 E55.162
G1 F2700 E50.162
G1 F300 Z0.74
G0 F12000 X78.4 Y85.709 Z0.74
G1 F300 Z0.24
G1 F2700 E55.162
G1 F1800 X78.4 Y134.29 E59.03995
G1 F2700 E54.03995
G1 F300 Z0.74
G0 F12000 X80 Y135.01 Z0.74
G1 F300 Z0.24
G1 F2700 E59.03995
G1 F1800 X80 Y84.989 E63.03284
G1 F2700 E58.03284
G1 F300 Z0.74
G0 F12000 X81.6 Y84.269 Z0.74
G1 F300 Z0.24
G1 F2700 E63.03284
G1 F1800 X81.6 Y135.73 E67.14068
G1 F2700 E62.14068
G1 F300 Z0.74
G0 F12000 X83.2 Y136.45 Z0.74
G1 F300 Z0.24
G1 F2700 E67.14068
G1 F1800 X83.2 Y83.549 E71.36347
G1 F2700 E66.36347
G1 F300 Z0.74
G0 F12000 X84.8 Y82.829 Z0.74
G1 F300 Z0.24
G1 F2700 E71.36347
G1 F1800 X84.8 Y137.17 E75.7012
G1 F2700 E70.7012
G1 F300 Z0.74
G0 F12000 X86.4 Y137.89 Z0.74
G1 F300 Z0.24
G1 F2700 E75.7012
G1 F1800 X86.4 Y82.109 E80.15388
G1 F2700 E75.15388
G1 F300 Z0.74
G0 F12000 X88 Y81.389 Z0.74
G1 F300 Z0.24
G1 F2700 E80.15388
G1 F1800 X88 Y138.61 E84.72151
G1 F2700 E79.72151
G1 F300 Z0.74
G0 F12000 X89.6 Y139.33 Z0.74
G1 F300 Z0.24
G1 F2700 E84.72151
G1 F1800 X89.6 Y80.669 E89.40408
G1 F2700 E84.40408
G1 F300 Z0.74
G0 F12000 X91.2 Y79.949 Z0.74
G1 F300 Z0.24
G1 F2700 E89.40408
G1 F1800 X91.2 Y140.05 E94.2016
G1 F2700 E89.2016
G1 F300 Z0.74
G0 F12000 X92.8 Y140.77 Z0.74
G1 F300 Z0.24
G1 F2700 E94.2016
G1 F1800 X92.8 Y79.229 E99.11407
G1 F2700 E94.11407
G1 F300 Z0.74
G0 F12000 X94.4 Y78.509 Z0.74
G1 F300 Z0.24
G1 F2700 E99.11407
G1 F1800 X94.4 Y141.49 E104.14149
G1 F2700 E99.14149
G1 F300 Z0.74
G0 F12000 X96 Y142.21 Z0.74
G1 F300 Z0.24
G1 F2700 E104.14149
G1 F1800 X96 Y77.789 E109.28385
G1 F2700 E104.28385
G1 F300 Z0.74
G0 F12000 X97.6 Y77.069 Z0.74
G1 F300 Z0.24
G1 F2700 E109.28385
G1 F1800 X97.6 Y142.93 E114.54116
G1 F2700 E109.54116
G1 F300 Z0.74
G0 F12000 X99.2 Y143.65 Z0.74
G1 F300 Z0.24
G1 F2700 E114.54116
G1 F1800 X99.2 Y76.349 E119.91342
G1 F2700 E114.91342
G1 F300 Z0.74
G0 F12000 X100.8 Y75.629 Z0.74
G1 F300 Z0.24
G1 F2700 E119.91342
G1 F1800 X100.8 Y144.37 E125.40062
G1 F2700 E120.40062
G1 F300 Z0.74
G0 F12000 X102.4 Y145.09 Z0.74
G1 F300 Z0.24
G1 F2700 E125.40062
G1 F1800 X102.4 Y74.909 E131.00277
G1 F2700 E126.00277
G1 F300 Z0.74
G0 F12000 X104 Y74.192 Z0.74
G1 F300 Z0.24
G1 F2700 E131.00277
G1 F1800 X104 Y145.808 E136.71947
G1 F2700 E131.71947
G1 F300 Z0.74
G0 F12000 X105.6 Y146.409 Z0.74
G1 F300 Z0.24
G1 F2700 E136.71947
G1 F1800 X105.6 Y73.594 E142.53188
G1 F2700 E137.53188
G1 F300 Z0.74
G0 F12000 X107.2 Y73.186 Z0.74
G1 F300 Z0.24
G1 F2700 E142.53188
G1 F1800 X107.2 Y146.808 E148.40871
G1 F2700 E143.40871
G1 F300 Z0.74
G0 F12000 X108.8 Y147.031 Z0.74
G1 F300 Z0.24
G1 F2700 E148.40871
G1 F1800 X108.8 Y72.972 E154.32042
G1 F2700 E149.32042
G1 F300 Z0.74
G0 F12000 X110.4 Y72.933 Z0.74
G1 F300 Z0.24
G1 F2700 E154.32042
G1 F1800 X110.4 Y147.07 E160.23835
G1 F2700 E155.23835
G1 F300 Z0.74
G0 F12000 X112 Y146.947 Z0.74
G1 F300 Z0.24
G1 F2700 E160.23835
G1 F1800 X112 Y73.058 E166.13649
G1 F2700 E161.13649
G1 F300 Z0.74
G0 F12000 X113.6 Y73.37 Z0.74
G1 F300 Z0.24
G1 F2700 E166.13649
G1 F1800 X113.6 Y146.631 E171.9845
G1 F2700 E166.9845
G1 F300 Z0.74
G0 F12000 X115.2 Y146.135 Z0.74
G1 F300 Z0.24
G1 F2700 E171.9845
G1 F1800 X115.2 Y73.864 E177.75349
G1 F2700 E172.75349
G1 F300 Z0.74
G0 F12000 X116.8 Y74.55 Z0.74
G1 F300 Z0.24
G1 F2700 E177.75349
G1 F1800 X116.8 Y145.45 E183.41303
G1 F2700 E178.41303
G1 F300 Z0.74
G0 F12000 X118.4 Y144.73 Z0.74
G1 F300 Z0.24
G1 F2700 E183.41303
G1 F1800 X118.4 Y75.27 E188.95763
G1 F2700 E183.95763
G1 F300 Z0.74
G0 F12000 X120 Y75.99 Z0.74
G1 F300 Z0.24
G1 F2700 E188.95763
G1 F1800 X120 Y144.01 E194.38728
G1 F2700 E189.38728
G1 F300 Z0.74
G0 F12000 X121.6 Y143.29 Z0.74
G1 F300 Z0.24
G1 F2700 E194.38728
G1 F1800 X121.6 Y76.71 E199.70198
G1 F2700 E194.70198
G1 F300 Z0.74
G0 F12000 X123.2 Y77.43 Z0.74
G1 F300 Z0.24
G1 F2700 E199.70198
G1 F1800 X123.2 Y142.57 E204.90174
G1 F2700 E199.90174
G1 F300 Z0.74
G0 F12000 X124.8 Y141.85 Z0.74
G1 F300 Z0.24
G1 F2700 E204.90174
G1 F1800 X124.8 Y78.15 E209.98655
G1 F2700 E204.98655
G1 F300 Z0.74
G0 F12000 X126.4 Y78.87 Z0.74
G1 F300 Z0.24
G1 F2700 E209.98655
G1 F1800 X126.4 Y141.13 E214.95641
G1 F2700 E209.95641
G1 F300 Z0.74
G0 F12000 X128 Y140.41 Z0.74
G1 F300 Z0.24
G1 F2700 E214.95641
G1 F1800 X128 Y79.59 E219.81133
G1 F2700 E214.81133
G1 F300 Z0.74
G0 F12000 X129.6 Y80.31 Z0.74
G1 F300 Z0.24
G1 F2700 E219.81133
G1 F1800 X129.6 Y139.69 E224.55129
G1 F2700 E219.55129
G1 F300 Z0.74
G0 F12000 X131.2 Y138.97 Z0.74
G1 F300 Z0.24
G1 F2700 E224.55129
G1 F1800 X131.2 Y81.03 E229.17631
G1 F2700 E224.17631
G1 F300 Z0.74
G0 F12000 X132.8 Y81.75 Z0.74
G1 F300 Z0.24
G1 F2700 E229.17631
G1 F1800 X132.8 Y138.25 E233.68639
G1 F2700 E228.68639
G1 F300 Z0.74
G0 F12000 X134.4 Y137.53 Z0.74
G1 F300 Z0.24
G1 F2700 E233.68639
G1 F1800 X134.4 Y82.47 E238.08152
G1 F2700 E233.08152
G1 F300 Z0.74
G0 F12000 X136 Y83.19 Z0.74
G1 F300 Z0.24
G1 F2700 E238.08152
G1 F1800 X136 Y136.81 E242.3617
G1 F2700 E237.3617
G1 F300 Z0.74
G0 F12000 X137.6 Y136.09 Z0.74
G1 F300 Z0.24
G1 F2700 E242.3617
G1 F1800 X137.6 Y83.91 E246.52693
G1 F2700 E241.52693
G1 F300 Z0.74
G0 F12000 X139.2 Y84.63 Z0.74
G1 F300 Z0.24
G1 F2700 E246.52693
G1 F1800 X139.2 Y135.37 E250.57722
G1 F2700 E245.57722
G1 F300 Z0.74
G0 F12000 X140.8 Y134.65 Z0.74
G1 F300 Z0.24
G1 F2700 E250.57722
G1 F1800 X140.8 Y85.35 E254.51256
G1 F2700 E249.51256
G1 F300 Z0.74
G0 F12000 X142.4 Y86.07 Z0.74
G1 F300 Z0.24
G1 F2700 E254.51256
G1 F1800 X142.4 Y133.93 E258.33295
G1 F2700 E253.33295
G1 F300 Z0.74
G0 F12000 X144 Y133.21 Z0.74
G1 F300 Z0.24
G1 F2700 E258.33295
G1 F1800 X144 Y86.79 E262.03839
G1 F2700 E257.03839
G1 F300 Z0.74
G0 F12000 X145.6 Y87.51 Z0.74
G1 F300 Z0.24
G1 F2700 E262.03839
G1 F1800 X145.6 Y132.491 E265.62897
G1 F2700 E260.62897
G1 F300 Z0.74
G0 F12000 X147.2 Y131.771 Z0.74
G1 F300 Z0.24
G1 F2700 E265.62897
G1 F1800 X147.2 Y88.23 E269.1046
G1 F2700 E264.1046
G1 F300 Z0.74
G0 F12000 X148.8 Y88.95 Z0.74
G1 F300 Z0.24
G1 F2700 E269.1046
G1 F1800 X148.8 Y131.051 E272.46529
G1 F2700 E267.46529
G1 F300 Z0.74
G0 F12000 X150.4 Y130.331 Z0.74
G1 F300 Z0.24
G1 F2700 E272.46529
G1 F1800 X150.4 Y89.67 E275.71102
G1 F2700 E270.71102
G1 F300 Z0.74
G0 F12000 X152 Y90.39 Z0.74
G1 F300 Z0.24
G1 F2700 E275.71102
G1 F1800 X152 Y129.611 E278.84181
G1 F2700 E273.84181
G1 F300 Z0.74
G0 F12000 X153.6 Y128.891 Z0.74
G1 F300 Z0.24
G1 F2700 E278.84181
G1 F1800 X153.6 Y91.11 E281.85765
G1 F2700 E276.85765
G1 F300 Z0.74
G0 F12000 X155.2 Y91.83 Z0.74
G1 F300 Z0.24
G1 F2700 E281.85765
G1 F1800 X155.2 Y128.171 E284.75855
G1 F2700 E279.75855
G1 F300 Z0.74
G0 F12000 X156.8 Y127.411 Z0.74
G1 F300 Z0.24
G1 F2700 E284.75855
G1 F1800 X156.8 Y92.59 E287.53811
G1 F2700 E282.53811
G1 F300 Z0.74
G0 F12000 X158.4 Y93.586 Z0.74
G1 F300 Z0.24
G1 F2700 E287.53811
G1 F1800 X158.4 Y126.418 E290.15891
G1 F2700 E285.15891
G1 F300 Z0.74
G0 F12000 X160 Y125.097 Z0.74
G1 F300 Z0.24
G1 F2700 E290.15891
G1 F1800 X160 Y94.907 E292.5688
G1 F2700 E287.5688
G1 F300 Z0.74
G0 F12000 X161.6 Y96.697 Z0.74
G1 F300 Z0.24
G1 F2700 E292.5688
G1 F1800 X161.6 Y123.304 E294.69269
G1 F2700 E289.69269
G1 F300 Z0.74
G0 F12000 X163.2 Y120.661 Z0.74
G1 F300 Z0.24
G1 F2700 E294.69269
G1 F1800 X163.2 Y99.347 E296.39406
G1 F2700 E291.39406
G1 F300 Z0.74
G0 F12000 X60.8 Y94.196 Z0.74
G1 F300 Z0.24
G1 F2700 E296.39406
G1 F1800 X60.8 Y125.8 E298.91683
G1 F2700 E293.91683
G1 F300 Z0.74
G0 F12000 X59.2 Y124.269 Z0.74
G1 F300 Z0.24
G1 F2700 E298.91683
G1 F1800 X59.2 Y95.724 E301.19542
G1 F2700 E296.19542
G1 F300 Z0.74
G0 F12000 X57.6 Y97.874 Z0.74
G1 F300 Z0.24
G1 F2700 E301.19542
G1 F1800 X57.6 Y122.122 E303.131
G1 F2700 E298.131
G1 F300 Z0.74
G0 F12000 X56 Y118.564 Z0.74
G1 F300 Z0.24
G1 F2700 E303.131
G1 F1800 X56 Y101.44 E304.49791
G1 F2700 E299.49791
G1 F300 Z0.74
G0 F12000 X59.042 Y124.099 Z0.74
;TIME_ELAPSED:174.210323
;LAYER:-5
M140 S65
G0 X59.042 Y124.099 Z1.04
;TYPE:SUPPORT
G1 F300 Z0.54
G1 F2700 E304.49791
G1 F1800 X59.664 Y124.772 E304.58935
G1 X59.776 Y124.884 E304.60515
G1 X60.421 Y125.485 E304.69312
G1 X60.494 Y125.548 E304.70274
G1 X59.025 Y124.079 E304.91003
G1 X58.933 Y123.971 E304.92419
G1 X58.379 Y123.276 E305.01287
G1 X58.272 Y123.134 E305.03061
G1 X57.778 Y122.416 E305.11757
G1 X57.702 Y122.294 E305.13192
G1 X57.238 Y121.517 E305.22222
G1 X57.156 Y121.364 E305.23954
G1 X56.752 Y120.557 E305.32959
G1 X56.685 Y120.411 E305.34562
G1 X56.624 Y120.264 E305.3615
G1 X64.307 Y127.947 E306.44565
G1 X66.879 Y129.104 E306.72706
G1 X55.879 Y118.105 E308.27921
G1 X55.729 Y117.504 E308.34101
G1 X55.705 Y117.386 E308.35303
G1 X55.545 Y116.468 E308.44601
G1 X55.527 Y116.338 E308.4591
