;FLAVOR:Marlin
;TIME:10646
;Filament used: 8.60673m
;Layer height: 0.2
;MINX:82.2
;MINY:82.2
;MINZ:0.2
;MAXX:137.8
;MAXY:137.8
;MAXZ:55.5
;Generated with Cura_SteamEngine master
M140 S70
M105
M190 S70
M104 S200
M105
M109 S200
M82 ;absolute extrusion mode
M201 X500.00 Y500.00 Z100.00 E5000.00 ;Setup machine max acceleration
M203 X500.00 Y500.00 Z10.00 E50.00 ;Setup machine max feedrate
M204 P500.00 R1000.00 T500.00 ;Setup Print/Retract/Travel acceleration
M205 X8.00 Y8.00 Z0.40 E5.00 ;Setup Jerk
M220 S100 ;Reset Feedrate
M221 S100 ;Reset Flowrate

G28 ;Home

G92 E0 ;Reset Extruder
G1 Z2.0 F3000 ;Move Z Axis up
G1 X10.1 Y20 Z0.28 F5000.0 ;Move to start position
G1 X10.1 Y200.0 Z0.28 F1500.0 E15 ;Draw the first line
G1 X10.4 Y200.0 Z0.28 F5000.0 ;Move to side a little
G1 X10.4 Y20 Z0.28 F1500.0 E30 ;Draw the second line
G92 E0 ;Reset Extruder
G1 Z2.0 F3000 ;Move Z Axis up

G92 E0
G92 E0
G1 F2700 E-5
;LAYER_COUNT:275
;LAYER:0
M107
G1 F300 Z0.7
G0 F6000 X84.485 Y84.602 Z0.7
;TYPE:SKIRT
G1 F300 Z0.2
G1 F2700 E0
G1 F600 X84.602 Y84.485 E0.0055
G1 X85.188 Y83.955 E0.03178
G1 X85.824 Y83.488 E0.05803
G1 X86.504 Y83.087 E0.08428
G1 X87.222 Y82.757 E0.11057
G1 X87.969 Y82.502 E0.13682
G1 X88.738 Y82.323 E0.16308
G1 X89.522 Y82.223 E0.18937
G1 X90.117 Y82.2 E0.20917
G1 X94.883 Y82.2 E0.36769
G1 X95.293 Y82.221 E0.38134
G1 X95.398 Y82.21 E0.38485
G1 X95.8 Y82.2 E0.39823
G1 X124.2 Y82.201 E1.34282
G1 X124.586 Y82.221 E1.35567
G1 X125.117 Y82.2 E1.37335
G1 X129.883 Y82.2 E1.53187
G1 X130.672 Y82.24 E1.55814
G1 X131.452 Y82.359 E1.58438
G1 X132.217 Y82.557 E1.61067
G1 X132.957 Y82.831 E1.63691
G1 X133.666 Y83.179 E1.66318
G1 X134.337 Y83.597 E1.68948
G1 X134.961 Y84.08 E1.71572
G1 X135.398 Y84.485 E1.73554
G1 X135.515 Y84.602 E1.74104
G1 X136.045 Y85.188 E1.76732
G1 X136.512 Y85.824 E1.79356
G1 X136.913 Y86.504 E1.81982
G1 X137.243 Y87.222 E1.8461
G1 X137.498 Y87.969 E1.87236
G1 X137.677 Y88.738 E1.89862
G1 X137.777 Y89.522 E1.9249
G1 X137.8 Y90.117 E1.94471
G1 X137.8 Y129.883 E3.26733
G1 X137.76 Y130.672 E3.29361
G1 X137.641 Y131.452 E3.31985
G1 X137.443 Y132.217 E3.34613
G1 X137.169 Y132.957 E3.37238
G1 X136.821 Y133.666 E3.39865
G1 X136.403 Y134.337 E3.42494
G1 X135.92 Y134.961 E3.45119
G1 X135.515 Y135.398 E3.471
G1 X135.398 Y135.515 E3.47651
G1 X134.812 Y136.045 E3.50279
G1 X134.176 Y136.512 E3.52903
G1 X133.496 Y136.913 E3.55529
G1 X132.778 Y137.243 E3.58157
G1 X132.031 Y137.498 E3.60782
G1 X131.262 Y137.677 E3.63408
G1 X130.478 Y137.777 E3.66037
G1 X129.883 Y137.8 E3.68017
G1 X125.117 Y137.8 E3.83869
G1 X124.707 Y137.779 E3.85235
G1 X124.602 Y137.79 E3.85586
G1 X124.2 Y137.8 E3.86923
G1 X95.8 Y137.799 E4.81382
G1 X95.414 Y137.779 E4.82668
G1 X94.883 Y137.8 E4.84435
G1 X90.117 Y137.8 E5.00287
G1 X89.328 Y137.76 E5.02914
G1 X88.548 Y137.641 E5.05539
G1 X87.783 Y137.443 E5.08167
G1 X87.043 Y137.169 E5.10792
G1 X86.334 Y136.821 E5.13418
G1 X85.663 Y136.403 E5.16048
G1 X85.039 Y135.92 E5.18672
G1 X84.602 Y135.515 E5.20654
G1 X84.485 Y135.398 E5.21204
G1 X83.955 Y134.812 E5.23832
G1 X83.488 Y134.176 E5.26457
G1 X83.087 Y133.496 E5.29082
G1 X82.757 Y132.778 E5.31711
G1 X82.502 Y132.031 E5.34336
G1 X82.323 Y131.262 E5.36962
G1 X82.223 Y130.478 E5.39591
G1 X82.2 Y129.883 E5.41571
G1 X82.2 Y90.117 E6.73833
G1 X82.24 Y89.328 E6.76461
G1 X82.359 Y88.548 E6.79085
G1 X82.557 Y87.783 E6.81714
G1 X82.831 Y87.043 E6.84338
G1 X83.179 Y86.334 E6.86965
G1 X83.597 Y85.663 E6.89594
G1 X84.08 Y85.039 E6.92219
G1 X84.485 Y84.602 E6.94201
G0 F6000 X84.767 Y84.884
G1 F600 X84.884 Y84.767 E6.94751
G1 X85.456 Y84.253 E6.97309
G1 X86.078 Y83.8 E6.99868
G1 X86.743 Y83.414 E7.02425
G1 X87.445 Y83.099 E7.04984
G1 X88.176 Y82.859 E7.07543
G1 X88.927 Y82.696 E7.10099
G1 X89.692 Y82.612 E7.12659
G1 X90.117 Y82.6 E7.14073
G1 X94.883 Y82.6 E7.29925
G1 X95.365 Y82.625 E7.3153
G1 X95.8 Y82.6 E7.3298
G1 X124.2 Y82.601 E8.27438
G1 X124.602 Y82.622 E8.28777
G1 X124.692 Y82.612 E8.29078
G1 X125.117 Y82.6 E8.30493
G1 X129.883 Y82.6 E8.46344
G1 X130.651 Y82.64 E8.48902
G1 X131.411 Y82.759 E8.51461
G1 X132.154 Y82.957 E8.54018
G1 X132.873 Y83.231 E8.56577
G1 X133.559 Y83.578 E8.59134
G1 X134.206 Y83.994 E8.61693
G1 X134.806 Y84.475 E8.6425
G1 X135.116 Y84.767 E8.65667
G1 X135.233 Y84.884 E8.66217
G1 X135.747 Y85.456 E8.68775
G1 X136.2 Y86.078 E8.71334
G1 X136.586 Y86.743 E8.73892
G1 X136.901 Y87.445 E8.76451
G1 X137.141 Y88.176 E8.7901
G1 X137.304 Y88.927 E8.81566
G1 X137.388 Y89.692 E8.84125
G1 X137.4 Y90.117 E8.8554
G1 X137.4 Y129.883 E10.17802
G1 X137.36 Y130.651 E10.2036
G1 X137.241 Y131.411 E10.22918
G1 X137.043 Y132.154 E10.25476
G1 X136.769 Y132.873 E10.28035
G1 X136.422 Y133.559 E10.30592
G1 X136.006 Y134.206 E10.3315
G1 X135.525 Y134.806 E10.35708
G1 X135.233 Y135.116 E10.37124
G1 X135.116 Y135.233 E10.37675
G1 X134.544 Y135.747 E10.40232
G1 X133.922 Y136.2 E10.42792
G1 X133.257 Y136.586 E10.45349
G1 X132.555 Y136.901 E10.47908
G1 X131.824 Y137.141 E10.50467
G1 X131.073 Y137.304 E10.53023
G1 X130.308 Y137.388 E10.55583
G1 X129.883 Y137.4 E10.56997
G1 X125.117 Y137.4 E10.72849
G1 X124.635 Y137.375 E10.74454
G1 X124.2 Y137.4 E10.75903
G1 X95.8 Y137.399 E11.70362
G1 X95.398 Y137.378 E11.71701
G1 X95.308 Y137.388 E11.72002
G1 X94.883 Y137.4 E11.73416
G1 X90.117 Y137.4 E11.89268
G1 X89.349 Y137.36 E11.91826
G1 X88.589 Y137.241 E11.94384
G1 X87.846 Y137.043 E11.96942
G1 X87.127 Y136.769 E11.99501
G1 X86.441 Y136.422 E12.02058
G1 X85.794 Y136.006 E12.04616
G1 X85.194 Y135.525 E12.07174
G1 X84.884 Y135.233 E12.0859
G1 X84.767 Y135.116 E12.09141
G1 X84.253 Y134.544 E12.11699
G1 X83.8 Y133.922 E12.14258
G1 X83.414 Y133.257 E12.16815
G1 X83.099 Y132.555 E12.19374
G1 X82.859 Y131.824 E12.21933
G1 X82.696 Y131.073 E12.24489
G1 X82.612 Y130.308 E12.27049
G1 X82.6 Y129.883 E12.28463
G1 X82.6 Y90.117 E13.60725
G1 X82.64 Y89.349 E13.63283
G1 X82.759 Y88.589 E13.65842
G1 X82.957 Y87.846 E13.68399
G1 X83.231 Y87.127 E13.70959
G1 X83.578 Y86.441 E13.73515
G1 X83.994 Y85.794 E13.76074
G1 X84.475 Y85.194 E13.78632
G1 X84.767 Y84.884 E13.80048
G0 F6000 X85.05 Y85.167
G1 F600 X85.167 Y85.05 E13.80598
G1 X85.724 Y84.55 E13.83088
G1 X86.33 Y84.113 E13.85573
G1 X86.98 Y83.742 E13.88062
G1 X87.666 Y83.443 E13.90551
G1 X88.38 Y83.219 E13.9304
G1 X89.113 Y83.072 E13.95526
G1 X90.117 Y83 E13.98874
G1 X94.883 Y83 E14.14726
G1 X95.27 Y83.021 E14.16015
G1 X95.283 Y83.019 E14.16059
G1 X95.8 Y83 E14.1778
G1 X124.2 Y83.001 E15.12238
G1 X124.717 Y83.029 E15.1396
G1 X125.117 Y83 E15.15294
G1 X129.883 Y83 E15.31146
G1 X130.63 Y83.04 E15.33634
G1 X131.368 Y83.159 E15.36121
G1 X132.09 Y83.357 E15.38611
G1 X132.786 Y83.63 E15.41097
G1 X133.449 Y83.977 E15.43586
G1 X134.072 Y84.392 E15.46076
G1 X134.833 Y85.05 E15.49422
G1 X134.95 Y85.167 E15.49972
G1 X135.45 Y85.724 E15.52462
G1 X135.887 Y86.33 E15.54947
G1 X136.258 Y86.98 E15.57436
G1 X136.557 Y87.666 E15.59925
G1 X136.781 Y88.38 E15.62414
G1 X136.928 Y89.113 E15.649
G1 X137 Y90.117 E15.68248
G1 X137 Y129.883 E17.0051
G1 X136.96 Y130.63 E17.02999
G1 X136.841 Y131.368 E17.05485
G1 X136.643 Y132.09 E17.07975
G1 X136.37 Y132.786 E17.10462
G1 X136.023 Y133.449 E17.1295
G1 X135.608 Y134.072 E17.1544
G1 X134.95 Y134.833 E17.18786
G1 X134.833 Y134.95 E17.19337
G1 X134.276 Y135.45 E17.21826
G1 X133.67 Y135.887 E17.24311
G1 X133.02 Y136.258 E17.268
G1 X132.334 Y136.557 E17.29289
G1 X131.62 Y136.781 E17.31778
G1 X130.887 Y136.928 E17.34265
G1 X129.883 Y137 E17.37613
G1 X125.117 Y137 E17.53464
G1 X124.73 Y136.979 E17.54753
G1 X124.717 Y136.981 E17.54797
G1 X124.2 Y137 E17.56518
G1 X95.8 Y136.999 E18.50977
G1 X95.283 Y136.971 E18.52699
G1 X94.883 Y137 E18.54033
G1 X90.117 Y137 E18.69884
G1 X89.37 Y136.96 E18.72373
G1 X88.632 Y136.841 E18.74859
G1 X87.91 Y136.643 E18.77349
G1 X87.214 Y136.37 E18.79835
G1 X86.551 Y136.023 E18.82324
G1 X85.928 Y135.608 E18.84814
G1 X85.167 Y134.95 E18.8816
G1 X85.05 Y134.833 E18.88711
G1 X84.55 Y134.276 E18.912
G1 X84.113 Y133.67 E18.93685
G1 X83.742 Y133.02 E18.96174
G1 X83.443 Y132.334 E18.98663
G1 X83.219 Y131.62 E19.01152
G1 X83.072 Y130.887 E19.03639
G1 X83 Y129.883 E19.06987
G1 X83 Y90.117 E20.39249
G1 X83.04 Y89.37 E20.41737
G1 X83.159 Y88.632 E20.44223
G1 X83.357 Y87.91 E20.46713
G1 X83.63 Y87.214 E20.492
G1 X83.977 Y86.551 E20.51689
G1 X84.392 Y85.928 E20.54179
G1 X85.05 Y85.167 E20.57525
G0 F6000 X85.333 Y85.45
G1 F600 X85.45 Y85.333 E20.58075
G1 X85.991 Y84.849 E20.60489
G1 X86.582 Y84.426 E20.62907
G1 X87.216 Y84.072 E20.65322
G1 X87.885 Y83.789 E20.67738
G1 X88.581 Y83.581 E20.70154
G1 X89.296 Y83.451 E20.72571
G1 X90.117 Y83.4 E20.75307
G1 X94.883 Y83.4 E20.91159
G1 X95.395 Y83.428 E20.92864
G1 X95.8 Y83.4 E20.94214
G1 X124.2 Y83.401 E21.88673
G1 X124.677 Y83.427 E21.90262
G1 X125.117 Y83.4 E21.91728
G1 X129.883 Y83.4 E22.0758
G1 X130.608 Y83.44 E22.09995
G1 X131.325 Y83.559 E22.12412
G1 X132.024 Y83.757 E22.14829
G1 X132.697 Y84.03 E22.17244
G1 X133.336 Y84.375 E22.19659
G1 X133.933 Y84.789 E22.22076
G1 X134.55 Y85.333 E22.24812
G1 X134.667 Y85.45 E22.25362
G1 X135.151 Y85.991 E22.27776
G1 X135.574 Y86.582 E22.30194
G1 X135.928 Y87.216 E22.32609
G1 X136.211 Y87.885 E22.35025
G1 X136.419 Y88.581 E22.37441
G1 X136.549 Y89.296 E22.39858
G1 X136.6 Y90.117 E22.42594
G1 X136.6 Y129.883 E23.74856
G1 X136.56 Y130.608 E23.77271
G1 X136.441 Y131.325 E23.79689
G1 X136.243 Y132.024 E23.82105
G1 X135.97 Y132.697 E23.8452
G1 X135.625 Y133.336 E23.86936
G1 X135.211 Y133.933 E23.89352
G1 X134.667 Y134.55 E23.92088
G1 X134.55 Y134.667 E23.92638
G1 X134.009 Y135.151 E23.95053
G1 X133.418 Y135.574 E23.9747
G1 X132.784 Y135.928 E23.99885
G1 X132.115 Y136.211 E24.02301
G1 X131.419 Y136.419 E24.04717
G1 X130.704 Y136.549 E24.07134
G1 X129.883 Y136.6 E24.0987
G1 X125.117 Y136.6 E24.25722
G1 X124.605 Y136.572 E24.27427
G1 X124.2 Y136.6 E24.28778
G1 X95.8 Y136.599 E25.23237
G1 X95.323 Y136.573 E25.24825
G1 X94.883 Y136.6 E25.26292
G1 X90.117 Y136.6 E25.42143
G1 X89.392 Y136.56 E25.44558
G1 X88.675 Y136.441 E25.46976
G1 X87.976 Y136.243 E25.49392
G1 X87.303 Y135.97 E25.51808
G1 X86.664 Y135.625 E25.54223
G1 X86.067 Y135.211 E25.56639
G1 X85.45 Y134.667 E25.59375
G1 X85.333 Y134.55 E25.59926
G1 X84.849 Y134.009 E25.6234
G1 X84.426 Y133.418 E25.64757
G1 X84.072 Y132.784 E25.67172
G1 X83.789 Y132.115 E25.69588
G1 X83.581 Y131.419 E25.72004
G1 X83.451 Y130.704 E25.74421
G1 X83.4 Y129.883 E25.77157
G1 X83.4 Y90.117 E27.0942
G1 X83.44 Y89.392 E27.11835
G1 X83.559 Y88.675 E27.14252
G1 X83.757 Y87.976 E27.16668
G1 X84.03 Y87.303 E27.19084
G1 X84.375 Y86.664 E27.21499
G1 X84.789 Y86.067 E27.23916
G1 X85.333 Y85.45 E27.26652
G0 F6000 X85.616 Y85.733
G1 F600 X85.733 Y85.616 E27.27202
G1 X86.258 Y85.147 E27.29543
G1 X86.833 Y84.741 E27.31884
G1 X87.451 Y84.403 E27.34227
G1 X88.102 Y84.136 E27.36568
G1 X88.78 Y83.946 E27.38909
G1 X89.475 Y83.833 E27.41251
G1 X90.117 Y83.8 E27.4339
G1 X94.883 Y83.8 E27.59241
G1 X95.295 Y83.823 E27.60614
G1 X95.8 Y83.8 E27.62295
G1 X124.2 Y83.801 E28.56754
G1 X124.626 Y83.825 E28.58173
G1 X125.117 Y83.8 E28.59808
G1 X129.883 Y83.8 E28.7566
G1 X130.586 Y83.84 E28.78002
G1 X131.28 Y83.959 E28.80344
G1 X131.955 Y84.157 E28.82684
G1 X132.604 Y84.429 E28.85024
G1 X133.218 Y84.774 E28.87367
G1 X133.789 Y85.185 E28.89706
G1 X134.267 Y85.616 E28.91847
G1 X134.384 Y85.733 E28.92398
G1 X134.853 Y86.258 E28.94739
G1 X135.259 Y86.833 E28.9708
G1 X135.597 Y87.451 E28.99423
G1 X135.864 Y88.102 E29.01763
G1 X136.054 Y88.78 E29.04105
G1 X136.167 Y89.475 E29.06447
G1 X136.2 Y90.117 E29.08585
G1 X136.2 Y129.883 E30.40847
G1 X136.16 Y130.586 E30.43189
G1 X136.041 Y131.28 E30.45531
G1 X135.843 Y131.955 E30.47871
G1 X135.571 Y132.604 E30.50211
G1 X135.226 Y133.218 E30.52554
G1 X134.815 Y133.789 E30.54894
G1 X134.384 Y134.267 E30.57035
G1 X134.267 Y134.384 E30.57585
G1 X133.742 Y134.853 E30.59926
G1 X133.167 Y135.259 E30.62268
G1 X132.549 Y135.597 E30.6461
G1 X131.898 Y135.864 E30.66951
G1 X131.22 Y136.054 E30.69293
G1 X130.525 Y136.167 E30.71634
G1 X129.883 Y136.2 E30.73773
G1 X125.117 Y136.2 E30.89624
G1 X124.705 Y136.177 E30.90997
G1 X124.2 Y136.2 E30.92678
G1 X95.8 Y136.199 E31.87137
G1 X95.374 Y136.175 E31.88556
G1 X94.883 Y136.2 E31.90191
G1 X90.117 Y136.2 E32.06043
G1 X89.414 Y136.16 E32.08385
G1 X88.72 Y136.041 E32.10727
G1 X88.045 Y135.843 E32.13067
G1 X87.396 Y135.571 E32.15407
G1 X86.782 Y135.226 E32.1775
G1 X86.211 Y134.815 E32.2009
G1 X85.733 Y134.384 E32.2223
G1 X85.616 Y134.267 E32.22781
G1 X85.147 Y133.742 E32.25122
G1 X84.741 Y133.167 E32.27463
G1 X84.403 Y132.549 E32.29806
G1 X84.136 Y131.898 E32.32146
G1 X83.946 Y131.22 E32.34488
G1 X83.833 Y130.525 E32.3683
G1 X83.8 Y129.883 E32.38968
G1 X83.8 Y90.117 E33.7123
G1 X83.84 Y89.414 E33.73572
G1 X83.959 Y88.72 E33.75914
G1 X84.157 Y88.045 E33.78254
G1 X84.429 Y87.396 E33.80595
G1 X84.774 Y86.782 E33.82937
G1 X85.185 Y86.211 E33.85277
G1 X85.616 Y85.733 E33.87418
G0 F6000 X85.899 Y86.016
G1 F600 X86.016 Y85.899 E33.87968
G1 X86.525 Y85.446 E33.90234
G1 X87.083 Y85.057 E33.92497
G1 X87.683 Y84.735 E33.94761
G1 X88.317 Y84.486 E33.97027
G1 X88.976 Y84.313 E33.99293
G1 X89.65 Y84.219 E34.01557
G1 X90.117 Y84.2 E34.03111
G1 X94.883 Y84.2 E34.18963
G1 X95.413 Y84.231 E34.20729
G1 X95.8 Y84.2 E34.2202
G1 X124.2 Y84.201 E35.16479
G1 X124.607 Y84.225 E35.17835
G1 X124.65 Y84.219 E35.17979
G1 X125.117 Y84.2 E35.19534
G1 X129.883 Y84.2 E35.35385
G1 X130.563 Y84.24 E35.37651
G1 X131.233 Y84.359 E35.39914
G1 X131.885 Y84.556 E35.4218
G1 X132.509 Y84.828 E35.44444
G1 X133.097 Y85.172 E35.4671
G1 X133.641 Y85.582 E35.48975
G1 X133.984 Y85.899 E35.50529
G1 X134.101 Y86.016 E35.51079
G1 X134.554 Y86.525 E35.53345
G1 X134.943 Y87.083 E35.55608
G1 X135.265 Y87.683 E35.57873
G1 X135.514 Y88.317 E35.60138
G1 X135.687 Y88.976 E35.62404
G1 X135.781 Y89.65 E35.64668
G1 X135.8 Y90.117 E35.66222
G1 X135.8 Y129.883 E36.98484
G1 X135.76 Y130.563 E37.0075
G1 X135.641 Y131.233 E37.03013
G1 X135.444 Y131.885 E37.05279
G1 X135.172 Y132.509 E37.07543
G1 X134.828 Y133.097 E37.09808
G1 X134.418 Y133.641 E37.12074
G1 X134.101 Y133.984 E37.13628
G1 X133.984 Y134.101 E37.14178
G1 X133.475 Y134.554 E37.16444
G1 X132.917 Y134.943 E37.18707
G1 X132.317 Y135.265 E37.20971
G1 X131.683 Y135.514 E37.23237
G1 X131.024 Y135.687 E37.25503
G1 X130.35 Y135.781 E37.27766
G1 X129.883 Y135.8 E37.29321
G1 X125.117 Y135.8 E37.45173
G1 X124.587 Y135.769 E37.46939
G1 X124.2 Y135.8 E37.4823
G1 X95.8 Y135.799 E38.42689
G1 X95.393 Y135.775 E38.44045
G1 X95.35 Y135.781 E38.44189
G1 X94.883 Y135.8 E38.45744
G1 X90.117 Y135.8 E38.61595
G1 X89.437 Y135.76 E38.63861
G1 X88.767 Y135.641 E38.66124
G1 X88.115 Y135.444 E38.6839
G1 X87.491 Y135.172 E38.70654
G1 X86.903 Y134.828 E38.7292
G1 X86.359 Y134.418 E38.75185
G1 X86.016 Y134.101 E38.76739
G1 X85.899 Y133.984 E38.77289
G1 X85.446 Y133.475 E38.79555
G1 X85.057 Y132.917 E38.81818
G1 X84.735 Y132.317 E38.84083
G1 X84.486 Y131.683 E38.86348
G1 X84.313 Y131.024 E38.88614
G1 X84.219 Y130.35 E38.90878
G1 X84.2 Y129.883 E38.92432
G1 X84.2 Y90.117 E40.24694
G1 X84.24 Y89.437 E40.2696
G1 X84.359 Y88.767 E40.29223
G1 X84.556 Y88.115 E40.31489
G1 X84.828 Y87.491 E40.33753
G1 X85.172 Y86.903 E40.36018
G1 X85.582 Y86.359 E40.38284
G1 X85.899 Y86.016 E40.39838
G0 F6000 X86.182 Y86.299
G1 F600 X86.299 Y86.182 E40.40388
G1 X86.791 Y85.746 E40.42574
G1 X87.332 Y85.374 E40.44758
G1 X87.914 Y85.07 E40.46942
G1 X88.529 Y84.839 E40.49127
G1 X89.168 Y84.684 E40.51314
G1 X90.117 Y84.6 E40.54483
G1 X94.883 Y84.6 E40.70334
G1 X95.321 Y84.627 E40.71794
G1 X95.8 Y84.6 E40.7339
G1 X124.2 Y84.601 E41.67849
G1 X124.736 Y84.634 E41.69635
G1 X125.117 Y84.6 E41.70907
G1 X129.883 Y84.6 E41.86759
G1 X130.539 Y84.64 E41.88945
G1 X131.185 Y84.759 E41.91129
G1 X131.812 Y84.956 E41.93315
G1 X132.41 Y85.228 E41.955
G1 X132.971 Y85.57 E41.97686
G1 X133.701 Y86.182 E42.00854
G1 X133.818 Y86.299 E42.01404
G1 X134.254 Y86.791 E42.03591
G1 X134.626 Y87.332 E42.05774
G1 X134.93 Y87.914 E42.07958
G1 X135.161 Y88.529 E42.10143
G1 X135.316 Y89.168 E42.1233
G1 X135.4 Y90.117 E42.15499
G1 X135.4 Y129.883 E43.47761
G1 X135.36 Y130.539 E43.49947
G1 X135.241 Y131.185 E43.52132
G1 X135.044 Y131.812 E43.54318
