;FLAVOR:Marlin
;TIME:11253
;Filament used: 10.0996m
;Layer height: 0.2
;MINX:37.884
;MINY:60.102
;MINZ:0.24
;MAXX:182.119
;MAXY:159.306
;MAXZ:16.59
;Generated with Cura_SteamEngine master
M140 S70
M105
M190 S70
M104 S200
M105
M109 S200
M82 ;absolute extrusion mode
M201 X500.00 Y500.00 Z100.00 E5000.00 ;Setup machine max acceleration
M203 X500.00 Y500.00 Z10.00 E50.00 ;Setup machine max feedrate
M204 P500.00 R1000.00 T500.00 ;Setup Print/Retract/Travel acceleration
M205 X8.00 Y8.00 Z0.40 E5.00 ;Setup Jerk
M220 S100 ;Reset Feedrate
M221 S100 ;Reset Flowrate

G28 ;Home

G92 E0 ;Reset Extruder
G1 Z2.0 F3000 ;Move Z Axis up
G1 X10.1 Y20 Z0.28 F5000.0 ;Move to start position
G1 X10.1 Y200.0 Z0.28 F1500.0 E15 ;Draw the first line
G1 X10.4 Y200.0 Z0.28 F5000.0 ;Move to side a little
G1 X10.4 Y20 Z0.28 F1500.0 E30 ;Draw the second line
G92 E0 ;Reset Extruder
G1 Z2.0 F3000 ;Move Z Axis up

G92 E0
G92 E0
G1 F2700 E-5
;LAYER_COUNT:75
;LAYER:-6
M107
G0 F12000 X44.885 Y63.562 Z0.24
;TYPE:SUPPORT-INTERFACE
G1 F2700 E0
G1 F1800 X45.61 Y63.063 E0.07026
G1 X45.783 Y62.953 E0.08662
G1 X46.539 Y62.51 E0.15657
G1 X46.681 Y62.433 E0.16946
G1 X47.513 Y62.024 E0.24346
G1 X47.628 Y61.973 E0.25351
G1 X48.476 Y61.631 E0.32649
G1 X48.649 Y61.569 E0.34116
G1 X49.487 Y61.3 E0.41142
G1 X49.651 Y61.254 E0.42502
G1 X50.523 Y61.042 E0.49665
G1 X50.685 Y61.009 E0.50985
G1 X51.578 Y60.861 E0.5821
G1 X51.755 Y60.838 E0.59635
G1 X52.649 Y60.755 E0.66802
G1 X52.791 Y60.748 E0.67937
G1 X53.532 Y60.727 E0.73854
G1 X63.293 Y60.728 E1.51771
G1 X64.294 Y60.764 E1.59766
G1 X64.417 Y60.773 E1.60751
G1 X65.334 Y60.875 E1.68116
G1 X65.509 Y60.9 E1.69527
G1 X66.398 Y61.064 E1.76743
G1 X66.521 Y61.092 E1.7775
G1 X67.415 Y61.326 E1.85127
G1 X67.578 Y61.375 E1.86485
G1 X68.42 Y61.661 E1.93584
G1 X68.586 Y61.725 E1.95004
G1 X69.389 Y62.066 E2.01968
G1 X69.578 Y62.154 E2.03632
G1 X70.372 Y62.562 E2.10758
G1 X70.489 Y62.629 E2.11834
G1 X71.623 Y63.321 E2.22439
G1 X71.63 Y63.314 E2.22518
G1 X71.856 Y63.444 E2.24599
G1 X72.484 Y63.708 E2.30037
G1 X73.142 Y63.892 E2.35491
G1 X73.818 Y63.99 E2.40943
G1 X74.501 Y64.003 E2.46396
G1 X75.179 Y63.93 E2.51839
G1 X75.844 Y63.771 E2.57297
G1 X76.487 Y63.528 E2.62784
G1 X77.309 Y63.065 E2.70315
G1 X77.926 Y62.64 E2.76296
G1 X78.101 Y62.528 E2.77954
G1 X78.856 Y62.086 E2.84938
G1 X78.998 Y62.009 E2.86227
G1 X79.83 Y61.6 E2.93628
G1 X79.943 Y61.55 E2.94614
G1 X80.793 Y61.207 E3.01931
G1 X80.966 Y61.145 E3.03398
G1 X81.807 Y60.875 E3.10448
G1 X81.968 Y60.83 E3.11783
G1 X82.84 Y60.618 E3.18946
G1 X83.002 Y60.585 E3.20266
G1 X83.895 Y60.437 E3.27492
G1 X84.072 Y60.414 E3.28916
G1 X84.966 Y60.331 E3.36083
G1 X85.108 Y60.324 E3.37218
G1 X85.849 Y60.303 E3.43136
G1 X95.61 Y60.304 E4.21052
G1 X96.611 Y60.34 E4.29048
G1 X96.734 Y60.349 E4.30032
G1 X97.651 Y60.451 E4.37397
G1 X97.826 Y60.476 E4.38808
G1 X98.715 Y60.64 E4.46024
G1 X98.838 Y60.668 E4.47031
G1 X99.726 Y60.9 E4.54358
G1 X99.895 Y60.951 E4.55767
G1 X100.737 Y61.237 E4.62865
G1 X100.903 Y61.301 E4.64285
G1 X101.706 Y61.642 E4.71249
G1 X101.895 Y61.73 E4.72913
G1 X102.689 Y62.138 E4.80039
G1 X102.806 Y62.205 E4.81116
G1 X103.585 Y62.679 E4.88394
G1 X103.736 Y62.779 E4.8984
G1 X104.45 Y63.29 E4.96849
G1 X104.591 Y63.398 E4.98267
G1 X105.29 Y63.98 E5.05527
G1 X105.398 Y64.076 E5.06681
G1 X105.91 Y64.558 E5.12294
G1 X106.034 Y64.682 E5.13694
G1 X106.19 Y64.844 E5.15489
G1 X106.694 Y65.286 E5.2084
G1 X107.258 Y65.669 E5.26282
G1 X107.868 Y65.978 E5.3174
G1 X108.51 Y66.207 E5.37181
G1 X109.178 Y66.354 E5.42641
G1 X109.857 Y66.415 E5.48083
G1 X110.54 Y66.39 E5.53539
G1 X111.214 Y66.279 E5.58991
G1 X111.869 Y66.083 E5.64449
G1 X112.493 Y65.808 E5.69892
G1 X113.077 Y65.454 E5.75344
G1 X113.61 Y65.034 E5.8076
G1 X114.096 Y64.554 E5.86213
G1 X114.784 Y63.915 E5.93708
G1 X114.923 Y63.796 E5.95169
G1 X115.614 Y63.242 E6.02239
G1 X115.753 Y63.138 E6.03624
G1 X116.468 Y62.646 E6.10553
G1 X116.652 Y62.529 E6.12293
G1 X117.408 Y62.086 E6.19288
G1 X117.55 Y62.009 E6.20577
G1 X118.382 Y61.6 E6.27978
G1 X118.495 Y61.55 E6.28964
G1 X119.345 Y61.207 E6.36281
G1 X119.518 Y61.145 E6.37748
G1 X120.359 Y60.875 E6.44798
G1 X120.52 Y60.83 E6.46133
G1 X121.392 Y60.618 E6.53296
G1 X121.554 Y60.585 E6.54616
G1 X122.447 Y60.437 E6.61841
G1 X122.624 Y60.414 E6.63266
G1 X123.518 Y60.331 E6.70433
G1 X123.66 Y60.324 E6.71568
G1 X124.401 Y60.303 E6.77485
G1 X134.162 Y60.304 E7.55402
G1 X135.163 Y60.34 E7.63397
G1 X135.286 Y60.349 E7.64382
G1 X136.203 Y60.451 E7.71747
G1 X136.378 Y60.476 E7.73158
G1 X137.267 Y60.64 E7.80374
G1 X137.39 Y60.668 E7.81381
G1 X138.278 Y60.9 E7.88707
G1 X138.447 Y60.951 E7.90117
G1 X139.289 Y61.237 E7.97215
G1 X139.455 Y61.301 E7.98635
G1 X140.258 Y61.642 E8.05599
G1 X140.447 Y61.73 E8.07263
G1 X141.241 Y62.138 E8.14389
G1 X141.358 Y62.205 E8.15465
G1 X142.137 Y62.679 E8.22744
G1 X142.288 Y62.779 E8.2419
G1 X142.61 Y63.01 E8.27353
G1 X143.179 Y63.365 E8.32707
G1 X143.8 Y63.65 E8.38161
G1 X144.451 Y63.854 E8.43607
G1 X145.123 Y63.975 E8.49057
G1 X145.805 Y64.011 E8.54509
G1 X146.486 Y63.959 E8.59961
G1 X147.155 Y63.823 E8.6541
G1 X147.801 Y63.602 E8.7086
G1 X148.41 Y63.304 E8.76272
G1 X148.807 Y63.055 E8.80013
G1 X148.968 Y62.953 E8.81535
G1 X149.725 Y62.51 E8.88536
G1 X149.867 Y62.433 E8.89825
G1 X150.699 Y62.024 E8.97226
G1 X150.814 Y61.973 E8.9823
G1 X151.662 Y61.631 E9.05529
G1 X151.835 Y61.569 E9.06996
G1 X152.673 Y61.3 E9.14021
G1 X152.837 Y61.254 E9.15381
G1 X153.709 Y61.042 E9.22544
G1 X153.871 Y61.009 E9.23864
G1 X154.764 Y60.861 E9.3109
G1 X154.941 Y60.838 E9.32514
G1 X155.835 Y60.755 E9.39681
G1 X155.977 Y60.748 E9.40816
G1 X156.718 Y60.727 E9.46734
G1 X166.479 Y60.728 E10.2465
G1 X167.48 Y60.764 E10.32646
G1 X167.603 Y60.773 E10.3363
G1 X168.52 Y60.875 E10.40995
G1 X168.695 Y60.9 E10.42406
G1 X169.584 Y61.064 E10.49622
G1 X169.707 Y61.092 E10.50629
G1 X170.601 Y61.326 E10.58006
G1 X170.764 Y61.375 E10.59365
G1 X171.606 Y61.661 E10.66463
G1 X171.772 Y61.725 E10.67883
G1 X172.575 Y62.066 E10.74847
G1 X172.764 Y62.154 E10.76511
G1 X173.558 Y62.562 E10.83637
G1 X173.675 Y62.629 E10.84713
G1 X174.437 Y63.093 E10.91835
G1 X174.617 Y63.212 E10.93557
G1 X175.319 Y63.714 E11.00447
G1 X175.467 Y63.827 E11.01933
G1 X176.159 Y64.404 E11.09125
G1 X176.267 Y64.5 E11.10278
G1 X176.779 Y64.982 E11.15892
G1 X176.935 Y65.139 E11.17658
G1 X177.581 Y65.835 E11.25238
G1 X177.7 Y65.974 E11.26699
G1 X178.254 Y66.665 E11.33769
G1 X178.358 Y66.804 E11.35155
G1 X178.85 Y67.519 E11.42083
G1 X178.967 Y67.703 E11.43823
G1 X179.407 Y68.452 E11.50757
G1 X179.48 Y68.586 E11.51975
G1 X179.885 Y69.409 E11.59297
G1 X179.946 Y69.546 E11.60494
G1 X180.288 Y70.391 E11.67771
G1 X180.347 Y70.557 E11.69177
G1 X180.618 Y71.399 E11.76238
G1 X180.665 Y71.565 E11.77615
G1 X180.876 Y72.434 E11.84754
G1 X180.91 Y72.597 E11.86083
G1 X181.058 Y73.489 E11.933
G1 X181.082 Y73.675 E11.94797
G1 X181.163 Y74.559 E12.01884
G1 X181.172 Y74.711 E12.03099
G1 X181.193 Y75.444 E12.08952
G1 X181.193 Y79.925 E12.44722
G1 X181.235 Y80.593 E12.50065
G1 X181.352 Y81.213 E12.55101
G1 X181.583 Y82.133 E12.62673
G1 X181.616 Y82.285 E12.63914
G1 X181.773 Y83.182 E12.71184
G1 X181.796 Y83.355 E12.72577
G1 X181.885 Y84.236 E12.79645
G1 X181.896 Y84.407 E12.81013
G1 X181.919 Y85.296 E12.88112
G1 X181.918 Y85.471 E12.89508
G1 X181.878 Y86.372 E12.96708
G1 X181.862 Y86.549 E12.98126
G1 X181.759 Y87.411 E13.05056
G1 X181.726 Y87.609 E13.06658
G1 X181.446 Y88.936 E13.17484
G1 X181.408 Y89.092 E13.18766
G1 X167.964 Y139.555 E17.35634
G1 X167.925 Y139.692 E17.36771
G1 X167.675 Y140.513 E17.43621
G1 X167.519 Y141.167 E17.48988
G1 X167.443 Y141.946 E17.55236
G1 X167.441 Y142.03 E17.55907
G1 X167.378 Y143.337 E17.66352
G1 X167.369 Y143.458 E17.67321
G1 X167.342 Y143.744 E17.69614
G1 X167.318 Y143.939 E17.71182
G1 X167.114 Y145.312 E17.82262
G1 X167.096 Y145.395 E17.8294
G1 X166.769 Y146.684 E17.93556
G1 X166.718 Y146.867 E17.95072
G1 X166.602 Y147.24 E17.9819
G1 X166.273 Y148.184 E18.0617
G1 X166.221 Y148.319 E18.07325
G1 X165.848 Y149.182 E18.1483
G1 X165.801 Y149.282 E18.15712
G1 X165.516 Y149.844 E18.20742
G1 X165.288 Y150.27 E18.24599
G1 X164.782 Y151.137 E18.32612
G1 X164.725 Y151.228 E18.33469
G1 X164.462 Y151.626 E18.37277
G1 X164.415 Y151.691 E18.37917
G1 X163.669 Y152.681 E18.47812
G1 X163.442 Y152.958 E18.50671
G1 X163.358 Y153.054 E18.51689
G1 X162.434 Y154.074 E18.62675
G1 X161.394 Y155.018 E18.73887
G1 X161.298 Y155.102 E18.74905
G1 X161.021 Y155.329 E18.77764
G1 X160.032 Y156.075 E18.87653
G1 X159.955 Y156.129 E18.88403
G1 X159.123 Y156.657 E18.96269
G1 X159.025 Y156.716 E18.97182
G1 X158.602 Y156.952 E19.01049
G1 X158.253 Y157.139 E19.0421
G1 X158.127 Y157.204 E19.05341
G1 X157.325 Y157.597 E19.1247
G1 X157.127 Y157.685 E19.142
G1 X156.311 Y158.014 E19.21223
G1 X156.165 Y158.068 E19.22466
G1 X155.584 Y158.262 E19.27355
G1 X155.176 Y158.388 E19.30764
G1 X155.07 Y158.417 E19.31641
G1 X153.673 Y158.771 E19.43145
G1 X152.297 Y158.977 E19.54251
G1 X152.154 Y158.995 E19.55402
G1 X151.722 Y159.035 E19.58865
G1 X150.367 Y159.102 E19.69694
G1 X150.224 Y159.106 E19.70836
G1 X148.783 Y159.106 E19.82339
G1 X148.629 Y159.102 E19.83569
G1 X148.293 Y159.101 E19.86251
G1 X148.084 Y159.105 E19.87919
G1 X146.614 Y159.105 E19.99654
G1 X146.539 Y159.103 E20.00253
G1 X145.185 Y159.037 E20.11074
G1 X145.069 Y159.028 E20.12002
G1 X144.76 Y158.998 E20.1448
G1 X144.595 Y158.978 E20.15807
G1 X143.214 Y158.773 E20.26952
G1 X141.805 Y158.417 E20.38552
G1 X141.699 Y158.388 E20.3943
G1 X141.262 Y158.252 E20.43083
G1 X140.33 Y157.926 E20.50965
G1 X140.206 Y157.877 E20.52029
G1 X139.337 Y157.501 E20.59587
G1 X139.255 Y157.462 E20.60312
G1 X138.69 Y157.176 E20.65367
G1 X138.286 Y156.96 E20.69024
G1 X137.407 Y156.448 E20.77144
G1 X137.295 Y156.378 E20.78198
G1 X136.898 Y156.116 E20.81995
G1 X136 Y155.444 E20.90948
G1 X135.441 Y155.076 E20.96291
G1 X134.827 Y154.775 E21.01749
G1 X134.179 Y154.556 E21.07209
G1 X133.511 Y154.42 E21.12651
G1 X132.83 Y154.368 E21.18103
G1 X132.148 Y154.404 E21.23554
G1 X131.476 Y154.525 E21.29005
G1 X130.825 Y154.73 E21.34453
G1 X130.203 Y155.016 E21.39918
G1 X129.977 Y155.161 E21.42061
G1 X129.966 Y155.146 E21.42209
G1 X128.852 Y155.913 E21.53006
G1 X128.668 Y156.03 E21.54746
G1 X127.912 Y156.473 E21.61741
G1 X127.77 Y156.55 E21.6303
G1 X126.942 Y156.957 E21.70395
G1 X126.825 Y157.009 E21.71417
G1 X125.97 Y157.354 E21.78777
G1 X125.807 Y157.412 E21.80158
G1 X124.964 Y157.683 E21.87226
G1 X124.8 Y157.729 E21.88586
G1 X123.928 Y157.941 E21.95749
G1 X123.766 Y157.974 E21.97069
G1 X122.873 Y158.122 E22.04294
G1 X122.696 Y158.145 E22.05719
G1 X121.802 Y158.228 E22.12886
G1 X121.66 Y158.235 E22.14021
G1 X120.919 Y158.256 E22.19938
G1 X111.158 Y158.255 E22.97855
G1 X110.209 Y158.221 E23.05435
G1 X109.709 Y158.227 E23.09427
G1 X109.575 Y158.235 E23.10498
G1 X108.831 Y158.256 E23.16439
G1 X99.07 Y158.255 E23.94356
G1 X98.069 Y158.219 E24.02352
G1 X97.946 Y158.21 E24.03336
G1 X97.029 Y158.108 E24.10701
G1 X96.854 Y158.083 E24.12112
G1 X95.965 Y157.919 E24.19328
G1 X95.842 Y157.891 E24.20335
G1 X94.948 Y157.657 E24.27712
G1 X94.785 Y157.608 E24.29071
G1 X93.943 Y157.322 E24.36169
G1 X93.777 Y157.258 E24.37589
G1 X92.974 Y156.917 E24.44553
G1 X92.785 Y156.829 E24.46217
G1 X91.991 Y156.421 E24.53343
G1 X91.874 Y156.354 E24.54419
G1 X91.095 Y155.88 E24.61698
G1 X90.938 Y155.775 E24.63206
G1 X90.365 Y155.366 E24.68826
G1 X89.796 Y155.012 E24.74175
G1 X89.176 Y154.727 E24.79622
G1 X88.525 Y154.522 E24.8507
G1 X87.852 Y154.402 E24.90527
G1 X87.17 Y154.366 E24.95978
G1 X86.489 Y154.418 E25.0143
G1 X85.821 Y154.555 E25.06874
G1 X85.174 Y154.775 E25.12329
G1 X84.561 Y155.075 E25.17776
G1 X84.007 Y155.438 E25.23063
G1 X83.112 Y156.109 E25.31993
G1 X82.238 Y156.664 E25.40257
G1 X82.159 Y156.712 E25.40995
G1 X81.715 Y156.959 E25.45051
G1 X81.294 Y157.184 E25.48861
G1 X80.404 Y157.62 E25.56772
G1 X80.266 Y157.681 E25.57977
G1 X79.397 Y158.028 E25.65446
G1 X79.288 Y158.069 E25.66375
G1 X78.717 Y158.259 E25.71179
G1 X78.233 Y158.407 E25.75219
G1 X76.8 Y158.77 E25.87019
G1 X76.713 Y158.785 E25.87724
G1 X75.423 Y158.977 E25.98135
G1 X75.28 Y158.995 E25.99285
G1 X74.848 Y159.035 E26.02748
G1 X73.493 Y159.102 E26.13578
G1 X73.35 Y159.106 E26.1472
G1 X71.909 Y159.106 E26.26223
G1 X71.755 Y159.102 E26.27452
G1 X71.419 Y159.101 E26.30134
G1 X71.21 Y159.105 E26.31803
G1 X69.74 Y159.105 E26.43537
G1 X69.665 Y159.103 E26.44136
G1 X68.311 Y159.037 E26.54957
G1 X68.195 Y159.028 E26.55886
G1 X67.886 Y158.998 E26.58364
G1 X67.721 Y158.978 E26.59691
G1 X66.34 Y158.773 E26.70835
G1 X64.962 Y158.425 E26.8218
G1 X64.783 Y158.375 E26.83664
G1 X64.395 Y158.254 E26.86908
G1 X63.476 Y157.933 E26.94679
G1 X63.341 Y157.881 E26.95834
G1 X62.49 Y157.513 E27.03235
G1 X62.365 Y157.454 E27.04338
G1 X61.78 Y157.158 E27.09571
G1 X61.382 Y156.943 E27.13182
G1 X60.515 Y156.437 E27.21195
G1 X60.432 Y156.385 E27.21977
G1 X60.034 Y156.122 E27.25785
G1 X59.968 Y156.075 E27.26432
G1 X58.979 Y155.329 E27.36321
G1 X58.702 Y155.102 E27.3918
G1 X58.606 Y155.018 E27.40198
G1 X57.566 Y154.074 E27.51409
G1 X56.642 Y153.054 E27.62396
G1 X56.558 Y152.958 E27.63414
G1 X56.331 Y152.681 E27.66273
G1 X55.585 Y151.691 E27.76168
G1 X55.541 Y151.63 E27.76768
G1 X55.003 Y150.783 E27.84778
G1 X54.938 Y150.675 E27.85784
G1 X54.693 Y150.234 E27.89811
G1 X54.517 Y149.906 E27.92782
G1 X54.454 Y149.782 E27.93893
G1 X54.063 Y148.985 E28.00979
G1 X53.975 Y148.787 E28.02709
G1 X53.643 Y147.961 E28.09815
G1 X53.591 Y147.821 E28.11007
G1 X53.399 Y147.246 E28.15846
G1 X53.272 Y146.836 E28.19272
G1 X53.243 Y146.729 E28.20157
G1 X52.904 Y145.395 E28.31144
G1 X52.887 Y145.322 E28.31742
G1 X52.683 Y143.957 E28.42759
G1 X52.665 Y143.814 E28.4391
G1 X52.624 Y143.371 E28.47461
G1 X52.557 Y142.023 E28.58235
G1 X52.555 Y141.907 E28.59161
G1 X52.497 Y141.236 E28.64537
G1 X52.305 Y140.407 E28.7133
G1 X52.066 Y139.659 E28.77598
G1 X52.029 Y139.532 E28.78654
G1 X38.561 Y88.975 E32.96296
G1 X38.354 Y88.066 E33.03738
G1 X38.317 Y87.871 E33.05322
G1 X38.182 Y86.982 E33.125
G1 X38.167 Y86.848 E33.13576
G1 X38.096 Y85.935 E33.20886
G1 X38.09 Y85.761 E33.22276
G1 X38.085 Y84.884 E33.29276
G1 X38.091 Y84.699 E33.30754
G1 X38.152 Y83.795 E33.37987
G1 X38.167 Y83.657 E33.39095
G1 X38.295 Y82.759 E33.46335
G1 X38.327 Y82.583 E33.47763
G1 X38.521 Y81.692 E33.55042
G1 X38.556 Y81.555 E33.56171
G1 X38.59 Y81.437 E33.57151
G1 X38.739 Y80.781 E33.62521
G1 X38.807 Y79.939 E33.69264
G1 X38.807 Y75.458 E34.05033
G1 X38.843 Y74.452 E34.13069
G1 X38.853 Y74.317 E34.14149
G1 X38.954 Y73.402 E34.21498
G1 X38.98 Y73.227 E34.2291
G1 X39.142 Y72.347 E34.30053
G1 X39.172 Y72.213 E34.31149
G1 X39.403 Y71.327 E34.38458
G1 X39.455 Y71.156 E34.39884
G1 X39.741 Y70.314 E34.46983
G1 X39.805 Y70.148 E34.48403
G1 X40.146 Y69.345 E34.55367
G1 X40.227 Y69.17 E34.56906
G1 X40.642 Y68.362 E34.64157
G1 X40.709 Y68.245 E34.65233
G1 X41.183 Y67.466 E34.72512
G1 X41.283 Y67.315 E34.73958
G1 X41.799 Y66.594 E34.81035
G1 X41.907 Y66.453 E34.82453
G1 X42.484 Y65.761 E34.89645
G1 X42.58 Y65.653 E34.90798
G1 X43.062 Y65.141 E34.96412
G1 X43.219 Y64.985 E34.98178
G1 X43.915 Y64.339 E35.05758
G1 X44.054 Y64.22 E35.07219
G1 X44.622 Y63.764 E35.13033
G0 F1620 X44.735 Y63.674
G0 X44.885 Y63.562
G0 F12000 X44.8 Y63.625
G1 F1800 X44.8 Y112.395 E39.02337
G1 F2700 E34.02337
G1 F300 Z0.74
G0 F12000 X43.2 Y106.389 Z0.74
G1 F300 Z0.24
G1 F2700 E39.02337
G1 F1800 X43.2 Y65.003 E42.32698
G1 F2700 E37.32698
G1 F300 Z0.74
G0 F12000 X41.6 Y66.872 Z0.74
G1 F300 Z0.24
G1 F2700 E42.32698
G1 F1800 X41.6 Y100.382 E45.00189
G1 F2700 E40.00189
G1 F300 Z0.74
G0 F12000 X40 Y94.376 Z0.74
G1 F300 Z0.24
G1 F2700 E45.00189
G1 F1800 X40 Y69.688 E46.97259
G1 F2700 E41.97259
G1 F300 Z0.74
G0 F12000 X46.4 Y62.591 Z0.74
G1 F300 Z0.24
G1 F2700 E46.97259
G1 F1800 X46.4 Y118.401 E51.42759
G1 F2700 E46.42759
G1 F300 Z0.74
G0 F12000 X48 Y124.407 Z0.74
G1 F300 Z0.24
G1 F2700 E51.42759
G1 F1800 X48 Y61.822 E56.42339
G1 F2700 E51.42339
G1 F300 Z0.74
G0 F12000 X49.6 Y61.268 Z0.74
G1 F300 Z0.24
G1 F2700 E56.42339
G1 F1800 X49.6 Y130.413 E61.94285
G1 F2700 E56.94285
G1 F300 Z0.74
G0 F12000 X51.2 Y136.42 Z0.74
