;FLAVOR:Marlin
;TIME:5581
;Filament used: 5.10292m
;Layer height: 0.2
;MINX:47.875
;MINY:68.093
;MINZ:0.2
;MAXX:172.125
;MAXY:151.913
;MAXZ:13.4
;Generated with Cura_SteamEngine master
M140 S50
M105
M190 S50
M104 S200
M105
M109 S200
M82 ;absolute extrusion mode
M201 X500.00 Y500.00 Z100.00 E5000.00 ;Setup machine max acceleration
M203 X500.00 Y500.00 Z10.00 E50.00 ;Setup machine max feedrate
M204 P500.00 R1000.00 T500.00 ;Setup Print/Retract/Travel acceleration
M205 X8.00 Y8.00 Z0.40 E5.00 ;Setup Jerk
M220 S100 ;Reset Feedrate
M221 S100 ;Reset Flowrate

G28 ;Home

G92 E0 ;Reset Extruder
G1 Z2.0 F3000 ;Move Z Axis up
G1 X10.1 Y20 Z0.28 F5000.0 ;Move to start position
G1 X10.1 Y200.0 Z0.28 F1500.0 E15 ;Draw the first line
G1 X10.4 Y200.0 Z0.28 F5000.0 ;Move to side a little
G1 X10.4 Y20 Z0.28 F1500.0 E30 ;Draw the second line
G92 E0 ;Reset Extruder
G1 Z2.0 F3000 ;Move Z Axis up

G92 E0
G92 E0
G1 F2700 E-5
;LAYER_COUNT:67
;LAYER:0
M107
G0 F6000 X52.514 Y70.126 Z0.2
;TYPE:SKIRT
G1 F2700 E0
G1 F1200 X53.302 Y69.616 E0.03122
G1 X54.129 Y69.175 E0.06239
G1 X54.991 Y68.806 E0.09358
G1 X55.882 Y68.512 E0.12478
G1 X56.794 Y68.295 E0.15596
G1 X57.722 Y68.156 E0.18717
G1 X58.658 Y68.096 E0.21837
G1 X59.595 Y68.117 E0.24954
G1 X60.528 Y68.217 E0.28075
G1 X61.387 Y68.382 E0.30984
G1 X62.269 Y68.588 E0.33997
G1 X62.459 Y68.634 E0.34647
G1 X88.184 Y75.126 E1.22891
G1 X90.693 Y75.722 E1.31469
G1 X93.091 Y76.221 E1.39615
G1 X95.613 Y76.671 E1.48136
G1 X98.099 Y77.042 E1.56496
G1 X100.594 Y77.342 E1.64854
G1 X103.116 Y77.574 E1.73278
G1 X105.633 Y77.734 E1.81666
G1 X108.12 Y77.821 E1.89943
G1 X110.68 Y77.838 E1.98458
G1 X113.14 Y77.785 E2.06642
G1 X115.717 Y77.657 E2.15223
G1 X118.178 Y77.464 E2.23434
G1 X120.71 Y77.194 E2.31903
G1 X123.191 Y76.858 E2.4023
G1 X125.657 Y76.452 E2.48543
G1 X128.148 Y75.97 E2.56981
G1 X131.882 Y75.11 E2.69726
G1 X157.694 Y68.596 E3.58269
G1 X158.567 Y68.388 E3.61253
G1 X159.487 Y68.21 E3.6437
G1 X160.42 Y68.112 E3.6749
G1 X161.358 Y68.093 E3.70611
G1 X162.294 Y68.154 E3.73731
G1 X163.221 Y68.295 E3.76849
G1 X164.133 Y68.514 E3.79969
G1 X165.023 Y68.81 E3.83088
G1 X165.884 Y69.181 E3.86207
G1 X166.711 Y69.623 E3.89325
G1 X167.497 Y70.135 E3.92445
G1 X168.237 Y70.712 E3.95566
G1 X168.924 Y71.349 E3.98682
G1 X169.555 Y72.043 E4.01802
G1 X170.125 Y72.788 E4.04922
G1 X170.629 Y73.579 E4.08042
G1 X171.064 Y74.41 E4.11161
G1 X171.426 Y75.275 E4.1428
G1 X171.714 Y76.168 E4.17401
G1 X171.924 Y77.082 E4.2052
G1 X172.056 Y78.01 E4.23638
G1 X172.107 Y78.89 E4.2657
G1 X172.123 Y79.771 E4.295
G1 X172.125 Y79.971 E4.30165
G1 X172.124 Y131.137 E6.00344
G1 X172.113 Y131.866 E6.02769
G1 X172.059 Y132.802 E6.05888
G1 X171.925 Y133.731 E6.09009
G1 X171.713 Y134.644 E6.12127
G1 X171.423 Y135.536 E6.15246
G1 X171.059 Y136.4 E6.18365
G1 X170.623 Y137.231 E6.21486
G1 X170.117 Y138.02 E6.24604
G1 X169.546 Y138.764 E6.27723
G1 X168.913 Y139.457 E6.30845
G1 X168.224 Y140.093 E6.33963
G1 X167.483 Y140.668 E6.37083
G1 X166.696 Y141.178 E6.40202
G1 X165.869 Y141.619 E6.43319
G1 X165.006 Y141.988 E6.46441
G1 X164.116 Y142.282 E6.49558
G1 X163.623 Y142.41 E6.51253
G1 X163.021 Y142.551 E6.53309
G1 X162.857 Y142.588 E6.53868
G1 X121.922 Y151.519 E7.93221
G1 X121.064 Y151.694 E7.96134
G1 X120.138 Y151.842 E7.99253
G1 X119.202 Y151.909 E8.02374
G1 X117.984 Y151.878 E8.06426
G1 X117.393 Y151.83 E8.08398
G1 X114.832 Y151.654 E8.16936
G1 X112.31 Y151.552 E8.25331
G1 X109.822 Y151.522 E8.33607
G1 X107.264 Y151.564 E8.42116
G1 X104.765 Y151.675 E8.50436
G1 X102.213 Y151.861 E8.58947
G1 X102.068 Y151.873 E8.59431
G1 X101.131 Y151.913 E8.6255
G1 X100.194 Y151.873 E8.65669
G1 X98.973 Y151.698 E8.69772
G1 X98.165 Y151.536 E8.72513
G1 X97.982 Y151.498 E8.73134
G1 X57.092 Y142.576 E10.12335
G1 X56.405 Y142.417 E10.1468
G1 X55.501 Y142.166 E10.17801
G1 X54.622 Y141.84 E10.20919
G1 X53.773 Y141.44 E10.2404
G1 X52.962 Y140.969 E10.2716
G1 X52.194 Y140.431 E10.30278
G1 X51.475 Y139.829 E10.33397
G1 X50.809 Y139.169 E10.36516
G1 X50.202 Y138.454 E10.39635
G1 X49.659 Y137.689 E10.42756
G1 X49.182 Y136.882 E10.45873
G1 X48.776 Y136.036 E10.48995
G1 X48.443 Y135.159 E10.52115
G1 X48.186 Y134.257 E10.55234
G1 X48.007 Y133.337 E10.58351
G1 X47.9 Y132.268 E10.61925
G1 X47.897 Y132.21 E10.62118
G1 X47.883 Y131.771 E10.63579
G1 X47.875 Y131.043 E10.66
G1 X47.876 Y79.597 E12.3711
G1 X47.886 Y78.929 E12.39332
G1 X47.94 Y77.993 E12.42451
G1 X48.074 Y77.065 E12.45569
G1 X48.286 Y76.151 E12.4869
G1 X48.575 Y75.259 E12.51809
G1 X48.939 Y74.395 E12.54927
G1 X49.376 Y73.565 E12.58047
G1 X49.881 Y72.775 E12.61165
G1 X50.452 Y72.031 E12.64285
G1 X51.085 Y71.338 E12.67406
G1 X51.774 Y70.702 E12.70525
G1 X52.514 Y70.126 E12.73644
G0 F6000 X52.899 Y70.346
G1 F1200 X53.68 Y69.86 E12.76703
G1 X54.501 Y69.443 E12.79766
G1 X55.355 Y69.099 E12.82828
G1 X56.236 Y68.83 E12.85892
G1 X57.136 Y68.639 E12.88952
G1 X58.05 Y68.527 E12.92015
G1 X58.97 Y68.494 E12.95077
G1 X59.89 Y68.542 E12.98141
G1 X60.801 Y68.669 E13.012
G1 X61.296 Y68.772 E13.02882
G1 X62.178 Y68.978 E13.05894
G1 X62.361 Y69.022 E13.0652
G1 X88.057 Y75.507 E13.94665
G1 X90.591 Y76.109 E14.03328
G1 X93.044 Y76.619 E14.11661
G1 X95.521 Y77.061 E14.2003
G1 X98.064 Y77.44 E14.28581
G1 X100.577 Y77.743 E14.37
G1 X103.056 Y77.971 E14.4528
G1 X105.595 Y78.132 E14.53742
G1 X108.138 Y78.221 E14.62205
G1 X110.65 Y78.238 E14.7056
G1 X113.205 Y78.183 E14.7906
G1 X115.698 Y78.059 E14.87362
G1 X118.255 Y77.859 E14.95893
G1 X120.735 Y77.594 E15.04188
G1 X123.273 Y77.25 E15.12707
G1 X125.727 Y76.847 E15.20978
G1 X128.23 Y76.362 E15.29458
G1 X131.961 Y75.502 E15.42193
G1 X157.791 Y68.984 E16.30797
G1 X158.659 Y68.777 E16.33765
G1 X159.563 Y68.603 E16.36827
G1 X160.479 Y68.509 E16.39889
G1 X161.399 Y68.494 E16.4295
G1 X162.318 Y68.559 E16.46014
G1 X163.227 Y68.704 E16.49075
G1 X164.12 Y68.927 E16.52137
G1 X164.991 Y69.226 E16.552
G1 X165.832 Y69.6 E16.58261
G1 X166.638 Y70.046 E16.61325
G1 X167.402 Y70.56 E16.64387
G1 X168.118 Y71.138 E16.67448
G1 X168.782 Y71.776 E16.70511
G1 X169.387 Y72.47 E16.73573
G1 X169.93 Y73.213 E16.76634
G1 X170.407 Y74 E16.79694
G1 X170.814 Y74.826 E16.82757
G1 X171.147 Y75.685 E16.85821
G1 X171.405 Y76.569 E16.88884
G1 X171.585 Y77.471 E16.91943
G1 X171.686 Y78.387 E16.95009
G1 X171.707 Y78.898 E16.9671
G1 X171.723 Y79.779 E16.9964
G1 X171.725 Y79.971 E17.00279
G1 X171.724 Y131.131 E18.70438
G1 X171.713 Y131.86 E18.72863
G1 X171.659 Y132.779 E18.75925
G1 X171.526 Y133.69 E18.78987
G1 X171.314 Y134.586 E18.82049
G1 X171.025 Y135.46 E18.85111
G1 X170.661 Y136.306 E18.88174
G1 X170.225 Y137.117 E18.91237
G1 X169.721 Y137.887 E18.94297
G1 X169.152 Y138.611 E18.9736
G1 X168.522 Y139.282 E19.00421
G1 X167.836 Y139.896 E19.03483
G1 X167.099 Y140.448 E19.06546
G1 X166.318 Y140.935 E19.09607
G1 X165.497 Y141.352 E19.1267
G1 X164.643 Y141.695 E19.15731
G1 X163.531 Y142.021 E19.19585
G1 X162.929 Y142.162 E19.21642
G1 X121.837 Y151.128 E20.6153
G1 X120.984 Y151.302 E20.64425
G1 X120.075 Y151.446 E20.67486
G1 X119.157 Y151.51 E20.70547
G1 X118.016 Y151.479 E20.74343
G1 X117.452 Y151.433 E20.76225
G1 X114.839 Y151.253 E20.84937
G1 X112.33 Y151.152 E20.93289
G1 X109.82 Y151.122 E21.01637
G1 X107.239 Y151.164 E21.10223
G1 X104.755 Y151.275 E21.18493
G1 X102.23 Y151.458 E21.26913
G1 X102.034 Y151.475 E21.27568
G1 X101.114 Y151.513 E21.3063
G1 X100.194 Y151.471 E21.33693
G1 X99.051 Y151.306 E21.37534
G1 X98.243 Y151.144 E21.40275
G1 X98.067 Y151.107 E21.40873
G1 X57.182 Y142.186 E22.80057
G1 X56.495 Y142.027 E22.82402
G1 X55.608 Y141.781 E22.85464
G1 X54.745 Y141.458 E22.88529
G1 X53.914 Y141.062 E22.9159
G1 X53.121 Y140.596 E22.9465
G1 X52.371 Y140.062 E22.97712
G1 X51.67 Y139.465 E23.00774
G1 X51.023 Y138.81 E23.03836
G1 X50.436 Y138.101 E23.06898
G1 X49.912 Y137.343 E23.09963
G1 X49.456 Y136.544 E23.13023
G1 X49.072 Y135.707 E23.16085
G1 X48.761 Y134.84 E23.19149
G1 X48.527 Y133.95 E23.2221
G1 X48.37 Y133.043 E23.25271
G1 X48.299 Y132.248 E23.27926
G1 X48.296 Y132.19 E23.28119
G1 X48.283 Y131.766 E23.2953
G1 X48.275 Y131.043 E23.31935
G1 X48.276 Y79.603 E25.03025
G1 X48.286 Y78.935 E25.05247
G1 X48.34 Y78.016 E25.08309
G1 X48.473 Y77.105 E25.11371
G1 X48.685 Y76.209 E25.14434
G1 X48.974 Y75.335 E25.17495
G1 X49.337 Y74.489 E25.20557
G1 X49.773 Y73.678 E25.2362
G1 X50.277 Y72.908 E25.26681
G1 X50.846 Y72.184 E25.29743
G1 X51.476 Y71.513 E25.32805
G1 X52.162 Y70.899 E25.35867
G1 X52.899 Y70.346 E25.38931
G0 F6000 X53.282 Y70.571
G1 F1200 X54.058 Y70.109 E25.41935
G1 X54.871 Y69.717 E25.44937
G1 X55.716 Y69.399 E25.4794
G1 X56.586 Y69.156 E25.50944
G1 X57.475 Y68.992 E25.53951
G1 X58.374 Y68.907 E25.56954
G1 X59.277 Y68.902 E25.59958
G1 X60.177 Y68.976 E25.62961
G1 X61.205 Y69.161 E25.66435
G1 X62.087 Y69.367 E25.69448
G1 X62.263 Y69.41 E25.7005
G1 X87.946 Y75.891 E26.5815
G1 X90.522 Y76.504 E26.66957
G1 X92.924 Y77.003 E26.75117
G1 X95.498 Y77.462 E26.83813
G1 X97.994 Y77.835 E26.92207
G1 X100.529 Y78.14 E27.00699
G1 X103.029 Y78.37 E27.0905
G1 X105.589 Y78.532 E27.17581
G1 X108.121 Y78.621 E27.26008
G1 X110.656 Y78.638 E27.34439
G1 X113.196 Y78.583 E27.42889
G1 X115.749 Y78.457 E27.51391
G1 X118.292 Y78.257 E27.59875
G1 X120.764 Y77.994 E27.68144
G1 X123.32 Y77.647 E27.76723
G1 X125.83 Y77.234 E27.85183
G1 X128.313 Y76.754 E27.93595
G1 X132.052 Y75.892 E28.06357
G1 X158.027 Y69.338 E28.95458
G1 X158.751 Y69.166 E28.97933
G1 X159.638 Y68.997 E29.00936
G1 X160.537 Y68.906 E29.03942
G1 X161.44 Y68.895 E29.06945
G1 X162.34 Y68.965 E29.09948
G1 X163.231 Y69.113 E29.12952
G1 X164.105 Y69.34 E29.15955
G1 X164.956 Y69.643 E29.1896
G1 X165.777 Y70.021 E29.21966
G1 X166.561 Y70.469 E29.24969
G1 X167.302 Y70.985 E29.27972
G1 X167.994 Y71.565 E29.30975
G1 X168.633 Y72.203 E29.33979
G1 X169.213 Y72.896 E29.36984
G1 X169.729 Y73.637 E29.39988
G1 X170.177 Y74.421 E29.42991
G1 X170.555 Y75.241 E29.45994
G1 X170.858 Y76.092 E29.48999
G1 X171.085 Y76.966 E29.52002
G1 X171.234 Y77.856 E29.55003
G1 X171.307 Y78.905 E29.58501
G1 X171.323 Y79.786 E29.61431
G1 X171.325 Y79.971 E29.62047
G1 X171.324 Y131.125 E31.32186
G1 X171.313 Y131.854 E31.34611
G1 X171.259 Y132.755 E31.37613
G1 X171.126 Y133.649 E31.40619
G1 X170.915 Y134.527 E31.43622
G1 X170.626 Y135.382 E31.46624
G1 X170.263 Y136.209 E31.49628
G1 X169.828 Y137.001 E31.52633
G1 X169.325 Y137.751 E31.55637
G1 X168.758 Y138.454 E31.58641
G1 X168.131 Y139.103 E31.61642
G1 X167.448 Y139.695 E31.64649
G1 X166.716 Y140.224 E31.67652
G1 X165.94 Y140.686 E31.70656
G1 X165.127 Y141.078 E31.73658
G1 X164.281 Y141.396 E31.76664
G1 X163.44 Y141.631 E31.79569
G1 X162.686 Y141.807 E31.82144
G1 X121.751 Y150.738 E33.21497
G1 X120.905 Y150.91 E33.24368
G1 X120.013 Y151.051 E33.27372
G1 X119.112 Y151.111 E33.30375
G1 X118.049 Y151.08 E33.33912
G1 X117.517 Y151.037 E33.35688
G1 X114.882 Y150.856 E33.44472
G1 X112.316 Y150.752 E33.53014
G1 X109.818 Y150.722 E33.61323
G1 X107.25 Y150.764 E33.69865
G1 X104.708 Y150.877 E33.78328
G1 X102.167 Y151.062 E33.86802
G1 X102 Y151.076 E33.87359
G1 X101.098 Y151.113 E33.90362
G1 X100.196 Y151.07 E33.93365
G1 X99.13 Y150.914 E33.96949
G1 X98.153 Y150.717 E34.00264
G1 X57.398 Y141.825 E35.39004
G1 X56.585 Y141.637 E35.4178
G1 X55.715 Y141.395 E35.44783
G1 X54.87 Y141.077 E35.47786
G1 X54.056 Y140.685 E35.50791
G1 X53.281 Y140.222 E35.53794
G1 X52.549 Y139.693 E35.56797
G1 X51.867 Y139.101 E35.59801
G1 X51.239 Y138.452 E35.62805
G1 X50.672 Y137.749 E35.65809
G1 X50.169 Y136.999 E35.68812
G1 X49.735 Y136.207 E35.71816
G1 X49.372 Y135.38 E35.7482
G1 X49.084 Y134.524 E35.77824
G1 X48.872 Y133.646 E35.80828
G1 X48.739 Y132.753 E35.83831
G1 X48.699 Y132.227 E35.85585
G1 X48.696 Y132.169 E35.85779
G1 X48.683 Y131.761 E35.87136
G1 X48.675 Y131.043 E35.89525
G1 X48.676 Y79.609 E37.60595
G1 X48.686 Y78.941 E37.62817
G1 X48.74 Y78.04 E37.65819
G1 X48.873 Y77.147 E37.68822
G1 X49.084 Y76.269 E37.71825
G1 X49.372 Y75.413 E37.74829
G1 X49.735 Y74.586 E37.77833
G1 X50.17 Y73.794 E37.80838
G1 X50.673 Y73.044 E37.83842
G1 X51.24 Y72.341 E37.86846
G1 X51.868 Y71.692 E37.8985
G1 X52.55 Y71.1 E37.92853
G1 X53.282 Y70.571 E37.95857
G1 F2700 E32.95857
;MESH:ArmrestFix.stl
G0 F6000 X118.21 Y90.064
G0 X119.295 Y90.064
G0 X119.475 Y140.18
;TYPE:WALL-INNER
G1 F2700 E37.95857
G1 F1200 X119.475 Y139.934 E37.96675
G1 X119.475 Y139.933 E37.96679
G1 X119.475 Y90.205 E39.62075
G1 X160.277 Y79.908 E41.02037
G1 X160.525 Y79.846 E41.02888
G1 X160.525 Y80.101 E41.03402
G1 X160.525 Y80.102 E41.03405
G1 X160.525 Y131.224 E42.73437
G1 X119.716 Y140.128 E44.12362
G1 X119.475 Y140.18 E44.12863
G0 F6000 X119.075 Y140.677
;TYPE:WALL-OUTER
G1 F1200 X119.075 Y89.893 E45.81771
G1 X160.925 Y79.332 E47.25328
G1 X160.925 Y131.546 E48.98993
G1 X119.075 Y140.677 E50.41461
G0 F6000 X119.337 Y140.352
G0 X119.585 Y139.696
G0 X119.865 Y139.696
;TYPE:SKIN
G1 F1200 X119.865 Y90.509 E52.05058
G1 X160.135 Y80.347 E53.43195
G1 X160.135 Y130.91 E55.11368
G1 X119.865 Y139.696 E56.48458
G0 F6000 X120.22 Y139.454
G1 F1200 X120.024 Y139.257 E56.49382
G0 F6000 X120.024 Y138.691
G1 F1200 X120.685 Y139.353 E56.52493
G0 F6000 X121.149 Y139.251
G1 F1200 X120.024 Y138.126 E56.57785
G0 F6000 X120.024 Y137.56
G1 F1200 X121.613 Y139.15 E56.65262
G0 F6000 X122.078 Y139.049
G1 F1200 X120.024 Y136.994 E56.74925
G0 F6000 X120.024 Y136.429
G1 F1200 X122.543 Y138.947 E56.86771
G0 F6000 X123.006 Y138.846
G1 F1200 X120.024 Y135.863 E57.008
G0 F6000 X120.024 Y135.297
G1 F1200 X123.471 Y138.744 E57.17014
G0 F6000 X123.936 Y138.643
G1 F1200 X120.024 Y134.732 E57.35412
G0 F6000 X120.024 Y134.166
G1 F1200 X124.399 Y138.542 E57.55993
G0 F6000 X124.864 Y138.44
G1 F1200 X120.024 Y133.6 E57.78759
G0 F6000 X120.024 Y133.035
G1 F1200 X125.329 Y138.339 E58.0371
G0 F6000 X125.793 Y138.238
G1 F1200 X120.024 Y132.469 E58.30846
G0 F6000 X120.024 Y131.903
G1 F1200 X126.257 Y138.136 E58.60164
G0 F6000 X126.722 Y138.035
G1 F1200 X120.024 Y131.338 E58.91667
G0 F6000 X120.024 Y130.772
G1 F1200 X127.186 Y137.934 E59.25355
G0 F6000 X127.65 Y137.832
G1 F1200 X120.024 Y130.206 E59.61225
G0 F6000 X120.024 Y129.64
G1 F1200 X128.115 Y137.731 E59.99283
G0 F6000 X128.579 Y137.63
G1 F1200 X120.024 Y129.075 E60.39523
G0 F6000 X120.024 Y128.509
G1 F1200 X129.044 Y137.529 E60.8195
G0 F6000 X129.508 Y137.427
G1 F1200 X120.024 Y127.943 E61.2656
G0 F6000 X120.024 Y127.378
G1 F1200 X129.972 Y137.326 E61.73352
G0 F6000 X130.437 Y137.225
G1 F1200 X120.024 Y126.812 E62.22332
G0 F6000 X120.024 Y126.246
G1 F1200 X130.901 Y137.123 E62.73494
G0 F6000 X131.365 Y137.022
G1 F1200 X120.024 Y125.681 E63.26838
G0 F6000 X120.024 Y125.115
G1 F1200 X131.83 Y136.921 E63.8237
G0 F6000 X132.294 Y136.819
G1 F1200 X120.024 Y124.549 E64.40084
G0 F6000 X120.024 Y123.984
G1 F1200 X132.758 Y136.718 E64.99981
G0 F6000 X133.223 Y136.617
G1 F1200 X120.024 Y123.418 E65.62065
G0 F6000 X120.024 Y122.852
G1 F1200 X133.687 Y136.516 E66.26334
G0 F6000 X134.151 Y136.414
G1 F1200 X120.024 Y122.287 E66.92783
G0 F6000 X120.024 Y121.721
G1 F1200 X134.616 Y136.313 E67.6142
G0 F6000 X135.08 Y136.212
G1 F1200 X120.024 Y121.155 E68.32241
G0 F6000 X120.024 Y120.589
G1 F1200 X135.544 Y136.11 E69.05244
G0 F6000 X136.009 Y136.009
G1 F1200 X120.024 Y120.024 E69.80433
G0 F6000 X120.024 Y119.458
G1 F1200 X136.473 Y135.908 E70.57806
G0 F6000 X136.938 Y135.806
G1 F1200 X120.024 Y118.892 E71.37365
G0 F6000 X120.024 Y118.327
G1 F1200 X137.402 Y135.705 E72.19105
G0 F6000 X137.866 Y135.603
G1 F1200 X120.024 Y117.761 E73.03029
G0 F6000 X120.024 Y117.195
G1 F1200 X138.331 Y135.502 E73.89139
G0 F6000 X138.795 Y135.401
G1 F1200 X120.024 Y116.63 E74.77432
G0 F6000 X120.024 Y116.064
G1 F1200 X139.259 Y135.299 E75.67908
G0 F6000 X139.724 Y135.198
G1 F1200 X120.024 Y115.498 E76.60571
G0 F6000 X120.024 Y114.933
G1 F1200 X140.188 Y135.097 E77.55416
G0 F6000 X140.652 Y134.995
G1 F1200 X120.024 Y114.367 E78.52444
G0 F6000 X120.024 Y113.801
G1 F1200 X141.117 Y134.894 E79.51659
G0 F6000 X141.581 Y134.793
G1 F1200 X120.024 Y113.236 E80.53056
G0 F6000 X120.024 Y112.67
G1 F1200 X142.045 Y134.691 E81.56636
G0 F6000 X142.51 Y134.59
G1 F1200 X120.024 Y112.104 E82.62403
G0 F6000 X120.024 Y111.539
G1 F1200 X142.974 Y134.489 E83.70353
