;FLAVOR:Marlin
;TIME:11682
;Filament used: 10.3698m
;Layer height: 0.2
;MINX:42.754
;MINY:52.141
;MINZ:0.24
;MAXX:177.246
;MAXY:167.858
;MAXZ:20.19
;Generated with Cura_SteamEngine master
M140 S70
M105
M190 S70
M104 S200
M105
M109 S200
M82 ;absolute extrusion mode
M201 X500.00 Y500.00 Z100.00 E5000.00 ;Setup machine max acceleration
M203 X500.00 Y500.00 Z10.00 E50.00 ;Setup machine max feedrate
M204 P500.00 R1000.00 T500.00 ;Setup Print/Retract/Travel acceleration
M205 X8.00 Y8.00 Z0.40 E5.00 ;Setup Jerk
M220 S100 ;Reset Feedrate
M221 S100 ;Reset Flowrate

G28 ;Home

G92 E0 ;Reset Extruder
G1 Z2.0 F3000 ;Move Z Axis up
G1 X10.1 Y20 Z0.28 F5000.0 ;Move to start position
G1 X10.1 Y200.0 Z0.28 F1500.0 E15 ;Draw the first line
G1 X10.4 Y200.0 Z0.28 F5000.0 ;Move to side a little
G1 X10.4 Y20 Z0.28 F1500.0 E30 ;Draw the second line
G92 E0 ;Reset Extruder
G1 Z2.0 F3000 ;Move Z Axis up

G92 E0
G92 E0
G1 F2700 E-5
;LAYER_COUNT:93
;LAYER:-6
M107
G0 F12000 X52.979 Y56.169 Z0.24
;TYPE:SUPPORT-INTERFACE
G1 F2700 E0
G1 F1800 X53.111 Y56.052 E0.01408
G1 X53.82 Y55.467 E0.08745
G1 X53.929 Y55.384 E0.09839
G1 X54.687 Y54.846 E0.17259
G1 X54.796 Y54.774 E0.18302
G1 X55.437 Y54.379 E0.24312
G1 X55.587 Y54.294 E0.25688
G1 X56.421 Y53.85 E0.3323
G1 X56.569 Y53.778 E0.34544
G1 X57.409 Y53.407 E0.41874
G1 X57.531 Y53.357 E0.42926
G1 X58.409 Y53.043 E0.5037
G1 X58.538 Y53.003 E0.51448
G1 X59.442 Y52.753 E0.58935
G1 X59.573 Y52.721 E0.60011
G1 X60.458 Y52.544 E0.67216
G1 X60.634 Y52.516 E0.68638
G1 X61.517 Y52.406 E0.75741
G1 X61.711 Y52.389 E0.77296
G1 X62.581 Y52.345 E0.84249
G1 X62.744 Y52.342 E0.85551
G1 X63.652 Y52.362 E0.928
G1 X63.822 Y52.371 E0.94159
G1 X64.719 Y52.457 E1.01352
G1 X64.875 Y52.477 E1.02608
G1 X65.775 Y52.629 E1.09894
G1 X65.922 Y52.659 E1.11091
G1 X66.683 Y52.842 E1.17339
G1 X76.014 Y55.328 E1.94421
G1 X76.116 Y55.357 E1.95268
G1 X77.039 Y55.638 E2.0297
G1 X77.167 Y55.683 E2.04053
G1 X78.024 Y56.016 E2.11392
G1 X78.181 Y56.083 E2.12754
G1 X78.963 Y56.455 E2.19667
G1 X79.151 Y56.553 E2.21359
G1 X79.899 Y56.976 E2.28219
G1 X80.068 Y57.081 E2.29807
G1 X80.809 Y57.576 E2.3692
G1 X80.914 Y57.652 E2.37955
G1 X81.665 Y58.237 E2.45554
G1 X81.768 Y58.324 E2.4663
G1 X82.453 Y58.942 E2.53995
G1 X82.553 Y59.039 E2.55107
G1 X83.532 Y60.065 E2.66427
G1 X83.54 Y60.057 E2.66517
G1 X83.668 Y60.184 E2.67957
G1 X84.209 Y60.6 E2.73404
G1 X84.799 Y60.944 E2.78856
G1 X85.426 Y61.212 E2.84299
G1 X86.083 Y61.399 E2.89752
G1 X86.758 Y61.5 E2.952
G1 X87.441 Y61.516 E3.00653
G1 X88.125 Y61.446 E3.06142
G1 X89.03 Y61.21 E3.13608
G1 X89.731 Y60.959 E3.19551
G1 X89.874 Y60.914 E3.20748
G1 X90.778 Y60.664 E3.28235
G1 X90.909 Y60.632 E3.29311
G1 X91.794 Y60.455 E3.36516
G1 X91.97 Y60.427 E3.37938
G1 X92.853 Y60.317 E3.45041
G1 X93.047 Y60.3 E3.46596
G1 X93.917 Y60.256 E3.53549
G1 X94.08 Y60.253 E3.54851
G1 X94.988 Y60.273 E3.621
G1 X95.158 Y60.282 E3.63459
G1 X96.055 Y60.368 E3.70652
G1 X96.211 Y60.388 E3.71908
G1 X97.111 Y60.54 E3.79194
G1 X97.258 Y60.57 E3.80391
G1 X98.019 Y60.753 E3.86639
G1 X106.838 Y63.103 E4.59493
G1 X107.495 Y63.234 E4.6484
G1 X108.177 Y63.283 E4.70298
G1 X108.859 Y63.245 E4.75751
G1 X109.531 Y63.121 E4.81206
G1 X110.181 Y62.913 E4.86653
G1 X110.8 Y62.625 E4.92103
G1 X111.375 Y62.262 E4.97531
G1 X111.811 Y61.912 E5.01994
G1 X112.522 Y61.326 E5.09349
G1 X112.638 Y61.237 E5.10516
G1 X113.395 Y60.7 E5.17925
G1 X113.504 Y60.628 E5.18967
G1 X114.211 Y60.194 E5.2559
G1 X115.129 Y59.704 E5.33896
G1 X115.277 Y59.632 E5.3521
G1 X116.117 Y59.261 E5.4254
G1 X116.239 Y59.211 E5.43592
G1 X117.117 Y58.897 E5.51036
G1 X117.246 Y58.857 E5.52114
G1 X118.15 Y58.607 E5.59601
G1 X118.281 Y58.575 E5.60677
G1 X119.166 Y58.398 E5.67882
G1 X119.342 Y58.37 E5.69304
G1 X120.225 Y58.26 E5.76407
G1 X120.419 Y58.243 E5.77962
G1 X121.289 Y58.199 E5.84915
G1 X121.452 Y58.196 E5.86217
G1 X122.36 Y58.216 E5.93466
G1 X122.53 Y58.225 E5.94825
G1 X123.427 Y58.311 E6.02018
G1 X123.583 Y58.331 E6.03274
G1 X124.483 Y58.483 E6.1056
G1 X124.63 Y58.513 E6.11757
G1 X125.391 Y58.696 E6.18005
G1 X134.722 Y61.181 E6.95085
G1 X135.747 Y61.492 E7.03636
G1 X135.875 Y61.537 E7.04719
G1 X136.732 Y61.87 E7.12058
G1 X136.889 Y61.937 E7.13421
G1 X137.671 Y62.309 E7.20333
G1 X137.859 Y62.407 E7.22025
G1 X138.607 Y62.83 E7.28885
G1 X138.765 Y62.928 E7.30369
G1 X139.527 Y63.437 E7.37684
G1 X139.622 Y63.506 E7.38621
G1 X140.373 Y64.091 E7.4622
G1 X140.481 Y64.182 E7.47347
G1 X141.161 Y64.796 E7.54661
G1 X141.261 Y64.893 E7.55773
G1 X141.938 Y65.603 E7.63604
G1 X142.242 Y65.918 E7.67098
G1 X142.249 Y65.911 E7.67177
G1 X142.38 Y66.041 E7.68651
G1 X142.921 Y66.457 E7.74098
G1 X143.511 Y66.801 E7.7955
G1 X144.14 Y67.069 E7.85008
G1 X144.796 Y67.255 E7.90451
G1 X145.472 Y67.356 E7.95907
G1 X146.155 Y67.371 E8.0136
G1 X146.839 Y67.3 E8.06849
G1 X147.741 Y67.065 E8.1429
G1 X148.447 Y66.811 E8.20279
G1 X148.582 Y66.769 E8.21407
G1 X149.486 Y66.519 E8.28894
G1 X149.617 Y66.487 E8.29971
G1 X150.502 Y66.31 E8.37175
G1 X150.678 Y66.282 E8.38598
G1 X151.561 Y66.172 E8.45701
G1 X151.755 Y66.155 E8.47255
G1 X152.625 Y66.111 E8.54209
G1 X152.788 Y66.108 E8.5551
G1 X153.696 Y66.128 E8.6276
G1 X153.866 Y66.137 E8.64119
G1 X154.763 Y66.223 E8.71312
G1 X154.919 Y66.243 E8.72568
G1 X155.819 Y66.395 E8.79853
G1 X155.966 Y66.425 E8.81051
G1 X156.727 Y66.608 E8.87299
G1 X166.058 Y69.094 E9.64381
G1 X166.16 Y69.123 E9.65228
G1 X167.083 Y69.404 E9.72929
G1 X167.211 Y69.449 E9.74012
G1 X168.068 Y69.782 E9.81352
G1 X168.225 Y69.849 E9.82714
G1 X169.007 Y70.221 E9.89627
G1 X169.195 Y70.319 E9.91319
G1 X169.943 Y70.742 E9.98179
G1 X170.112 Y70.847 E9.99767
G1 X170.853 Y71.342 E10.0688
G1 X170.958 Y71.418 E10.07915
G1 X171.709 Y72.003 E10.15514
G1 X171.817 Y72.094 E10.16641
G1 X172.497 Y72.708 E10.23954
G1 X172.597 Y72.805 E10.25067
G1 X173.209 Y73.446 E10.32141
G1 X173.337 Y73.589 E10.33673
G1 X173.906 Y74.279 E10.40812
G1 X174.005 Y74.408 E10.4211
G1 X174.535 Y75.157 E10.49434
G1 X174.626 Y75.293 E10.5074
G1 X175.018 Y75.931 E10.56718
G1 X175.094 Y76.065 E10.57947
G1 X175.532 Y76.887 E10.65382
G1 X175.61 Y77.047 E10.66803
G1 X175.981 Y77.887 E10.74133
G1 X176.033 Y78.015 E10.75236
G1 X176.347 Y78.894 E10.82687
G1 X176.384 Y79.013 E10.83682
G1 X176.635 Y79.92 E10.91194
G1 X176.665 Y80.042 E10.92197
G1 X176.844 Y80.936 E10.99475
G1 X176.871 Y81.101 E11.00809
G1 X176.982 Y81.995 E11.08001
G1 X176.999 Y82.18 E11.09483
G1 X177.043 Y83.059 E11.16509
G1 X177.046 Y83.215 E11.17754
G1 X177.026 Y84.13 E11.2506
G1 X177.017 Y84.297 E11.26395
G1 X176.931 Y85.197 E11.33612
G1 X176.911 Y85.353 E11.34867
G1 X176.759 Y86.25 E11.4213
G1 X176.727 Y86.408 E11.43417
G1 X176.538 Y87.198 E11.49901
G1 X175.248 Y92.033 E11.89846
G1 X175.117 Y92.691 E11.95201
G1 X175.069 Y93.399 E12.00866
G1 X175.069 Y143.693 E16.02334
G1 X175.033 Y144.699 E16.1037
G1 X175.023 Y144.834 E16.1145
G1 X174.921 Y145.751 E16.18815
G1 X174.896 Y145.926 E16.20226
G1 X174.734 Y146.804 E16.27353
G1 X174.704 Y146.938 E16.28449
G1 X174.473 Y147.823 E16.35751
G1 X174.421 Y147.995 E16.37185
G1 X174.135 Y148.837 E16.44283
G1 X174.071 Y149.003 E16.45703
G1 X173.726 Y149.817 E16.52761
G1 X173.65 Y149.98 E16.54196
G1 X173.614 Y150.049 E16.54818
G1 X173.344 Y150.661 E16.60157
G1 X173.197 Y151.125 E16.64042
G1 X171.701 Y156.74 E17.10427
G1 X171.414 Y157.679 E17.18265
G1 X171.366 Y157.818 E17.19439
G1 X171.027 Y158.691 E17.26915
G1 X170.975 Y158.811 E17.27958
G1 X170.582 Y159.642 E17.35296
G1 X170.514 Y159.773 E17.36474
G1 X170.073 Y160.55 E17.43606
G1 X169.976 Y160.708 E17.45086
G1 X169.47 Y161.466 E17.52361
G1 X169.379 Y161.594 E17.53615
G1 X168.825 Y162.303 E17.60797
G1 X168.711 Y162.439 E17.62214
G1 X168.133 Y163.078 E17.69092
G1 X167.991 Y163.223 E17.70712
G1 X167.345 Y163.841 E17.77848
G1 X167.224 Y163.949 E17.79143
G1 X166.525 Y164.525 E17.86373
G1 X166.398 Y164.623 E17.87653
G1 X165.669 Y165.139 E17.94783
G1 X165.531 Y165.231 E17.96107
G1 X164.902 Y165.618 E18.02002
G1 X164.748 Y165.706 E18.03418
G1 X163.917 Y166.148 E18.10931
G1 X163.766 Y166.222 E18.12273
G1 X162.926 Y166.593 E18.19603
G1 X162.804 Y166.643 E18.20656
G1 X161.926 Y166.957 E18.28099
G1 X161.797 Y166.997 E18.29177
G1 X160.893 Y167.247 E18.36664
G1 X160.762 Y167.279 E18.37741
G1 X159.877 Y167.456 E18.44945
G1 X159.701 Y167.484 E18.46368
G1 X158.818 Y167.594 E18.5347
G1 X158.624 Y167.611 E18.55025
G1 X157.754 Y167.655 E18.61979
G1 X157.591 Y167.658 E18.6328
G1 X156.683 Y167.638 E18.7053
G1 X156.513 Y167.629 E18.71889
G1 X155.616 Y167.543 E18.79082
G1 X155.46 Y167.523 E18.80337
G1 X154.56 Y167.371 E18.87623
G1 X154.413 Y167.341 E18.88821
G1 X153.652 Y167.158 E18.95069
G1 X144.33 Y164.674 E19.72077
G1 X144.199 Y164.637 E19.73164
G1 X143.312 Y164.366 E19.80567
G1 X143.16 Y164.314 E19.8185
G1 X142.302 Y163.981 E19.89196
G1 X142.172 Y163.925 E19.90326
G1 X141.351 Y163.535 E19.97582
G1 X141.207 Y163.46 E19.98878
G1 X140.434 Y163.022 E20.0597
G1 X140.275 Y162.925 E20.07457
G1 X139.53 Y162.426 E20.14614
G1 X139.4 Y162.333 E20.1589
G1 X138.688 Y161.777 E20.23101
G1 X138.552 Y161.663 E20.24518
G1 X137.907 Y161.079 E20.31463
G1 X137.772 Y160.947 E20.32971
G1 X137.571 Y160.737 E20.35291
G1 X137.078 Y160.284 E20.40635
G1 X136.522 Y159.888 E20.46084
G1 X135.919 Y159.566 E20.51541
G1 X135.282 Y159.322 E20.56986
G1 X134.619 Y159.161 E20.62432
G1 X133.94 Y159.085 E20.67886
G1 X133.257 Y159.094 E20.73339
G1 X132.582 Y159.191 E20.78782
G1 X131.927 Y159.37 E20.84202
G1 X131.505 Y159.536 E20.87822
G1 X131.253 Y159.646 E20.90017
G1 X131.142 Y159.691 E20.90973
G1 X130.254 Y160.009 E20.98502
G1 X130.125 Y160.049 E20.9958
G1 X129.221 Y160.299 E21.07067
G1 X129.09 Y160.331 E21.08144
G1 X128.205 Y160.508 E21.15348
G1 X128.029 Y160.536 E21.16771
G1 X127.146 Y160.646 E21.23874
G1 X126.952 Y160.663 E21.25428
G1 X126.082 Y160.707 E21.32382
G1 X125.919 Y160.71 E21.33683
G1 X125.011 Y160.69 E21.40933
G1 X124.841 Y160.681 E21.42292
G1 X123.944 Y160.595 E21.49485
G1 X123.788 Y160.575 E21.5074
G1 X122.908 Y160.426 E21.57865
G1 X122.71 Y160.385 E21.59479
G1 X122.081 Y160.235 E21.64641
G1 X121.955 Y160.203 E21.65678
G1 X112.191 Y157.603 E22.46335
G1 X112.187 Y157.621 E22.46482
G1 X112.031 Y157.585 E22.4776
G1 X111.352 Y157.516 E22.53208
G1 X110.669 Y157.535 E22.58662
G1 X109.994 Y157.64 E22.64115
G1 X109.338 Y157.829 E22.69565
G1 X108.705 Y158.101 E22.75064
G1 X107.893 Y158.612 E22.82723
G1 X107.68 Y158.774 E22.84859
G1 X106.949 Y159.293 E22.92015
G1 X106.828 Y159.373 E22.93173
G1 X106.193 Y159.764 E22.99126
G1 X106.039 Y159.852 E23.00542
G1 X105.208 Y160.294 E23.08055
G1 X105.057 Y160.368 E23.09397
G1 X104.217 Y160.739 E23.16727
G1 X104.095 Y160.789 E23.1778
G1 X103.217 Y161.103 E23.25223
G1 X103.088 Y161.143 E23.26301
G1 X102.184 Y161.393 E23.33788
G1 X102.053 Y161.425 E23.34865
G1 X101.168 Y161.602 E23.42069
G1 X100.992 Y161.63 E23.43492
G1 X100.109 Y161.74 E23.50594
G1 X99.915 Y161.757 E23.52149
G1 X99.045 Y161.801 E23.59103
G1 X98.882 Y161.804 E23.60404
G1 X97.974 Y161.784 E23.67654
G1 X97.804 Y161.775 E23.69013
G1 X96.907 Y161.689 E23.76206
G1 X96.751 Y161.669 E23.77461
G1 X95.851 Y161.517 E23.84747
G1 X95.704 Y161.487 E23.85945
G1 X94.943 Y161.304 E23.92193
G1 X85.621 Y158.82 E24.69201
G1 X85.49 Y158.783 E24.70288
G1 X84.603 Y158.512 E24.77691
G1 X84.441 Y158.456 E24.7906
G1 X83.609 Y158.134 E24.86181
G1 X83.449 Y158.065 E24.87572
G1 X82.642 Y157.681 E24.94706
G1 X82.498 Y157.606 E24.96002
G1 X81.725 Y157.168 E25.03094
G1 X81.566 Y157.071 E25.04581
G1 X80.821 Y156.572 E25.11738
G1 X80.691 Y156.479 E25.13014
G1 X79.979 Y155.923 E25.20225
G1 X79.843 Y155.809 E25.21642
G1 X79.198 Y155.225 E25.28588
G1 X79.063 Y155.093 E25.30095
G1 X78.862 Y154.883 E25.32415
G1 X78.369 Y154.43 E25.3776
G1 X77.813 Y154.034 E25.43208
G1 X77.21 Y153.712 E25.48665
G1 X76.573 Y153.468 E25.5411
G1 X75.91 Y153.307 E25.59556
G1 X75.231 Y153.231 E25.6501
G1 X74.548 Y153.24 E25.70463
G1 X73.873 Y153.337 E25.75906
G1 X73.218 Y153.516 E25.81326
G1 X72.785 Y153.686 E25.8504
G1 X72.542 Y153.793 E25.87159
G1 X72.425 Y153.841 E25.88169
G1 X71.547 Y154.155 E25.95612
G1 X71.418 Y154.195 E25.9669
G1 X70.514 Y154.445 E26.04177
G1 X70.383 Y154.477 E26.05253
G1 X69.498 Y154.654 E26.12458
G1 X69.322 Y154.682 E26.1388
G1 X68.439 Y154.792 E26.20983
G1 X68.245 Y154.809 E26.22538
G1 X67.375 Y154.853 E26.29491
G1 X67.212 Y154.856 E26.30793
G1 X66.304 Y154.836 E26.38043
G1 X66.134 Y154.827 E26.39402
G1 X65.237 Y154.741 E26.46595
G1 X65.081 Y154.721 E26.4785
G1 X64.181 Y154.569 E26.55136
G1 X64.034 Y154.539 E26.56334
G1 X63.273 Y154.356 E26.62581
G1 X53.951 Y151.872 E27.3959
G1 X53.82 Y151.835 E27.40677
G1 X52.933 Y151.564 E27.4808
G1 X52.771 Y151.508 E27.49448
G1 X51.939 Y151.186 E27.5657
G1 X51.779 Y151.117 E27.57961
G1 X50.972 Y150.733 E27.65095
G1 X50.828 Y150.658 E27.66391
G1 X50.055 Y150.22 E27.73483
G1 X49.896 Y150.123 E27.7497
G1 X49.151 Y149.624 E27.82127
G1 X49.021 Y149.531 E27.83403
G1 X48.309 Y148.975 E27.90614
G1 X48.173 Y148.861 E27.92031
G1 X47.532 Y148.281 E27.98931
G1 X47.38 Y148.132 E28.0063
G1 X46.766 Y147.49 E28.07722
G1 X46.662 Y147.372 E28.08977
G1 X46.091 Y146.679 E28.16145
G1 X45.987 Y146.544 E28.17505
G1 X45.459 Y145.799 E28.24794
G1 X45.381 Y145.68 E28.2593
G1 X44.976 Y145.021 E28.32104
G1 X44.904 Y144.894 E28.3327
G1 X44.463 Y144.065 E28.40765
G1 X44.391 Y143.917 E28.42079
G1 X44.02 Y143.077 E28.49409
G1 X43.968 Y142.949 E28.50512
G1 X43.654 Y142.07 E28.57963
G1 X43.612 Y141.935 E28.59091
G1 X43.366 Y141.044 E28.6647
G1 X43.329 Y140.891 E28.67726
G1 X43.157 Y140.028 E28.74751
G1 X43.128 Y139.848 E28.76206
G1 X43.019 Y138.969 E28.83276
G1 X43.001 Y138.769 E28.84879
G1 X42.958 Y137.905 E28.91785
G1 X42.955 Y137.749 E28.9303
G1 X42.975 Y136.834 E29.00336
G1 X42.985 Y136.655 E29.01767
G1 X43.07 Y135.767 E29.08888
G1 X43.09 Y135.611 E29.10143
G1 X43.244 Y134.702 E29.17502
G1 X43.271 Y134.572 E29.18562
G1 X43.444 Y133.842 E29.24551
G1 X44.732 Y129.008 E29.64484
G1 X44.863 Y128.35 E29.6984
G1 X44.911 Y127.642 E29.75504
G1 X44.911 Y76.328 E33.85115
G1 X44.947 Y75.322 E33.9315
G1 X44.957 Y75.187 E33.94231
G1 X45.059 Y74.27 E34.01596
G1 X45.084 Y74.095 E34.03007
G1 X45.246 Y73.217 E34.10134
G1 X45.276 Y73.083 E34.1123
G1 X45.507 Y72.198 E34.18531
G1 X45.559 Y72.026 E34.19966
G1 X45.845 Y71.184 E34.27064
G1 X45.909 Y71.018 E34.28484
G1 X46.25 Y70.215 E34.35448
G1 X46.331 Y70.04 E34.36987
G1 X46.739 Y69.247 E34.44106
G1 X46.821 Y69.1 E34.4545
G1 X46.876 Y69.01 E34.46292
G1 X47.189 Y68.414 E34.51665
G1 X47.473 Y67.615 E34.58434
G1 X48.632 Y63.263 E34.94385
G1 X48.914 Y62.346 E35.02043
G1 X48.981 Y62.152 E35.03681
G1 X49.303 Y61.321 E35.10795
G1 X49.356 Y61.199 E35.11857
G1 X49.765 Y60.332 E35.19509
G1 X49.82 Y60.228 E35.20448
G1 X50.269 Y59.436 E35.27716
G1 X50.368 Y59.277 E35.29211
G1 X50.867 Y58.531 E35.36375
G1 X50.939 Y58.431 E35.37359
G1 X51.526 Y57.677 E35.44986
G1 X51.613 Y57.574 E35.46062
G1 X52.22 Y56.903 E35.53285
G1 X52.333 Y56.786 E35.54583
G1 X52.739 Y56.398 E35.59066
G0 F1620 X52.979 Y56.169
G0 F12000 X52.8 Y56.339
G1 F1800 X52.8 Y151.518 E43.18826
G1 F2700 E38.18826
G1 F300 Z0.74
G0 F12000 X54.4 Y151.991 Z0.74
G1 F300 Z0.24
G1 F2700 E43.18826
G1 F1800 X54.4 Y55.049 E50.92659
G1 F2700 E45.92659
G1 F300 Z0.74
G0 F12000 X56 Y54.074 Z0.74
G1 F300 Z0.24
G1 F2700 E50.92659
G1 F1800 X56 Y152.417 E58.77676
G1 F2700 E53.77676
G1 F300 Z0.74
G0 F12000 X57.6 Y152.844 Z0.74
G1 F300 Z0.24
G1 F2700 E58.77676
G1 F1800 X57.6 Y53.332 E66.72023
G1 F2700 E61.72023
G1 F300 Z0.74
G0 F12000 X59.2 Y52.819 Z0.74
G1 F300 Z0.24
G1 F2700 E66.72023
G1 F1800 X59.2 Y153.27 E74.73867
G1 F2700 E69.73867
G1 F300 Z0.74
G0 F12000 X60.8 Y153.697 Z0.74
G1 F300 Z0.24
G1 F2700 E74.73867
G1 F1800 X60.8 Y52.495 E82.81705
G1 F2700 E77.81705
G1 F300 Z0.74
G0 F12000 X62.4 Y52.354 Z0.74
G1 F300 Z0.24
G1 F2700 E82.81705
G1 F1800 X62.4 Y154.123 E90.94069
G1 F2700 E85.94069
G1 F300 Z0.74
G0 F12000 X64 Y154.53 Z0.74
G1 F300 Z0.24
G1 F2700 E90.94069
G1 F1800 X64 Y52.389 E99.09403
G1 F2700 E94.09403
G1 F300 Z0.74
G0 F12000 X65.6 Y52.6 Z0.74
G1 F300 Z0.24
G1 F2700 E99.09403
G1 F1800 X65.6 Y154.775 E107.25008
G1 F2700 E102.25008
G1 F300 Z0.74
G0 F12000 X67.2 Y154.855 Z0.74
