;FLAVOR:Marlin
;TIME:348
;Filament used: 0.101525m
;Layer height: 0.2
;MINX:88.2
;MINY:98.2
;MINZ:0.2
;MAXX:131.8
;MAXY:121.8
;MAXZ:1.5
;Generated with Cura_SteamEngine master
M140 S70
M105
M190 S70
M104 S200
M105
M109 S200
M82 ;absolute extrusion mode
M201 X500.00 Y500.00 Z100.00 E5000.00 ;Setup machine max acceleration
M203 X500.00 Y500.00 Z10.00 E50.00 ;Setup machine max feedrate
M204 P500.00 R1000.00 T500.00 ;Setup Print/Retract/Travel acceleration
M205 X8.00 Y8.00 Z0.40 E5.00 ;Setup Jerk
M220 S100 ;Reset Feedrate
M221 S100 ;Reset Flowrate

G28 ;Home

G92 E0 ;Reset Extruder
G1 Z2.0 F3000 ;Move Z Axis up
G1 X10.1 Y20 Z0.28 F5000.0 ;Move to start position
G1 X10.1 Y200.0 Z0.28 F1500.0 E15 ;Draw the first line
G1 X10.4 Y200.0 Z0.28 F5000.0 ;Move to side a little
G1 X10.4 Y20 Z0.28 F1500.0 E30 ;Draw the second line
G92 E0 ;Reset Extruder
G1 Z2.0 F3000 ;Move Z Axis up

G92 E0
G92 E0
G1 F2700 E-5
;LAYER_COUNT:5
;LAYER:0
M107
G1 F300 Z0.7
G0 F6000 X90.602 Y100.485 Z0.7
;TYPE:SKIRT
G1 F300 Z0.2
G1 F2700 E0
G1 F600 X91.188 Y99.955 E0.02628
G1 X91.824 Y99.488 E0.05252
G1 X92.504 Y99.087 E0.07878
G1 X93.222 Y98.757 E0.10506
G1 X93.969 Y98.502 E0.13132
G1 X94.738 Y98.323 E0.15758
G1 X95.522 Y98.223 E0.18386
G1 X96.117 Y98.2 E0.20367
G1 X99.883 Y98.2 E0.32893
G1 X100.672 Y98.24 E0.3552
G1 X101.452 Y98.359 E0.38144
G1 X102.217 Y98.557 E0.40773
G1 X102.957 Y98.831 E0.43397
G1 X103.666 Y99.179 E0.46024
G1 X103.998 Y99.386 E0.47325
G1 X104.504 Y99.087 E0.4928
G1 X105.222 Y98.757 E0.51908
G1 X105.969 Y98.502 E0.54534
G1 X106.738 Y98.323 E0.5716
G1 X107.522 Y98.223 E0.59789
G1 X108.117 Y98.2 E0.61769
G1 X111.883 Y98.2 E0.74295
G1 X112.672 Y98.24 E0.76922
G1 X113.452 Y98.359 E0.79547
G1 X114.217 Y98.557 E0.82175
G1 X114.957 Y98.831 E0.848
G1 X115.666 Y99.179 E0.87426
G1 X115.998 Y99.386 E0.88728
G1 X116.504 Y99.087 E0.90683
G1 X117.222 Y98.757 E0.93311
G1 X117.969 Y98.502 E0.95936
G1 X118.738 Y98.323 E0.98562
G1 X119.522 Y98.223 E1.01191
G1 X120.117 Y98.2 E1.03171
G1 X123.883 Y98.2 E1.15697
G1 X124.672 Y98.24 E1.18325
G1 X125.452 Y98.359 E1.20949
G1 X126.217 Y98.557 E1.23577
G1 X126.957 Y98.831 E1.26202
G1 X127.666 Y99.179 E1.28829
G1 X128.337 Y99.597 E1.31458
G1 X128.961 Y100.08 E1.34083
G1 X129.398 Y100.485 E1.36064
G1 X129.515 Y100.602 E1.36615
G1 X130.045 Y101.188 E1.39243
G1 X130.512 Y101.824 E1.41867
G1 X130.913 Y102.504 E1.44493
G1 X131.243 Y103.222 E1.47121
G1 X131.498 Y103.969 E1.49746
G1 X131.677 Y104.738 E1.52372
G1 X131.777 Y105.522 E1.55001
G1 X131.8 Y106.117 E1.56981
G1 X131.8 Y113.883 E1.82811
G1 X131.76 Y114.672 E1.85439
G1 X131.641 Y115.452 E1.88063
G1 X131.443 Y116.217 E1.90691
G1 X131.169 Y116.957 E1.93316
G1 X130.821 Y117.666 E1.95943
G1 X130.403 Y118.337 E1.98572
G1 X129.92 Y118.961 E2.01197
G1 X129.515 Y119.398 E2.03178
G1 X129.398 Y119.515 E2.03729
G1 X128.812 Y120.045 E2.06357
G1 X128.176 Y120.512 E2.08981
G1 X127.496 Y120.913 E2.11607
G1 X126.778 Y121.243 E2.14235
G1 X126.031 Y121.498 E2.1686
G1 X125.262 Y121.677 E2.19486
G1 X124.478 Y121.777 E2.22115
G1 X123.883 Y121.8 E2.24095
G1 X123.617 Y121.8 E2.2498
G1 X122.828 Y121.76 E2.27608
G1 X122.048 Y121.641 E2.30232
G1 X121.986 Y121.625 E2.30445
G1 X121.762 Y121.677 E2.3121
G1 X120.978 Y121.777 E2.33839
G1 X120.383 Y121.8 E2.35819
G1 X120.117 Y121.8 E2.36704
G1 X119.328 Y121.76 E2.39331
G1 X118.548 Y121.641 E2.41956
G1 X117.783 Y121.443 E2.44584
G1 X117.043 Y121.169 E2.47208
G1 X116.334 Y120.821 E2.49835
G1 X116.002 Y120.614 E2.51137
G1 X115.496 Y120.913 E2.53091
G1 X114.778 Y121.243 E2.5572
G1 X114.031 Y121.498 E2.58345
G1 X113.262 Y121.677 E2.60971
G1 X112.478 Y121.777 E2.636
G1 X111.883 Y121.8 E2.6558
G1 X111.617 Y121.8 E2.66465
G1 X110.828 Y121.76 E2.69093
G1 X110.048 Y121.641 E2.71717
G1 X109.986 Y121.625 E2.7193
G1 X109.762 Y121.677 E2.72695
G1 X108.978 Y121.777 E2.75323
G1 X108.383 Y121.8 E2.77304
G1 X108.117 Y121.8 E2.78189
G1 X107.328 Y121.76 E2.80816
G1 X106.548 Y121.641 E2.83441
G1 X105.783 Y121.443 E2.86069
G1 X105.043 Y121.169 E2.88693
G1 X104.334 Y120.821 E2.9132
G1 X104.002 Y120.614 E2.92621
G1 X103.496 Y120.913 E2.94576
G1 X102.778 Y121.243 E2.97205
G1 X102.031 Y121.498 E2.9983
G1 X101.262 Y121.677 E3.02456
G1 X100.478 Y121.777 E3.05085
G1 X99.883 Y121.8 E3.07065
G1 X99.617 Y121.8 E3.0795
G1 X98.828 Y121.76 E3.10577
G1 X98.048 Y121.641 E3.13202
G1 X97.986 Y121.625 E3.13415
G1 X97.762 Y121.677 E3.1418
G1 X96.978 Y121.777 E3.16808
G1 X96.383 Y121.8 E3.18789
G1 X96.117 Y121.8 E3.19673
G1 X95.328 Y121.76 E3.22301
G1 X94.548 Y121.641 E3.24925
G1 X93.783 Y121.443 E3.27554
G1 X93.043 Y121.169 E3.30178
G1 X92.334 Y120.821 E3.32805
G1 X91.663 Y120.403 E3.35434
G1 X91.039 Y119.92 E3.38059
G1 X90.602 Y119.515 E3.40041
G1 X90.485 Y119.398 E3.40591
G1 X89.955 Y118.812 E3.43219
G1 X89.488 Y118.176 E3.45843
G1 X89.087 Y117.496 E3.48469
G1 X88.757 Y116.778 E3.51097
G1 X88.502 Y116.031 E3.53722
G1 X88.323 Y115.262 E3.56349
G1 X88.223 Y114.478 E3.58977
G1 X88.2 Y113.883 E3.60958
G1 X88.2 Y106.117 E3.86788
G1 X88.24 Y105.328 E3.89415
G1 X88.359 Y104.548 E3.92039
G1 X88.557 Y103.783 E3.94668
G1 X88.831 Y103.043 E3.97292
G1 X89.179 Y102.334 E3.99919
G1 X89.597 Y101.663 E4.02548
G1 X90.08 Y101.039 E4.05173
G1 X90.485 Y100.602 E4.07155
G1 X90.602 Y100.485 E4.07705
G0 F6000 X90.884 Y100.767
G1 F600 X91.456 Y100.253 E4.10263
G1 X92.078 Y99.8 E4.12822
G1 X92.743 Y99.414 E4.15379
G1 X93.445 Y99.099 E4.17939
G1 X94.176 Y98.859 E4.20498
G1 X94.927 Y98.696 E4.23054
G1 X95.692 Y98.612 E4.25613
G1 X96.117 Y98.6 E4.27027
G1 X99.883 Y98.6 E4.39553
G1 X100.651 Y98.64 E4.42111
G1 X101.411 Y98.759 E4.4467
G1 X102.154 Y98.957 E4.47227
G1 X102.873 Y99.231 E4.49786
G1 X103.559 Y99.578 E4.52343
G1 X103.997 Y99.859 E4.54074
G1 X104.078 Y99.8 E4.54407
G1 X104.743 Y99.414 E4.56965
G1 X105.445 Y99.099 E4.59524
G1 X106.176 Y98.859 E4.62083
G1 X106.927 Y98.696 E4.64639
G1 X107.692 Y98.612 E4.67199
G1 X108.117 Y98.6 E4.68613
G1 X111.883 Y98.6 E4.81138
G1 X112.651 Y98.64 E4.83696
G1 X113.411 Y98.759 E4.86255
G1 X114.154 Y98.957 E4.88812
G1 X114.873 Y99.231 E4.91371
G1 X115.559 Y99.578 E4.93928
G1 X115.997 Y99.859 E4.95659
G1 X116.078 Y99.8 E4.95993
G1 X116.743 Y99.414 E4.9855
G1 X117.445 Y99.099 E5.01109
G1 X118.176 Y98.859 E5.03668
G1 X118.927 Y98.696 E5.06224
G1 X119.692 Y98.612 E5.08784
G1 X120.117 Y98.6 E5.10198
G1 X123.883 Y98.6 E5.22724
G1 X124.651 Y98.64 E5.25281
G1 X125.411 Y98.759 E5.2784
G1 X126.154 Y98.957 E5.30398
G1 X126.873 Y99.231 E5.32957
G1 X127.559 Y99.578 E5.35514
G1 X128.206 Y99.994 E5.38072
G1 X128.806 Y100.475 E5.4063
G1 X129.116 Y100.767 E5.42046
G1 X129.233 Y100.884 E5.42596
G1 X129.747 Y101.456 E5.45154
G1 X130.2 Y102.078 E5.47713
G1 X130.586 Y102.743 E5.50271
G1 X130.901 Y103.445 E5.5283
G1 X131.141 Y104.176 E5.55389
G1 X131.304 Y104.927 E5.57945
G1 X131.388 Y105.692 E5.60505
G1 X131.4 Y106.117 E5.61919
G1 X131.4 Y113.883 E5.87749
G1 X131.36 Y114.651 E5.90307
G1 X131.241 Y115.411 E5.92865
G1 X131.043 Y116.154 E5.95423
G1 X130.769 Y116.873 E5.97982
G1 X130.422 Y117.559 E6.00539
G1 X130.006 Y118.206 E6.03097
G1 X129.525 Y118.806 E6.05655
G1 X129.233 Y119.116 E6.07071
G1 X129.116 Y119.233 E6.07621
G1 X128.544 Y119.747 E6.10179
G1 X127.922 Y120.2 E6.12739
G1 X127.257 Y120.586 E6.15296
G1 X126.555 Y120.901 E6.17855
G1 X125.824 Y121.141 E6.20414
G1 X125.073 Y121.304 E6.2297
G1 X124.308 Y121.388 E6.2553
G1 X123.883 Y121.4 E6.26944
G1 X123.617 Y121.4 E6.27829
G1 X122.849 Y121.36 E6.30386
G1 X122.089 Y121.241 E6.32945
G1 X121.988 Y121.214 E6.33293
G1 X121.573 Y121.304 E6.34705
G1 X120.808 Y121.388 E6.37265
G1 X120.383 Y121.4 E6.38679
G1 X120.117 Y121.4 E6.39564
G1 X119.349 Y121.36 E6.42121
G1 X118.589 Y121.241 E6.4468
G1 X117.846 Y121.043 E6.47238
G1 X117.127 Y120.769 E6.49797
G1 X116.441 Y120.422 E6.52354
G1 X116.003 Y120.141 E6.54084
G1 X115.922 Y120.2 E6.54418
G1 X115.257 Y120.586 E6.56975
G1 X114.555 Y120.901 E6.59534
G1 X113.824 Y121.141 E6.62093
G1 X113.073 Y121.304 E6.64649
G1 X112.308 Y121.388 E6.67209
G1 X111.883 Y121.4 E6.68623
G1 X111.617 Y121.4 E6.69508
G1 X110.849 Y121.36 E6.72066
G1 X110.089 Y121.241 E6.74624
G1 X109.988 Y121.214 E6.74972
G1 X109.573 Y121.304 E6.76384
G1 X108.808 Y121.388 E6.78944
G1 X108.383 Y121.4 E6.80358
G1 X108.117 Y121.4 E6.81243
G1 X107.349 Y121.36 E6.83801
G1 X106.589 Y121.241 E6.86359
G1 X105.846 Y121.043 E6.88917
G1 X105.127 Y120.769 E6.91476
G1 X104.441 Y120.422 E6.94033
G1 X104.003 Y120.141 E6.95764
G1 X103.922 Y120.2 E6.96097
G1 X103.257 Y120.586 E6.98654
G1 X102.555 Y120.901 E7.01214
G1 X101.824 Y121.141 E7.03773
G1 X101.073 Y121.304 E7.06329
G1 X100.308 Y121.388 E7.08888
G1 X99.883 Y121.4 E7.10302
G1 X99.617 Y121.4 E7.11187
G1 X98.849 Y121.36 E7.13745
G1 X98.089 Y121.241 E7.16303
G1 X97.988 Y121.214 E7.16651
G1 X97.573 Y121.304 E7.18064
G1 X96.808 Y121.388 E7.20623
G1 X96.383 Y121.4 E7.22037
G1 X96.117 Y121.4 E7.22922
G1 X95.349 Y121.36 E7.2548
G1 X94.589 Y121.241 E7.28039
G1 X93.846 Y121.043 E7.30596
G1 X93.127 Y120.769 E7.33155
G1 X92.441 Y120.422 E7.35712
G1 X91.794 Y120.006 E7.3827
G1 X91.194 Y119.525 E7.40828
G1 X90.884 Y119.233 E7.42245
G1 X90.767 Y119.116 E7.42795
G1 X90.253 Y118.544 E7.45353
G1 X89.8 Y117.922 E7.47912
G1 X89.414 Y117.257 E7.50469
G1 X89.099 Y116.555 E7.53029
G1 X88.859 Y115.824 E7.55588
G1 X88.696 Y115.073 E7.58143
G1 X88.612 Y114.308 E7.60703
G1 X88.6 Y113.883 E7.62117
G1 X88.6 Y106.117 E7.87947
G1 X88.64 Y105.349 E7.90505
G1 X88.759 Y104.589 E7.93064
G1 X88.957 Y103.846 E7.95621
G1 X89.231 Y103.127 E7.9818
G1 X89.578 Y102.441 E8.00737
G1 X89.994 Y101.794 E8.03295
G1 X90.475 Y101.194 E8.05853
G1 X90.767 Y100.884 E8.0727
G1 X90.884 Y100.767 E8.0782
G0 F6000 X91.167 Y101.05
G1 F600 X91.724 Y100.55 E8.10309
G1 X92.33 Y100.113 E8.12794
G1 X92.98 Y99.742 E8.15284
G1 X93.666 Y99.443 E8.17773
G1 X94.38 Y99.219 E8.20262
G1 X95.113 Y99.072 E8.22748
G1 X96.117 Y99 E8.26096
G1 X99.883 Y99 E8.38622
G1 X100.63 Y99.04 E8.4111
G1 X101.368 Y99.159 E8.43596
G1 X102.09 Y99.357 E8.46086
G1 X102.786 Y99.63 E8.48573
G1 X103.449 Y99.977 E8.51062
G1 X104.005 Y100.347 E8.53283
G1 X104.33 Y100.113 E8.54615
G1 X104.98 Y99.742 E8.57104
G1 X105.666 Y99.443 E8.59593
G1 X106.38 Y99.219 E8.62082
G1 X107.113 Y99.072 E8.64569
G1 X108.117 Y99 E8.67917
G1 X111.883 Y99 E8.80442
G1 X112.63 Y99.04 E8.8293
G1 X113.368 Y99.159 E8.85417
G1 X114.09 Y99.357 E8.87907
G1 X114.786 Y99.63 E8.90393
G1 X115.449 Y99.977 E8.92882
G1 X116.005 Y100.347 E8.95104
G1 X116.33 Y100.113 E8.96436
G1 X116.98 Y99.742 E8.98925
G1 X117.666 Y99.443 E9.01414
G1 X118.38 Y99.219 E9.03903
G1 X119.113 Y99.072 E9.06389
G1 X120.117 Y99 E9.09737
G1 X123.883 Y99 E9.22263
G1 X124.63 Y99.04 E9.24751
G1 X125.368 Y99.159 E9.27237
G1 X126.09 Y99.357 E9.29727
G1 X126.786 Y99.63 E9.32214
G1 X127.449 Y99.977 E9.34703
G1 X128.072 Y100.392 E9.37193
G1 X128.833 Y101.05 E9.40539
G1 X128.95 Y101.167 E9.41089
G1 X129.45 Y101.724 E9.43578
G1 X129.887 Y102.33 E9.46063
G1 X130.258 Y102.98 E9.48553
G1 X130.557 Y103.666 E9.51042
G1 X130.781 Y104.38 E9.53531
G1 X130.928 Y105.113 E9.56017
G1 X131 Y106.117 E9.59365
G1 X131 Y113.883 E9.85195
G1 X130.96 Y114.63 E9.87683
G1 X130.841 Y115.368 E9.90169
G1 X130.643 Y116.09 E9.92659
G1 X130.37 Y116.786 E9.95146
G1 X130.023 Y117.449 E9.97635
G1 X129.608 Y118.072 E10.00124
G1 X128.95 Y118.833 E10.03471
G1 X128.833 Y118.95 E10.04021
G1 X128.276 Y119.45 E10.0651
G1 X127.67 Y119.887 E10.08995
G1 X127.02 Y120.258 E10.11485
G1 X126.334 Y120.557 E10.13974
G1 X125.62 Y120.781 E10.16462
G1 X124.887 Y120.928 E10.18949
G1 X123.883 Y121 E10.22297
G1 X123.617 Y121 E10.23182
G1 X122.87 Y120.96 E10.2567
G1 X122.132 Y120.841 E10.28156
G1 X122.001 Y120.805 E10.28608
G1 X121.387 Y120.928 E10.30691
G1 X120.383 Y121 E10.34039
G1 X120.117 Y121 E10.34923
G1 X119.37 Y120.96 E10.37411
G1 X118.632 Y120.841 E10.39898
G1 X117.91 Y120.643 E10.42388
G1 X117.214 Y120.37 E10.44874
G1 X116.551 Y120.023 E10.47363
G1 X115.995 Y119.653 E10.49585
G1 X115.67 Y119.887 E10.50916
G1 X115.02 Y120.258 E10.53406
G1 X114.334 Y120.557 E10.55895
G1 X113.62 Y120.781 E10.58384
G1 X112.887 Y120.928 E10.6087
G1 X111.883 Y121 E10.64218
G1 X111.617 Y121 E10.65103
G1 X110.87 Y120.96 E10.67591
G1 X110.132 Y120.841 E10.70077
G1 X110.001 Y120.805 E10.70529
G1 X109.387 Y120.928 E10.72612
G1 X108.383 Y121 E10.7596
G1 X108.117 Y121 E10.76844
G1 X107.37 Y120.96 E10.79332
G1 X106.632 Y120.841 E10.81819
G1 X105.91 Y120.643 E10.84309
G1 X105.214 Y120.37 E10.86795
G1 X104.551 Y120.023 E10.89284
G1 X103.995 Y119.653 E10.91506
G1 X103.67 Y119.887 E10.92838
G1 X103.02 Y120.258 E10.95327
G1 X102.334 Y120.557 E10.97816
G1 X101.62 Y120.781 E11.00305
G1 X100.887 Y120.928 E11.02791
G1 X99.883 Y121 E11.06139
G1 X99.617 Y121 E11.07024
G1 X98.87 Y120.96 E11.09512
G1 X98.132 Y120.841 E11.11998
G1 X98.001 Y120.805 E11.1245
G1 X97.387 Y120.928 E11.14533
G1 X96.383 Y121 E11.17881
G1 X96.117 Y121 E11.18765
G1 X95.37 Y120.96 E11.21254
G1 X94.632 Y120.841 E11.2374
G1 X93.91 Y120.643 E11.2623
G1 X93.214 Y120.37 E11.28717
G1 X92.551 Y120.023 E11.31205
G1 X91.928 Y119.608 E11.33695
G1 X91.167 Y118.95 E11.37041
G1 X91.05 Y118.833 E11.37592
G1 X90.55 Y118.276 E11.40081
G1 X90.113 Y117.67 E11.42566
G1 X89.742 Y117.02 E11.45055
G1 X89.443 Y116.334 E11.47544
G1 X89.219 Y115.62 E11.50033
G1 X89.072 Y114.887 E11.5252
G1 X89 Y113.883 E11.55868
G1 X89 Y106.117 E11.81697
G1 X89.04 Y105.37 E11.84186
G1 X89.159 Y104.632 E11.86672
G1 X89.357 Y103.91 E11.89162
G1 X89.63 Y103.214 E11.91648
G1 X89.977 Y102.551 E11.94137
G1 X90.392 Y101.928 E11.96627
G1 X91.05 Y101.167 E11.99973
G1 X91.167 Y101.05 E12.00524
G0 F6000 X91.45 Y101.333
G1 F600 X91.991 Y100.849 E12.02938
G1 X92.582 Y100.426 E12.05355
G1 X93.216 Y100.072 E12.0777
G1 X93.885 Y99.789 E12.10186
G1 X94.581 Y99.581 E12.12602
G1 X95.296 Y99.451 E12.15019
G1 X96.117 Y99.4 E12.17755
G1 X99.883 Y99.4 E12.30281
G1 X100.608 Y99.44 E12.32696
G1 X101.325 Y99.559 E12.35114
G1 X102.024 Y99.757 E12.3753
G1 X102.697 Y100.03 E12.39945
G1 X103.336 Y100.375 E12.42361
G1 X103.933 Y100.789 E12.44777
G1 X103.997 Y100.845 E12.4506
G1 X104.582 Y100.426 E12.47453
G1 X105.216 Y100.072 E12.49868
G1 X105.885 Y99.789 E12.52284
G1 X106.581 Y99.581 E12.547
G1 X107.296 Y99.451 E12.57118
G1 X108.117 Y99.4 E12.59853
G1 X111.883 Y99.4 E12.72379
G1 X112.608 Y99.44 E12.74794
G1 X113.325 Y99.559 E12.77212
G1 X114.024 Y99.757 E12.79628
G1 X114.697 Y100.03 E12.82044
G1 X115.336 Y100.375 E12.84459
G1 X115.933 Y100.789 E12.86875
G1 X115.997 Y100.845 E12.87158
G1 X116.582 Y100.426 E12.89551
G1 X117.216 Y100.072 E12.91967
G1 X117.885 Y99.789 E12.94383
G1 X118.581 Y99.581 E12.96799
G1 X119.296 Y99.451 E12.99216
G1 X120.117 Y99.4 E13.01952
G1 X123.883 Y99.4 E13.14477
G1 X124.608 Y99.44 E13.16892
G1 X125.325 Y99.559 E13.1931
G1 X126.024 Y99.757 E13.21726
G1 X126.697 Y100.03 E13.24142
G1 X127.336 Y100.375 E13.26557
G1 X127.933 Y100.789 E13.28973
G1 X128.55 Y101.333 E13.31709
G1 X128.667 Y101.45 E13.3226
G1 X129.151 Y101.991 E13.34674
G1 X129.574 Y102.582 E13.37091
G1 X129.928 Y103.216 E13.39506
G1 X130.211 Y103.885 E13.41922
G1 X130.419 Y104.581 E13.44338
G1 X130.549 Y105.296 E13.46755
G1 X130.6 Y106.117 E13.49491
G1 X130.6 Y113.883 E13.75321
G1 X130.56 Y114.608 E13.77736
G1 X130.441 Y115.325 E13.80154
G1 X130.243 Y116.024 E13.8257
G1 X129.97 Y116.697 E13.84986
G1 X129.625 Y117.336 E13.87401
G1 X129.211 Y117.933 E13.89817
G1 X128.667 Y118.55 E13.92553
G1 X128.55 Y118.667 E13.93103
G1 X128.009 Y119.151 E13.95518
G1 X127.418 Y119.574 E13.97935
G1 X126.784 Y119.928 E14.0035
G1 X126.115 Y120.211 E14.02766
G1 X125.419 Y120.419 E14.05182
G1 X124.704 Y120.549 E14.07599
G1 X123.883 Y120.6 E14.10335
G1 X123.617 Y120.6 E14.1122
G1 X122.892 Y120.56 E14.13635
G1 X122.175 Y120.441 E14.16052
G1 X122.006 Y120.393 E14.16637
G1 X121.919 Y120.419 E14.16939
G1 X121.204 Y120.549 E14.19356
G1 X120.383 Y120.6 E14.22092
G1 X120.117 Y120.6 E14.22976
G1 X119.392 Y120.56 E14.25392
G1 X118.675 Y120.441 E14.27809
G1 X117.976 Y120.243 E14.30225
G1 X117.303 Y119.97 E14.32641
G1 X116.664 Y119.625 E14.35056
G1 X116.067 Y119.211 E14.37472
G1 X116.003 Y119.155 E14.37755
G1 X115.418 Y119.574 E14.40149
G1 X114.784 Y119.928 E14.42564
