;FLAVOR:Marlin
;TIME:152
;Filament used: 0.0416645m
;Layer height: 0.2
;MINX:100.2
;MINY:98.2
;MINZ:0.2
;MAXX:119.8
;MAXY:121.8
;MAXZ:1.5
;Generated with Cura_SteamEngine master
M140 S70
M105
M190 S70
M104 S200
M105
M109 S200
M82 ;absolute extrusion mode
M201 X500.00 Y500.00 Z100.00 E5000.00 ;Setup machine max acceleration
M203 X500.00 Y500.00 Z10.00 E50.00 ;Setup machine max feedrate
M204 P500.00 R1000.00 T500.00 ;Setup Print/Retract/Travel acceleration
M205 X8.00 Y8.00 Z0.40 E5.00 ;Setup Jerk
M220 S100 ;Reset Feedrate
M221 S100 ;Reset Flowrate

G28 ;Home

G92 E0 ;Reset Extruder
G1 Z2.0 F3000 ;Move Z Axis up
G1 X10.1 Y20 Z0.28 F5000.0 ;Move to start position
G1 X10.1 Y200.0 Z0.28 F1500.0 E15 ;Draw the first line
G1 X10.4 Y200.0 Z0.28 F5000.0 ;Move to side a little
G1 X10.4 Y20 Z0.28 F1500.0 E30 ;Draw the second line
G92 E0 ;Reset Extruder
G1 Z2.0 F3000 ;Move Z Axis up

G92 E0
G92 E0
G1 F2700 E-5
;LAYER_COUNT:5
;LAYER:0
M107
G1 F300 Z0.7
G0 F6000 X102.485 Y100.602 Z0.7
;TYPE:SKIRT
G1 F300 Z0.2
G1 F2700 E0
G1 F600 X102.602 Y100.485 E0.0055
G1 X103.188 Y99.955 E0.03178
G1 X103.824 Y99.488 E0.05803
G1 X104.504 Y99.087 E0.08428
G1 X105.222 Y98.757 E0.11057
G1 X105.969 Y98.502 E0.13682
G1 X106.738 Y98.323 E0.16308
G1 X107.522 Y98.223 E0.18937
G1 X108.117 Y98.2 E0.20917
G1 X111.883 Y98.2 E0.33443
G1 X112.672 Y98.24 E0.3607
G1 X113.452 Y98.359 E0.38695
G1 X114.217 Y98.557 E0.41323
G1 X114.957 Y98.831 E0.43948
G1 X115.666 Y99.179 E0.46574
G1 X116.337 Y99.597 E0.49204
G1 X116.961 Y100.08 E0.51828
G1 X117.398 Y100.485 E0.5381
G1 X117.515 Y100.602 E0.5436
G1 X118.045 Y101.188 E0.56988
G1 X118.512 Y101.824 E0.59613
G1 X118.913 Y102.504 E0.62238
G1 X119.243 Y103.222 E0.64867
G1 X119.498 Y103.969 E0.67492
G1 X119.677 Y104.738 E0.70118
G1 X119.777 Y105.522 E0.72747
G1 X119.8 Y106.117 E0.74727
G1 X119.8 Y113.883 E1.00557
G1 X119.76 Y114.672 E1.03185
G1 X119.641 Y115.452 E1.05809
G1 X119.443 Y116.217 E1.08437
G1 X119.169 Y116.957 E1.11062
G1 X118.821 Y117.666 E1.13689
G1 X118.403 Y118.337 E1.16318
G1 X117.92 Y118.961 E1.18942
G1 X117.515 Y119.398 E1.20924
G1 X117.398 Y119.515 E1.21474
G1 X116.812 Y120.045 E1.24102
G1 X116.176 Y120.512 E1.26727
G1 X115.496 Y120.913 E1.29352
G1 X114.778 Y121.243 E1.31981
G1 X114.031 Y121.498 E1.34606
G1 X113.262 Y121.677 E1.37232
G1 X112.478 Y121.777 E1.39861
G1 X111.883 Y121.8 E1.41841
G1 X111.617 Y121.8 E1.42726
G1 X110.828 Y121.76 E1.45354
G1 X110.048 Y121.641 E1.47978
G1 X109.986 Y121.625 E1.48191
G1 X109.762 Y121.677 E1.48956
G1 X108.978 Y121.777 E1.51584
G1 X108.383 Y121.8 E1.53565
G1 X108.117 Y121.8 E1.5445
G1 X107.328 Y121.76 E1.57077
G1 X106.548 Y121.641 E1.59701
G1 X105.783 Y121.443 E1.6233
G1 X105.043 Y121.169 E1.64954
G1 X104.334 Y120.821 E1.67581
G1 X103.663 Y120.403 E1.70211
G1 X103.039 Y119.92 E1.72835
G1 X102.602 Y119.515 E1.74817
G1 X102.485 Y119.398 E1.75367
G1 X101.955 Y118.812 E1.77995
G1 X101.488 Y118.176 E1.80619
G1 X101.087 Y117.496 E1.83245
G1 X100.757 Y116.778 E1.85873
G1 X100.502 Y116.031 E1.88499
G1 X100.323 Y115.262 E1.91125
G1 X100.223 Y114.478 E1.93753
G1 X100.2 Y113.883 E1.95734
G1 X100.2 Y106.117 E2.21564
G1 X100.24 Y105.328 E2.24191
G1 X100.359 Y104.548 E2.26816
G1 X100.557 Y103.783 E2.29444
G1 X100.831 Y103.043 E2.32068
G1 X101.179 Y102.334 E2.34695
G1 X101.597 Y101.663 E2.37325
G1 X102.08 Y101.039 E2.39949
G1 X102.485 Y100.602 E2.41931
G0 F6000 X102.767 Y100.884
G1 F600 X102.884 Y100.767 E2.42481
G1 X103.456 Y100.253 E2.45039
G1 X104.078 Y99.8 E2.47598
G1 X104.743 Y99.414 E2.50156
G1 X105.445 Y99.099 E2.52715
G1 X106.176 Y98.859 E2.55274
G1 X106.927 Y98.696 E2.5783
G1 X107.692 Y98.612 E2.60389
G1 X108.117 Y98.6 E2.61804
G1 X111.883 Y98.6 E2.74329
G1 X112.651 Y98.64 E2.76887
G1 X113.411 Y98.759 E2.79446
G1 X114.154 Y98.957 E2.82003
G1 X114.873 Y99.231 E2.84562
G1 X115.559 Y99.578 E2.87119
G1 X116.206 Y99.994 E2.89678
G1 X116.806 Y100.475 E2.92235
G1 X117.116 Y100.767 E2.93652
G1 X117.233 Y100.884 E2.94202
G1 X117.747 Y101.456 E2.9676
G1 X118.2 Y102.078 E2.99319
G1 X118.586 Y102.743 E3.01877
G1 X118.901 Y103.445 E3.04436
G1 X119.141 Y104.176 E3.06995
G1 X119.304 Y104.927 E3.09551
G1 X119.388 Y105.692 E3.1211
G1 X119.4 Y106.117 E3.13525
G1 X119.4 Y113.883 E3.39354
G1 X119.36 Y114.651 E3.41912
G1 X119.241 Y115.411 E3.44471
G1 X119.043 Y116.154 E3.47028
G1 X118.769 Y116.873 E3.49587
G1 X118.422 Y117.559 E3.52144
G1 X118.006 Y118.206 E3.54703
G1 X117.525 Y118.806 E3.5726
G1 X117.233 Y119.116 E3.58677
G1 X117.116 Y119.233 E3.59227
G1 X116.544 Y119.747 E3.61785
G1 X115.922 Y120.2 E3.64344
G1 X115.257 Y120.586 E3.66902
G1 X114.555 Y120.901 E3.69461
G1 X113.824 Y121.141 E3.7202
G1 X113.073 Y121.304 E3.74576
G1 X112.308 Y121.388 E3.77135
G1 X111.883 Y121.4 E3.7855
G1 X111.617 Y121.4 E3.79434
G1 X110.849 Y121.36 E3.81992
G1 X110.089 Y121.241 E3.84551
G1 X109.988 Y121.214 E3.84898
G1 X109.573 Y121.304 E3.86311
G1 X108.808 Y121.388 E3.88871
G1 X108.383 Y121.4 E3.90285
G1 X108.117 Y121.4 E3.91169
G1 X107.349 Y121.36 E3.93727
G1 X106.589 Y121.241 E3.96286
G1 X105.846 Y121.043 E3.98843
G1 X105.127 Y120.769 E4.01402
G1 X104.441 Y120.422 E4.03959
G1 X103.794 Y120.006 E4.06518
G1 X103.194 Y119.525 E4.09075
G1 X102.884 Y119.233 E4.10492
G1 X102.767 Y119.116 E4.11042
G1 X102.253 Y118.544 E4.136
G1 X101.8 Y117.922 E4.16159
G1 X101.414 Y117.257 E4.18717
G1 X101.099 Y116.555 E4.21276
G1 X100.859 Y115.824 E4.23835
G1 X100.696 Y115.073 E4.26391
G1 X100.612 Y114.308 E4.2895
G1 X100.6 Y113.883 E4.30365
G1 X100.6 Y106.117 E4.56194
G1 X100.64 Y105.349 E4.58752
G1 X100.759 Y104.589 E4.61311
G1 X100.957 Y103.846 E4.63868
G1 X101.231 Y103.127 E4.66427
G1 X101.578 Y102.441 E4.68984
G1 X101.994 Y101.794 E4.71543
G1 X102.475 Y101.194 E4.741
G1 X102.767 Y100.884 E4.75517
G0 F6000 X103.05 Y101.167
G1 F600 X103.167 Y101.05 E4.76067
G1 X103.724 Y100.55 E4.78557
G1 X104.33 Y100.113 E4.81042
G1 X104.98 Y99.742 E4.83531
G1 X105.666 Y99.443 E4.8602
G1 X106.38 Y99.219 E4.88509
G1 X107.113 Y99.072 E4.90995
G1 X108.117 Y99 E4.94343
G1 X111.883 Y99 E5.06869
G1 X112.63 Y99.04 E5.09357
G1 X113.368 Y99.159 E5.11843
G1 X114.09 Y99.357 E5.14333
G1 X114.786 Y99.63 E5.1682
G1 X115.449 Y99.977 E5.19309
G1 X116.072 Y100.392 E5.21799
G1 X116.833 Y101.05 E5.25145
G1 X116.95 Y101.167 E5.25695
G1 X117.45 Y101.724 E5.28185
G1 X117.887 Y102.33 E5.3067
G1 X118.258 Y102.98 E5.33159
G1 X118.557 Y103.666 E5.35648
G1 X118.781 Y104.38 E5.38137
G1 X118.928 Y105.113 E5.40623
G1 X119 Y106.117 E5.43971
G1 X119 Y113.883 E5.69801
G1 X118.96 Y114.63 E5.72289
G1 X118.841 Y115.368 E5.74775
G1 X118.643 Y116.09 E5.77265
G1 X118.37 Y116.786 E5.79752
G1 X118.023 Y117.449 E5.82241
G1 X117.608 Y118.072 E5.84731
G1 X116.95 Y118.833 E5.88077
G1 X116.833 Y118.95 E5.88627
G1 X116.276 Y119.45 E5.91117
G1 X115.67 Y119.887 E5.93601
G1 X115.02 Y120.258 E5.96091
G1 X114.334 Y120.557 E5.9858
G1 X113.62 Y120.781 E6.01069
G1 X112.887 Y120.928 E6.03555
G1 X111.883 Y121 E6.06903
G1 X111.617 Y121 E6.07788
G1 X110.87 Y120.96 E6.10276
G1 X110.132 Y120.841 E6.12762
G1 X110.001 Y120.805 E6.13214
G1 X109.387 Y120.928 E6.15297
G1 X108.383 Y121 E6.18645
G1 X108.117 Y121 E6.19529
G1 X107.37 Y120.96 E6.22017
G1 X106.632 Y120.841 E6.24504
G1 X105.91 Y120.643 E6.26994
G1 X105.214 Y120.37 E6.2948
G1 X104.551 Y120.023 E6.31969
G1 X103.928 Y119.608 E6.34459
G1 X103.167 Y118.95 E6.37805
G1 X103.05 Y118.833 E6.38355
G1 X102.55 Y118.276 E6.40845
G1 X102.113 Y117.67 E6.4333
G1 X101.742 Y117.02 E6.45819
G1 X101.443 Y116.334 E6.48308
G1 X101.219 Y115.62 E6.50797
G1 X101.072 Y114.887 E6.53284
G1 X101 Y113.883 E6.56631
G1 X101 Y106.117 E6.82461
G1 X101.04 Y105.37 E6.84949
G1 X101.159 Y104.632 E6.87436
G1 X101.357 Y103.91 E6.89926
G1 X101.63 Y103.214 E6.92412
G1 X101.977 Y102.551 E6.94901
G1 X102.392 Y101.928 E6.97391
G1 X103.05 Y101.167 E7.00737
G0 F6000 X103.333 Y101.45
G1 F600 X103.45 Y101.333 E7.01287
G1 X103.991 Y100.849 E7.03702
G1 X104.582 Y100.426 E7.06119
G1 X105.216 Y100.072 E7.08534
G1 X105.885 Y99.789 E7.1095
G1 X106.581 Y99.581 E7.13366
G1 X107.296 Y99.451 E7.15783
G1 X108.117 Y99.4 E7.18519
G1 X111.883 Y99.4 E7.31045
G1 X112.608 Y99.44 E7.3346
G1 X113.325 Y99.559 E7.35877
G1 X114.024 Y99.757 E7.38294
G1 X114.697 Y100.03 E7.40709
G1 X115.336 Y100.375 E7.43125
G1 X115.933 Y100.789 E7.45541
G1 X116.55 Y101.333 E7.48277
G1 X116.667 Y101.45 E7.48827
G1 X117.151 Y101.991 E7.51242
G1 X117.574 Y102.582 E7.53659
G1 X117.928 Y103.216 E7.56074
G1 X118.211 Y103.885 E7.5849
G1 X118.419 Y104.581 E7.60906
G1 X118.549 Y105.296 E7.63323
G1 X118.6 Y106.117 E7.66059
G1 X118.6 Y113.883 E7.91889
G1 X118.56 Y114.608 E7.94304
G1 X118.441 Y115.325 E7.96721
G1 X118.243 Y116.024 E7.99138
G1 X117.97 Y116.697 E8.01553
G1 X117.625 Y117.336 E8.03969
G1 X117.211 Y117.933 E8.06385
G1 X116.667 Y118.55 E8.09121
G1 X116.55 Y118.667 E8.09671
G1 X116.009 Y119.151 E8.12085
G1 X115.418 Y119.574 E8.14503
G1 X114.784 Y119.928 E8.16918
G1 X114.115 Y120.211 E8.19334
G1 X113.419 Y120.419 E8.2175
G1 X112.704 Y120.549 E8.24167
G1 X111.883 Y120.6 E8.26903
G1 X111.617 Y120.6 E8.27788
G1 X110.892 Y120.56 E8.30203
G1 X110.175 Y120.441 E8.3262
G1 X110.006 Y120.393 E8.33204
G1 X109.919 Y120.419 E8.33506
G1 X109.204 Y120.549 E8.35923
G1 X108.383 Y120.6 E8.38659
G1 X108.117 Y120.6 E8.39544
G1 X107.392 Y120.56 E8.41959
G1 X106.675 Y120.441 E8.44377
G1 X105.976 Y120.243 E8.46793
G1 X105.303 Y119.97 E8.49208
G1 X104.664 Y119.625 E8.51624
G1 X104.067 Y119.211 E8.5404
G1 X103.45 Y118.667 E8.56776
G1 X103.333 Y118.55 E8.57326
G1 X102.849 Y118.009 E8.59741
G1 X102.426 Y117.418 E8.62158
G1 X102.072 Y116.784 E8.64573
G1 X101.789 Y116.115 E8.66989
G1 X101.581 Y115.419 E8.69405
G1 X101.451 Y114.704 E8.71822
G1 X101.4 Y113.883 E8.74558
G1 X101.4 Y106.117 E9.00388
G1 X101.44 Y105.392 E9.02803
G1 X101.559 Y104.675 E9.0522
G1 X101.757 Y103.976 E9.07637
G1 X102.03 Y103.303 E9.10052
G1 X102.375 Y102.664 E9.12468
G1 X102.789 Y102.067 E9.14884
G1 X103.333 Y101.45 E9.1762
G0 F6000 X103.616 Y101.733
G1 F600 X103.733 Y101.616 E9.1817
G1 X104.258 Y101.147 E9.20512
G1 X104.833 Y100.741 E9.22853
G1 X105.451 Y100.403 E9.25196
G1 X106.102 Y100.136 E9.27536
G1 X106.78 Y99.946 E9.29878
G1 X107.475 Y99.833 E9.3222
G1 X108.117 Y99.8 E9.34358
G1 X111.883 Y99.8 E9.46884
G1 X112.586 Y99.84 E9.49226
G1 X113.28 Y99.959 E9.51568
G1 X113.955 Y100.157 E9.53907
G1 X114.604 Y100.429 E9.56248
G1 X115.218 Y100.774 E9.5859
G1 X115.789 Y101.185 E9.6093
G1 X116.267 Y101.616 E9.63071
G1 X116.384 Y101.733 E9.63621
G1 X116.853 Y102.258 E9.65963
G1 X117.259 Y102.833 E9.68304
G1 X117.597 Y103.451 E9.70647
G1 X117.864 Y104.102 E9.72987
G1 X118.054 Y104.78 E9.75329
G1 X118.167 Y105.475 E9.77671
G1 X118.2 Y106.117 E9.79809
G1 X118.2 Y113.883 E10.05639
G1 X118.16 Y114.586 E10.07981
G1 X118.041 Y115.28 E10.10322
G1 X117.843 Y115.955 E10.12662
G1 X117.571 Y116.604 E10.15003
G1 X117.226 Y117.218 E10.17345
G1 X116.815 Y117.789 E10.19685
G1 X116.384 Y118.267 E10.21826
G1 X116.267 Y118.384 E10.22376
G1 X115.742 Y118.853 E10.24718
G1 X115.167 Y119.259 E10.27059
G1 X114.549 Y119.597 E10.29402
G1 X113.898 Y119.864 E10.31742
G1 X113.22 Y120.054 E10.34084
G1 X112.525 Y120.167 E10.36426
G1 X111.883 Y120.2 E10.38564
G1 X111.617 Y120.2 E10.39448
G1 X110.914 Y120.16 E10.4179
G1 X110.22 Y120.041 E10.44132
G1 X109.998 Y119.976 E10.44902
G1 X109.72 Y120.054 E10.45862
G1 X109.025 Y120.167 E10.48204
G1 X108.383 Y120.2 E10.50342
G1 X108.117 Y120.2 E10.51227
G1 X107.414 Y120.16 E10.53569
G1 X106.72 Y120.041 E10.55911
G1 X106.045 Y119.843 E10.5825
G1 X105.396 Y119.571 E10.60591
G1 X104.782 Y119.226 E10.62933
G1 X104.211 Y118.815 E10.65273
G1 X103.733 Y118.384 E10.67414
G1 X103.616 Y118.267 E10.67964
G1 X103.147 Y117.742 E10.70306
G1 X102.741 Y117.167 E10.72647
G1 X102.403 Y116.549 E10.7499
G1 X102.136 Y115.898 E10.7733
G1 X101.946 Y115.22 E10.79672
G1 X101.833 Y114.525 E10.82014
G1 X101.8 Y113.883 E10.84152
G1 X101.8 Y106.117 E11.09982
G1 X101.84 Y105.414 E11.12324
G1 X101.959 Y104.72 E11.14666
G1 X102.157 Y104.045 E11.17005
G1 X102.429 Y103.396 E11.19346
G1 X102.774 Y102.782 E11.21688
G1 X103.185 Y102.211 E11.24028
G1 X103.616 Y101.733 E11.26169
G0 F6000 X103.899 Y102.016
G1 F600 X104.016 Y101.899 E11.26719
G1 X104.525 Y101.446 E11.28986
G1 X105.083 Y101.057 E11.31248
G1 X105.683 Y100.735 E11.33513
G1 X106.317 Y100.486 E11.35778
G1 X106.976 Y100.313 E11.38044
G1 X107.65 Y100.219 E11.40308
G1 X108.117 Y100.2 E11.41862
G1 X111.883 Y100.2 E11.54388
G1 X112.563 Y100.24 E11.56654
G1 X113.233 Y100.359 E11.58917
G1 X113.885 Y100.556 E11.61182
G1 X114.509 Y100.828 E11.63447
G1 X115.097 Y101.172 E11.65712
G1 X115.641 Y101.582 E11.67978
G1 X115.984 Y101.899 E11.69531
G1 X116.101 Y102.016 E11.70082
G1 X116.554 Y102.525 E11.72348
G1 X116.943 Y103.083 E11.7461
G1 X117.265 Y103.683 E11.76875
G1 X117.514 Y104.317 E11.79141
G1 X117.687 Y104.976 E11.81407
G1 X117.781 Y105.65 E11.8367
G1 X117.8 Y106.117 E11.85225
G1 X117.8 Y113.883 E12.11055
G1 X117.76 Y114.563 E12.1332
G1 X117.641 Y115.233 E12.15584
G1 X117.444 Y115.885 E12.17849
G1 X117.172 Y116.509 E12.20113
G1 X116.828 Y117.097 E12.22379
G1 X116.418 Y117.641 E12.24644
G1 X116.101 Y117.984 E12.26198
G1 X115.984 Y118.101 E12.26748
G1 X115.475 Y118.554 E12.29015
G1 X114.917 Y118.943 E12.31277
G1 X114.317 Y119.265 E12.33542
G1 X113.683 Y119.514 E12.35807
G1 X113.024 Y119.687 E12.38073
G1 X112.35 Y119.781 E12.40337
G1 X111.883 Y119.8 E12.41891
G1 X111.617 Y119.8 E12.42776
G1 X110.937 Y119.76 E12.45042
G1 X110.267 Y119.641 E12.47305
G1 X110.003 Y119.561 E12.48222
G1 X109.524 Y119.687 E12.4987
G1 X108.85 Y119.781 E12.52133
G1 X108.383 Y119.8 E12.53688
G1 X108.117 Y119.8 E12.54572
G1 X107.437 Y119.76 E12.56838
G1 X106.767 Y119.641 E12.59101
G1 X106.115 Y119.444 E12.61367
G1 X105.491 Y119.172 E12.63631
G1 X104.903 Y118.828 E12.65897
G1 X104.359 Y118.418 E12.68162
G1 X104.016 Y118.101 E12.69716
G1 X103.899 Y117.984 E12.70266
G1 X103.446 Y117.475 E12.72532
G1 X103.057 Y116.917 E12.74795
G1 X102.735 Y116.317 E12.7706
G1 X102.486 Y115.683 E12.79325
G1 X102.313 Y115.024 E12.81591
G1 X102.219 Y114.35 E12.83855
G1 X102.2 Y113.883 E12.85409
G1 X102.2 Y106.117 E13.11239
G1 X102.24 Y105.437 E13.13505
G1 X102.359 Y104.767 E13.15768
G1 X102.556 Y104.115 E13.18033
G1 X102.828 Y103.491 E13.20297
G1 X103.172 Y102.903 E13.22563
G1 X103.582 Y102.359 E13.24829
G1 X103.899 Y102.016 E13.26382
G0 F6000 X104.182 Y102.299
G1 F600 X104.299 Y102.182 E13.26933
G1 X104.791 Y101.746 E13.29119
G1 X105.332 Y101.374 E13.31303
G1 X105.914 Y101.07 E13.33487
G1 X106.529 Y100.839 E13.35672
G1 X107.168 Y100.684 E13.37859
G1 X108.117 Y100.6 E13.41027
G1 X111.883 Y100.6 E13.53553
G1 X112.539 Y100.64 E13.55739
G1 X113.185 Y100.759 E13.57924
G1 X113.812 Y100.956 E13.6011
G1 X114.41 Y101.228 E13.62295
G1 X114.971 Y101.57 E13.6448
G1 X115.701 Y102.182 E13.67648
G1 X115.818 Y102.299 E13.68199
G1 X116.254 Y102.791 E13.70385
G1 X116.626 Y103.332 E13.72569
G1 X116.93 Y103.914 E13.74753
G1 X117.161 Y104.529 E13.76938
G1 X117.316 Y105.168 E13.79125
G1 X117.4 Y106.117 E13.82294
G1 X117.4 Y113.883 E14.08123
G1 X117.36 Y114.539 E14.10309
G1 X117.241 Y115.185 E14.12494
G1 X117.044 Y115.812 E14.1468
G1 X116.772 Y116.41 E14.16865
G1 X116.43 Y116.971 E14.1905
G1 X115.818 Y117.701 E14.22219
G1 X115.701 Y117.818 E14.22769
G1 X115.209 Y118.254 E14.24955
G1 X114.668 Y118.626 E14.27139
G1 X114.086 Y118.93 E14.29323
G1 X113.471 Y119.161 E14.31508
G1 X112.832 Y119.316 E14.33695
G1 X111.883 Y119.4 E14.36864
G1 X111.617 Y119.4 E14.37748
G1 X110.961 Y119.36 E14.39934
G1 X110.315 Y119.241 E14.42119
G1 X110.012 Y119.146 E14.43175
G1 X109.971 Y119.161 E14.4332
G1 X109.332 Y119.316 E14.45507
G1 X108.383 Y119.4 E14.48676
G1 X108.117 Y119.4 E14.49561
G1 X107.461 Y119.36 E14.51747
G1 X106.815 Y119.241 E14.53932
G1 X106.188 Y119.044 E14.56117
G1 X105.59 Y118.772 E14.58303
G1 X105.029 Y118.43 E14.60488
G1 X104.299 Y117.818 E14.63656
G1 X104.182 Y117.701 E14.64206
G1 X103.746 Y117.209 E14.66393
G1 X103.374 Y116.668 E14.68577
G1 X103.07 Y116.086 E14.70761
G1 X102.839 Y115.471 E14.72946
G1 X102.684 Y114.832 E14.75133
G1 X102.6 Y113.883 E14.78301
G1 X102.6 Y106.117 E15.04131
G1 X102.64 Y105.461 E15.06317
