;FLAVOR:Marlin
;TIME:3635
;Filament used: 2.36827m
;Layer height: 0.2
;MINX:81.201
;MINY:77.777
;MINZ:0.2
;MAXX:138.799
;MAXY:142.224
;MAXZ:6.5
;Generated with Cura_SteamEngine master
M140 S50
M105
M190 S50
M104 S200
M105
M109 S200
M82 ;absolute extrusion mode
M201 X500.00 Y500.00 Z100.00 E5000.00 ;Setup machine max acceleration
M203 X500.00 Y500.00 Z10.00 E50.00 ;Setup machine max feedrate
M204 P500.00 R1000.00 T500.00 ;Setup Print/Retract/Travel acceleration
M205 X8.00 Y8.00 Z0.40 E5.00 ;Setup Jerk
M220 S100 ;Reset Feedrate
M221 S100 ;Reset Flowrate

G28 ;Home

G92 E0 ;Reset Extruder
G1 Z2.0 F3000 ;Move Z Axis up
G1 X10.1 Y20 Z0.28 F5000.0 ;Move to start position
G1 X10.1 Y200.0 Z0.28 F1500.0 E15 ;Draw the first line
G1 X10.4 Y200.0 Z0.28 F5000.0 ;Move to side a little
G1 X10.4 Y20 Z0.28 F1500.0 E30 ;Draw the second line
G92 E0 ;Reset Extruder
G1 Z2.0 F3000 ;Move Z Axis up

G92 E0
G92 E0
G1 F2700 E-5
;LAYER_COUNT:30
;LAYER:0
M107
G1 F300 Z0.7
G0 F6000 X89.643 Y86.205 Z0.7
;TYPE:SKIRT
G1 F300 Z0.2
G1 F2700 E0
G1 F600 X89.92 Y85.954 E0.01243
G1 X93.696 Y82.856 E0.17488
G1 X93.998 Y82.632 E0.18739
G1 X94.016 Y82.62 E0.18811
G1 X94.332 Y82.431 E0.20036
G1 X98.631 Y80.132 E0.3625
G1 X98.898 Y80.003 E0.37237
G1 X99.339 Y79.838 E0.38803
G1 X104.008 Y78.423 E0.55029
G1 X104.29 Y78.349 E0.55999
G1 X104.76 Y78.273 E0.57582
G1 X109.619 Y77.795 E0.73822
G1 X110.009 Y77.777 E0.7512
G1 X110.381 Y77.795 E0.76359
G1 X115.24 Y78.273 E0.92598
G1 X115.71 Y78.349 E0.94181
G1 X115.992 Y78.423 E0.95151
G1 X120.661 Y79.838 E1.11378
G1 X121.102 Y80.003 E1.12944
G1 X121.369 Y80.132 E1.1393
G1 X125.668 Y82.431 E1.30145
G1 X125.984 Y82.62 E1.3137
G1 X126.002 Y82.632 E1.31441
G1 X126.304 Y82.856 E1.32692
G1 X130.079 Y85.953 E1.48932
G1 X130.371 Y86.219 E1.50246
G1 X130.622 Y86.496 E1.51489
G1 X133.72 Y90.272 E1.67735
G1 X133.924 Y90.545 E1.68868
G1 X134.144 Y90.906 E1.70274
G1 X136.444 Y95.207 E1.86496
G1 X136.573 Y95.474 E1.87483
G1 X136.738 Y95.915 E1.89049
G1 X138.153 Y100.584 E2.05275
G1 X138.208 Y100.784 E2.05965
G1 X138.303 Y101.334 E2.07822
G1 X138.781 Y106.193 E2.24061
G1 X138.799 Y106.585 E2.25366
G1 X138.781 Y106.957 E2.26605
G1 X138.303 Y111.816 E2.42844
G1 X138.227 Y112.286 E2.44427
G1 X138.153 Y112.568 E2.45397
G1 X136.739 Y117.235 E2.61616
G1 X136.567 Y117.692 E2.6324
G1 X136.444 Y117.945 E2.64176
G1 X134.145 Y122.244 E2.80391
G1 X133.956 Y122.56 E2.81615
G1 X133.72 Y122.881 E2.8294
G1 X130.623 Y126.655 E2.99178
G1 X130.357 Y126.946 E3.0049
G1 X130.081 Y127.196 E3.01728
G1 X126.305 Y130.295 E3.17975
G1 X126.031 Y130.5 E3.19113
G1 X125.8 Y130.641 E3.20014
G1 X125.8 Y138.307 E3.45511
G1 X125.76 Y138.857 E3.47345
G1 X125.641 Y139.395 E3.49178
G1 X125.445 Y139.91 E3.5101
G1 X125.177 Y140.391 E3.52842
G1 X124.687 Y140.994 E3.55426
G1 X124.57 Y141.111 E3.55976
G1 X124.153 Y141.471 E3.57809
G1 X123.689 Y141.768 E3.59641
G1 X123.186 Y141.994 E3.61475
G1 X122.656 Y142.145 E3.63308
G1 X121.883 Y142.224 E3.65892
G1 X98.117 Y142.224 E4.44938
G1 X97.567 Y142.184 E4.46773
G1 X97.029 Y142.065 E4.48605
G1 X96.514 Y141.869 E4.50438
G1 X96.033 Y141.601 E4.52269
G1 X95.43 Y141.111 E4.54854
G1 X95.313 Y140.994 E4.55404
G1 X94.953 Y140.577 E4.57236
G1 X94.656 Y140.113 E4.59069
G1 X94.43 Y139.61 E4.60903
G1 X94.279 Y139.08 E4.62736
G1 X94.2 Y138.307 E4.6532
G1 X94.2 Y130.641 E4.90817
G1 X93.953 Y130.489 E4.91782
G1 X93.695 Y130.295 E4.92855
G1 X89.919 Y127.196 E5.09103
G1 X89.628 Y126.931 E5.10412
G1 X89.377 Y126.655 E5.11652
G1 X86.28 Y122.881 E5.2789
G1 X86.044 Y122.56 E5.29215
G1 X85.855 Y122.244 E5.3044
G1 X83.556 Y117.945 E5.46655
G1 X83.433 Y117.692 E5.4759
G1 X83.261 Y117.235 E5.49215
G1 X81.847 Y112.568 E5.65434
G1 X81.773 Y112.286 E5.66404
G1 X81.697 Y111.816 E5.67987
G1 X81.219 Y106.959 E5.8422
G1 X81.201 Y106.567 E5.85525
G1 X81.219 Y106.195 E5.86763
G1 X81.697 Y101.336 E6.03003
G1 X81.773 Y100.866 E6.04586
G1 X81.847 Y100.584 E6.05556
G1 X83.261 Y95.917 E6.21775
G1 X83.433 Y95.46 E6.23399
G1 X83.556 Y95.207 E6.24335
G1 X85.855 Y90.908 E6.4055
G1 X86.044 Y90.592 E6.41774
G1 X86.056 Y90.574 E6.41846
G1 X86.28 Y90.272 E6.43097
G1 X89.377 Y86.497 E6.59337
G1 X89.643 Y86.205 E6.60651
G0 F6000 X89.926 Y86.488
G1 F600 X90.173 Y86.263 E6.61762
G1 X93.949 Y83.165 E6.78007
G1 X94.238 Y82.953 E6.79199
G1 X94.521 Y82.784 E6.80296
G1 X98.82 Y80.485 E6.9651
G1 X99.06 Y80.368 E6.97398
G1 X99.455 Y80.221 E6.988
G1 X104.124 Y78.806 E7.15027
G1 X104.378 Y78.74 E7.159
G1 X104.799 Y78.671 E7.17319
G1 X109.658 Y78.193 E7.33558
G1 X110.009 Y78.177 E7.34726
G1 X110.342 Y78.193 E7.35835
G1 X115.201 Y78.671 E7.52074
G1 X115.622 Y78.74 E7.53493
G1 X115.876 Y78.806 E7.54366
G1 X120.545 Y80.221 E7.70593
G1 X120.94 Y80.368 E7.71995
G1 X121.18 Y80.485 E7.72883
G1 X125.479 Y82.784 E7.89097
G1 X125.762 Y82.953 E7.90194
G1 X125.78 Y82.965 E7.90266
G1 X126.05 Y83.165 E7.91383
G1 X129.825 Y86.262 E8.07624
G1 X130.088 Y86.502 E8.08808
G1 X130.313 Y86.749 E8.09919
G1 X133.411 Y90.525 E8.26164
G1 X133.595 Y90.772 E8.27189
G1 X133.791 Y91.095 E8.28445
G1 X136.091 Y95.396 E8.44667
G1 X136.208 Y95.636 E8.45555
G1 X136.355 Y96.031 E8.46957
G1 X137.77 Y100.7 E8.63184
G1 X137.819 Y100.881 E8.63807
G1 X137.905 Y101.373 E8.65469
G1 X138.383 Y106.232 E8.81708
G1 X138.399 Y106.585 E8.82883
G1 X138.383 Y106.918 E8.83992
G1 X137.905 Y111.777 E9.00231
G1 X137.836 Y112.198 E9.0165
G1 X137.77 Y112.452 E9.02523
G1 X136.356 Y117.119 E9.18742
G1 X136.203 Y117.528 E9.20195
G1 X136.091 Y117.756 E9.21039
G1 X133.792 Y122.055 E9.37254
G1 X133.623 Y122.338 E9.3835
G1 X133.611 Y122.356 E9.38422
G1 X133.41 Y122.627 E9.39545
G1 X130.313 Y126.401 E9.55782
G1 X130.074 Y126.663 E9.56962
G1 X129.827 Y126.887 E9.58071
G1 X126.051 Y129.986 E9.74318
G1 X125.804 Y130.171 E9.75345
G1 X125.48 Y130.368 E9.76606
G1 X125.4 Y130.411 E9.76908
G1 X125.4 Y138.307 E10.0317
G1 X125.36 Y138.827 E10.04905
G1 X125.241 Y139.334 E10.06637
G1 X125.046 Y139.817 E10.08369
G1 X124.78 Y140.265 E10.10102
G1 X124.404 Y140.711 E10.12042
G1 X124.287 Y140.828 E10.12593
G1 X123.891 Y141.167 E10.14326
G1 X123.449 Y141.442 E10.16058
G1 X122.969 Y141.646 E10.17793
G1 X122.464 Y141.774 E10.19525
G1 X121.883 Y141.824 E10.21465
G1 X98.117 Y141.824 E11.00511
G1 X97.597 Y141.784 E11.02246
G1 X97.09 Y141.665 E11.03978
G1 X96.607 Y141.47 E11.0571
G1 X96.159 Y141.204 E11.07443
G1 X95.713 Y140.828 E11.09383
G1 X95.596 Y140.711 E11.09934
G1 X95.257 Y140.315 E11.11667
G1 X94.982 Y139.873 E11.13399
G1 X94.778 Y139.393 E11.15133
G1 X94.65 Y138.888 E11.16866
G1 X94.6 Y138.307 E11.18806
G1 X94.6 Y130.411 E11.45068
G1 X94.52 Y130.368 E11.4537
G1 X94.196 Y130.171 E11.46631
G1 X93.949 Y129.986 E11.47658
G1 X90.173 Y126.887 E11.63905
G1 X89.911 Y126.648 E11.65084
G1 X89.687 Y126.401 E11.66193
G1 X86.59 Y122.627 E11.82431
G1 X86.389 Y122.356 E11.83553
G1 X86.377 Y122.338 E11.83625
G1 X86.208 Y122.055 E11.84722
G1 X83.909 Y117.756 E12.00936
G1 X83.797 Y117.528 E12.01781
G1 X83.644 Y117.119 E12.03234
G1 X82.23 Y112.452 E12.19453
G1 X82.164 Y112.198 E12.20326
G1 X82.095 Y111.777 E12.21745
G1 X81.617 Y106.92 E12.37977
G1 X81.601 Y106.567 E12.39153
G1 X81.617 Y106.234 E12.40261
G1 X82.095 Y101.375 E12.565
G1 X82.164 Y100.954 E12.57919
G1 X82.23 Y100.7 E12.58792
G1 X83.644 Y96.033 E12.75012
G1 X83.797 Y95.624 E12.76464
G1 X83.909 Y95.396 E12.77309
G1 X86.208 Y91.097 E12.93524
G1 X86.377 Y90.814 E12.9462
G1 X86.389 Y90.796 E12.94692
G1 X86.589 Y90.526 E12.95809
G1 X89.686 Y86.751 E13.1205
G1 X89.926 Y86.488 E13.13234
G0 F6000 X90.209 Y86.771
G1 F600 X90.427 Y86.573 E13.14214
G1 X94.203 Y83.475 E13.30459
G1 X94.46 Y83.286 E13.3152
G1 X94.709 Y83.137 E13.32485
G1 X99.008 Y80.838 E13.48699
G1 X99.223 Y80.734 E13.49494
G1 X99.571 Y80.604 E13.50729
G1 X104.24 Y79.189 E13.66956
G1 X104.467 Y79.13 E13.67736
G1 X104.838 Y79.069 E13.68987
G1 X109.697 Y78.591 E13.85226
G1 X110.009 Y78.577 E13.86265
G1 X110.303 Y78.591 E13.87243
G1 X115.162 Y79.069 E14.03483
G1 X115.533 Y79.13 E14.04733
G1 X115.76 Y79.189 E14.05513
G1 X120.429 Y80.604 E14.2174
G1 X120.777 Y80.734 E14.22975
G1 X120.992 Y80.838 E14.2377
G1 X125.291 Y83.137 E14.39984
G1 X125.558 Y83.298 E14.41022
G1 X125.797 Y83.475 E14.42011
G1 X129.572 Y86.572 E14.58251
G1 X129.805 Y86.785 E14.59301
G1 X130.003 Y87.003 E14.60281
G1 X133.101 Y90.779 E14.76526
G1 X133.265 Y90.998 E14.77436
G1 X133.438 Y91.283 E14.78544
G1 X135.738 Y95.584 E14.94767
G1 X135.842 Y95.799 E14.95561
G1 X135.972 Y96.147 E14.96797
G1 X137.387 Y100.816 E15.13023
G1 X137.431 Y100.978 E15.13582
G1 X137.507 Y101.412 E15.15047
G1 X137.985 Y106.271 E15.31286
G1 X137.999 Y106.585 E15.32331
G1 X137.985 Y106.879 E15.3331
G1 X137.507 Y111.738 E15.4955
G1 X137.446 Y112.109 E15.508
G1 X137.387 Y112.336 E15.5158
G1 X135.973 Y117.003 E15.67799
G1 X135.838 Y117.364 E15.69081
G1 X135.738 Y117.568 E15.69837
G1 X133.439 Y121.867 E15.86052
G1 X133.278 Y122.134 E15.87089
G1 X133.101 Y122.373 E15.88078
G1 X130.004 Y126.147 E16.04316
G1 X129.791 Y126.38 E16.05366
G1 X129.573 Y126.578 E16.06345
G1 X125.797 Y129.677 E16.22592
G1 X125.578 Y129.841 E16.23502
G1 X125.291 Y130.015 E16.24619
G1 X125 Y130.17 E16.25715
G1 X125 Y138.307 E16.52779
G1 X124.96 Y138.795 E16.54408
G1 X124.841 Y139.27 E16.56036
G1 X124.647 Y139.719 E16.57663
G1 X124.382 Y140.131 E16.59292
G1 X124.121 Y140.428 E16.60607
G1 X124.004 Y140.545 E16.61158
G1 X123.631 Y140.862 E16.62786
G1 X123.211 Y141.114 E16.64415
G1 X122.756 Y141.294 E16.66042
G1 X122.278 Y141.398 E16.67669
G1 X121.883 Y141.424 E16.68986
G1 X98.117 Y141.424 E17.48032
G1 X97.629 Y141.384 E17.49661
G1 X97.154 Y141.265 E17.51289
G1 X96.705 Y141.071 E17.52916
G1 X96.293 Y140.806 E17.54545
G1 X95.996 Y140.545 E17.5586
G1 X95.879 Y140.428 E17.56411
G1 X95.562 Y140.055 E17.58039
G1 X95.31 Y139.635 E17.59668
G1 X95.13 Y139.18 E17.61295
G1 X95.026 Y138.702 E17.62922
G1 X95 Y138.307 E17.64239
G1 X95 Y130.17 E17.91303
G1 X94.709 Y130.015 E17.92399
G1 X94.422 Y129.841 E17.93516
G1 X94.203 Y129.677 E17.94426
G1 X90.427 Y126.578 E18.10673
G1 X90.194 Y126.365 E18.11723
G1 X89.996 Y126.147 E18.12702
G1 X86.899 Y122.373 E18.2894
G1 X86.71 Y122.116 E18.30001
G1 X86.561 Y121.867 E18.30966
G1 X84.262 Y117.568 E18.47181
G1 X84.162 Y117.364 E18.47937
G1 X84.027 Y117.003 E18.49219
G1 X82.613 Y112.336 E18.65438
G1 X82.554 Y112.109 E18.66218
G1 X82.493 Y111.738 E18.67469
G1 X82.015 Y106.881 E18.83701
G1 X82.001 Y106.567 E18.84746
G1 X82.015 Y106.273 E18.85725
G1 X82.493 Y101.414 E19.01964
G1 X82.554 Y101.043 E19.03215
G1 X82.613 Y100.816 E19.03995
G1 X84.027 Y96.149 E19.20214
G1 X84.162 Y95.788 E19.21496
G1 X84.262 Y95.584 E19.22252
G1 X86.561 Y91.285 E19.38467
G1 X86.722 Y91.018 E19.39504
G1 X86.899 Y90.779 E19.40493
G1 X89.996 Y87.004 E19.56733
G1 X90.209 Y86.771 E19.57783
G0 F6000 X90.492 Y87.054
G1 F600 X90.681 Y86.882 E19.58633
G1 X94.457 Y83.784 E19.74878
G1 X94.682 Y83.619 E19.75806
G1 X94.898 Y83.489 E19.76645
G1 X99.197 Y81.19 E19.92859
G1 X99.385 Y81.099 E19.93554
G1 X99.687 Y80.987 E19.94625
G1 X104.356 Y79.572 E20.10852
G1 X104.556 Y79.52 E20.11539
G1 X104.877 Y79.467 E20.12621
G1 X109.736 Y78.989 E20.28861
G1 X110.009 Y78.977 E20.29769
G1 X110.264 Y78.989 E20.30619
G1 X115.123 Y79.467 E20.46858
G1 X115.444 Y79.52 E20.4794
G1 X115.644 Y79.572 E20.48627
G1 X120.313 Y80.987 E20.64854
G1 X120.615 Y81.099 E20.65925
G1 X120.803 Y81.19 E20.6662
G1 X125.102 Y83.489 E20.82834
G1 X125.336 Y83.631 E20.83745
G1 X125.543 Y83.784 E20.84601
G1 X129.318 Y86.881 E21.00841
G1 X129.522 Y87.068 E21.01762
G1 X129.694 Y87.257 E21.02612
G1 X132.792 Y91.033 E21.18857
G1 X132.936 Y91.225 E21.19655
G1 X133.086 Y91.472 E21.20616
G1 X135.386 Y95.773 E21.36838
G1 X135.477 Y95.961 E21.37533
G1 X135.589 Y96.263 E21.38604
G1 X137.004 Y100.932 E21.54831
G1 X137.043 Y101.075 E21.55324
G1 X137.109 Y101.451 E21.56594
G1 X137.587 Y106.31 E21.72833
G1 X137.599 Y106.585 E21.73748
G1 X137.587 Y106.84 E21.74597
G1 X137.109 Y111.699 E21.90836
G1 X137.056 Y112.02 E21.91919
G1 X137.004 Y112.22 E21.92606
G1 X135.59 Y116.887 E22.08825
G1 X135.473 Y117.2 E22.09937
G1 X135.386 Y117.379 E22.10599
G1 X133.087 Y121.678 E22.26813
G1 X132.945 Y121.912 E22.27724
G1 X132.792 Y122.119 E22.2858
G1 X129.695 Y125.893 E22.44818
G1 X129.508 Y126.097 E22.45738
G1 X129.319 Y126.269 E22.46588
G1 X125.543 Y129.368 E22.62835
G1 X125.351 Y129.512 E22.63633
G1 X125.103 Y129.662 E22.64597
G1 X124.6 Y129.931 E22.66495
G1 X124.6 Y138.307 E22.94353
G1 X124.56 Y138.761 E22.95869
G1 X124.442 Y139.201 E22.97384
G1 X124.248 Y139.613 E22.98899
G1 X123.838 Y140.145 E23.01133
G1 X123.721 Y140.262 E23.01683
G1 X123.372 Y140.555 E23.03199
G1 X122.977 Y140.782 E23.04714
G1 X122.549 Y140.937 E23.06228
G1 X121.883 Y141.024 E23.08462
G1 X98.117 Y141.024 E23.87508
G1 X97.663 Y140.984 E23.89024
G1 X97.223 Y140.866 E23.90539
G1 X96.811 Y140.672 E23.92054
G1 X96.279 Y140.262 E23.94288
G1 X96.162 Y140.145 E23.94838
G1 X95.869 Y139.796 E23.96354
G1 X95.642 Y139.401 E23.97869
G1 X95.487 Y138.973 E23.99383
G1 X95.4 Y138.307 E24.01617
G1 X95.4 Y129.931 E24.29475
G1 X94.897 Y129.662 E24.31373
G1 X94.649 Y129.512 E24.32337
G1 X94.457 Y129.368 E24.33135
G1 X90.681 Y126.269 E24.49382
G1 X90.477 Y126.082 E24.50303
G1 X90.305 Y125.893 E24.51152
G1 X87.208 Y122.119 E24.6739
G1 X87.043 Y121.894 E24.68318
G1 X86.913 Y121.678 E24.69157
G1 X84.614 Y117.379 E24.85371
G1 X84.527 Y117.2 E24.86033
G1 X84.41 Y116.887 E24.87145
G1 X82.996 Y112.22 E25.03364
G1 X82.944 Y112.02 E25.04051
G1 X82.892 Y111.699 E25.05133
G1 X82.414 Y106.842 E25.21366
G1 X82.401 Y106.567 E25.22281
G1 X82.413 Y106.312 E25.2313
G1 X82.891 Y101.453 E25.39369
G1 X82.944 Y101.132 E25.40452
G1 X82.996 Y100.932 E25.41139
G1 X84.41 Y96.265 E25.57358
G1 X84.527 Y95.952 E25.5847
G1 X84.614 Y95.773 E25.59131
G1 X86.913 Y91.474 E25.75346
G1 X87.055 Y91.24 E25.76257
G1 X87.208 Y91.033 E25.77113
G1 X90.305 Y87.258 E25.93353
G1 X90.492 Y87.054 E25.94274
G0 F6000 X90.774 Y87.336
G1 F600 X90.935 Y87.191 E25.94994
G1 X94.711 Y84.093 E26.11239
G1 X94.886 Y83.963 E26.11964
G1 X95.087 Y83.842 E26.12745
G1 X99.386 Y81.543 E26.28959
G1 X99.547 Y81.465 E26.29554
G1 X99.803 Y81.37 E26.30463
G1 X104.472 Y79.955 E26.46689
G1 X104.644 Y79.91 E26.47281
G1 X104.917 Y79.866 E26.482
G1 X109.776 Y79.388 E26.64439
G1 X110.009 Y79.377 E26.65215
G1 X110.224 Y79.388 E26.65931
G1 X115.083 Y79.866 E26.8217
G1 X115.356 Y79.91 E26.8309
G1 X115.528 Y79.955 E26.83681
G1 X120.197 Y81.37 E26.99908
G1 X120.453 Y81.465 E27.00816
G1 X120.614 Y81.543 E27.01411
G1 X124.913 Y83.842 E27.17626
G1 X125.114 Y83.963 E27.18406
G1 X125.289 Y84.093 E27.19131
G1 X129.064 Y87.19 E27.35372
G1 X129.225 Y87.335 E27.36092
G1 X129.24 Y87.35 E27.36163
G1 X129.385 Y87.511 E27.36884
G1 X132.483 Y91.287 E27.53129
G1 X132.606 Y91.452 E27.53813
G1 X132.733 Y91.661 E27.54627
G1 X135.033 Y95.962 E27.70849
G1 X135.111 Y96.123 E27.71444
G1 X135.206 Y96.379 E27.72352
G1 X136.621 Y101.048 E27.88579
G1 X136.655 Y101.172 E27.89006
G1 X136.71 Y101.491 E27.90083
G1 X137.188 Y106.35 E28.06322
G1 X137.199 Y106.585 E28.07104
G1 X137.188 Y106.8 E28.0782
G1 X136.71 Y111.659 E28.2406
G1 X136.666 Y111.932 E28.24979
G1 X136.621 Y112.104 E28.25571
G1 X135.207 Y116.771 E28.4179
G1 X135.108 Y117.036 E28.42731
G1 X135.033 Y117.19 E28.43301
G1 X132.734 Y121.489 E28.59515
G1 X132.613 Y121.69 E28.60296
G1 X132.483 Y121.866 E28.61023
G1 X129.386 Y125.64 E28.77261
G1 X129.226 Y125.815 E28.7805
G1 X129.066 Y125.96 E28.78768
G1 X125.29 Y129.059 E28.95015
G1 X125.124 Y129.182 E28.95702
G1 X124.914 Y129.31 E28.9652
G1 X124.2 Y129.691 E28.99212
G1 X124.2 Y138.307 E29.27869
G1 X124.16 Y138.724 E29.29262
G1 X124.042 Y139.126 E29.30656
G1 X123.849 Y139.498 E29.3205
G1 X123.556 Y139.863 E29.33606
G1 X123.439 Y139.98 E29.34157
G1 X123.115 Y140.246 E29.35551
G1 X122.748 Y140.447 E29.36943
G1 X122.348 Y140.574 E29.38338
G1 X121.883 Y140.624 E29.39894
G1 X98.117 Y140.624 E30.1894
G1 X97.7 Y140.584 E30.20333
G1 X97.298 Y140.466 E30.21727
G1 X96.926 Y140.273 E30.23121
G1 X96.561 Y139.98 E30.24677
G1 X96.444 Y139.863 E30.25228
G1 X96.178 Y139.539 E30.26622
G1 X95.977 Y139.172 E30.28014
G1 X95.85 Y138.772 E30.2941
G1 X95.8 Y138.307 E30.30965
G1 X95.8 Y129.691 E30.59622
