;FLAVOR:Marlin
;TIME:3638
;Filament used: 2.37108m
;Layer height: 0.2
;MINX:81.201
;MINY:77.776
;MINZ:0.2
;MAXX:138.799
;MAXY:142.223
;MAXZ:6.5
;Generated with Cura_SteamEngine master
M140 S50
M105
M190 S50
M104 S200
M105
M109 S200
M82 ;absolute extrusion mode
M201 X500.00 Y500.00 Z100.00 E5000.00 ;Setup machine max acceleration
M203 X500.00 Y500.00 Z10.00 E50.00 ;Setup machine max feedrate
M204 P500.00 R1000.00 T500.00 ;Setup Print/Retract/Travel acceleration
M205 X8.00 Y8.00 Z0.40 E5.00 ;Setup Jerk
M220 S100 ;Reset Feedrate
M221 S100 ;Reset Flowrate

G28 ;Home

G92 E0 ;Reset Extruder
G1 Z2.0 F3000 ;Move Z Axis up
G1 X10.1 Y20 Z0.28 F5000.0 ;Move to start position
G1 X10.1 Y200.0 Z0.28 F1500.0 E15 ;Draw the first line
G1 X10.4 Y200.0 Z0.28 F5000.0 ;Move to side a little
G1 X10.4 Y20 Z0.28 F1500.0 E30 ;Draw the second line
G92 E0 ;Reset Extruder
G1 Z2.0 F3000 ;Move Z Axis up

G92 E0
G92 E0
G1 F2700 E-5
;LAYER_COUNT:30
;LAYER:0
M107
G1 F300 Z0.7
G0 F6000 X95.313 Y79.006 Z0.7
;TYPE:SKIRT
G1 F300 Z0.2
G1 F2700 E0
G1 F600 X95.43 Y78.889 E0.0055
G1 X95.847 Y78.529 E0.02383
G1 X96.311 Y78.232 E0.04215
G1 X96.814 Y78.006 E0.06049
G1 X97.344 Y77.855 E0.07882
G1 X98.117 Y77.776 E0.10466
G1 X121.883 Y77.776 E0.89512
G1 X122.433 Y77.816 E0.91347
G1 X122.971 Y77.935 E0.93179
G1 X123.486 Y78.131 E0.95012
G1 X123.967 Y78.399 E0.96843
G1 X124.57 Y78.889 E0.99428
G1 X124.687 Y79.006 E0.99978
G1 X125.047 Y79.423 E1.0181
G1 X125.344 Y79.887 E1.03643
G1 X125.57 Y80.39 E1.05477
G1 X125.721 Y80.92 E1.0731
G1 X125.8 Y81.693 E1.09894
G1 X125.8 Y89.358 E1.35388
G1 X126.002 Y89.48 E1.36173
G1 X126.305 Y89.705 E1.37428
G1 X130.08 Y92.803 E1.53671
G1 X130.371 Y93.068 E1.5498
G1 X130.621 Y93.344 E1.56218
G1 X133.719 Y97.119 E1.72461
G1 X133.924 Y97.393 E1.73599
G1 X134.144 Y97.754 E1.75005
G1 X136.444 Y102.055 E1.91227
G1 X136.573 Y102.322 E1.92213
G1 X136.738 Y102.763 E1.93779
G1 X138.153 Y107.432 E2.10006
G1 X138.208 Y107.632 E2.10696
G1 X138.303 Y108.182 E2.12552
G1 X138.781 Y113.041 E2.28791
G1 X138.799 Y113.433 E2.30097
G1 X138.781 Y113.805 E2.31335
G1 X138.303 Y118.664 E2.47574
G1 X138.227 Y119.134 E2.49158
G1 X138.153 Y119.416 E2.50128
G1 X136.739 Y124.083 E2.66347
G1 X136.567 Y124.54 E2.67971
G1 X136.444 Y124.793 E2.68907
G1 X134.145 Y129.092 E2.85121
G1 X133.956 Y129.408 E2.86346
G1 X133.944 Y129.426 E2.86418
G1 X133.72 Y129.728 E2.87669
G1 X130.623 Y133.503 E3.03909
G1 X130.357 Y133.795 E3.05223
G1 X130.08 Y134.046 E3.06466
G1 X126.304 Y137.144 E3.22711
G1 X126.031 Y137.348 E3.23845
G1 X125.67 Y137.568 E3.25251
G1 X121.369 Y139.868 E3.41473
G1 X121.102 Y139.997 E3.42459
G1 X120.661 Y140.162 E3.44025
G1 X115.992 Y141.577 E3.60252
G1 X115.71 Y141.651 E3.61221
G1 X115.24 Y141.727 E3.62805
G1 X110.381 Y142.205 E3.79044
G1 X109.991 Y142.223 E3.80343
G1 X109.619 Y142.205 E3.81581
G1 X104.76 Y141.727 E3.9782
G1 X104.29 Y141.651 E3.99404
G1 X104.008 Y141.577 E4.00374
G1 X99.339 Y140.162 E4.166
G1 X98.898 Y139.997 E4.18166
G1 X98.631 Y139.868 E4.19153
G1 X94.33 Y137.568 E4.35375
G1 X93.969 Y137.348 E4.36781
G1 X93.696 Y137.144 E4.37914
G1 X89.92 Y134.046 E4.54159
G1 X89.628 Y133.78 E4.55473
G1 X89.377 Y133.503 E4.56717
G1 X86.28 Y129.728 E4.72957
G1 X86.056 Y129.426 E4.74207
G1 X86.044 Y129.408 E4.74279
G1 X85.855 Y129.092 E4.75504
G1 X83.556 Y124.793 E4.91719
G1 X83.433 Y124.54 E4.92654
G1 X83.261 Y124.083 E4.94279
G1 X81.847 Y119.416 E5.10498
G1 X81.773 Y119.134 E5.11468
G1 X81.697 Y118.664 E5.13051
G1 X81.219 Y113.807 E5.29284
G1 X81.201 Y113.415 E5.30589
G1 X81.219 Y113.043 E5.31827
G1 X81.697 Y108.184 E5.48067
G1 X81.773 Y107.714 E5.4965
G1 X81.847 Y107.432 E5.5062
G1 X83.261 Y102.765 E5.66839
G1 X83.433 Y102.308 E5.68463
G1 X83.556 Y102.055 E5.69399
G1 X85.855 Y97.756 E5.85614
G1 X86.044 Y97.44 E5.86838
G1 X86.28 Y97.119 E5.88163
G1 X89.377 Y93.345 E6.04401
G1 X89.643 Y93.054 E6.05712
G1 X89.919 Y92.804 E6.06951
G1 X93.695 Y89.705 E6.23198
G1 X93.998 Y89.48 E6.24453
G1 X94.2 Y89.358 E6.25238
G1 X94.2 Y81.693 E6.50732
G1 X94.24 Y81.143 E6.52566
G1 X94.359 Y80.605 E6.54399
G1 X94.555 Y80.09 E6.56232
G1 X94.823 Y79.609 E6.58063
G1 X95.313 Y79.006 E6.60647
G0 F6000 X95.596 Y79.289
G1 F600 X95.713 Y79.172 E6.61198
G1 X96.109 Y78.833 E6.62932
G1 X96.551 Y78.558 E6.64663
G1 X97.031 Y78.354 E6.66398
G1 X97.536 Y78.226 E6.6813
G1 X98.117 Y78.176 E6.7007
G1 X121.883 Y78.176 E7.49116
G1 X122.403 Y78.216 E7.50851
G1 X122.91 Y78.335 E7.52583
G1 X123.393 Y78.53 E7.54315
G1 X123.841 Y78.796 E7.56048
G1 X124.287 Y79.172 E7.57988
G1 X124.404 Y79.289 E7.58539
G1 X124.743 Y79.685 E7.60272
G1 X125.018 Y80.127 E7.62004
G1 X125.222 Y80.607 E7.63739
G1 X125.35 Y81.112 E7.65471
G1 X125.4 Y81.693 E7.67411
G1 X125.4 Y89.589 E7.93673
G1 X125.478 Y89.631 E7.93968
G1 X125.78 Y89.813 E7.9514
G1 X126.051 Y90.014 E7.96263
G1 X129.826 Y93.112 E8.12505
G1 X130.088 Y93.351 E8.13685
G1 X130.312 Y93.598 E8.14794
G1 X133.41 Y97.373 E8.31036
G1 X133.595 Y97.62 E8.32063
G1 X133.791 Y97.943 E8.33319
G1 X136.091 Y102.244 E8.49541
G1 X136.208 Y102.484 E8.50429
G1 X136.355 Y102.879 E8.51831
G1 X137.77 Y107.548 E8.68058
G1 X137.819 Y107.729 E8.68682
G1 X137.905 Y108.221 E8.70343
G1 X138.383 Y113.08 E8.86582
G1 X138.399 Y113.433 E8.87757
G1 X138.383 Y113.766 E8.88866
G1 X137.905 Y118.625 E9.05105
G1 X137.836 Y119.046 E9.06524
G1 X137.77 Y119.3 E9.07397
G1 X136.356 Y123.967 E9.23616
G1 X136.203 Y124.376 E9.25069
G1 X136.091 Y124.604 E9.25913
G1 X133.792 Y128.903 E9.42128
G1 X133.623 Y129.186 E9.43225
G1 X133.611 Y129.204 E9.43296
G1 X133.411 Y129.474 E9.44414
G1 X130.314 Y133.249 E9.60654
G1 X130.074 Y133.512 E9.61839
G1 X129.827 Y133.737 E9.6295
G1 X126.051 Y136.835 E9.79195
G1 X125.804 Y137.019 E9.80219
G1 X125.481 Y137.215 E9.81476
G1 X121.18 Y139.515 E9.97698
G1 X120.94 Y139.632 E9.98586
G1 X120.545 Y139.779 E9.99988
G1 X115.876 Y141.194 E10.16215
G1 X115.622 Y141.26 E10.17087
G1 X115.201 Y141.329 E10.18506
G1 X110.342 Y141.807 E10.34746
G1 X109.991 Y141.823 E10.35914
G1 X109.658 Y141.807 E10.37023
G1 X104.799 Y141.329 E10.53262
G1 X104.378 Y141.26 E10.54681
G1 X104.124 Y141.194 E10.55554
G1 X99.455 Y139.779 E10.71781
G1 X99.06 Y139.632 E10.73182
G1 X98.82 Y139.515 E10.7407
G1 X94.519 Y137.215 E10.90293
G1 X94.196 Y137.019 E10.91549
G1 X93.949 Y136.835 E10.92574
G1 X90.173 Y133.737 E11.08819
G1 X89.911 Y133.497 E11.1
G1 X89.686 Y133.249 E11.11114
G1 X86.589 Y129.474 E11.27355
G1 X86.389 Y129.204 E11.28472
G1 X86.377 Y129.186 E11.28544
G1 X86.208 Y128.903 E11.2964
G1 X83.909 Y124.604 E11.45855
G1 X83.797 Y124.376 E11.467
G1 X83.644 Y123.967 E11.48152
G1 X82.23 Y119.3 E11.64372
G1 X82.164 Y119.046 E11.65245
G1 X82.095 Y118.625 E11.66663
G1 X81.617 Y113.768 E11.82896
G1 X81.601 Y113.415 E11.84071
G1 X81.617 Y113.082 E11.8518
G1 X82.095 Y108.223 E12.01419
G1 X82.164 Y107.802 E12.02838
G1 X82.23 Y107.548 E12.03711
G1 X83.644 Y102.881 E12.1993
G1 X83.797 Y102.472 E12.21383
G1 X83.909 Y102.244 E12.22228
G1 X86.208 Y97.945 E12.38442
G1 X86.377 Y97.662 E12.39539
G1 X86.389 Y97.644 E12.39611
G1 X86.59 Y97.373 E12.40733
G1 X89.687 Y93.599 E12.56971
G1 X89.926 Y93.337 E12.5815
G1 X90.173 Y93.113 E12.59259
G1 X93.949 Y90.014 E12.75506
G1 X94.22 Y89.813 E12.76629
G1 X94.522 Y89.631 E12.77801
G1 X94.6 Y89.589 E12.78096
G1 X94.6 Y81.693 E13.04358
G1 X94.64 Y81.173 E13.06093
G1 X94.759 Y80.666 E13.07825
G1 X94.954 Y80.183 E13.09557
G1 X95.22 Y79.735 E13.1129
G1 X95.596 Y79.289 E13.1323
G0 F6000 X95.879 Y79.572
G1 F600 X95.996 Y79.455 E13.13781
G1 X96.369 Y79.138 E13.15409
G1 X96.789 Y78.886 E13.17038
G1 X97.244 Y78.706 E13.18665
G1 X97.722 Y78.602 E13.20292
G1 X98.117 Y78.576 E13.21609
G1 X121.883 Y78.576 E14.00655
G1 X122.371 Y78.616 E14.02284
G1 X122.846 Y78.735 E14.03912
G1 X123.295 Y78.929 E14.05539
G1 X123.707 Y79.194 E14.07168
G1 X124.004 Y79.455 E14.08484
G1 X124.121 Y79.572 E14.09034
G1 X124.438 Y79.945 E14.10662
G1 X124.69 Y80.365 E14.12291
G1 X124.87 Y80.82 E14.13918
G1 X124.974 Y81.298 E14.15546
G1 X125 Y81.693 E14.16862
G1 X125 Y89.83 E14.43926
G1 X125.289 Y89.984 E14.45015
G1 X125.558 Y90.146 E14.46059
G1 X125.797 Y90.323 E14.47049
G1 X129.572 Y93.421 E14.63291
G1 X129.805 Y93.634 E14.64341
G1 X130.003 Y93.852 E14.65321
G1 X133.101 Y97.627 E14.81563
G1 X133.265 Y97.846 E14.82473
G1 X133.438 Y98.131 E14.83582
G1 X135.738 Y102.432 E14.99804
G1 X135.842 Y102.647 E15.00598
G1 X135.972 Y102.995 E15.01834
G1 X137.387 Y107.664 E15.18061
G1 X137.431 Y107.826 E15.18619
G1 X137.507 Y108.26 E15.20084
G1 X137.985 Y113.119 E15.36324
G1 X137.999 Y113.433 E15.37369
G1 X137.985 Y113.727 E15.38348
G1 X137.507 Y118.586 E15.54587
G1 X137.446 Y118.957 E15.55838
G1 X137.387 Y119.184 E15.56618
G1 X135.973 Y123.851 E15.72837
G1 X135.838 Y124.212 E15.74119
G1 X135.738 Y124.416 E15.74875
G1 X133.439 Y128.715 E15.91089
G1 X133.278 Y128.982 E15.92126
G1 X133.101 Y129.221 E15.93115
G1 X130.004 Y132.996 E16.09356
G1 X129.791 Y133.229 E16.10406
G1 X129.573 Y133.427 E16.11385
G1 X125.797 Y136.525 E16.2763
G1 X125.578 Y136.689 E16.2854
G1 X125.293 Y136.862 E16.29649
G1 X120.992 Y139.162 E16.45871
G1 X120.777 Y139.266 E16.46666
G1 X120.429 Y139.396 E16.47901
G1 X115.76 Y140.811 E16.64128
G1 X115.533 Y140.87 E16.64908
G1 X115.162 Y140.931 E16.66159
G1 X110.303 Y141.409 E16.82398
G1 X109.991 Y141.423 E16.83436
G1 X109.697 Y141.409 E16.84415
G1 X104.838 Y140.931 E17.00654
G1 X104.467 Y140.87 E17.01905
G1 X104.24 Y140.811 E17.02685
G1 X99.571 Y139.396 E17.18912
G1 X99.223 Y139.266 E17.20147
G1 X99.008 Y139.162 E17.20942
G1 X94.707 Y136.862 E17.37164
G1 X94.422 Y136.689 E17.38273
G1 X94.203 Y136.525 E17.39183
G1 X90.427 Y133.427 E17.55428
G1 X90.194 Y133.214 E17.56478
G1 X89.996 Y132.996 E17.57457
G1 X86.899 Y129.221 E17.73698
G1 X86.71 Y128.964 E17.74759
G1 X86.561 Y128.715 E17.75724
G1 X84.262 Y124.416 E17.91938
G1 X84.162 Y124.212 E17.92694
G1 X84.027 Y123.851 E17.93976
G1 X82.613 Y119.184 E18.10195
G1 X82.554 Y118.957 E18.10975
G1 X82.493 Y118.586 E18.12226
G1 X82.015 Y113.729 E18.28458
G1 X82.001 Y113.415 E18.29504
G1 X82.015 Y113.121 E18.30483
G1 X82.493 Y108.262 E18.46722
G1 X82.554 Y107.891 E18.47972
G1 X82.613 Y107.664 E18.48753
G1 X84.027 Y102.997 E18.64972
G1 X84.162 Y102.636 E18.66254
G1 X84.262 Y102.432 E18.67009
G1 X86.561 Y98.133 E18.83224
G1 X86.722 Y97.866 E18.84261
G1 X86.899 Y97.627 E18.8525
G1 X89.996 Y93.853 E19.01488
G1 X90.209 Y93.62 E19.02538
G1 X90.427 Y93.422 E19.03518
G1 X94.203 Y90.323 E19.19765
G1 X94.46 Y90.134 E19.20826
G1 X94.711 Y89.984 E19.21798
G1 X95 Y89.83 E19.22887
G1 X95 Y81.693 E19.49951
G1 X95.04 Y81.205 E19.5158
G1 X95.159 Y80.73 E19.53208
G1 X95.353 Y80.281 E19.54835
G1 X95.618 Y79.869 E19.56465
G1 X95.879 Y79.572 E19.5778
G0 F6000 X96.162 Y79.855
G1 F600 X96.279 Y79.738 E19.5833
G1 X96.628 Y79.445 E19.59846
G1 X97.023 Y79.218 E19.61361
G1 X97.451 Y79.063 E19.62875
G1 X98.117 Y78.976 E19.65109
G1 X121.883 Y78.976 E20.44155
G1 X122.337 Y79.016 E20.45671
G1 X122.777 Y79.134 E20.47186
G1 X123.189 Y79.328 E20.487
G1 X123.721 Y79.738 E20.50934
G1 X123.838 Y79.855 E20.51485
G1 X124.131 Y80.204 E20.53
G1 X124.358 Y80.599 E20.54516
G1 X124.513 Y81.027 E20.5603
G1 X124.6 Y81.693 E20.58264
G1 X124.6 Y90.069 E20.86122
G1 X125.101 Y90.337 E20.88012
G1 X125.336 Y90.479 E20.88925
G1 X125.543 Y90.632 E20.89781
G1 X129.318 Y93.73 E21.06024
G1 X129.522 Y93.917 E21.06944
G1 X129.694 Y94.106 E21.07794
G1 X132.792 Y97.881 E21.24037
G1 X132.936 Y98.073 E21.24835
G1 X133.086 Y98.32 E21.25796
G1 X135.386 Y102.621 E21.42018
G1 X135.477 Y102.809 E21.42713
G1 X135.589 Y103.111 E21.43784
G1 X137.004 Y107.78 E21.60011
G1 X137.043 Y107.923 E21.60504
G1 X137.109 Y108.299 E21.61774
G1 X137.587 Y113.158 E21.78013
G1 X137.599 Y113.433 E21.78928
G1 X137.587 Y113.688 E21.79777
G1 X137.109 Y118.547 E21.96016
G1 X137.056 Y118.868 E21.97099
G1 X137.004 Y119.068 E21.97786
G1 X135.59 Y123.735 E22.14005
G1 X135.473 Y124.048 E22.15117
G1 X135.386 Y124.227 E22.15779
G1 X133.087 Y128.526 E22.31993
G1 X132.945 Y128.76 E22.32904
G1 X132.792 Y128.967 E22.3376
G1 X129.695 Y132.742 E22.5
G1 X129.508 Y132.946 E22.50921
G1 X129.319 Y133.118 E22.51771
G1 X125.543 Y136.216 E22.68016
G1 X125.351 Y136.36 E22.68814
G1 X125.104 Y136.51 E22.69775
G1 X120.803 Y138.81 E22.85997
G1 X120.615 Y138.901 E22.86692
G1 X120.313 Y139.013 E22.87763
G1 X115.644 Y140.428 E23.0399
G1 X115.444 Y140.48 E23.04677
G1 X115.123 Y140.533 E23.05759
G1 X110.264 Y141.011 E23.21998
G1 X109.991 Y141.023 E23.22907
G1 X109.736 Y141.011 E23.23756
G1 X104.877 Y140.533 E23.39995
G1 X104.556 Y140.48 E23.41077
G1 X104.356 Y140.428 E23.41765
G1 X99.687 Y139.013 E23.57991
G1 X99.385 Y138.901 E23.59063
G1 X99.197 Y138.81 E23.59757
G1 X94.896 Y136.51 E23.7598
G1 X94.649 Y136.36 E23.76941
G1 X94.457 Y136.216 E23.77739
G1 X90.681 Y133.118 E23.93984
G1 X90.477 Y132.931 E23.94904
G1 X90.305 Y132.742 E23.95754
G1 X87.208 Y128.967 E24.11995
G1 X87.043 Y128.742 E24.12923
G1 X86.913 Y128.526 E24.13761
G1 X84.614 Y124.227 E24.29976
G1 X84.527 Y124.048 E24.30638
G1 X84.41 Y123.735 E24.31749
G1 X82.996 Y119.068 E24.47969
G1 X82.944 Y118.868 E24.48656
G1 X82.892 Y118.547 E24.49738
G1 X82.414 Y113.69 E24.6597
G1 X82.401 Y113.415 E24.66886
G1 X82.413 Y113.16 E24.67735
G1 X82.891 Y108.301 E24.83974
G1 X82.944 Y107.98 E24.85056
G1 X82.996 Y107.78 E24.85743
G1 X84.41 Y103.113 E25.01963
G1 X84.527 Y102.8 E25.03074
G1 X84.614 Y102.621 E25.03736
G1 X86.913 Y98.322 E25.19951
G1 X87.055 Y98.088 E25.20861
G1 X87.208 Y97.881 E25.21717
G1 X90.305 Y94.107 E25.37955
G1 X90.492 Y93.903 E25.38875
G1 X90.681 Y93.731 E25.39725
G1 X94.457 Y90.632 E25.55973
G1 X94.682 Y90.467 E25.56901
G1 X94.899 Y90.337 E25.57742
G1 X95.4 Y90.069 E25.59632
G1 X95.4 Y81.693 E25.8749
G1 X95.44 Y81.239 E25.89006
G1 X95.558 Y80.799 E25.90521
G1 X95.752 Y80.387 E25.92036
G1 X96.162 Y79.855 E25.9427
G0 F6000 X96.444 Y80.137
G1 F600 X96.561 Y80.02 E25.9482
G1 X96.885 Y79.754 E25.96215
G1 X97.252 Y79.553 E25.97606
G1 X97.652 Y79.426 E25.99002
G1 X98.117 Y79.376 E26.00558
G1 X121.883 Y79.376 E26.79604
G1 X122.3 Y79.416 E26.80997
G1 X122.702 Y79.534 E26.8239
G1 X123.074 Y79.727 E26.83784
G1 X123.439 Y80.02 E26.85341
G1 X123.556 Y80.137 E26.85891
G1 X123.822 Y80.461 E26.87286
G1 X124.023 Y80.828 E26.88677
G1 X124.15 Y81.228 E26.90073
G1 X124.2 Y81.693 E26.91629
G1 X124.2 Y90.309 E27.20286
G1 X124.912 Y90.689 E27.2297
G1 X125.114 Y90.811 E27.23755
G1 X125.29 Y90.941 E27.24483
G1 X129.065 Y94.039 E27.40725
G1 X129.24 Y94.199 E27.41514
G1 X129.385 Y94.359 E27.42232
G1 X132.483 Y98.134 E27.58474
G1 X132.606 Y98.3 E27.59162
G1 X132.733 Y98.509 E27.59975
G1 X135.033 Y102.81 E27.76197
G1 X135.111 Y102.971 E27.76792
G1 X135.206 Y103.227 E27.777
G1 X136.621 Y107.896 E27.93927
G1 X136.655 Y108.02 E27.94355
G1 X136.71 Y108.339 E27.95431
G1 X137.188 Y113.198 E28.1167
G1 X137.199 Y113.433 E28.12453
G1 X137.188 Y113.648 E28.13169
G1 X136.71 Y118.507 E28.29408
G1 X136.666 Y118.78 E28.30328
G1 X136.621 Y118.952 E28.30919
G1 X135.207 Y123.619 E28.47138
G1 X135.108 Y123.884 E28.48079
G1 X135.033 Y124.038 E28.48649
G1 X132.734 Y128.337 E28.64864
G1 X132.613 Y128.538 E28.65644
G1 X132.483 Y128.713 E28.66369
G1 X129.386 Y132.488 E28.8261
G1 X129.241 Y132.649 E28.8333
G1 X129.226 Y132.664 E28.83401
G1 X129.065 Y132.809 E28.84121
G1 X125.289 Y135.907 E29.00366
G1 X125.124 Y136.03 E29.01051
G1 X124.915 Y136.157 E29.01864
G1 X120.614 Y138.457 E29.18086
G1 X120.453 Y138.535 E29.18681
G1 X120.197 Y138.63 E29.1959
G1 X115.528 Y140.045 E29.35816
G1 X115.356 Y140.09 E29.36408
G1 X115.083 Y140.134 E29.37327
G1 X110.224 Y140.612 E29.53566
G1 X109.991 Y140.623 E29.54342
G1 X109.776 Y140.612 E29.55058
G1 X104.917 Y140.134 E29.71297
G1 X104.644 Y140.09 E29.72217
G1 X104.472 Y140.045 E29.72809
G1 X99.803 Y138.63 E29.89035
G1 X99.547 Y138.535 E29.89943
G1 X99.386 Y138.457 E29.90538
G1 X95.085 Y136.157 E30.06761
G1 X94.876 Y136.03 E30.07574
G1 X94.711 Y135.907 E30.08258
G1 X90.935 Y132.809 E30.24503
G1 X90.774 Y132.664 E30.25224
G1 X90.759 Y132.649 E30.25295
G1 X90.614 Y132.488 E30.26015
G1 X87.517 Y128.713 E30.42256
G1 X87.387 Y128.538 E30.42981
G1 X87.266 Y128.337 E30.43761
G1 X84.967 Y124.038 E30.59976
G1 X84.892 Y123.884 E30.60546
