;FLAVOR:Marlin
;TIME:2900
;Filament used: 2.64558m
;Layer height: 0.2
;MINX:60.326
;MINY:69.839
;MINZ:0.24
;MAXX:159.665
;MAXY:150.149
;MAXZ:7.99
;Generated with Cura_SteamEngine 4.8.0
M140 S70
M105
M190 S70
M104 S200
M105
M109 S200
M82 ;absolute extrusion mode
M201 X500.00 Y500.00 Z100.00 E5000.00 ;Setup machine max acceleration
M203 X500.00 Y500.00 Z10.00 E50.00 ;Setup machine max feedrate
M204 P500.00 R1000.00 T500.00 ;Setup Print/Retract/Travel acceleration
M205 X8.00 Y8.00 Z0.40 E5.00 ;Setup Jerk
M220 S100 ;Reset Feedrate
M221 S100 ;Reset Flowrate

G28 ;Home

G92 E0 ;Reset Extruder
G1 Z2.0 F3000 ;Move Z Axis up
G1 X10.1 Y20 Z0.28 F5000.0 ;Move to start position
G1 X10.1 Y200.0 Z0.28 F1500.0 E15 ;Draw the first line
G1 X10.4 Y200.0 Z0.28 F5000.0 ;Move to side a little
G1 X10.4 Y20 Z0.28 F1500.0 E30 ;Draw the second line
G92 E0 ;Reset Extruder
G1 Z2.0 F3000 ;Move Z Axis up

G92 E0
G92 E0
G1 F2700 E-5
;LAYER_COUNT:32
;LAYER:-6
M107
G0 F12000 X66.33 Y84.836 Z0.24
;TYPE:SUPPORT-INTERFACE
G1 F2700 E0
G1 F1800 X66.452 Y84.742 E0.01229
G1 X67.197 Y84.189 E0.08636
G1 X67.321 Y84.105 E0.09831
G1 X68.091 Y83.617 E0.17108
G1 X68.229 Y83.537 E0.18381
G1 X69.014 Y83.116 E0.25492
G1 X69.192 Y83.03 E0.2707
G1 X70.003 Y82.669 E0.34156
G1 X70.166 Y82.602 E0.35563
G1 X70.849 Y82.35 E0.41374
G1 X71.114 Y82.261 E0.43605
G1 X72.038 Y81.987 E0.51299
G1 X72.187 Y81.948 E0.52528
G1 X73.098 Y81.748 E0.59973
G1 X73.238 Y81.723 E0.61109
G1 X74.138 Y81.595 E0.68365
G1 X74.301 Y81.577 E0.69674
G1 X75.225 Y81.512 E0.77068
G1 X75.342 Y81.508 E0.78003
G1 X76.099 Y81.504 E0.84045
G1 X76.343 Y81.509 E0.85993
G1 X77.283 Y81.563 E0.93509
G1 X77.448 Y81.578 E0.94832
G1 X78.368 Y81.698 E1.02238
G1 X78.493 Y81.719 E1.0325
G1 X79.394 Y81.904 E1.10592
G1 X79.555 Y81.943 E1.11914
G1 X80.402 Y82.181 E1.18937
G1 X81.057 Y82.322 E1.24285
G1 X81.737 Y82.381 E1.29734
G1 X82.42 Y82.353 E1.35191
G1 X83.093 Y82.238 E1.40641
G1 X83.75 Y82.039 E1.4612
G1 X84.54 Y81.667 E1.53091
G1 X99.472 Y73.053 E2.90696
G1 X99.785 Y72.858 E2.93639
G1 X99.989 Y72.724 E2.95588
G1 X100.109 Y72.649 E2.96717
G1 X100.208 Y72.591 E2.97633
G1 X101.257 Y72.007 E3.07217
G1 X101.512 Y71.878 E3.09498
G1 X101.574 Y71.848 E3.10048
G1 X102.767 Y71.319 E3.20465
G1 X103.022 Y71.218 E3.22655
G1 X103.089 Y71.193 E3.23225
G1 X104.069 Y70.857 E3.31495
G1 X104.209 Y70.811 E3.32672
G1 X104.468 Y70.736 E3.34824
G1 X105.675 Y70.433 E3.44758
G1 X105.916 Y70.382 E3.46724
G1 X106.056 Y70.357 E3.47859
G1 X107.287 Y70.162 E3.57808
G1 X107.467 Y70.142 E3.59254
G1 X107.582 Y70.132 E3.60175
G1 X108.729 Y70.05 E3.69354
G1 X108.988 Y70.041 E3.71423
G1 X109.099 Y70.04 E3.72309
G1 X110.383 Y70.064 E3.82561
G1 X110.481 Y70.068 E3.83343
G1 X110.718 Y70.084 E3.8524
G1 X111.815 Y70.2 E3.94045
G1 X112.026 Y70.229 E3.95745
G1 X112.186 Y70.255 E3.97039
G1 X113.419 Y70.493 E4.07063
G1 X113.66 Y70.549 E4.09038
G1 X113.776 Y70.579 E4.09995
G1 X114.914 Y70.903 E4.1944
G1 X115.176 Y70.991 E4.21646
G1 X116.347 Y71.436 E4.31646
G1 X116.597 Y71.542 E4.33813
G1 X117.777 Y72.114 E4.44281
G1 X117.869 Y72.162 E4.45109
G1 X118.095 Y72.285 E4.47163
G1 X119.038 Y72.849 E4.55934
G1 X119.258 Y72.99 E4.5802
G1 X119.358 Y73.059 E4.5899
G1 X120.407 Y73.819 E4.6933
G1 X120.492 Y73.883 E4.70179
G1 X120.618 Y73.983 E4.71463
G1 X120.704 Y74.055 E4.72359
G1 X121.639 Y74.871 E4.82265
G1 X121.85 Y75.074 E4.84602
G1 X122.632 Y75.88 E4.93566
G1 X122.813 Y76.079 E4.95714
G1 X122.874 Y76.149 E4.96455
G1 X123.594 Y77.03 E5.05537
G1 X123.773 Y77.263 E5.07883
G1 X124.531 Y78.375 E5.18625
G1 X124.606 Y78.491 E5.19728
G1 X124.729 Y78.693 E5.21616
G1 X125.317 Y79.751 E5.31278
G1 X125.439 Y79.991 E5.33427
G1 X125.948 Y81.119 E5.43305
G1 X126.022 Y81.3 E5.44866
G1 X126.076 Y81.443 E5.46086
G1 X126.478 Y82.593 E5.55811
G1 X126.555 Y82.843 E5.57899
G1 X126.598 Y83 E5.59198
G1 X126.896 Y84.18 E5.68913
G1 X126.949 Y84.442 E5.71047
G1 X127.152 Y85.69 E5.8114
G1 X127.174 Y85.875 E5.82627
G1 X127.185 Y86 E5.83629
G1 X127.281 Y87.308 E5.94098
G1 X127.286 Y87.583 E5.96294
G1 X127.269 Y88.712 E6.05307
G1 X127.262 Y88.906 E6.06856
G1 X127.247 Y89.133 E6.08672
G1 X127.139 Y90.229 E6.17463
G1 X127.104 Y90.49 E6.19565
G1 X127.091 Y90.569 E6.20205
G1 X126.856 Y91.821 E6.30373
G1 X126.833 Y91.929 E6.31255
G1 X126.761 Y92.221 E6.33655
G1 X126.471 Y93.252 E6.42204
G1 X126.38 Y93.544 E6.44646
G1 X126.353 Y93.622 E6.45305
G1 X125.955 Y94.686 E6.54373
G1 X125.847 Y94.952 E6.56665
G1 X125.803 Y95.051 E6.57529
G1 X125.387 Y95.944 E6.65393
G1 X125.302 Y96.112 E6.66896
G1 X125.134 Y96.434 E6.69795
G1 X124.893 Y96.884 E6.7387
G1 X124.771 Y97.124 E6.76019
G1 X124.598 Y97.479 E6.79171
G1 X124.415 Y97.867 E6.82596
G1 X124.251 Y98.233 E6.85797
G1 X124.122 Y98.533 E6.88404
G1 X123.959 Y98.937 E6.91882
G1 X123.835 Y99.26 E6.94643
G1 X123.805 Y99.341 E6.95333
G1 X123.614 Y99.983 E7.0068
G1 X123.504 Y100.656 E7.06123
G1 X123.479 Y101.339 E7.11579
G1 X123.541 Y102.019 E7.17029
G1 X123.688 Y102.686 E7.22481
G1 X123.918 Y103.328 E7.27925
G1 X124.227 Y103.938 E7.33383
G1 X124.61 Y104.503 E7.38832
G1 X125.063 Y105.015 E7.44289
G1 X125.575 Y105.465 E7.4973
G1 X126.141 Y105.847 E7.55181
G1 X126.75 Y106.156 E7.60632
G1 X127.392 Y106.384 E7.66071
G1 X127.951 Y106.512 E7.70648
G1 X146.051 Y109.625 E9.17252
G1 X146.186 Y109.652 E9.18351
G1 X147.5 Y109.946 E9.29099
G1 X147.582 Y109.967 E9.29775
G1 X148.819 Y110.37 E9.4016
G1 X149.187 Y110.509 E9.433
G1 X149.274 Y110.542 E9.44042
G1 X150.126 Y110.897 E9.5141
G1 X150.302 Y110.981 E9.52967
G1 X151.59 Y111.661 E9.64593
G1 X151.67 Y111.706 E9.65326
G1 X152.482 Y112.234 E9.73057
G1 X152.629 Y112.34 E9.74504
G1 X153.643 Y113.13 E9.84765
G1 X153.734 Y113.204 E9.85701
G1 X154.1 Y113.523 E9.89577
G1 X154.755 Y114.131 E9.96711
G1 X154.895 Y114.271 E9.98291
G1 X155.683 Y115.128 E10.07584
G1 X156.312 Y115.929 E10.15714
G1 X156.378 Y116.018 E10.16598
G1 X156.899 Y116.793 E10.24053
G1 X156.976 Y116.914 E10.25198
G1 X157.265 Y117.403 E10.29732
G1 X157.496 Y117.814 E10.33495
G1 X157.934 Y118.654 E10.41057
G1 X158.002 Y118.798 E10.42328
G1 X158.364 Y119.639 E10.49637
G1 X158.419 Y119.778 E10.5083
G1 X158.591 Y120.252 E10.54856
G1 X158.882 Y121.205 E10.6281
G1 X158.927 Y121.378 E10.64236
G1 X159.171 Y122.502 E10.73418
G1 X159.193 Y122.609 E10.7429
G1 X159.254 Y122.969 E10.77204
G1 X159.272 Y123.091 E10.78189
G1 X159.394 Y124.01 E10.85589
G1 X159.409 Y124.157 E10.86768
G1 X159.462 Y125.038 E10.93814
G1 X159.465 Y125.229 E10.95338
G1 X159.43 Y126.561 E11.05975
G1 X159.415 Y126.798 E11.0787
G1 X159.403 Y126.927 E11.08905
G1 X159.296 Y127.859 E11.16393
G1 X159.274 Y128.011 E11.17619
G1 X159.15 Y128.706 E11.23254
G1 X158.937 Y129.741 E11.31689
G1 X158.885 Y129.984 E11.33673
G1 X158.665 Y130.967 E11.41714
G1 X158.605 Y131.228 E11.43852
G1 X158.368 Y132.209 E11.51908
G1 X158.064 Y133.388 E11.61627
G1 X157.718 Y134.653 E11.72095
G1 X157.654 Y134.879 E11.7397
G1 X157.31 Y136.043 E11.83659
G1 X157.011 Y137.01 E11.91739
G1 X156.924 Y137.28 E11.94003
G1 X156.605 Y138.246 E12.02124
G1 X156.522 Y138.49 E12.04181
G1 X156.169 Y139.497 E12.12699
G1 X155.827 Y140.369 E12.20176
G1 X155.754 Y140.538 E12.21645
G1 X155.347 Y141.386 E12.29154
G1 X155.231 Y141.615 E12.31203
G1 X154.692 Y142.554 E12.39846
G1 X154.609 Y142.688 E12.41104
G1 X154.116 Y143.416 E12.48122
G1 X154.007 Y143.564 E12.49589
G1 X153.345 Y144.395 E12.5807
G1 X153.155 Y144.618 E12.60409
G1 X152.506 Y145.316 E12.68017
G1 X152.345 Y145.475 E12.69823
G1 X151.36 Y146.366 E12.80425
G1 X151.318 Y146.398 E12.80847
G1 X150.583 Y146.958 E12.88223
G1 X150.422 Y147.072 E12.89798
G1 X149.669 Y147.563 E12.96973
G1 X149.552 Y147.635 E12.9807
G1 X149.104 Y147.894 E13.02201
G1 X148.728 Y148.1 E13.05623
G1 X147.848 Y148.543 E13.13487
G1 X147.703 Y148.61 E13.14762
G1 X146.882 Y148.952 E13.21862
G1 X146.714 Y149.015 E13.23294
G1 X145.858 Y149.301 E13.30498
G1 X145.709 Y149.343 E13.31734
G1 X144.438 Y149.651 E13.42173
G1 X144.275 Y149.682 E13.43498
G1 X144.151 Y149.704 E13.44503
G1 X143.263 Y149.844 E13.51679
G1 X143.078 Y149.866 E13.53166
G1 X142.079 Y149.948 E13.61168
G1 X141.995 Y149.949 E13.61838
G1 X140.54 Y149.935 E13.73453
G1 X140.425 Y149.931 E13.74372
G1 X140.181 Y149.913 E13.76325
G1 X139.269 Y149.824 E13.83639
G1 X139.097 Y149.801 E13.85024
G1 X138.219 Y149.649 E13.92137
G1 X138.046 Y149.612 E13.93549
G1 X136.937 Y149.329 E14.02686
G1 X136.693 Y149.254 E14.04723
G1 X135.812 Y148.957 E14.12145
G1 X135.674 Y148.906 E14.13319
G1 X134.858 Y148.566 E14.20376
G1 X133.942 Y148.109 E14.28547
G1 X133.814 Y148.041 E14.29704
G1 X133.377 Y147.791 E14.33723
G1 X133.162 Y147.661 E14.35728
G1 X132.37 Y147.15 E14.43252
G1 X132.236 Y147.055 E14.44563
G1 X131.261 Y146.306 E14.54378
G1 X131.154 Y146.215 E14.55499
G1 X130.499 Y145.619 E14.62568
G1 X130.336 Y145.455 E14.64414
G1 X129.387 Y144.421 E14.75617
G1 X129.318 Y144.342 E14.76454
G1 X129.032 Y143.991 E14.80068
G1 X128.472 Y143.257 E14.87438
G1 X128.387 Y143.138 E14.88605
G1 X127.869 Y142.345 E14.96166
G1 X127.804 Y142.238 E14.97165
G1 X127.543 Y141.785 E15.01339
G1 X127.492 Y141.687 E15.02221
G1 X127.102 Y140.908 E15.09175
G1 X127 Y140.683 E15.11147
G1 X126.969 Y140.605 E15.11817
G1 X126.681 Y140 E15.17165
G1 X126.313 Y139.425 E15.22615
G1 X125.874 Y138.901 E15.28071
G1 X125.373 Y138.437 E15.33522
G1 X124.818 Y138.04 E15.38969
G1 X124.218 Y137.716 E15.44412
G1 X123.58 Y137.469 E15.49874
G1 X122.887 Y137.302 E15.55564
G1 X116.305 Y136.172 E16.08873
G1 X115.639 Y136.101 E16.14219
G1 X114.957 Y136.114 E16.19664
G1 X114.279 Y136.213 E16.25134
G1 X113.545 Y136.426 E16.31235
G1 X112.901 Y136.664 E16.36715
G1 X112.742 Y136.716 E16.3805
G1 X111.906 Y136.959 E16.45
G1 X111.694 Y137.011 E16.46742
G1 X110.846 Y137.191 E16.53662
G1 X110.684 Y137.219 E16.54975
G1 X109.805 Y137.338 E16.62055
G1 X109.627 Y137.355 E16.63483
G1 X108.315 Y137.42 E16.73968
G1 X108.173 Y137.424 E16.75102
G1 X104.166 Y137.423 E17.07088
G1 X103.165 Y137.387 E17.15083
G1 X103.042 Y137.378 E17.16068
G1 X102.106 Y137.274 E17.23585
G1 X101.977 Y137.256 E17.24625
G1 X101.103 Y137.098 E17.31715
G1 X100.921 Y137.06 E17.33199
G1 X99.953 Y136.819 E17.41162
G1 X99.763 Y136.764 E17.42741
G1 X98.903 Y136.482 E17.49965
G1 X98.772 Y136.433 E17.51082
G1 X97.936 Y136.089 E17.58298
G1 X97.774 Y136.015 E17.5972
G1 X96.859 Y135.555 E17.67895
G1 X96.76 Y135.499 E17.68803
G1 X95.993 Y135.04 E17.75938
G1 X95.84 Y134.941 E17.77392
G1 X95.096 Y134.419 E17.84647
G1 X94.985 Y134.335 E17.85758
G1 X94.273 Y133.753 E17.93099
G1 X94.109 Y133.609 E17.94841
G1 X93.578 Y133.2 E18.00192
G1 X92.99 Y132.854 E18.05637
G1 X92.362 Y132.585 E18.11091
G1 X91.705 Y132.397 E18.16546
G1 X91.034 Y132.295 E18.21964
G1 X90.563 Y132.274 E18.25727
G1 X88.936 Y132.274 E18.38715
G1 X88.268 Y132.316 E18.44057
G1 X87.597 Y132.445 E18.49512
G1 X86.948 Y132.658 E18.54964
G1 X86.334 Y132.949 E18.60388
G1 X85.892 Y133.222 E18.64535
G1 X85.615 Y133.413 E18.67221
G1 X85.453 Y133.516 E18.68753
G1 X84.723 Y133.944 E18.75508
G1 X84.54 Y134.041 E18.77161
G1 X83.224 Y134.662 E18.88777
G1 X83.134 Y134.698 E18.89551
G1 X82.279 Y135.013 E18.96824
G1 X82.105 Y135.07 E18.98286
G1 X81.242 Y135.319 E19.05456
G1 X81.061 Y135.364 E19.06944
G1 X80.216 Y135.541 E19.13836
G1 X80.023 Y135.575 E19.154
G1 X79.178 Y135.689 E19.22207
G1 X78.964 Y135.708 E19.23922
G1 X77.696 Y135.77 E19.34055
G1 X77.545 Y135.774 E19.35261
G1 X76.787 Y135.773 E19.41312
G1 X75.78 Y135.737 E19.49355
G1 X75.654 Y135.728 E19.50364
G1 X75.03 Y135.667 E19.55368
G1 X74.052 Y135.513 E19.63271
G1 X73.908 Y135.486 E19.64441
G1 X73.096 Y135.301 E19.71089
G1 X72.651 Y135.186 E19.74758
G1 X72.521 Y135.149 E19.75837
G1 X71.634 Y134.881 E19.83233
G1 X71.497 Y134.834 E19.84389
G1 X70.656 Y134.51 E19.91583
G1 X70.481 Y134.436 E19.931
G1 X69.52 Y133.979 E20.01594
G1 X69.412 Y133.922 E20.02569
G1 X68.61 Y133.462 E20.0995
G1 X68.457 Y133.366 E20.11391
G1 X67.697 Y132.854 E20.18706
G1 X67.598 Y132.782 E20.19683
G1 X67.009 Y132.326 E20.25629
G1 X66.68 Y132.058 E20.29017
G1 X66.57 Y131.963 E20.30177
G1 X65.892 Y131.365 E20.37393
G1 X65.756 Y131.236 E20.3889
G1 X65.13 Y130.597 E20.4603
G1 X65.032 Y130.488 E20.472
G1 X64.293 Y129.605 E20.56392
G1 X64.226 Y129.518 E20.57268
G1 X63.671 Y128.734 E20.64936
G1 X63.596 Y128.619 E20.66032
G1 X63.117 Y127.827 E20.7342
G1 X63.039 Y127.686 E20.74706
G1 X62.706 Y127.049 E20.80444
G1 X62.507 Y126.638 E20.84089
G1 X62.119 Y125.762 E20.91737
G1 X62.05 Y125.584 E20.93261
G1 X61.628 Y124.36 E21.03596
G1 X61.587 Y124.22 E21.0476
G1 X61.373 Y123.365 E21.11796
G1 X61.326 Y123.145 E21.13591
G1 X61.141 Y122.053 E21.22432
G1 X61.112 Y121.82 E21.24307
G1 X61.037 Y121.112 E21.2999
G1 X60.898 Y119.448 E21.43319
G1 X60.777 Y117.73 E21.57067
G1 X60.683 Y116.008 E21.70833
G1 X60.622 Y114.47 E21.8312
G1 X60.579 Y112.756 E21.96806
G1 X60.561 Y111.058 E22.10361
G1 X60.527 Y96.868 E23.23632
G1 X60.561 Y95.869 E23.31611
G1 X60.573 Y95.698 E23.32979
G1 X60.667 Y94.821 E23.4002
G1 X60.696 Y94.623 E23.41617
G1 X60.868 Y93.688 E23.49206
G1 X60.915 Y93.465 E23.51025
G1 X60.938 Y93.369 E23.51813
G1 X61.178 Y92.449 E23.59403
G1 X61.232 Y92.27 E23.60895
G1 X61.516 Y91.435 E23.67936
G1 X61.58 Y91.269 E23.69356
G1 X61.921 Y90.466 E23.7632
G1 X62.002 Y90.291 E23.77859
G1 X62.413 Y89.493 E23.85024
G1 X62.492 Y89.347 E23.86349
G1 X62.732 Y88.939 E23.90128
G1 X62.897 Y88.672 E23.92633
G1 X63.403 Y87.911 E23.99928
G1 X63.511 Y87.76 E24.0141
G1 X64.046 Y87.07 E24.0838
G1 X64.177 Y86.91 E24.1003
G1 X64.761 Y86.261 E24.17
G1 X64.876 Y86.142 E24.18321
G1 X65.537 Y85.507 E24.25637
G1 X65.651 Y85.405 E24.26858
G1 X66.205 Y84.936 E24.32652
G1 X66.33 Y84.836 E24.3393
G0 F12000 X65.6 Y85.45
G1 F1800 X65.6 Y131.076 E27.98137
G1 F2700 E22.98137
G1 F300 Z0.74
G0 F12000 X67.2 Y132.473 Z0.74
G1 F300 Z0.24
G1 F2700 E27.98137
G1 F1800 X67.2 Y84.186 E31.83584
G1 F2700 E26.83584
G1 F300 Z0.74
G0 F12000 X68.8 Y83.23 Z0.74
G1 F300 Z0.24
G1 F2700 E31.83584
G1 F1800 X68.8 Y133.57 E35.8542
G1 F2700 E30.8542
G1 F300 Z0.74
G0 F12000 X70.4 Y134.397 Z0.74
G1 F300 Z0.24
G1 F2700 E35.8542
G1 F1800 X70.4 Y82.515 E39.99565
G1 F2700 E34.99565
G1 F300 Z0.74
G0 F12000 X72 Y81.998 Z0.74
G1 F300 Z0.24
G1 F2700 E39.99565
G1 F1800 X72 Y134.991 E44.22578
G1 F2700 E39.22578
G1 F300 Z0.74
G0 F12000 X73.6 Y135.415 Z0.74
G1 F300 Z0.24
G1 F2700 E44.22578
G1 F1800 X73.6 Y81.671 E48.51586
G1 F2700 E43.51586
G1 F300 Z0.74
G0 F12000 X75.2 Y81.513 Z0.74
G1 F300 Z0.24
G1 F2700 E48.51586
G1 F1800 X75.2 Y135.683 E52.83994
G1 F2700 E47.83994
G1 F300 Z0.74
G0 F12000 X76.8 Y135.773 Z0.74
G1 F300 Z0.24
G1 F2700 E52.83994
G1 F1800 X76.8 Y81.536 E57.16937
G1 F2700 E52.16937
G1 F300 Z0.74
G0 F12000 X78.4 Y81.704 Z0.74
G1 F300 Z0.24
G1 F2700 E57.16937
G1 F1800 X78.4 Y135.736 E61.48244
G1 F2700 E56.48244
G1 F300 Z0.74
G0 F12000 X80 Y135.579 Z0.74
G1 F300 Z0.24
G1 F2700 E61.48244
G1 F1800 X80 Y82.069 E65.75384
G1 F2700 E60.75384
G1 F300 Z0.74
G0 F12000 X81.6 Y82.37 Z0.74
G1 F300 Z0.24
G1 F2700 E65.75384
G1 F1800 X81.6 Y135.216 E69.97223
G1 F2700 E64.97223
G1 F300 Z0.74
G0 F12000 X83.2 Y134.672 Z0.74
G1 F300 Z0.24
G1 F2700 E69.97223
G1 F1800 X83.2 Y82.205 E74.16038
G1 F2700 E69.16038
G1 F300 Z0.74
G0 F12000 X84.8 Y81.517 Z0.74
G1 F300 Z0.24
G1 F2700 E74.16038
G1 F1800 X84.8 Y133.899 E78.34173
G1 F2700 E73.34173
G1 F300 Z0.74
G0 F12000 X86.4 Y132.918 Z0.74
G1 F300 Z0.24
G1 F2700 E78.34173
G1 F1800 X86.4 Y80.593 E82.51854
G1 F2700 E77.51854
G1 F300 Z0.74
G0 F12000 X88 Y79.67 Z0.74
G1 F300 Z0.24
G1 F2700 E82.51854
G1 F1800 X88 Y132.368 E86.72512
G1 F2700 E81.72512
G1 F300 Z0.74
G0 F12000 X89.6 Y132.274 Z0.74
G1 F300 Z0.24
G1 F2700 E86.72512
G1 F1800 X89.6 Y78.747 E90.99788
G1 F2700 E85.99788
G1 F300 Z0.74
G0 F12000 X91.2 Y77.824 Z0.74
G1 F300 Z0.24
G1 F2700 E90.99788
G1 F1800 X91.2 Y132.32 E95.34799
G1 F2700 E90.34799
G1 F300 Z0.74
G0 F12000 X92.8 Y132.772 Z0.74
G1 F300 Z0.24
G1 F2700 E95.34799
G1 F1800 X92.8 Y76.901 E99.80785
G1 F2700 E94.80785
G1 F300 Z0.74
G0 F12000 X94.4 Y75.978 Z0.74
G1 F300 Z0.24
G1 F2700 E99.80785
G1 F1800 X94.4 Y133.856 E104.42792
G1 F2700 E99.42792
G1 F300 Z0.74
G0 F12000 X96 Y135.044 Z0.74
G1 F300 Z0.24
G1 F2700 E104.42792
G1 F1800 X96 Y75.055 E109.21651
