;FLAVOR:Marlin
;TIME:3774
;Filament used: 2.29719m
;Layer height: 0.2
;MINX:74.949
;MINY:91.199
;MINZ:0.24
;MAXX:145.05
;MAXY:128.8
;MAXZ:30.99
;Generated with Cura_SteamEngine 4.8.0
M140 S70
M105
M190 S70
M104 S200
M105
M109 S200
M82 ;absolute extrusion mode
M201 X500.00 Y500.00 Z100.00 E5000.00 ;Setup machine max acceleration
M203 X500.00 Y500.00 Z10.00 E50.00 ;Setup machine max feedrate
M204 P500.00 R1000.00 T500.00 ;Setup Print/Retract/Travel acceleration
M205 X8.00 Y8.00 Z0.40 E5.00 ;Setup Jerk
M220 S100 ;Reset Feedrate
M221 S100 ;Reset Flowrate

G28 ;Home

G92 E0 ;Reset Extruder
G1 Z2.0 F3000 ;Move Z Axis up
G1 X10.1 Y20 Z0.28 F5000.0 ;Move to start position
G1 X10.1 Y200.0 Z0.28 F1500.0 E15 ;Draw the first line
G1 X10.4 Y200.0 Z0.28 F5000.0 ;Move to side a little
G1 X10.4 Y20 Z0.28 F1500.0 E30 ;Draw the second line
G92 E0 ;Reset Extruder
G1 Z2.0 F3000 ;Move Z Axis up

G92 E0
G92 E0
G1 F2700 E-5
;LAYER_COUNT:147
;LAYER:-6
M107
G0 F12000 X78.71 Y102.088 Z0.24
;TYPE:SUPPORT-INTERFACE
G1 F2700 E0
G1 F1800 X79.086 Y101.817 E0.037
G1 X79.289 Y101.688 E0.0562
G1 X79.672 Y101.469 E0.09141
G1 X79.911 Y101.348 E0.1128
G1 X80.336 Y101.163 E0.1498
G1 X80.539 Y101.088 E0.16707
G1 X81.01 Y100.94 E0.20648
G1 X81.236 Y100.882 E0.22511
G1 X81.657 Y100.797 E0.25939
G1 X81.936 Y100.76 E0.28186
G1 X82.665 Y100.707 E0.3402
G1 X82.862 Y100.7 E0.35594
G1 X94.577 Y100.7 E1.29108
G1 X95.245 Y100.658 E1.34451
G1 X95.916 Y100.529 E1.39905
G1 X96.565 Y100.316 E1.45358
G1 X97.182 Y100.024 E1.50807
G1 X97.757 Y99.656 E1.56256
G1 X98.281 Y99.218 E1.61708
G1 X98.745 Y98.718 E1.67153
G1 X99.144 Y98.162 E1.72615
G1 X99.468 Y97.562 E1.78058
G1 X99.713 Y96.929 E1.83477
G1 X99.795 Y96.621 E1.86021
G1 X99.959 Y96.025 E1.90955
G1 X100.033 Y95.8 E1.92846
G1 X100.194 Y95.389 E1.96369
G1 X100.307 Y95.142 E1.98538
G1 X100.517 Y94.743 E2.02137
G1 X100.633 Y94.546 E2.03962
G1 X100.893 Y94.155 E2.0771
G1 X101.047 Y93.949 E2.09763
G1 X101.342 Y93.596 E2.13435
G1 X101.501 Y93.424 E2.15305
G1 X101.834 Y93.102 E2.19003
G1 X102.014 Y92.946 E2.20904
G1 X102.392 Y92.652 E2.24727
G1 X102.575 Y92.525 E2.26505
G1 X102.964 Y92.283 E2.30162
G1 X103.191 Y92.158 E2.3223
G1 X103.595 Y91.964 E2.35808
G1 X103.838 Y91.864 E2.37905
G1 X104.251 Y91.717 E2.41405
G1 X104.507 Y91.641 E2.43536
G1 X104.941 Y91.537 E2.47099
G1 X105.178 Y91.494 E2.49021
G1 X105.676 Y91.429 E2.5303
G1 X105.857 Y91.415 E2.54479
G1 X106.282 Y91.4 E2.57874
G1 X130.597 Y91.4 E4.51967
G1 X130.704 Y91.403 E4.52821
G1 X131.238 Y91.431 E4.5709
G1 X131.491 Y91.458 E4.59121
G1 X131.934 Y91.53 E4.62704
G1 X132.185 Y91.584 E4.64753
G1 X132.634 Y91.708 E4.68471
G1 X132.859 Y91.782 E4.70362
G1 X133.274 Y91.944 E4.73918
G1 X133.514 Y92.054 E4.76026
G1 X133.92 Y92.267 E4.79685
G1 X134.122 Y92.386 E4.81557
G1 X134.495 Y92.635 E4.85137
G1 X134.713 Y92.801 E4.87324
G1 X135.06 Y93.102 E4.90991
G1 X135.593 Y93.507 E4.96334
G1 X136.184 Y93.849 E5.01785
G1 X136.814 Y94.113 E5.07238
G1 X137.474 Y94.297 E5.12707
G1 X138.283 Y94.403 E5.1922
G1 X138.824 Y94.431 E5.23544
G1 X139.078 Y94.458 E5.25583
G1 X139.521 Y94.53 E5.29166
G1 X139.772 Y94.584 E5.31215
G1 X140.221 Y94.708 E5.34933
G1 X140.446 Y94.782 E5.36824
G1 X140.861 Y94.944 E5.4038
G1 X141.101 Y95.054 E5.42488
G1 X141.507 Y95.267 E5.46147
G1 X141.709 Y95.386 E5.48019
G1 X142.095 Y95.643 E5.51721
G1 X142.293 Y95.791 E5.53694
G1 X142.654 Y96.092 E5.57446
G1 X142.826 Y96.251 E5.59316
G1 X143.145 Y96.581 E5.62979
G1 X143.31 Y96.771 E5.64988
G1 X143.586 Y97.125 E5.68571
G1 X143.725 Y97.325 E5.70515
G1 X143.967 Y97.714 E5.74172
G1 X144.095 Y97.947 E5.76294
G1 X144.286 Y98.345 E5.79818
G1 X144.388 Y98.592 E5.81952
G1 X144.535 Y99.007 E5.85466
G1 X144.609 Y99.257 E5.87547
G1 X144.713 Y99.691 E5.9111
G1 X144.757 Y99.933 E5.93073
G1 X144.818 Y100.406 E5.9688
G1 X144.836 Y100.615 E5.98554
G1 X144.85 Y101.014 E6.01741
G1 X144.85 Y103.493 E6.2153
G1 X144.847 Y103.6 E6.22384
G1 X144.819 Y104.134 E6.26653
G1 X144.793 Y104.376 E6.28596
G1 X144.764 Y104.553 E6.30027
G1 X144.698 Y105.224 E6.35409
G1 X144.738 Y106.082 E6.42266
G1 X144.819 Y106.707 E6.47297
G1 X144.836 Y106.914 E6.48954
G1 X144.85 Y107.314 E6.52149
G1 X144.85 Y121.934 E7.68853
G1 X144.847 Y122.041 E7.69707
G1 X144.819 Y122.575 E7.73975
G1 X144.792 Y122.828 E7.76007
G1 X144.72 Y123.271 E7.79589
G1 X144.667 Y123.518 E7.81606
G1 X144.542 Y123.971 E7.85357
G1 X144.468 Y124.196 E7.87248
G1 X144.306 Y124.611 E7.90804
G1 X144.196 Y124.851 E7.92911
G1 X143.983 Y125.257 E7.96571
G1 X143.867 Y125.454 E7.98396
G1 X143.607 Y125.845 E8.02144
G1 X143.454 Y126.049 E8.0418
G1 X143.158 Y126.404 E8.07869
G1 X143.003 Y126.571 E8.09688
G1 X142.669 Y126.895 E8.13402
G1 X142.486 Y127.054 E8.15337
G1 X142.11 Y127.347 E8.19143
G1 X141.925 Y127.475 E8.20938
G1 X141.536 Y127.717 E8.24595
G1 X141.309 Y127.842 E8.26664
G1 X140.905 Y128.036 E8.30241
G1 X140.662 Y128.136 E8.32339
G1 X140.249 Y128.283 E8.35838
G1 X139.993 Y128.359 E8.3797
G1 X139.559 Y128.463 E8.41532
G1 X139.322 Y128.506 E8.43455
G1 X138.824 Y128.571 E8.47464
G1 X138.643 Y128.585 E8.48913
G1 X138.218 Y128.6 E8.52308
G1 X102.515 Y128.6 E11.37305
G1 X102.408 Y128.597 E11.38159
G1 X101.874 Y128.569 E11.42428
G1 X101.621 Y128.542 E11.44459
G1 X101.178 Y128.47 E11.48041
G1 X100.927 Y128.416 E11.50091
G1 X100.478 Y128.292 E11.53809
G1 X100.253 Y128.218 E11.557
G1 X99.835 Y128.055 E11.59281
G1 X99.598 Y127.946 E11.61363
G1 X99.192 Y127.733 E11.65023
G1 X98.99 Y127.614 E11.66895
G1 X98.604 Y127.357 E11.70596
G1 X98.398 Y127.203 E11.72649
G1 X98.042 Y126.906 E11.7635
G1 X97.873 Y126.749 E11.78191
G1 X97.548 Y126.413 E11.81923
G1 X97.389 Y126.229 E11.83864
G1 X97.105 Y125.864 E11.87556
G1 X96.974 Y125.675 E11.89391
G1 X96.731 Y125.284 E11.93066
G1 X96.604 Y125.053 E11.9517
G1 X96.408 Y124.644 E11.98791
G1 X96.318 Y124.428 E12.00659
G1 X96.266 Y124.28 E12.01911
G1 X96.003 Y123.664 E12.07258
G1 X95.657 Y123.076 E12.12703
G1 X95.24 Y122.535 E12.18156
G1 X94.757 Y122.052 E12.23608
G1 X94.219 Y121.633 E12.29052
G1 X93.631 Y121.285 E12.34506
G1 X93.004 Y121.015 E12.39955
G1 X92.349 Y120.825 E12.45399
G1 X91.677 Y120.72 E12.50829
G1 X91.19 Y120.698 E12.5472
G1 X82.816 Y120.698 E13.21565
G1 X82.709 Y120.695 E13.22419
G1 X82.175 Y120.667 E13.26688
G1 X81.922 Y120.64 E13.28719
G1 X81.479 Y120.568 E13.32301
G1 X81.228 Y120.514 E13.34351
G1 X80.779 Y120.39 E13.38069
G1 X80.554 Y120.316 E13.3996
G1 X80.136 Y120.153 E13.43541
G1 X79.899 Y120.044 E13.45624
G1 X79.493 Y119.831 E13.49283
G1 X79.291 Y119.712 E13.51155
G1 X78.918 Y119.463 E13.54735
G1 X78.699 Y119.296 E13.56933
G1 X78.138 Y118.811 E13.62853
G1 X78.022 Y118.704 E13.64112
G1 X77.116 Y117.798 E13.7434
G1 X77.055 Y117.733 E13.75052
G1 X76.691 Y117.328 E13.79398
G1 X76.534 Y117.132 E13.81403
G1 X76.267 Y116.762 E13.85045
G1 X76.135 Y116.555 E13.87005
G1 X75.919 Y116.176 E13.90487
G1 X75.795 Y115.931 E13.92679
G1 X75.613 Y115.512 E13.96326
G1 X75.538 Y115.309 E13.98053
G1 X75.39 Y114.838 E14.01994
G1 X75.332 Y114.612 E14.03857
G1 X75.247 Y114.191 E14.07285
G1 X75.21 Y113.912 E14.09532
G1 X75.156 Y113.17 E14.1547
G1 X75.15 Y113 E14.16828
G1 X75.15 Y108.366 E14.53819
G1 X75.153 Y108.259 E14.54673
G1 X75.181 Y107.725 E14.58942
G1 X75.209 Y107.465 E14.61029
G1 X75.281 Y107.023 E14.64604
G1 X75.333 Y106.782 E14.66572
G1 X75.459 Y106.325 E14.70356
G1 X75.533 Y106.1 E14.72247
G1 X75.694 Y105.689 E14.7577
G1 X75.807 Y105.442 E14.77938
G1 X76.017 Y105.043 E14.81538
G1 X76.133 Y104.846 E14.83362
G1 X76.385 Y104.468 E14.86989
G1 X76.552 Y104.249 E14.89187
G1 X77.037 Y103.688 E14.95107
G1 X77.144 Y103.572 E14.96367
G1 X78.042 Y102.674 E15.06504
G1 X78.115 Y102.605 E15.07306
G1 X78.52 Y102.241 E15.11653
G1 X78.71 Y102.088 E15.136
G0 F12000 X78.4 Y102.348
G1 F1800 X78.4 Y119.037 E16.46819
G1 F2700 E11.46819
G1 F300 Z0.74
G0 F12000 X80 Y120.09 Z0.74
G1 F300 Z0.24
G1 F2700 E16.46819
G1 F1800 X80 Y101.309 E17.96737
G1 F2700 E12.96737
G1 F300 Z0.74
G0 F12000 X81.6 Y100.808 Z0.74
G1 F300 Z0.24
G1 F2700 E17.96737
G1 F1800 X81.6 Y120.587 E19.54621
G1 F2700 E14.54621
G1 F300 Z0.74
G0 F12000 X83.2 Y120.698 Z0.74
G1 F300 Z0.24
G1 F2700 E19.54621
G1 F1800 X83.2 Y100.7 E21.14254
G1 F2700 E16.14254
G1 F300 Z0.74
G0 F12000 X84.8 Y100.7 Z0.74
G1 F300 Z0.24
G1 F2700 E21.14254
G1 F1800 X84.8 Y120.698 E22.73887
G1 F2700 E17.73887
G1 F300 Z0.74
G0 F12000 X86.4 Y120.698 Z0.74
G1 F300 Z0.24
G1 F2700 E22.73887
G1 F1800 X86.4 Y100.7 E24.33519
G1 F2700 E19.33519
G1 F300 Z0.74
G0 F12000 X88 Y100.7 Z0.74
G1 F300 Z0.24
G1 F2700 E24.33519
G1 F1800 X88 Y120.698 E25.93152
G1 F2700 E20.93152
G1 F300 Z0.74
G0 F12000 X89.6 Y120.698 Z0.74
G1 F300 Z0.24
G1 F2700 E25.93152
G1 F1800 X89.6 Y100.7 E27.52785
G1 F2700 E22.52785
G1 F300 Z0.74
G0 F12000 X91.2 Y100.7 Z0.74
G1 F300 Z0.24
G1 F2700 E27.52785
G1 F1800 X91.2 Y120.698 E29.12417
G1 F2700 E24.12417
G1 F300 Z0.74
G0 F12000 X92.8 Y120.955 Z0.74
G1 F300 Z0.24
G1 F2700 E29.12417
G1 F1800 X92.8 Y100.7 E30.74102
G1 F2700 E25.74102
G1 F300 Z0.74
G0 F12000 X94.4 Y100.7 Z0.74
G1 F300 Z0.24
G1 F2700 E30.74102
G1 F1800 X94.4 Y121.773 E32.42315
G1 F2700 E27.42315
G1 F300 Z0.74
G0 F12000 X96 Y123.658 Z0.74
G1 F300 Z0.24
G1 F2700 E32.42315
G1 F1800 X96 Y100.501 E34.27165
G1 F2700 E29.27165
G1 F300 Z0.74
G0 F12000 X97.6 Y99.756 Z0.74
G1 F300 Z0.24
G1 F2700 E34.27165
G1 F1800 X97.6 Y126.466 E36.40375
G1 F2700 E31.40375
G1 F300 Z0.74
G0 F12000 X99.2 Y127.737 Z0.74
G1 F300 Z0.24
G1 F2700 E36.40375
G1 F1800 X99.2 Y98.058 E38.77286
G1 F2700 E33.77286
G1 F300 Z0.74
G0 F12000 X100.8 Y94.294 Z0.74
G1 F300 Z0.24
G1 F2700 E38.77286
G1 F1800 X100.8 Y128.38 E41.49375
G1 F2700 E36.49375
G1 F300 Z0.74
G0 F12000 X102.4 Y128.596 Z0.74
G1 F300 Z0.24
G1 F2700 E41.49375
G1 F1800 X102.4 Y92.646 E44.36344
G1 F2700 E39.36344
G1 F300 Z0.74
G0 F12000 X104 Y91.806 Z0.74
G1 F300 Z0.24
G1 F2700 E44.36344
G1 F1800 X104 Y128.6 E47.30049
G1 F2700 E42.30049
G1 F300 Z0.74
G0 F12000 X105.6 Y128.6 Z0.74
G1 F300 Z0.24
G1 F2700 E47.30049
G1 F1800 X105.6 Y91.438 E50.26692
G1 F2700 E45.26692
G1 F300 Z0.74
G0 F12000 X107.2 Y91.4 Z0.74
G1 F300 Z0.24
G1 F2700 E50.26692
G1 F1800 X107.2 Y128.6 E53.23639
G1 F2700 E48.23639
G1 F300 Z0.74
G0 F12000 X108.8 Y128.6 Z0.74
G1 F300 Z0.24
G1 F2700 E53.23639
G1 F1800 X108.8 Y91.4 E56.20585
G1 F2700 E51.20585
G1 F300 Z0.74
G0 F12000 X110.4 Y91.4 Z0.74
G1 F300 Z0.24
G1 F2700 E56.20585
G1 F1800 X110.4 Y128.6 E59.17532
G1 F2700 E54.17532
G1 F300 Z0.74
G0 F12000 X112 Y128.6 Z0.74
G1 F300 Z0.24
G1 F2700 E59.17532
G1 F1800 X112 Y91.4 E62.14478
G1 F2700 E57.14478
G1 F300 Z0.74
G0 F12000 X113.6 Y91.4 Z0.74
G1 F300 Z0.24
G1 F2700 E62.14478
G1 F1800 X113.6 Y128.6 E65.11425
G1 F2700 E60.11425
G1 F300 Z0.74
G0 F12000 X115.2 Y128.6 Z0.74
G1 F300 Z0.24
G1 F2700 E65.11425
G1 F1800 X115.2 Y91.4 E68.08371
G1 F2700 E63.08371
G1 F300 Z0.74
G0 F12000 X116.8 Y91.4 Z0.74
G1 F300 Z0.24
G1 F2700 E68.08371
G1 F1800 X116.8 Y128.6 E71.05318
G1 F2700 E66.05318
G1 F300 Z0.74
G0 F12000 X118.4 Y128.6 Z0.74
G1 F300 Z0.24
G1 F2700 E71.05318
G1 F1800 X118.4 Y91.4 E74.02264
G1 F2700 E69.02264
G1 F300 Z0.74
G0 F12000 X120 Y91.4 Z0.74
G1 F300 Z0.24
G1 F2700 E74.02264
G1 F1800 X120 Y128.6 E76.99211
G1 F2700 E71.99211
G1 F300 Z0.74
G0 F12000 X121.6 Y128.6 Z0.74
G1 F300 Z0.24
G1 F2700 E76.99211
G1 F1800 X121.6 Y91.4 E79.96157
G1 F2700 E74.96157
G1 F300 Z0.74
G0 F12000 X123.2 Y91.4 Z0.74
G1 F300 Z0.24
G1 F2700 E79.96157
G1 F1800 X123.2 Y128.6 E82.93104
G1 F2700 E77.93104
G1 F300 Z0.74
G0 F12000 X124.8 Y128.6 Z0.74
G1 F300 Z0.24
G1 F2700 E82.93104
G1 F1800 X124.8 Y91.4 E85.9005
G1 F2700 E80.9005
G1 F300 Z0.74
G0 F12000 X126.4 Y91.4 Z0.74
G1 F300 Z0.24
G1 F2700 E85.9005
G1 F1800 X126.4 Y128.6 E88.86997
G1 F2700 E83.86997
G1 F300 Z0.74
G0 F12000 X128 Y128.6 Z0.74
G1 F300 Z0.24
G1 F2700 E88.86997
G1 F1800 X128 Y91.4 E91.83943
G1 F2700 E86.83943
G1 F300 Z0.74
G0 F12000 X129.6 Y91.4 Z0.74
G1 F300 Z0.24
G1 F2700 E91.83943
G1 F1800 X129.6 Y128.6 E94.8089
G1 F2700 E89.8089
G1 F300 Z0.74
G0 F12000 X131.2 Y128.6 Z0.74
G1 F300 Z0.24
G1 F2700 E94.8089
G1 F1800 X131.2 Y91.43 E97.77597
G1 F2700 E92.77597
G1 F300 Z0.74
G0 F12000 X132.8 Y91.763 Z0.74
G1 F300 Z0.24
G1 F2700 E97.77597
G1 F1800 X132.8 Y128.6 E100.71645
G1 F2700 E95.71645
G1 F300 Z0.74
G0 F12000 X134.4 Y128.6 Z0.74
G1 F300 Z0.24
G1 F2700 E100.71645
G1 F1800 X134.4 Y92.572 E103.59237
G1 F2700 E98.59237
G1 F300 Z0.74
G0 F12000 X136 Y93.743 Z0.74
G1 F300 Z0.24
G1 F2700 E103.59237
G1 F1800 X136 Y128.6 E106.3748
G1 F2700 E101.3748
G1 F300 Z0.74
G0 F12000 X137.6 Y128.6 Z0.74
G1 F300 Z0.24
G1 F2700 E106.3748
G1 F1800 X137.6 Y94.314 E109.11166
G1 F2700 E104.11166
G1 F300 Z0.74
G0 F12000 X139.2 Y94.478 Z0.74
G1 F300 Z0.24
G1 F2700 E109.11166
G1 F1800 X139.2 Y128.522 E111.8292
G1 F2700 E106.8292
G1 F300 Z0.74
G0 F12000 X140.8 Y128.08 Z0.74
G1 F300 Z0.24
G1 F2700 E111.8292
G1 F1800 X140.8 Y94.921 E114.47609
G1 F2700 E109.47609
G1 F300 Z0.74
G0 F12000 X142.4 Y95.881 Z0.74
G1 F300 Z0.24
G1 F2700 E114.47609
G1 F1800 X142.4 Y127.122 E116.96988
G1 F2700 E111.96988
G1 F300 Z0.74
G0 F12000 X144 Y125.225 Z0.74
G1 F300 Z0.24
G1 F2700 E116.96988
G1 F1800 X144 Y97.775 E119.16106
G1 F2700 E114.16106
G1 F300 Z0.74
G0 F12000 X76.8 Y103.962 Z0.74
G1 F300 Z0.24
G1 F2700 E119.16106
G1 F1800 X76.8 Y117.449 E120.23765
G1 F2700 E115.23765
G1 F300 Z0.74
G0 F12000 X75.2 Y113.774 Z0.74
G1 F300 Z0.24
G1 F2700 E120.23765
G1 F1800 X75.2 Y107.548 E120.73464
G1 F2700 E115.73464
G1 F300 Z0.74
G0 F12000 X75.538 Y115.308 Z0.74
;TIME_ELAPSED:81.848423
;LAYER:-5
M140 S65
G0 X75.538 Y115.308 Z1.04
;TYPE:SUPPORT
G1 F300 Z0.54
G1 F2700 E120.73464
G1 F1800 X75.613 Y115.51 E120.75614
G1 X75.794 Y115.93 E120.80177
G1 X75.919 Y116.174 E120.82913
G1 X76.134 Y116.554 E120.87269
G1 X76.267 Y116.761 E120.89724
G1 X76.533 Y117.131 E120.94271
G1 X76.691 Y117.327 E120.96783
G1 X77.054 Y117.731 E121.02203
G1 X77.116 Y117.797 E121.03106
G1 X78.022 Y118.703 E121.15891
G1 X78.137 Y118.81 E121.17458
G1 X78.698 Y119.295 E121.24858
G1 X78.918 Y119.462 E121.27614
G1 X79.291 Y119.711 E121.32089
G1 X79.492 Y119.83 E121.34419
G1 X79.899 Y120.043 E121.39003
G1 X80.135 Y120.152 E121.41597
G1 X80.554 Y120.314 E121.46079
G1 X80.778 Y120.389 E121.48436
G1 X80.795 Y120.393 E121.4861
G1 X75.458 Y115.056 E122.23921
G1 X75.39 Y114.836 E122.26219
G1 X75.331 Y114.611 E122.2854
G1 X75.246 Y114.189 E122.32835
G1 X75.209 Y113.911 E122.35634
G1 X75.168 Y113.352 E122.41226
G1 X82.498 Y120.682 E123.4466
G1 X82.708 Y120.694 E123.46759
G1 X82.816 Y120.697 E123.47837
G1 X83.927 Y120.697 E123.58923
G1 X75.149 Y111.919 E124.8279
G1 X75.149 Y110.505 E124.96899
G1 X85.342 Y120.697 E126.40726
G1 X86.756 Y120.697 E126.54835
G1 X75.149 Y109.091 E128.18615
G1 X75.149 Y108.365 E128.25859
G1 X75.152 Y108.258 E128.26927
G1 X75.181 Y107.724 E128.32264
G1 X75.182 Y107.709 E128.32414
G1 X88.17 Y120.697 E130.15688
G1 X89.584 Y120.697 E130.29797
G1 X75.405 Y106.517 E132.29885
G1 X75.458 Y106.324 E132.31882
G1 X75.532 Y106.099 E132.34246
G1 X75.694 Y105.688 E132.38654
G1 X75.786 Y105.484 E132.40887
G1 X90.998 Y120.697 E134.55551
G1 X91.189 Y120.697 E134.57457
G1 X91.677 Y120.719 E134.62332
G1 X92.348 Y120.824 E134.69108
G1 X92.617 Y120.901 E134.719
G1 X76.303 Y104.588 E137.02101
G1 X76.385 Y104.467 E137.0356
G1 X76.552 Y104.248 E137.06308
G1 X76.934 Y103.804 E137.12152
G1 X101.677 Y128.547 E140.61303
G1 X101.873 Y128.568 E140.63269
G1 X102.408 Y128.596 E140.68615
G1 X102.514 Y128.598 E140.69673
G1 X103.142 Y128.598 E140.75939
G1 X77.629 Y103.085 E144.35955
G1 X78.041 Y102.673 E144.41769
G1 X78.114 Y102.604 E144.42771
G1 X78.35 Y102.392 E144.45936
G1 X104.557 Y128.598 E148.15739
G1 X105.971 Y128.598 E148.29847
G1 X79.149 Y101.776 E152.08335
G1 X79.289 Y101.687 E152.0999
G1 X79.672 Y101.468 E152.14392
G1 X79.91 Y101.347 E152.17056
G1 X80.067 Y101.28 E152.1876
G1 X107.385 Y128.598 E156.04246
G1 X108.799 Y128.598 E156.18355
G1 X81.114 Y100.913 E160.0902
G1 X81.235 Y100.88 E160.10272
G1 X81.656 Y100.796 E160.14555
G1 X81.935 Y100.759 E160.17364
G1 X82.344 Y100.729 E160.21456
G1 X110.213 Y128.598 E164.14717
G1 X111.628 Y128.598 E164.28836
G1 X83.728 Y100.699 E168.22528
G1 X85.142 Y100.699 E168.36637
G1 X113.042 Y128.598 E172.30329
