;FLAVOR:Marlin
;TIME:3887
;Filament used: 3.29112m
;Layer height: 0.2
;MINX:82.449
;MINY:70.783
;MINZ:0.24
;MAXX:137.55
;MAXY:157.775
;MAXZ:30.59
;Generated with Cura_SteamEngine master
M140 S70
M105
M190 S70
M104 S200
M105
M109 S200
M82 ;absolute extrusion mode
M201 X500.00 Y500.00 Z100.00 E5000.00 ;Setup machine max acceleration
M203 X500.00 Y500.00 Z10.00 E50.00 ;Setup machine max feedrate
M204 P500.00 R1000.00 T500.00 ;Setup Print/Retract/Travel acceleration
M205 X8.00 Y8.00 Z0.40 E5.00 ;Setup Jerk
M220 S100 ;Reset Feedrate
M221 S100 ;Reset Flowrate

G28 ;Home

G92 E0 ;Reset Extruder
G1 Z2.0 F3000 ;Move Z Axis up
G1 X10.1 Y20 Z0.28 F5000.0 ;Move to start position
G1 X10.1 Y200.0 Z0.28 F1500.0 E15 ;Draw the first line
G1 X10.4 Y200.0 Z0.28 F5000.0 ;Move to side a little
G1 X10.4 Y20 Z0.28 F1500.0 E30 ;Draw the second line
G92 E0 ;Reset Extruder
G1 Z2.0 F3000 ;Move Z Axis up

G92 E0
G92 E0
G1 F2700 E-5
;LAYER_COUNT:145
;LAYER:-6
M107
G0 F12000 X86.327 Y76.018 Z0.24
;TYPE:SUPPORT-INTERFACE
G1 F2700 E0
G1 F1800 X86.423 Y75.91 E0.01153
G1 X86.906 Y75.399 E0.06766
G1 X86.905 Y75.398 E0.06778
G1 X87.063 Y75.241 E0.08556
G1 X87.758 Y74.596 E0.16124
G1 X87.897 Y74.477 E0.17585
G1 X88.588 Y73.923 E0.24655
G1 X88.727 Y73.819 E0.2604
G1 X89.442 Y73.327 E0.32969
G1 X89.626 Y73.21 E0.34709
G1 X90.382 Y72.767 E0.41704
G1 X90.524 Y72.69 E0.42993
G1 X91.356 Y72.281 E0.50394
G1 X91.469 Y72.231 E0.5138
G1 X92.324 Y71.886 E0.5874
G1 X92.491 Y71.826 E0.60156
G1 X93.33 Y71.557 E0.67189
G1 X93.494 Y71.511 E0.68549
G1 X94.366 Y71.299 E0.75712
G1 X94.528 Y71.266 E0.77032
G1 X95.421 Y71.118 E0.84257
G1 X95.598 Y71.095 E0.85682
G1 X96.486 Y71.014 E0.928
G1 X96.634 Y71.005 E0.93984
G1 X97.376 Y70.984 E0.99909
G1 X122.635 Y70.984 E3.01537
G1 X123.636 Y71.02 E3.09533
G1 X123.759 Y71.029 E3.10517
G1 X124.701 Y71.133 E3.18082
G1 X124.827 Y71.151 E3.19098
G1 X125.712 Y71.315 E3.26283
G1 X125.911 Y71.359 E3.2791
G1 X126.742 Y71.576 E3.34766
G1 X126.91 Y71.627 E3.36167
G1 X127.762 Y71.918 E3.43354
G1 X127.939 Y71.985 E3.44865
G1 X128.731 Y72.322 E3.51735
G1 X128.92 Y72.41 E3.534
G1 X129.714 Y72.818 E3.60526
G1 X129.831 Y72.885 E3.61602
G1 X130.61 Y73.359 E3.68881
G1 X130.761 Y73.459 E3.70326
G1 X131.479 Y73.972 E3.7737
G1 X131.62 Y74.082 E3.78798
G1 X132.324 Y74.666 E3.86099
G1 X132.42 Y74.752 E3.87128
G1 X132.935 Y75.239 E3.92786
G1 X132.936 Y75.238 E3.92797
G1 X133.092 Y75.395 E3.94564
G1 X133.738 Y76.091 E4.02144
G1 X133.857 Y76.23 E4.03605
G1 X134.411 Y76.921 E4.10675
G1 X134.515 Y77.06 E4.1206
G1 X135.007 Y77.775 E4.18989
G1 X135.124 Y77.959 E4.20729
G1 X135.564 Y78.708 E4.27663
G1 X135.644 Y78.856 E4.29006
G1 X136.047 Y79.676 E4.363
G1 X136.103 Y79.802 E4.374
G1 X136.445 Y80.647 E4.44677
G1 X136.504 Y80.812 E4.46076
G1 X136.776 Y81.659 E4.53177
G1 X136.822 Y81.821 E4.54521
G1 X137.034 Y82.695 E4.617
G1 X137.067 Y82.853 E4.62989
G1 X137.215 Y83.745 E4.70206
G1 X137.239 Y83.931 E4.71703
G1 X137.32 Y84.816 E4.78797
G1 X137.329 Y84.967 E4.80005
G1 X137.35 Y85.7 E4.85858
G1 X137.35 Y142.844 E9.42006
G1 X137.314 Y143.85 E9.50042
G1 X137.304 Y143.985 E9.51122
G1 X137.202 Y144.902 E9.58487
G1 X137.177 Y145.077 E9.59899
G1 X137.015 Y145.955 E9.67025
G1 X136.985 Y146.089 E9.68122
G1 X136.754 Y146.974 E9.75423
G1 X136.702 Y147.146 E9.76857
G1 X136.416 Y147.988 E9.83955
G1 X136.352 Y148.154 E9.85376
G1 X136.011 Y148.957 E9.92339
G1 X135.93 Y149.132 E9.93879
G1 X135.526 Y149.918 E10.00933
G1 X135.448 Y150.057 E10.02206
G1 X134.974 Y150.836 E10.09485
G1 X134.874 Y150.987 E10.1093
G1 X134.363 Y151.701 E10.17939
G1 X134.25 Y151.849 E10.19425
G1 X133.673 Y152.541 E10.26617
G1 X133.577 Y152.649 E10.27771
G1 X133.094 Y153.16 E10.33384
G1 X133.095 Y153.161 E10.33395
G1 X132.938 Y153.317 E10.35162
G1 X132.253 Y153.953 E10.42623
G1 X132.105 Y154.08 E10.4418
G1 X131.412 Y154.636 E10.51272
G1 X131.273 Y154.74 E10.52658
G1 X130.558 Y155.232 E10.59586
G1 X130.374 Y155.349 E10.61327
G1 X129.618 Y155.792 E10.68321
G1 X129.476 Y155.869 E10.6961
G1 X128.648 Y156.276 E10.76975
G1 X128.531 Y156.328 E10.77997
G1 X127.676 Y156.673 E10.85357
G1 X127.513 Y156.731 E10.86738
G1 X126.67 Y157.002 E10.93806
G1 X126.506 Y157.048 E10.95166
G1 X125.634 Y157.26 E11.02329
G1 X125.472 Y157.293 E11.03649
G1 X124.579 Y157.441 E11.10875
G1 X124.402 Y157.464 E11.12299
G1 X123.508 Y157.547 E11.19466
G1 X123.366 Y157.554 E11.20601
G1 X122.625 Y157.575 E11.26519
G1 X97.364 Y157.574 E13.28163
G1 X96.363 Y157.538 E13.36158
G1 X96.24 Y157.529 E13.37143
G1 X95.323 Y157.427 E13.44508
G1 X95.148 Y157.402 E13.45919
G1 X94.259 Y157.238 E13.53135
G1 X94.136 Y157.21 E13.54142
G1 X93.242 Y156.976 E13.61519
G1 X93.079 Y156.927 E13.62877
G1 X92.237 Y156.641 E13.69976
G1 X92.071 Y156.577 E13.71396
G1 X91.268 Y156.236 E13.7836
G1 X91.079 Y156.148 E13.80024
G1 X90.285 Y155.74 E13.8715
G1 X90.168 Y155.673 E13.88226
G1 X89.389 Y155.199 E13.95505
G1 X89.238 Y155.099 E13.96951
G1 X88.524 Y154.588 E14.0396
G1 X88.376 Y154.475 E14.05446
G1 X87.684 Y153.898 E14.12638
G1 X87.576 Y153.802 E14.13792
G1 X87.065 Y153.319 E14.19404
G1 X87.064 Y153.32 E14.19416
G1 X86.904 Y153.159 E14.21228
G1 X86.26 Y152.465 E14.28785
G1 X86.143 Y152.328 E14.30223
G1 X85.593 Y151.642 E14.37242
G1 X85.477 Y151.486 E14.38794
G1 X84.993 Y150.783 E14.45607
G1 X84.876 Y150.599 E14.47347
G1 X84.433 Y149.843 E14.54342
G1 X84.356 Y149.701 E14.55631
G1 X83.947 Y148.869 E14.63032
G1 X83.897 Y148.756 E14.64018
G1 X83.548 Y147.892 E14.71456
G1 X83.492 Y147.734 E14.72794
G1 X83.22 Y146.886 E14.79903
G1 X83.178 Y146.736 E14.81146
G1 X82.962 Y145.848 E14.88442
G1 X82.933 Y145.705 E14.89606
G1 X82.783 Y144.799 E14.96937
G1 X82.761 Y144.627 E14.98321
G1 X82.678 Y143.728 E15.05528
G1 X82.671 Y143.591 E15.06623
G1 X82.65 Y142.858 E15.12476
G1 X82.65 Y85.715 E19.68616
G1 X82.686 Y84.709 E19.76652
G1 X82.696 Y84.574 E19.77732
G1 X82.798 Y83.657 E19.85097
G1 X82.823 Y83.482 E19.86509
G1 X82.985 Y82.604 E19.93635
G1 X83.015 Y82.47 E19.94732
G1 X83.247 Y81.582 E20.02058
G1 X83.298 Y81.413 E20.03467
G1 X83.584 Y80.571 E20.10565
G1 X83.648 Y80.405 E20.11986
G1 X83.989 Y79.602 E20.18949
G1 X84.07 Y79.427 E20.20489
G1 X84.485 Y78.619 E20.2774
G1 X84.552 Y78.502 E20.28816
G1 X85.026 Y77.723 E20.36095
G1 X85.126 Y77.572 E20.3754
G1 X85.637 Y76.858 E20.44549
G1 X85.75 Y76.71 E20.46036
G1 X86.115 Y76.273 E20.50581
G0 F1620 X86.327 Y76.018
G0 F12000 X86.4 Y75.935
G1 F1800 X86.4 Y152.615 E26.62674
G1 F2700 E21.62674
G1 F300 Z0.74
G0 F12000 X88 Y154.161 Z0.74
G1 F300 Z0.24
G1 F2700 E26.62674
G1 F1800 X88 Y74.394 E32.99408
G1 F2700 E27.99408
G1 F300 Z0.74
G0 F12000 X89.6 Y73.226 Z0.74
G1 F300 Z0.24
G1 F2700 E32.99408
G1 F1800 X89.6 Y155.327 E39.54774
G1 F2700 E34.54774
G1 F300 Z0.74
G0 F12000 X91.2 Y156.204 Z0.74
G1 F300 Z0.24
G1 F2700 E39.54774
G1 F1800 X91.2 Y72.357 E46.24077
G1 F2700 E41.24077
G1 F300 Z0.74
G0 F12000 X92.8 Y71.726 Z0.74
G1 F300 Z0.24
G1 F2700 E46.24077
G1 F1800 X92.8 Y156.832 E53.0343
G1 F2700 E48.0343
G1 F300 Z0.74
G0 F12000 X94.4 Y157.264 Z0.74
G1 F300 Z0.24
G1 F2700 E53.0343
G1 F1800 X94.4 Y71.292 E59.89695
G1 F2700 E54.89695
G1 F300 Z0.74
G0 F12000 X96 Y71.058 Z0.74
G1 F300 Z0.24
G1 F2700 E59.89695
G1 F1800 X96 Y157.502 E66.79729
G1 F2700 E61.79729
G1 F300 Z0.74
G0 F12000 X97.6 Y157.574 Z0.74
G1 F300 Z0.24
G1 F2700 E66.79729
G1 F1800 X97.6 Y70.984 E73.70928
G1 F2700 E68.70928
G1 F300 Z0.74
G0 F12000 X99.2 Y70.984 Z0.74
G1 F300 Z0.24
G1 F2700 E73.70928
G1 F1800 X99.2 Y157.574 E80.62126
G1 F2700 E75.62126
G1 F300 Z0.74
G0 F12000 X100.8 Y157.574 Z0.74
G1 F300 Z0.24
G1 F2700 E80.62126
G1 F1800 X100.8 Y70.984 E87.53325
G1 F2700 E82.53325
G1 F300 Z0.74
G0 F12000 X102.4 Y70.984 Z0.74
G1 F300 Z0.24
G1 F2700 E87.53325
G1 F1800 X102.4 Y157.574 E94.44524
G1 F2700 E89.44524
G1 F300 Z0.74
G0 F12000 X104 Y157.574 Z0.74
G1 F300 Z0.24
G1 F2700 E94.44524
G1 F1800 X104 Y70.984 E101.35723
G1 F2700 E96.35723
G1 F300 Z0.74
G0 F12000 X105.6 Y70.984 Z0.74
G1 F300 Z0.24
G1 F2700 E101.35723
G1 F1800 X105.6 Y157.574 E108.26922
G1 F2700 E103.26922
G1 F300 Z0.74
G0 F12000 X107.2 Y157.574 Z0.74
G1 F300 Z0.24
G1 F2700 E108.26922
G1 F1800 X107.2 Y70.984 E115.18121
G1 F2700 E110.18121
G1 F300 Z0.74
G0 F12000 X108.8 Y70.984 Z0.74
G1 F300 Z0.24
G1 F2700 E115.18121
G1 F1800 X108.8 Y157.574 E122.09319
G1 F2700 E117.09319
G1 F300 Z0.74
G0 F12000 X110.4 Y157.574 Z0.74
G1 F300 Z0.24
G1 F2700 E122.09319
G1 F1800 X110.4 Y70.984 E129.00518
G1 F2700 E124.00518
G1 F300 Z0.74
G0 F12000 X112 Y70.984 Z0.74
G1 F300 Z0.24
G1 F2700 E129.00518
G1 F1800 X112 Y157.574 E135.91717
G1 F2700 E130.91717
G1 F300 Z0.74
G0 F12000 X113.6 Y157.574 Z0.74
G1 F300 Z0.24
G1 F2700 E135.91717
G1 F1800 X113.6 Y70.984 E142.82916
G1 F2700 E137.82916
G1 F300 Z0.74
G0 F12000 X115.2 Y70.984 Z0.74
G1 F300 Z0.24
G1 F2700 E142.82916
G1 F1800 X115.2 Y157.574 E149.74115
G1 F2700 E144.74115
G1 F300 Z0.74
G0 F12000 X116.8 Y157.574 Z0.74
G1 F300 Z0.24
G1 F2700 E149.74115
G1 F1800 X116.8 Y70.984 E156.65314
G1 F2700 E151.65314
G1 F300 Z0.74
G0 F12000 X118.4 Y70.984 Z0.74
G1 F300 Z0.24
G1 F2700 E156.65314
G1 F1800 X118.4 Y157.574 E163.56512
G1 F2700 E158.56512
G1 F300 Z0.74
G0 F12000 X120 Y157.574 Z0.74
G1 F300 Z0.24
G1 F2700 E163.56512
G1 F1800 X120 Y70.984 E170.47711
G1 F2700 E165.47711
G1 F300 Z0.74
G0 F12000 X121.6 Y70.984 Z0.74
G1 F300 Z0.24
G1 F2700 E170.47711
G1 F1800 X121.6 Y157.574 E177.3891
G1 F2700 E172.3891
G1 F300 Z0.74
G0 F12000 X123.2 Y157.559 Z0.74
G1 F300 Z0.24
G1 F2700 E177.3891
G1 F1800 X123.2 Y71.005 E184.29821
G1 F2700 E179.29821
G1 F300 Z0.74
G0 F12000 X124.8 Y71.148 Z0.74
G1 F300 Z0.24
G1 F2700 E184.29821
G1 F1800 X124.8 Y157.405 E191.18362
G1 F2700 E186.18362
G1 F300 Z0.74
G0 F12000 X126.4 Y157.074 Z0.74
G1 F300 Z0.24
G1 F2700 E191.18362
G1 F1800 X126.4 Y71.487 E198.01555
G1 F2700 E193.01555
G1 F300 Z0.74
G0 F12000 X128 Y72.011 Z0.74
G1 F300 Z0.24
G1 F2700 E198.01555
G1 F1800 X128 Y156.543 E204.76326
G1 F2700 E199.76326
G1 F300 Z0.74
G0 F12000 X129.6 Y155.802 Z0.74
G1 F300 Z0.24
G1 F2700 E204.76326
G1 F1800 X129.6 Y72.76 E211.39203
G1 F2700 E206.39203
G1 F300 Z0.74
G0 F12000 X131.2 Y73.773 Z0.74
G1 F300 Z0.24
G1 F2700 E211.39203
G1 F1800 X131.2 Y154.791 E217.85923
G1 F2700 E212.85923
G1 F300 Z0.74
G0 F12000 X132.8 Y153.446 Z0.74
G1 F300 Z0.24
G1 F2700 E217.85923
G1 F1800 X132.8 Y75.112 E224.11219
G1 F2700 E219.11219
G1 F300 Z0.74
G0 F12000 X134.4 Y76.908 Z0.74
G1 F300 Z0.24
G1 F2700 E224.11219
G1 F1800 X134.4 Y151.65 E230.07842
G1 F2700 E225.07842
G1 F300 Z0.74
G0 F12000 X136 Y148.981 Z0.74
G1 F300 Z0.24
G1 F2700 E230.07842
G1 F1800 X136 Y79.581 E235.61823
G1 F2700 E230.61823
G1 F300 Z0.74
G0 F12000 X84.8 Y78.094 Z0.74
G1 F300 Z0.24
G1 F2700 E235.61823
G1 F1800 X84.8 Y150.469 E241.39552
G1 F2700 E236.39552
G1 F300 Z0.74
G0 F12000 X83.2 Y146.814 Z0.74
G1 F300 Z0.24
G1 F2700 E241.39552
G1 F1800 X83.2 Y81.761 E246.58833
G1 F2700 E241.58833
G1 F300 Z0.74
G0 F12000 X86.904 Y75.398 Z0.74
;TIME_ELAPSED:128.528056
;LAYER:-5
M140 S65
G0 X86.904 Y75.398 Z1.04
;TYPE:SUPPORT
G1 F300 Z0.54
G1 F2700 E246.58833
G1 F1800 X86.81 Y75.497 E246.60195
G1 X137.35 Y126.036 E253.73362
G1 X137.35 Y127.451 E253.87481
G1 X86.14 Y76.24 E261.10116
G1 X85.749 Y76.709 E261.16209
G1 X85.636 Y76.858 E261.18075
G1 X85.513 Y77.028 E261.20169
G1 X137.35 Y128.865 E268.51645
G1 X137.35 Y130.279 E268.65754
G1 X84.936 Y77.865 E276.05372
G1 X84.55 Y78.502 E276.12804
G1 X84.483 Y78.618 E276.1414
G1 X84.412 Y78.756 E276.15689
G1 X137.35 Y131.693 E283.62694
G1 X137.35 Y133.107 E283.76803
G1 X83.945 Y79.702 E291.30405
G1 X83.647 Y80.404 E291.38015
G1 X83.583 Y80.571 E291.39799
G1 X83.536 Y80.708 E291.41245
G1 X137.35 Y134.522 E299.00618
G1 X137.35 Y135.936 E299.14727
G1 X83.193 Y81.779 E306.78941
G1 X83.014 Y82.469 E306.86054
G1 X82.984 Y82.604 E306.87434
G1 X82.925 Y82.925 E306.9069
G1 X137.35 Y137.35 E314.58686
G1 X137.35 Y138.764 E314.72795
G1 X82.742 Y84.156 E322.43373
G1 X82.696 Y84.572 E322.47549
G1 X82.686 Y84.708 E322.48909
G1 X82.657 Y85.486 E322.56678
G1 X137.35 Y140.178 E330.28448
G1 X137.35 Y141.593 E330.42567
G1 X82.65 Y86.892 E338.1445
G1 X82.65 Y88.307 E338.28569
G1 X137.344 Y143.001 E346.0036
G1 X137.313 Y143.848 E346.08817
G1 X137.303 Y143.984 E346.10178
G1 X137.264 Y144.336 E346.13712
G1 X82.65 Y89.721 E353.84382
G1 X82.65 Y91.135 E353.9849
G1 X137.086 Y145.571 E361.66641
G1 X137.015 Y145.954 E361.70528
G1 X136.984 Y146.088 E361.719
G1 X136.82 Y146.719 E361.78406
G1 X82.65 Y92.549 E369.42803
G1 X82.65 Y93.963 E369.56912
G1 X136.481 Y147.795 E377.16532
G1 X136.415 Y147.986 E377.18549
G1 X136.352 Y148.153 E377.2033
G1 X136.075 Y148.803 E377.2738
G1 X82.65 Y95.378 E384.81264
G1 X82.65 Y96.792 E384.95373
G1 X135.611 Y149.753 E392.4271
G1 X135.526 Y149.917 E392.44553
G1 X135.447 Y150.056 E392.46149
G1 X135.089 Y150.646 E392.53035
G1 X82.65 Y98.206 E399.93013
G1 X82.65 Y99.62 E400.07122
G1 X134.516 Y151.487 E407.39014
G1 X134.363 Y151.699 E407.41623
G1 X134.249 Y151.848 E407.43495
G1 X133.892 Y152.277 E407.49063
G1 X82.65 Y101.034 E414.7215
G1 X82.65 Y102.449 E414.86269
G1 X133.223 Y153.022 E421.99909
G1 X133.094 Y153.159 E422.01787
G0 F12000 X133.095 Y153.16
G1 F1800 X132.937 Y153.316 E422.04002
G1 X132.504 Y153.717 E422.09891
G1 X82.65 Y103.863 E429.13385
G1 X82.65 Y105.277 E429.27494
G1 X131.742 Y154.369 E436.20235
G1 X131.412 Y154.635 E436.24464
G1 X131.272 Y154.739 E436.26204
G1 X130.932 Y154.973 E436.30323
G1 X82.65 Y106.691 E443.11634
G1 X82.65 Y108.106 E443.25753
G1 X130.07 Y155.526 E449.949
G1 X129.618 Y155.791 E450.00128
G1 X129.476 Y155.868 E450.0174
G1 X129.155 Y156.025 E450.05305
G1 X82.65 Y109.52 E456.61541
G1 X82.65 Y110.934 E456.7565
G1 X128.182 Y156.467 E463.18163
G1 X127.676 Y156.672 E463.2361
G1 X127.512 Y156.73 E463.25346
G1 X127.148 Y156.846 E463.29158
G1 X82.65 Y112.348 E469.57073
G1 X82.65 Y113.762 E469.71182
G1 X126.046 Y157.158 E475.83546
G1 X125.634 Y157.259 E475.87779
G1 X125.472 Y157.292 E475.89429
G1 X124.865 Y157.392 E475.95567
G1 X82.65 Y115.177 E481.91266
G1 X82.65 Y116.591 E482.05375
G1 X123.596 Y157.537 E487.83167
G1 X123.507 Y157.546 E487.8406
G1 X123.366 Y157.553 E487.85469
G1 X122.625 Y157.574 E487.92865
G1 X122.218 Y157.573 E487.96926
G1 X82.65 Y118.005 E493.55274
G1 X82.65 Y119.419 E493.69383
G1 X120.804 Y157.573 E499.07777
G1 X119.39 Y157.573 E499.21886
G1 X82.65 Y120.833 E504.40327
G1 X82.65 Y122.248 E504.54446
G1 X117.975 Y157.573 E509.5292
G1 X116.561 Y157.573 E509.67029
G1 X82.65 Y123.662 E514.45549
G1 X82.65 Y125.076 E514.59658
G1 X115.147 Y157.573 E519.18226
G1 X113.733 Y157.573 E519.32335
G1 X82.65 Y126.49 E523.7095
G1 X82.65 Y127.905 E523.85069
G1 X112.318 Y157.573 E528.03716
G1 X110.904 Y157.573 E528.17825
G1 X82.65 Y129.319 E532.1652
G1 X82.65 Y130.733 E532.30629
G1 X109.489 Y157.573 E536.09363
G1 X108.075 Y157.573 E536.23472
G1 X82.65 Y132.147 E539.82253
G1 X82.65 Y133.561 E539.96362
G1 X106.661 Y157.573 E543.3519
G1 X105.247 Y157.573 E543.49299
G1 X82.65 Y134.976 E546.68167
G1 X82.65 Y136.39 E546.82276
G1 X103.832 Y157.573 E549.81184
G1 X102.418 Y157.573 E549.95293
G1 X82.65 Y137.804 E552.74248
G1 X82.65 Y139.218 E552.88357
G1 X101.004 Y157.573 E555.47359
G1 X99.59 Y157.573 E555.61468
G1 X82.65 Y140.632 E558.00517
G1 X82.65 Y142.047 E558.14636
G1 X98.176 Y157.573 E560.33724
G1 X97.364 Y157.573 E560.41826
G1 X96.739 Y157.55 E560.48067
G1 X82.667 Y143.479 E562.46631
G1 X82.671 Y143.59 E562.47739
G1 X82.678 Y143.727 E562.49108
G1 X82.761 Y144.625 E562.58106
G1 X82.783 Y144.797 E562.59837
G1 X82.824 Y145.05 E562.62394
G1 X95.18 Y157.405 E564.36743
G1 X95.147 Y157.401 E564.37075
G1 X94.259 Y157.237 E564.46085
G1 X94.135 Y157.209 E564.47354
G1 X93.368 Y157.008 E564.55265
G1 X83.209 Y146.849 E565.9862
G1 X83.22 Y146.885 E565.98996
G1 X83.492 Y147.732 E566.07872
G1 X83.547 Y147.891 E566.09551
G1 X83.896 Y148.755 E566.18849
G1 X83.947 Y148.867 E566.20077
G1 X84.075 Y149.129 E566.22986
G1 X91.105 Y156.158 E567.2218
G1 X91.078 Y156.146 E567.22475
G1 X90.284 Y155.738 E567.31382
G1 X90.167 Y155.672 E567.32722
G1 X89.388 Y155.197 E567.41826
G1 X89.238 Y155.098 E567.4362
G1 X88.524 Y154.587 E567.52381
G1 X88.375 Y154.474 E567.54246
G1 X87.684 Y153.897 E567.63229
