;FLAVOR:Marlin
;TIME:4459
;Filament used: 3.75314m
;Layer height: 0.2
;MINX:80.574
;MINY:70.783
;MINZ:0.24
;MAXX:139.425
;MAXY:157.775
;MAXZ:36.09
;Generated with Cura_SteamEngine master
M140 S70
M105
M190 S70
M104 S200
M105
M109 S200
M82 ;absolute extrusion mode
M201 X500.00 Y500.00 Z100.00 E5000.00 ;Setup machine max acceleration
M203 X500.00 Y500.00 Z10.00 E50.00 ;Setup machine max feedrate
M204 P500.00 R1000.00 T500.00 ;Setup Print/Retract/Travel acceleration
M205 X8.00 Y8.00 Z0.40 E5.00 ;Setup Jerk
M220 S100 ;Reset Feedrate
M221 S100 ;Reset Flowrate

G28 ;Home

G92 E0 ;Reset Extruder
G1 Z2.0 F3000 ;Move Z Axis up
G1 X10.1 Y20 Z0.28 F5000.0 ;Move to start position
G1 X10.1 Y200.0 Z0.28 F1500.0 E15 ;Draw the first line
G1 X10.4 Y200.0 Z0.28 F5000.0 ;Move to side a little
G1 X10.4 Y20 Z0.28 F1500.0 E30 ;Draw the second line
G92 E0 ;Reset Extruder
G1 Z2.0 F3000 ;Move Z Axis up

G92 E0
G92 E0
G1 F2700 E-5
;LAYER_COUNT:175
;LAYER:-6
M107
G0 F12000 X84.548 Y75.91 Z0.24
;TYPE:SUPPORT-INTERFACE
G1 F2700 E0
G1 F1800 X85.03 Y75.398 E0.05613
G1 X85.188 Y75.241 E0.07391
G1 X85.883 Y74.596 E0.1496
G1 X86.022 Y74.477 E0.16421
G1 X86.713 Y73.923 E0.2349
G1 X86.852 Y73.819 E0.24876
G1 X87.567 Y73.327 E0.31804
G1 X87.751 Y73.21 E0.33545
G1 X88.507 Y72.767 E0.40539
G1 X88.649 Y72.69 E0.41829
G1 X89.481 Y72.281 E0.49229
G1 X89.594 Y72.231 E0.50215
G1 X90.449 Y71.886 E0.57575
G1 X90.616 Y71.826 E0.58992
G1 X91.455 Y71.557 E0.66025
G1 X91.619 Y71.511 E0.67384
G1 X92.491 Y71.299 E0.74548
G1 X92.653 Y71.266 E0.75867
G1 X93.546 Y71.118 E0.83093
G1 X93.723 Y71.095 E0.84518
G1 X94.611 Y71.014 E0.91636
G1 X94.759 Y71.005 E0.92819
G1 X95.501 Y70.984 E0.98745
G1 X124.51 Y70.984 E3.30307
G1 X125.511 Y71.02 E3.38303
G1 X125.634 Y71.029 E3.39287
G1 X126.576 Y71.133 E3.46852
G1 X126.702 Y71.151 E3.47868
G1 X127.587 Y71.315 E3.55053
G1 X127.786 Y71.359 E3.5668
G1 X128.617 Y71.576 E3.63536
G1 X128.785 Y71.627 E3.64937
G1 X129.637 Y71.918 E3.72124
G1 X129.814 Y71.985 E3.73635
G1 X130.606 Y72.322 E3.80505
G1 X130.795 Y72.41 E3.82169
G1 X131.589 Y72.818 E3.89295
G1 X131.706 Y72.885 E3.90371
G1 X132.485 Y73.359 E3.9765
G1 X132.636 Y73.459 E3.99096
G1 X133.354 Y73.972 E4.0614
G1 X133.495 Y74.082 E4.07568
G1 X134.199 Y74.666 E4.14869
G1 X134.295 Y74.752 E4.15898
G1 X134.811 Y75.238 E4.21556
G1 X134.931 Y75.358 E4.22911
G1 X135.613 Y76.091 E4.30903
G1 X135.732 Y76.23 E4.32364
G1 X136.286 Y76.921 E4.39433
G1 X136.39 Y77.06 E4.40819
G1 X136.882 Y77.775 E4.47747
G1 X136.999 Y77.959 E4.49488
G1 X137.439 Y78.708 E4.56422
G1 X137.519 Y78.856 E4.57765
G1 X137.922 Y79.676 E4.65058
G1 X137.978 Y79.802 E4.66159
G1 X138.32 Y80.647 E4.73436
G1 X138.379 Y80.812 E4.74834
G1 X138.651 Y81.659 E4.81936
G1 X138.697 Y81.821 E4.8328
G1 X138.909 Y82.695 E4.90459
G1 X138.942 Y82.853 E4.91747
G1 X139.09 Y83.745 E4.98965
G1 X139.114 Y83.931 E5.00462
G1 X139.195 Y84.816 E5.07556
G1 X139.204 Y84.967 E5.08763
G1 X139.225 Y85.7 E5.14617
G1 X139.225 Y142.844 E9.70765
G1 X139.189 Y143.85 E9.78801
G1 X139.179 Y143.985 E9.79881
G1 X139.077 Y144.902 E9.87246
G1 X139.052 Y145.077 E9.88657
G1 X138.89 Y145.955 E9.95784
G1 X138.86 Y146.089 E9.9688
G1 X138.629 Y146.974 E10.04181
G1 X138.577 Y147.146 E10.05616
G1 X138.291 Y147.988 E10.12714
G1 X138.227 Y148.154 E10.14134
G1 X137.886 Y148.957 E10.21098
G1 X137.805 Y149.132 E10.22637
G1 X137.401 Y149.918 E10.29692
G1 X137.323 Y150.057 E10.30964
G1 X136.849 Y150.836 E10.38243
G1 X136.749 Y150.987 E10.39689
G1 X136.238 Y151.701 E10.46698
G1 X136.125 Y151.849 E10.48184
G1 X135.548 Y152.541 E10.55376
G1 X135.452 Y152.649 E10.5653
G1 X134.97 Y153.161 E10.62143
G1 X134.813 Y153.317 E10.63909
G1 X134.128 Y153.953 E10.71371
G1 X133.98 Y154.08 E10.72928
G1 X133.287 Y154.636 E10.8002
G1 X133.148 Y154.74 E10.81406
G1 X132.433 Y155.232 E10.88334
G1 X132.249 Y155.349 E10.90074
G1 X131.493 Y155.792 E10.97069
G1 X131.351 Y155.869 E10.98358
G1 X130.523 Y156.276 E11.05723
G1 X130.406 Y156.328 E11.06745
G1 X129.551 Y156.673 E11.14105
G1 X129.388 Y156.731 E11.15486
G1 X128.545 Y157.002 E11.22554
G1 X128.381 Y157.048 E11.23914
G1 X127.509 Y157.26 E11.31077
G1 X127.347 Y157.293 E11.32397
G1 X126.454 Y157.441 E11.39622
G1 X126.277 Y157.464 E11.41047
G1 X125.383 Y157.547 E11.48214
G1 X125.241 Y157.554 E11.49349
G1 X124.5 Y157.575 E11.55266
G1 X95.489 Y157.574 E13.86845
G1 X94.488 Y157.538 E13.9484
G1 X94.365 Y157.529 E13.95825
G1 X93.448 Y157.427 E14.0319
G1 X93.273 Y157.402 E14.04601
G1 X92.384 Y157.238 E14.11817
G1 X92.261 Y157.21 E14.12824
G1 X91.367 Y156.976 E14.20201
G1 X91.204 Y156.927 E14.21559
G1 X90.362 Y156.641 E14.28658
G1 X90.196 Y156.577 E14.30078
G1 X89.393 Y156.236 E14.37042
G1 X89.204 Y156.148 E14.38706
G1 X88.41 Y155.74 E14.45832
G1 X88.293 Y155.673 E14.46908
G1 X87.514 Y155.199 E14.54187
G1 X87.363 Y155.099 E14.55633
G1 X86.649 Y154.588 E14.62641
G1 X86.501 Y154.475 E14.64128
G1 X85.809 Y153.898 E14.7132
G1 X85.701 Y153.802 E14.72473
G1 X85.189 Y153.32 E14.78087
G1 X85.029 Y153.159 E14.79898
G1 X84.385 Y152.465 E14.87456
G1 X84.268 Y152.328 E14.88894
G1 X83.718 Y151.642 E14.95913
G1 X83.602 Y151.486 E14.97464
G1 X83.118 Y150.783 E15.04277
G1 X83.001 Y150.599 E15.06018
G1 X82.558 Y149.843 E15.13013
G1 X82.481 Y149.701 E15.14302
G1 X82.072 Y148.869 E15.21702
G1 X82.022 Y148.756 E15.22689
G1 X81.673 Y147.892 E15.30127
G1 X81.617 Y147.734 E15.31465
G1 X81.345 Y146.886 E15.38574
G1 X81.303 Y146.736 E15.39817
G1 X81.087 Y145.848 E15.47112
G1 X81.058 Y145.705 E15.48277
G1 X80.908 Y144.799 E15.55608
G1 X80.886 Y144.627 E15.56992
G1 X80.803 Y143.728 E15.64199
G1 X80.796 Y143.591 E15.65294
G1 X80.775 Y142.858 E15.71147
G1 X80.775 Y85.715 E20.27287
G1 X80.811 Y84.709 E20.35323
G1 X80.821 Y84.574 E20.36403
G1 X80.923 Y83.657 E20.43768
G1 X80.948 Y83.482 E20.45179
G1 X81.11 Y82.604 E20.52306
G1 X81.14 Y82.47 E20.53402
G1 X81.372 Y81.582 E20.60729
G1 X81.423 Y81.413 E20.62138
G1 X81.709 Y80.571 E20.69236
G1 X81.773 Y80.405 E20.70656
G1 X82.114 Y79.602 E20.7762
G1 X82.195 Y79.427 E20.7916
G1 X82.61 Y78.619 E20.8641
G1 X82.677 Y78.502 E20.87487
G1 X83.151 Y77.723 E20.94766
G1 X83.251 Y77.572 E20.96211
G1 X83.762 Y76.858 E21.0322
G1 X83.875 Y76.71 E21.04706
G1 X84.332 Y76.162 E21.10402
G0 F1620 X84.452 Y76.018
G0 X84.548 Y75.91
G0 F12000 X84.8 Y75.642
G1 F1800 X84.8 Y152.912 E27.27205
G1 F2700 E22.27205
G1 F300 Z0.74
G0 F12000 X86.4 Y154.39 Z0.74
G1 F300 Z0.24
G1 F2700 E27.27205
G1 F1800 X86.4 Y74.173 E33.67532
G1 F2700 E28.67532
G1 F300 Z0.74
G0 F12000 X88 Y73.064 Z0.74
G1 F300 Z0.24
G1 F2700 E33.67532
G1 F1800 X88 Y155.494 E40.25524
G1 F2700 E35.25524
G1 F300 Z0.74
G0 F12000 X89.6 Y156.323 Z0.74
G1 F300 Z0.24
G1 F2700 E40.25524
G1 F1800 X89.6 Y72.228 E46.96806
G1 F2700 E41.96806
G1 F300 Z0.74
G0 F12000 X91.2 Y71.638 Z0.74
G1 F300 Z0.24
G1 F2700 E46.96806
G1 F1800 X91.2 Y156.925 E53.77604
G1 F2700 E48.77604
G1 F300 Z0.74
G0 F12000 X92.8 Y157.314 Z0.74
G1 F300 Z0.24
G1 F2700 E53.77604
G1 F1800 X92.8 Y71.241 E60.64676
G1 F2700 E55.64676
G1 F300 Z0.74
G0 F12000 X94.4 Y71.033 Z0.74
G1 F300 Z0.24
G1 F2700 E60.64676
G1 F1800 X94.4 Y157.531 E67.5514
G1 F2700 E62.5514
G1 F300 Z0.74
G0 F12000 X96 Y157.574 Z0.74
G1 F300 Z0.24
G1 F2700 E67.5514
G1 F1800 X96 Y70.984 E74.46339
G1 F2700 E69.46339
G1 F300 Z0.74
G0 F12000 X97.6 Y70.984 Z0.74
G1 F300 Z0.24
G1 F2700 E74.46339
G1 F1800 X97.6 Y157.574 E81.37538
G1 F2700 E76.37538
G1 F300 Z0.74
G0 F12000 X99.2 Y157.574 Z0.74
G1 F300 Z0.24
G1 F2700 E81.37538
G1 F1800 X99.2 Y70.984 E88.28737
G1 F2700 E83.28737
G1 F300 Z0.74
G0 F12000 X100.8 Y70.984 Z0.74
G1 F300 Z0.24
G1 F2700 E88.28737
G1 F1800 X100.8 Y157.574 E95.19936
G1 F2700 E90.19936
G1 F300 Z0.74
G0 F12000 X102.4 Y157.574 Z0.74
G1 F300 Z0.24
G1 F2700 E95.19936
G1 F1800 X102.4 Y70.984 E102.11134
G1 F2700 E97.11134
G1 F300 Z0.74
G0 F12000 X104 Y70.984 Z0.74
G1 F300 Z0.24
G1 F2700 E102.11134
G1 F1800 X104 Y157.574 E109.02333
G1 F2700 E104.02333
G1 F300 Z0.74
G0 F12000 X105.6 Y157.574 Z0.74
G1 F300 Z0.24
G1 F2700 E109.02333
G1 F1800 X105.6 Y70.984 E115.93532
G1 F2700 E110.93532
G1 F300 Z0.74
G0 F12000 X107.2 Y70.984 Z0.74
G1 F300 Z0.24
G1 F2700 E115.93532
G1 F1800 X107.2 Y157.574 E122.84731
G1 F2700 E117.84731
G1 F300 Z0.74
G0 F12000 X108.8 Y157.574 Z0.74
G1 F300 Z0.24
G1 F2700 E122.84731
G1 F1800 X108.8 Y70.984 E129.7593
G1 F2700 E124.7593
G1 F300 Z0.74
G0 F12000 X110.4 Y70.984 Z0.74
G1 F300 Z0.24
G1 F2700 E129.7593
G1 F1800 X110.4 Y157.574 E136.67128
G1 F2700 E131.67128
G1 F300 Z0.74
G0 F12000 X112 Y157.574 Z0.74
G1 F300 Z0.24
G1 F2700 E136.67128
G1 F1800 X112 Y70.984 E143.58327
G1 F2700 E138.58327
G1 F300 Z0.74
G0 F12000 X113.6 Y70.984 Z0.74
G1 F300 Z0.24
G1 F2700 E143.58327
G1 F1800 X113.6 Y157.574 E150.49526
G1 F2700 E145.49526
G1 F300 Z0.74
G0 F12000 X115.2 Y157.574 Z0.74
G1 F300 Z0.24
G1 F2700 E150.49526
G1 F1800 X115.2 Y70.984 E157.40725
G1 F2700 E152.40725
G1 F300 Z0.74
G0 F12000 X116.8 Y70.984 Z0.74
G1 F300 Z0.24
G1 F2700 E157.40725
G1 F1800 X116.8 Y157.574 E164.31924
G1 F2700 E159.31924
G1 F300 Z0.74
G0 F12000 X118.4 Y157.574 Z0.74
G1 F300 Z0.24
G1 F2700 E164.31924
G1 F1800 X118.4 Y70.984 E171.23123
G1 F2700 E166.23123
G1 F300 Z0.74
G0 F12000 X120 Y70.984 Z0.74
G1 F300 Z0.24
G1 F2700 E171.23123
G1 F1800 X120 Y157.574 E178.14321
G1 F2700 E173.14321
G1 F300 Z0.74
G0 F12000 X121.6 Y157.574 Z0.74
G1 F300 Z0.24
G1 F2700 E178.14321
G1 F1800 X121.6 Y70.984 E185.0552
G1 F2700 E180.0552
G1 F300 Z0.74
G0 F12000 X123.2 Y70.984 Z0.74
G1 F300 Z0.24
G1 F2700 E185.0552
G1 F1800 X123.2 Y157.574 E191.96719
G1 F2700 E186.96719
G1 F300 Z0.74
G0 F12000 X124.8 Y157.567 Z0.74
G1 F300 Z0.24
G1 F2700 E191.96719
G1 F1800 X124.8 Y70.995 E198.87774
G1 F2700 E193.87774
G1 F300 Z0.74
G0 F12000 X126.4 Y71.114 Z0.74
G1 F300 Z0.24
G1 F2700 E198.87774
G1 F1800 X126.4 Y157.449 E205.76937
G1 F2700 E200.76937
G1 F300 Z0.74
G0 F12000 X128 Y157.141 Z0.74
G1 F300 Z0.24
G1 F2700 E205.76937
G1 F1800 X128 Y71.415 E212.61239
G1 F2700 E207.61239
G1 F300 Z0.74
G0 F12000 X129.6 Y71.906 Z0.74
G1 F300 Z0.24
G1 F2700 E212.61239
G1 F1800 X129.6 Y156.654 E219.37735
G1 F2700 E214.37735
G1 F300 Z0.74
G0 F12000 X131.2 Y155.944 Z0.74
G1 F300 Z0.24
G1 F2700 E219.37735
G1 F1800 X131.2 Y72.619 E226.02871
G1 F2700 E221.02871
G1 F300 Z0.74
G0 F12000 X132.8 Y73.577 Z0.74
G1 F300 Z0.24
G1 F2700 E226.02871
G1 F1800 X132.8 Y154.98 E232.52665
G1 F2700 E227.52665
G1 F300 Z0.74
G0 F12000 X134.4 Y153.701 Z0.74
G1 F300 Z0.24
G1 F2700 E232.52665
G1 F1800 X134.4 Y74.851 E238.8208
G1 F2700 E233.8208
G1 F300 Z0.74
G0 F12000 X136 Y76.565 Z0.74
G1 F300 Z0.24
G1 F2700 E238.8208
G1 F1800 X136 Y151.999 E244.84226
G1 F2700 E239.84226
G1 F300 Z0.74
G0 F12000 X137.6 Y149.531 Z0.74
G1 F300 Z0.24
G1 F2700 E244.84226
G1 F1800 X137.6 Y79.021 E250.47068
G1 F2700 E245.47068
G1 F300 Z0.74
G0 F12000 X139.2 Y84.9 Z0.74
G1 F300 Z0.24
G1 F2700 E250.47068
G1 F1800 X139.2 Y143.543 E255.15181
G1 F2700 E250.15181
G1 F300 Z0.74
G0 F12000 X83.2 Y150.902 Z0.74
G1 F300 Z0.24
G1 F2700 E255.15181
G1 F1800 X83.2 Y77.649 E260.99919
G1 F2700 E255.99919
G1 F300 Z0.74
G0 F12000 X81.6 Y80.891 Z0.74
G1 F300 Z0.24
G1 F2700 E260.99919
G1 F1800 X81.6 Y147.681 E266.33065
G1 F2700 E261.33065
G1 F300 Z0.74
G0 F12000 X83.601 Y151.485 Z0.74
;TIME_ELAPSED:138.446326
;LAYER:-5
M140 S65
G0 X83.601 Y151.485 Z1.04
;TYPE:SUPPORT
G1 F300 Z0.54
G1 F2700 E266.33065
G1 F1800 X83.717 Y151.641 E266.35005
G1 X84.268 Y152.327 E266.43785
G1 X84.385 Y152.464 E266.45582
G1 X85.028 Y153.158 E266.55022
G1 X85.189 Y153.319 E266.57294
G1 X85.701 Y153.801 E266.64311
G1 X85.808 Y153.897 E266.65745
G1 X86.501 Y154.473 E266.74736
G1 X86.648 Y154.587 E266.76593
G1 X86.846 Y154.729 E266.79024
G1 X83.598 Y151.48 E267.24864
G1 X83.117 Y150.782 E267.33322
G1 X83 Y150.598 E267.35498
G1 X82.558 Y149.842 E267.44236
G1 X82.481 Y149.7 E267.45847
G1 X82.071 Y148.867 E267.55111
G1 X82.021 Y148.755 E267.56335
G1 X81.841 Y148.309 E267.61134
G1 X90.042 Y156.511 E268.76866
G1 X90.195 Y156.576 E268.78525
G1 X90.361 Y156.64 E268.803
G1 X91.204 Y156.926 E268.89182
G1 X91.367 Y156.975 E268.90881
G1 X92.117 Y157.171 E268.98616
G1 X81.18 Y146.234 E270.52948
G1 X81.087 Y145.847 E270.5692
G1 X81.057 Y145.704 E270.58378
G1 X80.907 Y144.797 E270.67551
G1 X80.885 Y144.625 E270.69281
G1 X80.875 Y144.514 E270.70393
G1 X93.828 Y157.467 E272.53174
G1 X94.364 Y157.527 E272.58556
G1 X94.487 Y157.537 E272.59787
G1 X95.342 Y157.567 E272.68323
G1 X80.779 Y143.004 E274.73823
G1 X80.774 Y142.857 E274.75291
G1 X80.774 Y141.586 E274.87973
G1 X96.761 Y157.573 E277.13567
G1 X98.176 Y157.573 E277.27686
G1 X80.774 Y140.171 E279.73247
G1 X80.774 Y138.757 E279.87355
G1 X99.59 Y157.573 E282.5287
G1 X101.004 Y157.573 E282.66979
G1 X80.774 Y137.343 E285.52446
G1 X80.774 Y135.929 E285.66555
G1 X102.418 Y157.573 E288.71975
G1 X103.832 Y157.573 E288.86084
G1 X80.774 Y134.515 E292.11457
G1 X80.774 Y133.1 E292.25576
G1 X105.247 Y157.573 E295.70916
G1 X106.661 Y157.573 E295.85025
G1 X80.774 Y131.686 E299.50319
G1 X80.774 Y130.272 E299.64428
G1 X108.075 Y157.573 E303.49675
G1 X109.489 Y157.573 E303.63783
G1 X80.774 Y128.858 E307.68983
G1 X80.774 Y127.443 E307.83102
G1 X110.904 Y157.573 E312.08269
G1 X112.318 Y157.573 E312.22378
G1 X80.774 Y126.029 E316.67498
G1 X80.774 Y124.615 E316.81607
G1 X113.733 Y157.573 E321.46687
G1 X115.147 Y157.573 E321.60796
G1 X80.774 Y123.201 E326.45829
G1 X80.774 Y121.787 E326.59938
G1 X116.561 Y157.573 E331.64924
G1 X117.975 Y157.573 E331.79033
G1 X80.774 Y120.372 E337.03979
G1 X80.774 Y118.958 E337.18088
G1 X119.39 Y157.573 E342.62995
G1 X120.804 Y157.573 E342.77103
G1 X80.774 Y117.544 E348.41963
G1 X80.774 Y116.13 E348.56072
G1 X122.218 Y157.573 E354.40884
G1 X123.632 Y157.573 E354.54993
G1 X80.774 Y114.716 E360.59759
G1 X80.774 Y113.301 E360.73878
G1 X125.032 Y157.558 E366.98399
G1 X125.241 Y157.553 E367.00485
G1 X125.382 Y157.546 E367.01894
G1 X126.277 Y157.463 E367.10862
G1 X126.342 Y157.455 E367.11516
G1 X80.774 Y111.887 E373.5453
G1 X80.774 Y110.473 E373.68639
G1 X127.55 Y157.249 E380.28698
G1 X128.38 Y157.047 E380.37222
G1 X128.544 Y157.001 E380.38921
G1 X128.675 Y156.959 E380.40294
G1 X80.774 Y109.059 E387.16222
G1 X80.774 Y107.644 E387.30341
G1 X129.729 Y156.599 E394.21149
G1 X130.406 Y156.327 E394.28429
G1 X130.522 Y156.275 E394.29697
G1 X130.721 Y156.177 E394.31911
G1 X80.774 Y106.23 E401.36717
G1 X80.774 Y104.816 E401.50826
G1 X131.654 Y155.696 E408.68797
G1 X132.248 Y155.348 E408.75667
G1 X132.432 Y155.231 E408.77842
G1 X132.533 Y155.161 E408.79068
G1 X80.774 Y103.402 E416.09444
G1 X80.774 Y101.988 E416.23553
G1 X133.361 Y154.574 E423.65605
G1 X133.98 Y154.079 E423.73514
G1 X134.128 Y153.952 E423.75459
G1 X134.14 Y153.939 E423.75636
G1 X80.774 Y100.573 E431.28688
G1 X80.774 Y99.159 E431.42797
G1 X134.872 Y153.256 E439.06171
G1 X134.97 Y153.16 E439.0754
G1 X135.451 Y152.648 E439.14549
G1 X135.548 Y152.539 E439.16005
G1 X135.558 Y152.528 E439.16154
G1 X80.774 Y97.745 E446.89208
G1 X80.774 Y96.331 E447.03317
G1 X136.197 Y151.754 E454.85395
G1 X136.238 Y151.699 E454.8608
G1 X136.749 Y150.986 E454.94833
G1 X136.787 Y150.929 E454.95516
G1 X80.774 Y94.917 E462.85913
G1 X80.774 Y93.502 E463.00032
G1 X137.325 Y150.053 E470.98028
G1 X137.401 Y149.917 E470.99582
G1 X137.805 Y149.131 E471.084
G1 X137.809 Y149.123 E471.0849
G1 X80.774 Y92.088 E479.13315
G1 X80.774 Y90.674 E479.27424
G1 X138.234 Y148.133 E487.3824
G1 X138.29 Y147.986 E487.39809
G1 X138.576 Y147.145 E487.48673
G1 X138.596 Y147.081 E487.49342
G1 X80.774 Y89.26 E495.65266
G1 X80.774 Y87.845 E495.79384
G1 X138.889 Y145.96 E503.9945
G1 X138.889 Y145.953 E503.9952
G1 X139.051 Y145.076 E504.08419
G1 X139.077 Y144.901 E504.10184
G1 X139.094 Y144.751 E504.1169
G1 X80.774 Y86.431 E512.34648
G1 X80.774 Y85.714 E512.41803
G1 X80.798 Y85.041 E512.48522
G1 X139.203 Y143.446 E520.7268
G1 X139.224 Y142.843 E520.787
G1 X139.224 Y142.052 E520.86593
G1 X80.912 Y83.741 E529.09431
G1 X80.922 Y83.656 E529.10285
G1 X80.948 Y83.481 E529.1205
G1 X81.11 Y82.603 E529.20959
G1 X81.124 Y82.538 E529.21622
G1 X139.224 Y140.638 E537.41476
G1 X139.224 Y139.224 E537.55585
G1 X81.419 Y81.419 E545.71276
G1 X81.422 Y81.412 E545.71352
G1 X81.708 Y80.571 E545.80216
