;FLAVOR:Marlin
;TIME:4112
;Filament used: 3.55277m
;Layer height: 0.2
;MINX:81.449
;MINY:70.783
;MINZ:0.24
;MAXX:138.55
;MAXY:157.775
;MAXZ:30.59
;Generated with Cura_SteamEngine master
M140 S70
M105
M190 S70
M104 S200
M105
M109 S200
M82 ;absolute extrusion mode
M201 X500.00 Y500.00 Z100.00 E5000.00 ;Setup machine max acceleration
M203 X500.00 Y500.00 Z10.00 E50.00 ;Setup machine max feedrate
M204 P500.00 R1000.00 T500.00 ;Setup Print/Retract/Travel acceleration
M205 X8.00 Y8.00 Z0.40 E5.00 ;Setup Jerk
M220 S100 ;Reset Feedrate
M221 S100 ;Reset Flowrate

G28 ;Home

G92 E0 ;Reset Extruder
G1 Z2.0 F3000 ;Move Z Axis up
G1 X10.1 Y20 Z0.28 F5000.0 ;Move to start position
G1 X10.1 Y200.0 Z0.28 F1500.0 E15 ;Draw the first line
G1 X10.4 Y200.0 Z0.28 F5000.0 ;Move to side a little
G1 X10.4 Y20 Z0.28 F1500.0 E30 ;Draw the second line
G92 E0 ;Reset Extruder
G1 Z2.0 F3000 ;Move Z Axis up

G92 E0
G92 E0
G1 F2700 E-5
;LAYER_COUNT:145
;LAYER:-6
M107
G0 F12000 X85.423 Y75.91 Z0.24
;TYPE:SUPPORT-INTERFACE
G1 F2700 E0
G1 F1800 X85.906 Y75.399 E0.05613
G1 X85.905 Y75.398 E0.05624
G1 X86.063 Y75.241 E0.07402
G1 X86.758 Y74.596 E0.14971
G1 X86.897 Y74.477 E0.16432
G1 X87.588 Y73.923 E0.23501
G1 X87.727 Y73.819 E0.24887
G1 X88.442 Y73.327 E0.31815
G1 X88.626 Y73.21 E0.33556
G1 X89.382 Y72.767 E0.4055
G1 X89.524 Y72.69 E0.4184
G1 X90.356 Y72.281 E0.4924
G1 X90.469 Y72.231 E0.50226
G1 X91.324 Y71.886 E0.57586
G1 X91.491 Y71.826 E0.59003
G1 X92.33 Y71.557 E0.66036
G1 X92.494 Y71.511 E0.67395
G1 X93.366 Y71.299 E0.74559
G1 X93.528 Y71.266 E0.75878
G1 X94.421 Y71.118 E0.83104
G1 X94.598 Y71.095 E0.84529
G1 X95.486 Y71.014 E0.91647
G1 X95.634 Y71.005 E0.9283
G1 X96.376 Y70.984 E0.98756
G1 X123.635 Y70.984 E3.16349
G1 X124.636 Y71.02 E3.24344
G1 X124.759 Y71.029 E3.25329
G1 X125.701 Y71.133 E3.32894
G1 X125.827 Y71.151 E3.3391
G1 X126.712 Y71.315 E3.41095
G1 X126.911 Y71.359 E3.42721
G1 X127.742 Y71.576 E3.49577
G1 X127.91 Y71.627 E3.50979
G1 X128.762 Y71.918 E3.58166
G1 X128.939 Y71.985 E3.59676
G1 X129.731 Y72.322 E3.66547
G1 X129.92 Y72.41 E3.68211
G1 X130.714 Y72.818 E3.75337
G1 X130.831 Y72.885 E3.76413
G1 X131.61 Y73.359 E3.83692
G1 X131.761 Y73.459 E3.85138
G1 X132.479 Y73.972 E3.92182
G1 X132.62 Y74.082 E3.93609
G1 X133.324 Y74.666 E4.00911
G1 X133.42 Y74.752 E4.0194
G1 X133.935 Y75.239 E4.07598
G1 X133.936 Y75.238 E4.07609
G1 X134.092 Y75.395 E4.09376
G1 X134.738 Y76.091 E4.16956
G1 X134.857 Y76.23 E4.18416
G1 X135.411 Y76.921 E4.25486
G1 X135.515 Y77.06 E4.26872
G1 X136.007 Y77.775 E4.338
G1 X136.124 Y77.959 E4.35541
G1 X136.564 Y78.708 E4.42475
G1 X136.644 Y78.856 E4.43818
G1 X137.047 Y79.676 E4.51111
G1 X137.103 Y79.802 E4.52212
G1 X137.445 Y80.647 E4.59488
G1 X137.504 Y80.812 E4.60887
G1 X137.776 Y81.659 E4.67988
G1 X137.822 Y81.821 E4.69333
G1 X138.034 Y82.695 E4.76512
G1 X138.067 Y82.853 E4.778
G1 X138.215 Y83.745 E4.85018
G1 X138.239 Y83.931 E4.86515
G1 X138.32 Y84.816 E4.93609
G1 X138.329 Y84.967 E4.94816
G1 X138.35 Y85.7 E5.0067
G1 X138.35 Y142.844 E9.56818
G1 X138.314 Y143.85 E9.64853
G1 X138.304 Y143.985 E9.65934
G1 X138.202 Y144.902 E9.73299
G1 X138.177 Y145.077 E9.7471
G1 X138.015 Y145.955 E9.81837
G1 X137.985 Y146.089 E9.82933
G1 X137.754 Y146.974 E9.90234
G1 X137.702 Y147.146 E9.91668
G1 X137.416 Y147.988 E9.98767
G1 X137.352 Y148.154 E10.00187
G1 X137.011 Y148.957 E10.07151
G1 X136.93 Y149.132 E10.0869
G1 X136.526 Y149.918 E10.15745
G1 X136.448 Y150.057 E10.17017
G1 X135.974 Y150.836 E10.24296
G1 X135.874 Y150.987 E10.25742
G1 X135.363 Y151.701 E10.3275
G1 X135.25 Y151.849 E10.34237
G1 X134.673 Y152.541 E10.41429
G1 X134.577 Y152.649 E10.42582
G1 X134.094 Y153.16 E10.48195
G1 X134.095 Y153.161 E10.48206
G1 X133.938 Y153.317 E10.49973
G1 X133.253 Y153.953 E10.57435
G1 X133.105 Y154.08 E10.58991
G1 X132.412 Y154.636 E10.66083
G1 X132.273 Y154.74 E10.67469
G1 X131.558 Y155.232 E10.74397
G1 X131.374 Y155.349 E10.76138
G1 X130.618 Y155.792 E10.83132
G1 X130.476 Y155.869 E10.84422
G1 X129.648 Y156.276 E10.91787
G1 X129.531 Y156.328 E10.92809
G1 X128.676 Y156.673 E11.00168
G1 X128.513 Y156.731 E11.01549
G1 X127.67 Y157.002 E11.08618
G1 X127.506 Y157.048 E11.09977
G1 X126.634 Y157.26 E11.17141
G1 X126.472 Y157.293 E11.1846
G1 X125.579 Y157.441 E11.25686
G1 X125.402 Y157.464 E11.27111
G1 X124.508 Y157.547 E11.34278
G1 X124.366 Y157.554 E11.35413
G1 X123.625 Y157.575 E11.4133
G1 X96.364 Y157.574 E13.58939
G1 X95.363 Y157.538 E13.66935
G1 X95.24 Y157.529 E13.67919
G1 X94.323 Y157.427 E13.75284
G1 X94.148 Y157.402 E13.76695
G1 X93.259 Y157.238 E13.83911
G1 X93.136 Y157.21 E13.84918
G1 X92.242 Y156.976 E13.92295
G1 X92.079 Y156.927 E13.93654
G1 X91.237 Y156.641 E14.00752
G1 X91.071 Y156.577 E14.02172
G1 X90.268 Y156.236 E14.09136
G1 X90.079 Y156.148 E14.108
G1 X89.285 Y155.74 E14.17926
G1 X89.168 Y155.673 E14.19002
G1 X88.389 Y155.199 E14.26281
G1 X88.238 Y155.099 E14.27727
G1 X87.524 Y154.588 E14.34736
G1 X87.376 Y154.475 E14.36222
G1 X86.684 Y153.898 E14.43414
G1 X86.576 Y153.802 E14.44568
G1 X86.065 Y153.319 E14.50181
G1 X86.064 Y153.32 E14.50192
G1 X85.904 Y153.159 E14.52004
G1 X85.26 Y152.465 E14.59561
G1 X85.143 Y152.328 E14.60999
G1 X84.593 Y151.642 E14.68018
G1 X84.477 Y151.486 E14.6957
G1 X83.993 Y150.783 E14.76383
G1 X83.876 Y150.599 E14.78123
G1 X83.433 Y149.843 E14.85118
G1 X83.356 Y149.701 E14.86407
G1 X82.947 Y148.869 E14.93808
G1 X82.897 Y148.756 E14.94794
G1 X82.548 Y147.892 E15.02232
G1 X82.492 Y147.734 E15.03571
G1 X82.22 Y146.886 E15.10679
G1 X82.178 Y146.736 E15.11923
G1 X81.962 Y145.848 E15.19218
G1 X81.933 Y145.705 E15.20383
G1 X81.783 Y144.799 E15.27713
G1 X81.761 Y144.627 E15.29097
G1 X81.678 Y143.728 E15.36304
G1 X81.671 Y143.591 E15.37399
G1 X81.65 Y142.858 E15.43252
G1 X81.65 Y85.715 E19.99393
G1 X81.686 Y84.709 E20.07428
G1 X81.696 Y84.574 E20.08509
G1 X81.798 Y83.657 E20.15874
G1 X81.823 Y83.482 E20.17285
G1 X81.985 Y82.604 E20.24412
G1 X82.015 Y82.47 E20.25508
G1 X82.247 Y81.582 E20.32834
G1 X82.298 Y81.413 E20.34243
G1 X82.584 Y80.571 E20.41342
G1 X82.648 Y80.405 E20.42762
G1 X82.989 Y79.602 E20.49726
G1 X83.07 Y79.427 E20.51265
G1 X83.485 Y78.619 E20.58516
G1 X83.552 Y78.502 E20.59592
G1 X84.026 Y77.723 E20.66871
G1 X84.126 Y77.572 E20.68317
G1 X84.637 Y76.858 E20.75325
G1 X84.75 Y76.71 E20.76812
G1 X85.207 Y76.162 E20.82508
G0 F1620 X85.327 Y76.018
G0 X85.423 Y75.91
G0 F12000 X84.8 Y76.65
G1 F1800 X84.8 Y151.9 E26.83186
G1 F2700 E21.83186
G1 F300 Z0.74
G0 F12000 X86.4 Y153.635 Z0.74
G1 F300 Z0.24
G1 F2700 E26.83186
G1 F1800 X86.4 Y74.928 E33.11459
G1 F2700 E28.11459
G1 F300 Z0.74
G0 F12000 X88 Y73.631 Z0.74
G1 F300 Z0.24
G1 F2700 E33.11459
G1 F1800 X88 Y154.928 E39.60407
G1 F2700 E34.60407
G1 F300 Z0.74
G0 F12000 X89.6 Y155.901 Z0.74
G1 F300 Z0.24
G1 F2700 E39.60407
G1 F1800 X89.6 Y72.652 E46.24936
G1 F2700 E41.24936
G1 F300 Z0.74
G0 F12000 X91.2 Y71.936 Z0.74
G1 F300 Z0.24
G1 F2700 E46.24936
G1 F1800 X91.2 Y156.626 E53.00969
G1 F2700 E48.00969
G1 F300 Z0.74
G0 F12000 X92.8 Y157.122 Z0.74
G1 F300 Z0.24
G1 F2700 E53.00969
G1 F1800 X92.8 Y71.436 E59.84951
G1 F2700 E54.84951
G1 F300 Z0.74
G0 F12000 X94.4 Y71.121 Z0.74
G1 F300 Z0.24
G1 F2700 E59.84951
G1 F1800 X94.4 Y157.435 E66.73947
G1 F2700 E61.73947
G1 F300 Z0.74
G0 F12000 X96 Y157.56 Z0.74
G1 F300 Z0.24
G1 F2700 E66.73947
G1 F1800 X96 Y70.994 E73.64954
G1 F2700 E68.64954
G1 F300 Z0.74
G0 F12000 X97.6 Y70.984 Z0.74
G1 F300 Z0.24
G1 F2700 E73.64954
G1 F1800 X97.6 Y157.574 E80.56153
G1 F2700 E75.56153
G1 F300 Z0.74
G0 F12000 X99.2 Y157.574 Z0.74
G1 F300 Z0.24
G1 F2700 E80.56153
G1 F1800 X99.2 Y70.984 E87.47352
G1 F2700 E82.47352
G1 F300 Z0.74
G0 F12000 X100.8 Y70.984 Z0.74
G1 F300 Z0.24
G1 F2700 E87.47352
G1 F1800 X100.8 Y157.574 E94.38551
G1 F2700 E89.38551
G1 F300 Z0.74
G0 F12000 X102.4 Y157.574 Z0.74
G1 F300 Z0.24
G1 F2700 E94.38551
G1 F1800 X102.4 Y70.984 E101.29749
G1 F2700 E96.29749
G1 F300 Z0.74
G0 F12000 X104 Y70.984 Z0.74
G1 F300 Z0.24
G1 F2700 E101.29749
G1 F1800 X104 Y157.574 E108.20948
G1 F2700 E103.20948
G1 F300 Z0.74
G0 F12000 X105.6 Y157.574 Z0.74
G1 F300 Z0.24
G1 F2700 E108.20948
G1 F1800 X105.6 Y70.984 E115.12147
G1 F2700 E110.12147
G1 F300 Z0.74
G0 F12000 X107.2 Y70.984 Z0.74
G1 F300 Z0.24
G1 F2700 E115.12147
G1 F1800 X107.2 Y157.574 E122.03346
G1 F2700 E117.03346
G1 F300 Z0.74
G0 F12000 X108.8 Y157.574 Z0.74
G1 F300 Z0.24
G1 F2700 E122.03346
G1 F1800 X108.8 Y70.984 E128.94545
G1 F2700 E123.94545
G1 F300 Z0.74
G0 F12000 X110.4 Y70.984 Z0.74
G1 F300 Z0.24
G1 F2700 E128.94545
G1 F1800 X110.4 Y157.574 E135.85744
G1 F2700 E130.85744
G1 F300 Z0.74
G0 F12000 X112 Y157.574 Z0.74
G1 F300 Z0.24
G1 F2700 E135.85744
G1 F1800 X112 Y70.984 E142.76942
G1 F2700 E137.76942
G1 F300 Z0.74
G0 F12000 X113.6 Y70.984 Z0.74
G1 F300 Z0.24
G1 F2700 E142.76942
G1 F1800 X113.6 Y157.574 E149.68141
G1 F2700 E144.68141
G1 F300 Z0.74
G0 F12000 X115.2 Y157.574 Z0.74
G1 F300 Z0.24
G1 F2700 E149.68141
G1 F1800 X115.2 Y70.984 E156.5934
G1 F2700 E151.5934
G1 F300 Z0.74
G0 F12000 X116.8 Y70.984 Z0.74
G1 F300 Z0.24
G1 F2700 E156.5934
G1 F1800 X116.8 Y157.574 E163.50539
G1 F2700 E158.50539
G1 F300 Z0.74
G0 F12000 X118.4 Y157.574 Z0.74
G1 F300 Z0.24
G1 F2700 E163.50539
G1 F1800 X118.4 Y70.984 E170.41738
G1 F2700 E165.41738
G1 F300 Z0.74
G0 F12000 X120 Y70.984 Z0.74
G1 F300 Z0.24
G1 F2700 E170.41738
G1 F1800 X120 Y157.574 E177.32937
G1 F2700 E172.32937
G1 F300 Z0.74
G0 F12000 X121.6 Y157.574 Z0.74
G1 F300 Z0.24
G1 F2700 E177.32937
G1 F1800 X121.6 Y70.984 E184.24135
G1 F2700 E179.24135
G1 F300 Z0.74
G0 F12000 X123.2 Y70.984 Z0.74
G1 F300 Z0.24
G1 F2700 E184.24135
G1 F1800 X123.2 Y157.574 E191.15334
G1 F2700 E186.15334
G1 F300 Z0.74
G0 F12000 X124.8 Y157.52 Z0.74
G1 F300 Z0.24
G1 F2700 E191.15334
G1 F1800 X124.8 Y71.034 E198.05703
G1 F2700 E193.05703
G1 F300 Z0.74
G0 F12000 X126.4 Y71.258 Z0.74
G1 F300 Z0.24
G1 F2700 E198.05703
G1 F1800 X126.4 Y157.305 E204.92567
G1 F2700 E199.92567
G1 F300 Z0.74
G0 F12000 X128 Y156.896 Z0.74
G1 F300 Z0.24
G1 F2700 E204.92567
G1 F1800 X128 Y71.658 E211.72974
G1 F2700 E206.72974
G1 F300 Z0.74
G0 F12000 X129.6 Y72.267 Z0.74
G1 F300 Z0.24
G1 F2700 E211.72974
G1 F1800 X129.6 Y156.298 E218.43746
G1 F2700 E213.43746
G1 F300 Z0.74
G0 F12000 X131.2 Y155.451 Z0.74
G1 F300 Z0.24
G1 F2700 E218.43746
G1 F1800 X131.2 Y73.11 E225.01027
G1 F2700 E220.01027
G1 F300 Z0.74
G0 F12000 X132.8 Y74.232 Z0.74
G1 F300 Z0.24
G1 F2700 E225.01027
G1 F1800 X132.8 Y154.325 E231.40364
G1 F2700 E226.40364
G1 F300 Z0.74
G0 F12000 X134.4 Y152.837 Z0.74
G1 F300 Z0.24
G1 F2700 E231.40364
G1 F1800 X134.4 Y75.727 E237.55889
G1 F2700 E232.55889
G1 F300 Z0.74
G0 F12000 X136 Y77.765 Z0.74
G1 F300 Z0.24
G1 F2700 E237.55889
G1 F1800 X136 Y150.794 E243.38838
G1 F2700 E238.38838
G1 F300 Z0.74
G0 F12000 X137.6 Y147.447 Z0.74
G1 F300 Z0.24
G1 F2700 E243.38838
G1 F1800 X137.6 Y81.111 E248.68361
G1 F2700 E243.68361
G1 F300 Z0.74
G0 F12000 X83.2 Y79.173 Z0.74
G1 F300 Z0.24
G1 F2700 E248.68361
G1 F1800 X83.2 Y149.383 E254.28808
G1 F2700 E249.28808
G0 F300 X83.2 Y149.383 Z0.54
G0 F12000 X83.517 Y149.985
;TIME_ELAPSED:132.318975
;LAYER:-5
M140 S65
;TYPE:SUPPORT
G1 F2700 E254.28808
G1 F1800 X89.251 Y155.719 E255.09721
G1 X89.167 Y155.672 E255.10681
G1 X88.389 Y155.197 E255.19776
G1 X88.238 Y155.098 E255.21578
G1 X87.524 Y154.587 E255.30339
G1 X87.375 Y154.474 E255.32205
G1 X86.684 Y153.897 E255.41187
G1 X86.576 Y153.8 E255.42636
G1 X86.065 Y153.318 E255.49645
G0 F12000 X86.064 Y153.319
G1 F1800 X85.904 Y153.158 E255.5191
G1 X85.259 Y152.464 E255.61363
G1 X85.143 Y152.327 E255.63155
G1 X84.593 Y151.641 E255.71928
G1 X84.477 Y151.485 E255.73868
G1 X83.992 Y150.782 E255.8239
G1 X83.875 Y150.598 E255.84565
G1 F2700 E250.84565
G1 F300 Z1.04
G0 F12000 X89.251 Y155.719 Z1.04
G1 F300 Z0.54
G1 F2700 E255.84565
G1 F1800 X89.284 Y155.738 E255.84945
G1 X90.079 Y156.146 E255.93861
G1 X90.267 Y156.235 E255.95937
G1 X91.071 Y156.576 E256.04651
G1 X91.237 Y156.64 E256.06426
G1 X91.765 Y156.819 E256.11989
G1 X82.402 Y147.456 E257.44111
G1 X82.22 Y146.885 E257.50091
G1 X82.177 Y146.735 E257.51648
G1 X81.961 Y145.847 E257.60767
G1 X81.933 Y145.704 E257.62221
G1 X81.906 Y145.545 E257.6383
G1 X93.673 Y157.313 E259.29882
G1 X94.147 Y157.401 E259.34693
G1 X94.323 Y157.426 E259.36466
G1 X95.24 Y157.527 E259.45672
G1 X95.307 Y157.532 E259.46342
G1 X81.696 Y143.921 E261.38408
G1 X81.678 Y143.727 E261.40352
G1 X81.67 Y143.59 E261.41721
G1 X81.65 Y142.857 E261.49038
G1 X81.649 Y142.46 E261.52999
G1 X96.762 Y157.573 E263.6626
G1 X98.176 Y157.573 E263.80369
G1 X81.649 Y141.046 E266.13583
G1 X81.649 Y139.632 E266.27692
G1 X99.591 Y157.573 E268.80866
G1 X101.005 Y157.573 E268.94975
G1 X81.649 Y138.218 E271.68102
G1 X81.649 Y136.803 E271.8222
G1 X102.419 Y157.573 E274.75308
G1 X103.833 Y157.573 E274.89417
G1 X81.649 Y135.389 E278.02457
G1 X81.649 Y133.975 E278.16566
G1 X105.247 Y157.573 E281.49559
G1 X106.662 Y157.573 E281.63678
G1 X81.649 Y132.561 E285.16631
G1 X81.649 Y131.147 E285.3074
G1 X108.076 Y157.573 E289.03647
G1 X109.49 Y157.573 E289.17756
G1 X81.649 Y129.732 E293.10622
G1 X81.649 Y128.318 E293.24731
G1 X110.904 Y157.573 E297.37551
G1 X112.318 Y157.573 E297.5166
G1 X81.649 Y126.904 E301.84433
G1 X81.649 Y125.49 E301.98541
G1 X113.733 Y157.573 E306.51274
G1 X115.147 Y157.573 E306.65383
G1 X81.649 Y124.076 E311.38069
G1 X81.649 Y122.661 E311.52188
G1 X116.561 Y157.573 E316.44834
G1 X117.975 Y157.573 E316.58943
G1 X81.649 Y121.247 E321.71542
G1 X81.649 Y119.833 E321.85651
G1 X119.39 Y157.573 E327.1821
G1 X120.804 Y157.573 E327.32319
G1 X81.649 Y118.419 E332.84832
G1 X81.649 Y117.004 E332.98951
G1 X122.218 Y157.573 E338.71423
G1 X123.624 Y157.574 E338.85452
G1 X123.632 Y157.573 E338.85533
G1 X81.649 Y115.59 E344.77958
G1 X81.649 Y114.176 E344.92067
G1 X124.976 Y157.503 E351.03458
G1 X125.401 Y157.463 E351.07717
G1 X125.579 Y157.44 E351.09508
G1 X126.22 Y157.333 E351.15992
G1 X81.649 Y112.762 E357.44937
G1 X81.649 Y111.348 E357.59046
G1 X127.379 Y157.078 E364.04346
G1 X127.506 Y157.047 E364.0565
G1 X127.67 Y157.001 E364.0735
G1 X128.461 Y156.745 E364.15646
G1 X81.649 Y109.933 E370.76214
G1 X81.649 Y108.519 E370.90322
G1 X129.477 Y156.347 E377.65227
G1 X129.53 Y156.327 E377.65792
G1 X129.648 Y156.274 E377.67083
G1 X130.432 Y155.888 E377.75803
G1 X81.649 Y107.105 E384.64184
G1 X81.649 Y105.691 E384.78292
G1 X131.33 Y155.372 E391.79345
G1 X131.374 Y155.347 E391.7985
G1 X131.557 Y155.231 E391.82012
G1 X132.177 Y154.804 E391.89524
G1 X81.649 Y104.277 E399.02521
G1 X81.649 Y102.862 E399.1664
G1 X132.972 Y154.185 E406.40863
G1 X133.105 Y154.079 E406.4256
G1 X133.252 Y153.952 E406.44498
G1 X133.719 Y153.518 E406.5086
G1 X81.649 Y101.448 E413.85624
G1 X81.649 Y100.034 E413.99733
G1 X134.425 Y152.81 E421.44459
G1 X134.577 Y152.648 E421.46676
G1 X134.672 Y152.539 E421.48118
G1 X135.08 Y152.051 E421.54465
G1 X81.649 Y98.62 E429.08434
G1 X81.649 Y97.205 E429.22553
G1 X135.688 Y151.245 E436.85109
G1 X135.874 Y150.986 E436.88291
G1 X135.973 Y150.835 E436.90092
G1 X136.246 Y150.388 E436.95319
G1 X81.649 Y95.791 E444.65741
G1 X81.649 Y94.377 E444.7985
G1 X136.751 Y149.479 E452.57399
G1 X136.929 Y149.131 E452.61299
G1 X137.01 Y148.956 E452.63223
G1 X137.199 Y148.512 E452.68038
G1 X81.649 Y92.963 E460.51902
G1 X81.649 Y91.549 E460.66011
G1 X137.586 Y147.486 E468.55342
G1 X137.701 Y147.144 E468.58942
G1 X137.754 Y146.973 E468.60729
G1 X137.906 Y146.391 E468.66731
G1 X81.649 Y90.134 E476.60578
G1 X81.649 Y88.72 E476.74687
G1 X138.15 Y145.221 E484.71977
G1 X138.176 Y145.076 E484.73447
G1 X138.201 Y144.901 E484.75211
G1 X138.303 Y143.984 E484.84417
G1 X138.305 Y143.962 E484.84637
G1 X81.649 Y87.306 E492.84115
G1 X81.649 Y85.892 E492.98224
G1 X138.35 Y142.593 E500.98336
G1 X138.35 Y141.178 E501.12455
G1 X81.7 Y84.528 E509.11848
G1 X81.798 Y83.656 E509.20603
G1 X81.822 Y83.481 E509.22366
G1 X81.86 Y83.274 E509.24466
G1 X138.35 Y139.764 E517.21601
G1 X138.35 Y138.35 E517.35709
G1 X82.108 Y82.108 E525.29345
G1 X82.246 Y81.581 E525.34781
G1 X82.297 Y81.413 E525.36532
G1 X82.431 Y81.017 E525.40704
G1 X138.35 Y136.936 E533.29781
G1 X138.35 Y135.521 E533.439
G1 X82.821 Y79.992 E541.27474
G1 X82.988 Y79.602 E541.31708
