;FLAVOR:Marlin
;TIME:2865
;Filament used: 2.30547m
;Layer height: 0.2
;MINX:75.849
;MINY:86.199
;MINZ:0.24
;MAXX:144.3
;MAXY:133.8
;MAXZ:21.59
;Generated with Cura_SteamEngine master
M140 S70
M105
M190 S70
M104 S200
M105
M109 S200
M82 ;absolute extrusion mode
M201 X500.00 Y500.00 Z100.00 E5000.00 ;Setup machine max acceleration
M203 X500.00 Y500.00 Z10.00 E50.00 ;Setup machine max feedrate
M204 P500.00 R1000.00 T500.00 ;Setup Print/Retract/Travel acceleration
M205 X8.00 Y8.00 Z0.40 E5.00 ;Setup Jerk
M220 S100 ;Reset Feedrate
M221 S100 ;Reset Flowrate

G28 ;Home

G92 E0 ;Reset Extruder
G1 Z2.0 F3000 ;Move Z Axis up
G1 X10.1 Y20 Z0.28 F5000.0 ;Move to start position
G1 X10.1 Y200.0 Z0.28 F1500.0 E15 ;Draw the first line
G1 X10.4 Y200.0 Z0.28 F5000.0 ;Move to side a little
G1 X10.4 Y20 Z0.28 F1500.0 E30 ;Draw the second line
G92 E0 ;Reset Extruder
G1 Z2.0 F3000 ;Move Z Axis up

G92 E0
G92 E0
G1 F2700 E-5
;LAYER_COUNT:100
;LAYER:-6
M107
G0 F12000 X81.159 Y90.012 Z0.24
;TYPE:SUPPORT-INTERFACE
G1 F2700 E0
G1 F1800 X81.298 Y89.893 E0.01461
G1 X81.989 Y89.339 E0.0853
G1 X82.128 Y89.235 E0.09916
G1 X82.843 Y88.743 E0.16844
G1 X83.027 Y88.626 E0.18585
G1 X83.783 Y88.183 E0.25579
G1 X83.925 Y88.106 E0.26869
G1 X84.757 Y87.697 E0.34269
G1 X84.87 Y87.647 E0.35256
G1 X85.72 Y87.304 E0.42572
G1 X85.893 Y87.242 E0.44039
G1 X86.731 Y86.973 E0.51065
G1 X86.895 Y86.927 E0.52424
G1 X87.767 Y86.715 E0.59588
G1 X87.929 Y86.682 E0.60907
G1 X88.822 Y86.534 E0.68133
G1 X88.999 Y86.511 E0.69558
G1 X89.893 Y86.428 E0.76725
G1 X90.035 Y86.421 E0.7786
G1 X90.776 Y86.4 E0.83777
G1 X105.417 Y86.401 E2.00648
G1 X105.565 Y86.406 E2.0183
G1 X105.829 Y86.408 E2.03937
G1 X106.093 Y86.403 E2.06045
G1 X106.363 Y86.4 E2.082
G1 X112.217 Y86.402 E2.5493
G1 X112.425 Y86.409 E2.56591
G1 X112.753 Y86.41 E2.59209
G1 X113.121 Y86.4 E2.62148
G1 X122.386 Y86.401 E3.36105
G1 X123.382 Y86.437 E3.44061
G1 X123.529 Y86.448 E3.45237
G1 X123.918 Y86.49 E3.48361
G1 X124.583 Y86.521 E3.53675
G1 X124.975 Y86.499 E3.56809
G1 X125.732 Y86.43 E3.62876
G1 X125.884 Y86.421 E3.64092
G1 X126.625 Y86.4 E3.70009
G1 X129.386 Y86.401 E3.92049
G1 X130.387 Y86.437 E4.00044
G1 X130.51 Y86.446 E4.01029
G1 X131.427 Y86.548 E4.08394
G1 X131.602 Y86.573 E4.09805
G1 X132.491 Y86.737 E4.17021
G1 X132.614 Y86.765 E4.18028
G1 X133.508 Y86.999 E4.25405
G1 X133.671 Y87.048 E4.26763
G1 X134.513 Y87.334 E4.33862
G1 X134.679 Y87.398 E4.35282
G1 X135.482 Y87.739 E4.42246
G1 X135.671 Y87.827 E4.4391
G1 X136.465 Y88.235 E4.51036
G1 X136.582 Y88.302 E4.52112
G1 X137.361 Y88.776 E4.59391
G1 X137.512 Y88.876 E4.60837
G1 X138.226 Y89.387 E4.67846
G1 X138.374 Y89.5 E4.69332
G1 X139.066 Y90.077 E4.76524
G1 X139.174 Y90.173 E4.77677
G1 X139.685 Y90.656 E4.8329
G1 X139.686 Y90.655 E4.83302
G1 X139.842 Y90.812 E4.85068
G1 X140.488 Y91.508 E4.92648
G1 X140.607 Y91.647 E4.94109
G1 X141.161 Y92.338 E5.01179
G1 X141.265 Y92.477 E5.02564
G1 X141.757 Y93.192 E5.09493
G1 X141.874 Y93.376 E5.11233
G1 X142.317 Y94.132 E5.18228
G1 X142.394 Y94.274 E5.19517
G1 X142.797 Y95.093 E5.26803
G1 X142.853 Y95.219 E5.27904
G1 X143.195 Y96.064 E5.35181
G1 X143.254 Y96.229 E5.36579
G1 X143.526 Y97.076 E5.43681
G1 X143.572 Y97.238 E5.45025
G1 X143.783 Y98.106 E5.52155
G1 X143.817 Y98.27 E5.53492
G1 X143.965 Y99.162 E5.6071
G1 X143.989 Y99.348 E5.62207
G1 X144.07 Y100.232 E5.69293
G1 X144.079 Y100.384 E5.70509
G1 X144.1 Y101.117 E5.76362
G1 X144.1 Y118.869 E7.18066
G1 X144.064 Y119.875 E7.26102
G1 X144.054 Y120.01 E7.27182
G1 X143.952 Y120.927 E7.34547
G1 X143.927 Y121.102 E7.35958
G1 X143.765 Y121.98 E7.43085
G1 X143.735 Y122.114 E7.44181
G1 X143.504 Y122.999 E7.51483
G1 X143.452 Y123.171 E7.52917
G1 X143.166 Y124.013 E7.60015
G1 X143.102 Y124.179 E7.61435
G1 X142.761 Y124.982 E7.68399
G1 X142.68 Y125.157 E7.69939
G1 X142.276 Y125.943 E7.76993
G1 X142.198 Y126.082 E7.78265
G1 X141.724 Y126.861 E7.85544
G1 X141.624 Y127.012 E7.8699
G1 X141.113 Y127.726 E7.93999
G1 X141 Y127.874 E7.95485
G1 X140.423 Y128.566 E8.02677
G1 X140.327 Y128.674 E8.03831
G1 X139.844 Y129.185 E8.09444
G1 X139.845 Y129.186 E8.09455
G1 X139.688 Y129.342 E8.11222
G1 X139.003 Y129.978 E8.18683
G1 X138.855 Y130.105 E8.2024
G1 X138.162 Y130.661 E8.27332
G1 X138.023 Y130.765 E8.28718
G1 X137.308 Y131.257 E8.35646
G1 X137.124 Y131.374 E8.37386
G1 X136.368 Y131.817 E8.44381
G1 X136.226 Y131.894 E8.4567
G1 X135.398 Y132.301 E8.53035
G1 X135.281 Y132.353 E8.54057
G1 X134.426 Y132.698 E8.61417
G1 X134.263 Y132.756 E8.62798
G1 X133.42 Y133.027 E8.69866
G1 X133.256 Y133.073 E8.71226
G1 X132.384 Y133.285 E8.78389
G1 X132.222 Y133.318 E8.79709
G1 X131.329 Y133.466 E8.86934
G1 X131.152 Y133.489 E8.88359
G1 X130.258 Y133.572 E8.95526
G1 X130.116 Y133.579 E8.96661
G1 X129.375 Y133.6 E9.02578
G1 X126.614 Y133.599 E9.24618
G1 X125.618 Y133.563 E9.32574
G1 X125.471 Y133.552 E9.3375
G1 X125.082 Y133.51 E9.36874
G1 X124.417 Y133.479 E9.42188
G1 X124.025 Y133.501 E9.45322
G1 X123.268 Y133.57 E9.51389
G1 X123.116 Y133.579 E9.52605
G1 X122.375 Y133.6 E9.58522
G1 X113.083 Y133.599 E10.32695
G1 X112.935 Y133.594 E10.33877
G1 X112.671 Y133.592 E10.35984
G1 X112.407 Y133.597 E10.38092
G1 X112.137 Y133.6 E10.40248
G1 X106.283 Y133.598 E10.86977
G1 X106.075 Y133.591 E10.88638
G1 X105.747 Y133.59 E10.91256
G1 X105.379 Y133.6 E10.94195
G1 X90.764 Y133.599 E12.10858
G1 X89.763 Y133.563 E12.18854
G1 X89.64 Y133.554 E12.19838
G1 X88.723 Y133.452 E12.27203
G1 X88.548 Y133.427 E12.28614
G1 X87.659 Y133.263 E12.3583
G1 X87.536 Y133.235 E12.36837
G1 X86.642 Y133.001 E12.44214
G1 X86.479 Y132.952 E12.45573
G1 X85.637 Y132.666 E12.52671
G1 X85.471 Y132.602 E12.54091
G1 X84.668 Y132.261 E12.61055
G1 X84.479 Y132.173 E12.62719
G1 X83.685 Y131.765 E12.69845
G1 X83.568 Y131.698 E12.70922
G1 X82.789 Y131.224 E12.78201
G1 X82.638 Y131.124 E12.79646
G1 X81.924 Y130.613 E12.86655
G1 X81.776 Y130.5 E12.88141
G1 X81.084 Y129.923 E12.95333
G1 X80.976 Y129.827 E12.96487
G1 X80.465 Y129.344 E13.021
G1 X80.464 Y129.345 E13.02111
G1 X80.304 Y129.184 E13.03923
G1 X79.66 Y128.49 E13.1148
G1 X79.543 Y128.353 E13.12919
G1 X78.993 Y127.667 E13.19937
G1 X78.877 Y127.511 E13.21489
G1 X78.393 Y126.808 E13.28302
G1 X78.276 Y126.624 E13.30043
G1 X77.833 Y125.868 E13.37037
G1 X77.756 Y125.726 E13.38326
G1 X77.347 Y124.894 E13.45727
G1 X77.297 Y124.781 E13.46713
G1 X76.948 Y123.917 E13.54151
G1 X76.892 Y123.759 E13.5549
G1 X76.62 Y122.911 E13.62598
G1 X76.578 Y122.761 E13.63842
G1 X76.362 Y121.873 E13.71137
G1 X76.333 Y121.73 E13.72302
G1 X76.183 Y120.824 E13.79632
G1 X76.161 Y120.652 E13.81016
G1 X76.078 Y119.753 E13.88223
G1 X76.071 Y119.616 E13.89318
G1 X76.05 Y118.882 E13.9518
G1 X76.051 Y101.131 E15.36876
G1 X76.087 Y100.125 E15.44911
G1 X76.097 Y99.99 E15.45992
G1 X76.198 Y99.074 E15.53348
G1 X76.224 Y98.898 E15.54768
G1 X76.386 Y98.019 E15.61903
G1 X76.416 Y97.885 E15.62999
G1 X76.649 Y96.993 E15.70358
G1 X76.694 Y96.843 E15.71608
G1 X76.989 Y95.977 E15.78911
G1 X77.049 Y95.82 E15.80253
G1 X77.393 Y95.012 E15.87263
G1 X77.477 Y94.834 E15.88834
G1 X77.878 Y94.05 E15.95863
G1 X77.957 Y93.908 E15.9716
G1 X78.433 Y93.13 E16.04441
G1 X78.524 Y92.993 E16.05754
G1 X79.048 Y92.26 E16.12946
G1 X79.136 Y92.147 E16.14089
G1 X79.735 Y91.425 E16.21578
G1 X79.821 Y91.329 E16.22607
G1 X80.307 Y90.815 E16.28254
G1 X80.306 Y90.814 E16.28265
G1 X80.463 Y90.658 E16.30032
G1 X80.916 Y90.237 E16.34968
G0 F1620 X81.159 Y90.012
G0 F12000 X81.6 Y89.65
G1 F1800 X81.6 Y130.353 E19.59877
G1 F2700 E14.59877
G1 F300 Z0.74
G0 F12000 X83.2 Y131.474 Z0.74
G1 F300 Z0.24
G1 F2700 E19.59877
G1 F1800 X83.2 Y88.524 E23.02722
G1 F2700 E18.02722
G1 F300 Z0.74
G0 F12000 X84.8 Y87.677 Z0.74
G1 F300 Z0.24
G1 F2700 E23.02722
G1 F1800 X84.8 Y132.317 E26.59058
G1 F2700 E21.59058
G1 F300 Z0.74
G0 F12000 X86.4 Y132.925 Z0.74
G1 F300 Z0.24
G1 F2700 E26.59058
G1 F1800 X86.4 Y87.079 E30.25021
G1 F2700 E25.25021
G1 F300 Z0.74
G0 F12000 X88 Y86.67 Z0.74
G1 F300 Z0.24
G1 F2700 E30.25021
G1 F1800 X88 Y133.325 E33.97441
G1 F2700 E28.97441
G1 F300 Z0.74
G0 F12000 X89.6 Y133.549 Z0.74
G1 F300 Z0.24
G1 F2700 E33.97441
G1 F1800 X89.6 Y86.455 E37.73366
G1 F2700 E32.73366
G1 F300 Z0.74
G0 F12000 X91.2 Y86.401 Z0.74
G1 F300 Z0.24
G1 F2700 E37.73366
G1 F1800 X91.2 Y133.599 E41.50121
G1 F2700 E36.50121
G1 F300 Z0.74
G0 F12000 X92.8 Y133.599 Z0.74
G1 F300 Z0.24
G1 F2700 E41.50121
G1 F1800 X92.8 Y86.401 E45.26876
G1 F2700 E40.26876
G1 F300 Z0.74
G0 F12000 X94.4 Y86.401 Z0.74
G1 F300 Z0.24
G1 F2700 E45.26876
G1 F1800 X94.4 Y133.599 E49.0363
G1 F2700 E44.0363
G1 F300 Z0.74
G0 F12000 X96 Y133.599 Z0.74
G1 F300 Z0.24
G1 F2700 E49.0363
G1 F1800 X96 Y86.401 E52.80385
G1 F2700 E47.80385
G1 F300 Z0.74
G0 F12000 X97.6 Y86.401 Z0.74
G1 F300 Z0.24
G1 F2700 E52.80385
G1 F1800 X97.6 Y133.599 E56.5714
G1 F2700 E51.5714
G1 F300 Z0.74
G0 F12000 X99.2 Y133.599 Z0.74
G1 F300 Z0.24
G1 F2700 E56.5714
G1 F1800 X99.2 Y86.401 E60.33895
G1 F2700 E55.33895
G1 F300 Z0.74
G0 F12000 X100.8 Y86.401 Z0.74
G1 F300 Z0.24
G1 F2700 E60.33895
G1 F1800 X100.8 Y133.599 E64.1065
G1 F2700 E59.1065
G1 F300 Z0.74
G0 F12000 X102.4 Y133.599 Z0.74
G1 F300 Z0.24
G1 F2700 E64.1065
G1 F1800 X102.4 Y86.401 E67.87405
G1 F2700 E62.87405
G1 F300 Z0.74
G0 F12000 X104 Y86.401 Z0.74
G1 F300 Z0.24
G1 F2700 E67.87405
G1 F1800 X104 Y133.599 E71.6416
G1 F2700 E66.6416
G1 F300 Z0.74
G0 F12000 X105.6 Y133.594 Z0.74
G1 F300 Z0.24
G1 F2700 E71.6416
G1 F1800 X105.6 Y86.407 E75.40827
G1 F2700 E70.40827
G1 F300 Z0.74
G0 F12000 X107.2 Y86.401 Z0.74
G1 F300 Z0.24
G1 F2700 E75.40827
G1 F1800 X107.2 Y133.598 E79.17573
G1 F2700 E74.17573
G1 F300 Z0.74
G0 F12000 X108.8 Y133.598 Z0.74
G1 F300 Z0.24
G1 F2700 E79.17573
G1 F1800 X108.8 Y86.401 E82.9432
G1 F2700 E77.9432
G1 F300 Z0.74
G0 F12000 X110.4 Y86.402 Z0.74
G1 F300 Z0.24
G1 F2700 E82.9432
G1 F1800 X110.4 Y133.599 E86.71067
G1 F2700 E81.71067
G1 F300 Z0.74
G0 F12000 X112 Y133.599 Z0.74
G1 F300 Z0.24
G1 F2700 E86.71067
G1 F1800 X112 Y86.402 E90.47814
G1 F2700 E85.47814
G1 F300 Z0.74
G0 F12000 X113.6 Y86.401 Z0.74
G1 F300 Z0.24
G1 F2700 E90.47814
G1 F1800 X113.6 Y133.599 E94.24569
G1 F2700 E89.24569
G1 F300 Z0.74
G0 F12000 X115.2 Y133.599 Z0.74
G1 F300 Z0.24
G1 F2700 E94.24569
G1 F1800 X115.2 Y86.401 E98.01324
G1 F2700 E93.01324
G1 F300 Z0.74
G0 F12000 X116.8 Y86.401 Z0.74
G1 F300 Z0.24
G1 F2700 E98.01324
G1 F1800 X116.8 Y133.599 E101.78079
G1 F2700 E96.78079
G1 F300 Z0.74
G0 F12000 X118.4 Y133.599 Z0.74
G1 F300 Z0.24
G1 F2700 E101.78079
G1 F1800 X118.4 Y86.401 E105.54833
G1 F2700 E100.54833
G1 F300 Z0.74
G0 F12000 X120 Y86.401 Z0.74
G1 F300 Z0.24
G1 F2700 E105.54833
G1 F1800 X120 Y133.599 E109.31588
G1 F2700 E104.31588
G1 F300 Z0.74
G0 F12000 X121.6 Y133.599 Z0.74
G1 F300 Z0.24
G1 F2700 E109.31588
G1 F1800 X121.6 Y86.401 E113.08343
G1 F2700 E108.08343
G1 F300 Z0.74
G0 F12000 X123.2 Y86.431 Z0.74
G1 F300 Z0.24
G1 F2700 E113.08343
G1 F1800 X123.2 Y133.575 E116.84667
G1 F2700 E111.84667
G1 F300 Z0.74
G0 F12000 X124.8 Y133.496 Z0.74
G1 F300 Z0.24
G1 F2700 E116.84667
G1 F1800 X124.8 Y86.508 E120.59745
G1 F2700 E115.59745
G1 F300 Z0.74
G0 F12000 X126.4 Y86.406 Z0.74
G1 F300 Z0.24
G1 F2700 E120.59745
G1 F1800 X126.4 Y133.591 E124.36396
G1 F2700 E119.36396
G1 F300 Z0.74
G0 F12000 X128 Y133.599 Z0.74
G1 F300 Z0.24
G1 F2700 E124.36396
G1 F1800 X128 Y86.401 E128.13151
G1 F2700 E123.13151
G1 F300 Z0.74
G0 F12000 X129.6 Y86.409 Z0.74
G1 F300 Z0.24
G1 F2700 E128.13151
G1 F1800 X129.6 Y133.594 E131.89802
G1 F2700 E126.89802
G1 F300 Z0.74
G0 F12000 X131.2 Y133.483 Z0.74
G1 F300 Z0.24
G1 F2700 E131.89802
G1 F1800 X131.2 Y86.523 E135.64657
G1 F2700 E130.64657
G1 F300 Z0.74
G0 F12000 X132.8 Y86.814 Z0.74
G1 F300 Z0.24
G1 F2700 E135.64657
G1 F1800 X132.8 Y133.184 E139.34803
G1 F2700 E134.34803
G1 F300 Z0.74
G0 F12000 X134.4 Y132.708 Z0.74
G1 F300 Z0.24
G1 F2700 E139.34803
G1 F1800 X134.4 Y87.296 E142.97301
G1 F2700 E137.97301
G1 F300 Z0.74
G0 F12000 X136 Y87.997 Z0.74
G1 F300 Z0.24
G1 F2700 E142.97301
G1 F1800 X136 Y132.006 E146.486
G1 F2700 E141.486
G1 F300 Z0.74
G0 F12000 X137.6 Y131.057 Z0.74
G1 F300 Z0.24
G1 F2700 E146.486
G1 F1800 X137.6 Y88.939 E149.84804
G1 F2700 E144.84804
G1 F300 Z0.74
G0 F12000 X139.2 Y90.198 Z0.74
G1 F300 Z0.24
G1 F2700 E149.84804
G1 F1800 X139.2 Y129.796 E153.00892
G1 F2700 E148.00892
G1 F300 Z0.74
G0 F12000 X140.8 Y128.114 Z0.74
G1 F300 Z0.24
G1 F2700 E153.00892
G1 F1800 X140.8 Y91.888 E155.90064
G1 F2700 E150.90064
G1 F300 Z0.74
G0 F12000 X142.4 Y94.287 Z0.74
G1 F300 Z0.24
G1 F2700 E155.90064
G1 F1800 X142.4 Y125.702 E158.40832
G1 F2700 E153.40832
G1 F300 Z0.74
G0 F12000 X144 Y120.496 Z0.74
G1 F300 Z0.24
G1 F2700 E158.40832
G1 F1800 X144 Y99.469 E160.08679
G1 F2700 E155.08679
G1 F300 Z0.74
G0 F12000 X80 Y91.139 Z0.74
G1 F300 Z0.24
G1 F2700 E160.08679
G1 F1800 X80 Y128.856 E163.09752
G1 F2700 E158.09752
G1 F300 Z0.74
G0 F12000 X78.4 Y126.818 Z0.74
G1 F300 Z0.24
G1 F2700 E163.09752
G1 F1800 X78.4 Y93.183 E165.78241
G1 F2700 E160.78241
G1 F300 Z0.74
G0 F12000 X76.8 Y96.531 Z0.74
G1 F300 Z0.24
G1 F2700 E165.78241
G1 F1800 X76.8 Y123.472 E167.93296
G1 F2700 E162.93296
G1 F300 Z0.74
G0 F12000 X78.276 Y126.623 Z0.74
;TIME_ELAPSED:101.008984
;LAYER:-5
M140 S65
G0 X78.276 Y126.623 Z1.04
;TYPE:SUPPORT
G1 F300 Z0.54
G1 F2700 E167.93296
G1 F1800 X78.393 Y126.807 E167.95472
G1 X78.877 Y127.51 E168.03988
G1 X78.993 Y127.666 E168.05928
G1 X79.543 Y128.351 E168.14693
G1 X79.659 Y128.489 E168.16492
G1 X80.303 Y129.183 E168.25939
G1 X80.463 Y129.344 E168.28204
G0 F12000 X80.465 Y129.343
G1 F1800 X80.976 Y129.826 E168.3522
G1 X81.083 Y129.922 E168.36654
G1 X81.775 Y130.499 E168.45644
G1 X81.923 Y130.612 E168.47502
G1 X82.638 Y131.123 E168.56271
G1 X82.789 Y131.223 E168.58078
G1 X83.568 Y131.697 E168.67177
G1 X83.675 Y131.758 E168.68406
G1 X77.902 Y125.985 E169.49869
G1 X77.833 Y125.867 E169.51233
G1 X77.756 Y125.724 E169.52854
G1 X77.346 Y124.892 E169.62109
G1 X77.296 Y124.78 E169.63333
G1 X76.948 Y123.916 E169.72627
G1 X76.892 Y123.757 E169.74309
G1 X76.798 Y123.467 E169.77351
G1 X86.18 Y132.849 E171.09741
G1 X86.479 Y132.951 E171.12893
G1 X86.642 Y133 E171.14591
G1 X87.535 Y133.234 E171.23802
G1 X87.659 Y133.262 E171.25071
G1 X88.085 Y133.34 E171.29392
G1 X76.304 Y121.559 E172.95635
G1 X76.182 Y120.822 E173.03089
G1 X76.161 Y120.65 E173.04818
G1 X76.094 Y119.935 E173.11983
G1 X89.717 Y133.558 E175.04219
G1 X89.762 Y133.562 E175.04669
G1 X90.764 Y133.597 E175.14673
G1 X91.171 Y133.597 E175.18734
G1 X76.05 Y118.476 E177.32108
G1 X76.05 Y117.062 E177.46217
G1 X92.585 Y133.597 E179.79544
G1 X93.999 Y133.597 E179.93653
G1 X76.05 Y115.648 E182.46932
G1 X76.05 Y114.233 E182.61051
G1 X95.414 Y133.597 E185.34298
G1 X96.828 Y133.597 E185.48407
G1 X76.05 Y112.819 E188.41607
G1 X76.05 Y111.405 E188.55716
G1 X98.243 Y133.598 E191.68884
G1 X99.657 Y133.598 E191.82992
G1 X76.05 Y109.991 E195.16113
G1 X76.05 Y108.576 E195.30232
G1 X101.071 Y133.598 E198.83312
G1 X102.485 Y133.598 E198.97421
G1 X76.05 Y107.162 E202.70454
G1 X76.05 Y105.748 E202.84563
G1 X103.9 Y133.598 E206.77557
G1 X105.314 Y133.598 E206.91666
G1 X76.05 Y104.334 E211.04613
G1 X76.05 Y102.92 E211.18722
G1 X106.727 Y133.597 E215.51607
G1 X108.141 Y133.597 E215.65716
G1 X76.05 Y101.505 E220.18562
G1 X76.05 Y101.13 E220.22304
G1 X76.086 Y100.127 E220.32318
G1 X109.556 Y133.597 E225.04616
G1 X110.971 Y133.598 E225.18735
G1 X76.23 Y98.857 E230.08968
G1 X76.385 Y98.017 E230.17491
G1 X76.416 Y97.884 E230.18854
G1 X76.468 Y97.681 E230.20944
G1 X112.383 Y133.596 E235.27744
G1 X112.407 Y133.596 E235.27983
G1 X112.671 Y133.591 E235.30618
G1 X112.934 Y133.593 E235.33242
G1 X113.082 Y133.598 E235.3472
G1 X113.799 Y133.598 E235.41874
G1 X76.782 Y96.581 E240.64224
G1 X76.989 Y95.976 E240.70604
G1 X77.048 Y95.819 E240.72278
G1 X77.163 Y95.548 E240.75215
G1 X115.213 Y133.598 E246.12142
G1 X116.628 Y133.598 E246.26261
G1 X77.607 Y94.577 E251.76889
G1 X77.877 Y94.049 E251.82807
G1 X77.956 Y93.907 E251.84428
G1 X78.106 Y93.662 E251.87294
G1 X118.042 Y133.598 E257.50834
G1 X119.456 Y133.598 E257.64943
G1 X78.659 Y92.801 E263.40633
G1 X79.048 Y92.259 E263.4729
G1 X79.135 Y92.146 E263.48713
G1 X79.263 Y91.991 E263.50719
G1 X120.87 Y133.598 E269.37838
