;FLAVOR:Marlin
;TIME:1620
;Filament used: 1.4774m
;Layer height: 0.2
;MINX:70.7
;MINY:100.7
;MINZ:0.2
;MAXX:149.3
;MAXY:119.3
;MAXZ:10
;Generated with Cura_SteamEngine master
M140 S50
M105
M190 S50
M104 S200
M105
M109 S200
M82 ;absolute extrusion mode
M201 X500.00 Y500.00 Z100.00 E5000.00 ;Setup machine max acceleration
M203 X500.00 Y500.00 Z10.00 E50.00 ;Setup machine max feedrate
M204 P500.00 R1000.00 T500.00 ;Setup Print/Retract/Travel acceleration
M205 X8.00 Y8.00 Z0.40 E5.00 ;Setup Jerk
M220 S100 ;Reset Feedrate
M221 S100 ;Reset Flowrate

G28 ;Home

G92 E0 ;Reset Extruder
G1 Z2.0 F3000 ;Move Z Axis up
G1 X10.1 Y20 Z0.28 F5000.0 ;Move to start position
G1 X10.1 Y200.0 Z0.28 F1500.0 E15 ;Draw the first line
G1 X10.4 Y200.0 Z0.28 F5000.0 ;Move to side a little
G1 X10.4 Y20 Z0.28 F1500.0 E30 ;Draw the second line
G92 E0 ;Reset Extruder
G1 Z2.0 F3000 ;Move Z Axis up

G92 E0
G92 E0
G1 F2700 E-5
;LAYER_COUNT:50
;LAYER:0
M107
G0 F6000 X72.347 Y101.453 Z0.2
;TYPE:SKIRT
G1 F2700 E0
G1 F1200 X72.811 Y101.156 E0.01832
G1 X73.314 Y100.93 E0.03666
G1 X73.844 Y100.779 E0.05499
G1 X74.617 Y100.7 E0.08084
G1 X145.383 Y100.7 E2.43452
G1 X145.933 Y100.74 E2.45287
G1 X146.471 Y100.859 E2.47119
G1 X146.986 Y101.055 E2.48952
G1 X147.467 Y101.323 E2.50783
G1 X148.07 Y101.813 E2.53368
G1 X148.187 Y101.93 E2.53918
G1 X148.547 Y102.347 E2.5575
G1 X148.844 Y102.811 E2.57583
G1 X149.07 Y103.314 E2.59417
G1 X149.221 Y103.844 E2.6125
G1 X149.3 Y104.617 E2.63834
G1 X149.3 Y115.383 E2.99642
G1 X149.26 Y115.933 E3.01476
G1 X149.141 Y116.471 E3.03309
G1 X148.945 Y116.986 E3.05141
G1 X148.677 Y117.467 E3.06973
G1 X148.187 Y118.07 E3.09557
G1 X148.07 Y118.187 E3.10107
G1 X147.653 Y118.547 E3.1194
G1 X147.189 Y118.844 E3.13772
G1 X146.686 Y119.07 E3.15606
G1 X146.156 Y119.221 E3.17439
G1 X145.383 Y119.3 E3.20023
G1 X74.617 Y119.3 E5.55392
G1 X74.067 Y119.26 E5.57226
G1 X73.529 Y119.141 E5.59059
G1 X73.014 Y118.945 E5.60892
G1 X72.533 Y118.677 E5.62723
G1 X71.93 Y118.187 E5.65307
G1 X71.813 Y118.07 E5.65858
G1 X71.453 Y117.653 E5.6769
G1 X71.156 Y117.189 E5.69522
G1 X70.93 Y116.686 E5.71356
G1 X70.779 Y116.156 E5.73189
G1 X70.7 Y115.383 E5.75774
G1 X70.7 Y104.617 E6.11582
G1 X70.74 Y104.067 E6.13416
G1 X70.859 Y103.529 E6.15248
G1 X71.055 Y103.014 E6.17081
G1 X71.323 Y102.533 E6.18913
G1 X71.813 Y101.93 E6.21497
G1 X71.93 Y101.813 E6.22047
G1 X72.347 Y101.453 E6.23879
G0 F6000 X72.609 Y101.757
G1 F1200 X73.051 Y101.482 E6.25611
G1 X73.531 Y101.278 E6.27346
G1 X74.036 Y101.15 E6.29078
G1 X74.617 Y101.1 E6.31018
G1 X145.383 Y101.1 E8.66386
G1 X145.903 Y101.14 E8.68121
G1 X146.41 Y101.259 E8.69853
G1 X146.893 Y101.454 E8.71586
G1 X147.341 Y101.72 E8.73319
G1 X147.787 Y102.096 E8.75259
G1 X147.904 Y102.213 E8.75809
G1 X148.243 Y102.609 E8.77543
G1 X148.518 Y103.051 E8.79274
G1 X148.722 Y103.531 E8.81009
G1 X148.85 Y104.036 E8.82742
G1 X148.9 Y104.617 E8.84681
G1 X148.9 Y115.383 E9.20489
G1 X148.86 Y115.903 E9.22224
G1 X148.741 Y116.41 E9.23956
G1 X148.546 Y116.893 E9.25688
G1 X148.28 Y117.341 E9.27421
G1 X147.904 Y117.787 E9.29362
G1 X147.787 Y117.904 E9.29912
G1 X147.391 Y118.243 E9.31646
G1 X146.949 Y118.518 E9.33377
G1 X146.469 Y118.722 E9.35112
G1 X145.964 Y118.85 E9.36845
G1 X145.383 Y118.9 E9.38784
G1 X74.617 Y118.9 E11.74153
G1 X74.097 Y118.86 E11.75887
G1 X73.59 Y118.741 E11.77619
G1 X73.107 Y118.546 E11.79352
G1 X72.659 Y118.28 E11.81085
G1 X72.213 Y117.904 E11.83025
G1 X72.096 Y117.787 E11.83575
G1 X71.757 Y117.391 E11.85309
G1 X71.482 Y116.949 E11.87041
G1 X71.278 Y116.469 E11.88775
G1 X71.15 Y115.964 E11.90508
G1 X71.1 Y115.383 E11.92448
G1 X71.1 Y104.617 E12.28255
G1 X71.14 Y104.097 E12.2999
G1 X71.259 Y103.59 E12.31722
G1 X71.454 Y103.107 E12.33455
G1 X71.72 Y102.659 E12.35188
G1 X72.096 Y102.213 E12.37128
G1 X72.213 Y102.096 E12.37678
G1 X72.609 Y101.757 E12.39412
G0 F6000 X72.869 Y102.062
G1 F1200 X73.289 Y101.81 E12.41041
G1 X73.744 Y101.63 E12.42668
G1 X74.222 Y101.526 E12.44295
G1 X74.617 Y101.5 E12.45612
G1 X145.383 Y101.5 E14.80981
G1 X145.871 Y101.54 E14.82609
G1 X146.346 Y101.659 E14.84238
G1 X146.795 Y101.853 E14.85865
G1 X147.207 Y102.118 E14.87494
G1 X147.504 Y102.379 E14.88809
G1 X147.621 Y102.496 E14.8936
G1 X147.938 Y102.869 E14.90988
G1 X148.19 Y103.289 E14.92617
G1 X148.37 Y103.744 E14.94244
G1 X148.474 Y104.222 E14.95871
G1 X148.5 Y104.617 E14.97188
G1 X148.5 Y115.383 E15.32996
G1 X148.46 Y115.871 E15.34624
G1 X148.341 Y116.346 E15.36253
G1 X148.147 Y116.795 E15.3788
G1 X147.882 Y117.207 E15.39509
G1 X147.621 Y117.504 E15.40824
G1 X147.504 Y117.621 E15.41374
G1 X147.131 Y117.938 E15.43002
G1 X146.711 Y118.19 E15.44632
G1 X146.256 Y118.37 E15.46259
G1 X145.778 Y118.474 E15.47886
G1 X145.383 Y118.5 E15.49203
G1 X74.617 Y118.5 E17.84571
G1 X74.129 Y118.46 E17.862
G1 X73.654 Y118.341 E17.87829
G1 X73.205 Y118.147 E17.89455
G1 X72.793 Y117.882 E17.91085
G1 X72.496 Y117.621 E17.924
G1 X72.379 Y117.504 E17.9295
G1 X72.062 Y117.131 E17.94578
G1 X71.81 Y116.711 E17.96207
G1 X71.63 Y116.256 E17.97835
G1 X71.526 Y115.778 E17.99462
G1 X71.5 Y115.383 E18.00778
G1 X71.5 Y104.617 E18.36586
G1 X71.54 Y104.129 E18.38215
G1 X71.659 Y103.654 E18.39843
G1 X71.853 Y103.205 E18.4147
G1 X72.118 Y102.793 E18.431
G1 X72.379 Y102.496 E18.44415
G1 X72.496 Y102.379 E18.44965
G1 X72.869 Y102.062 E18.46593
G0 F6000 X73.128 Y102.369
G1 F1200 X73.523 Y102.142 E18.48108
G1 X73.951 Y101.987 E18.49622
G1 X74.617 Y101.9 E18.51856
G1 X145.383 Y101.9 E20.87225
G1 X145.837 Y101.94 E20.88741
G1 X146.277 Y102.058 E20.90256
G1 X146.689 Y102.252 E20.91771
G1 X147.221 Y102.662 E20.94005
G1 X147.338 Y102.779 E20.94555
G1 X147.631 Y103.128 E20.96071
G1 X147.858 Y103.523 E20.97586
G1 X148.013 Y103.951 E20.991
G1 X148.1 Y104.617 E21.01334
G1 X148.1 Y115.383 E21.37142
G1 X148.06 Y115.837 E21.38657
G1 X147.942 Y116.277 E21.40173
G1 X147.748 Y116.689 E21.41687
G1 X147.338 Y117.221 E21.43921
G1 X147.221 Y117.338 E21.44472
G1 X146.872 Y117.631 E21.45987
G1 X146.477 Y117.858 E21.47502
G1 X146.049 Y118.013 E21.49016
G1 X145.383 Y118.1 E21.5125
G1 X74.617 Y118.1 E23.86619
G1 X74.163 Y118.06 E23.88135
G1 X73.723 Y117.942 E23.8965
G1 X73.311 Y117.748 E23.91165
G1 X72.779 Y117.338 E23.93399
G1 X72.662 Y117.221 E23.93949
G1 X72.369 Y116.872 E23.95465
G1 X72.142 Y116.477 E23.9698
G1 X71.987 Y116.049 E23.98494
G1 X71.9 Y115.383 E24.00728
G1 X71.9 Y104.617 E24.36536
G1 X71.94 Y104.163 E24.38052
G1 X72.058 Y103.723 E24.39567
G1 X72.252 Y103.311 E24.41081
G1 X72.662 Y102.779 E24.43315
G1 X72.779 Y102.662 E24.43866
G1 X73.128 Y102.369 E24.45381
G0 F6000 X73.385 Y102.678
G1 F1200 X73.752 Y102.477 E24.46773
G1 X74.152 Y102.35 E24.48169
G1 X74.617 Y102.3 E24.49724
G1 X145.383 Y102.3 E26.85093
G1 X145.8 Y102.34 E26.86486
G1 X146.202 Y102.458 E26.8788
G1 X146.574 Y102.651 E26.89274
G1 X146.939 Y102.944 E26.9083
G1 X147.056 Y103.061 E26.91381
G1 X147.322 Y103.385 E26.92775
G1 X147.523 Y103.752 E26.94167
G1 X147.65 Y104.152 E26.95563
G1 X147.7 Y104.617 E26.97118
G1 X147.7 Y115.383 E27.32926
G1 X147.66 Y115.8 E27.34319
G1 X147.542 Y116.202 E27.35713
G1 X147.349 Y116.574 E27.37107
G1 X147.056 Y116.939 E27.38663
G1 X146.939 Y117.056 E27.39214
G1 X146.615 Y117.322 E27.40608
G1 X146.248 Y117.523 E27.42
G1 X145.848 Y117.65 E27.43396
G1 X145.383 Y117.7 E27.44951
G1 X74.617 Y117.7 E29.8032
G1 X74.2 Y117.66 E29.81713
G1 X73.798 Y117.542 E29.83107
G1 X73.426 Y117.349 E29.845
G1 X73.061 Y117.056 E29.86057
G1 X72.944 Y116.939 E29.86607
G1 X72.678 Y116.615 E29.88002
G1 X72.477 Y116.248 E29.89394
G1 X72.35 Y115.848 E29.90789
G1 X72.3 Y115.383 E29.92345
G1 X72.3 Y104.617 E30.28153
G1 X72.34 Y104.2 E30.29546
G1 X72.458 Y103.798 E30.3094
G1 X72.651 Y103.426 E30.32333
G1 X72.944 Y103.061 E30.3389
G1 X73.061 Y102.944 E30.3444
G1 X73.385 Y102.678 E30.35835
G0 F6000 X73.639 Y102.989
G1 F1200 X73.977 Y102.818 E30.37095
G1 X74.343 Y102.721 E30.38354
G1 X74.617 Y102.7 E30.39268
G1 X145.383 Y102.7 E32.74637
G1 X145.76 Y102.74 E32.75898
G1 X146.12 Y102.858 E32.77158
G1 X146.447 Y103.048 E32.78416
G1 X146.656 Y103.227 E32.79331
G1 X146.773 Y103.344 E32.79881
G1 X147.011 Y103.639 E32.81142
G1 X147.182 Y103.977 E32.82402
G1 X147.279 Y104.343 E32.83661
G1 X147.3 Y104.617 E32.84575
G1 X147.3 Y115.383 E33.20383
G1 X147.26 Y115.76 E33.21644
G1 X147.142 Y116.12 E33.22904
G1 X146.952 Y116.447 E33.24162
G1 X146.773 Y116.656 E33.25077
G1 X146.656 Y116.773 E33.25627
G1 X146.361 Y117.011 E33.26888
G1 X146.023 Y117.182 E33.28148
G1 X145.657 Y117.279 E33.29407
G1 X145.383 Y117.3 E33.30321
G1 X74.617 Y117.3 E35.6569
G1 X74.24 Y117.26 E35.66951
G1 X73.88 Y117.142 E35.68211
G1 X73.553 Y116.952 E35.69469
G1 X73.344 Y116.773 E35.70384
G1 X73.227 Y116.656 E35.70934
G1 X72.989 Y116.361 E35.72195
G1 X72.818 Y116.023 E35.73455
G1 X72.721 Y115.657 E35.74714
G1 X72.7 Y115.383 E35.75628
G1 X72.7 Y104.617 E36.11436
G1 X72.74 Y104.24 E36.12697
G1 X72.858 Y103.88 E36.13957
G1 X73.048 Y103.553 E36.15215
G1 X73.227 Y103.344 E36.1613
G1 X73.344 Y103.227 E36.1668
G1 X73.639 Y102.989 E36.17941
G0 F6000 X73.89 Y103.304
G1 F1200 X74.194 Y103.165 E36.19053
G1 X74.617 Y103.1 E36.20476
G1 X145.383 Y103.1 E38.55845
G1 X145.715 Y103.14 E38.56957
G1 X146.027 Y103.257 E38.58066
G1 X146.373 Y103.51 E38.59491
G1 X146.49 Y103.627 E38.60042
G1 X146.696 Y103.89 E38.61153
G1 X146.835 Y104.194 E38.62264
G1 X146.9 Y104.617 E38.63688
G1 X146.9 Y115.383 E38.99496
G1 X146.86 Y115.715 E39.00608
G1 X146.743 Y116.027 E39.01716
G1 X146.49 Y116.373 E39.03142
G1 X146.373 Y116.49 E39.03692
G1 X146.11 Y116.696 E39.04803
G1 X145.806 Y116.835 E39.05915
G1 X145.383 Y116.9 E39.07339
G1 X74.617 Y116.9 E41.42707
G1 X74.285 Y116.86 E41.43819
G1 X73.973 Y116.743 E41.44928
G1 X73.627 Y116.49 E41.46353
G1 X73.51 Y116.373 E41.46904
G1 X73.304 Y116.11 E41.48015
G1 X73.165 Y115.806 E41.49127
G1 X73.1 Y115.383 E41.5055
G1 X73.1 Y104.617 E41.86358
G1 X73.14 Y104.285 E41.8747
G1 X73.257 Y103.973 E41.88578
G1 X73.51 Y103.627 E41.90004
G1 X73.627 Y103.51 E41.90554
G1 X73.89 Y103.304 E41.91665
G0 F6000 X74.136 Y103.624
G1 F1200 X74.4 Y103.524 E41.92604
G1 X74.617 Y103.5 E41.93331
G1 X145.383 Y103.5 E44.28699
G1 X145.662 Y103.54 E44.29637
G1 X145.919 Y103.656 E44.30575
G1 X146.09 Y103.793 E44.31303
G1 X146.207 Y103.91 E44.31854
G1 X146.376 Y104.136 E44.32792
G1 X146.476 Y104.4 E44.33731
G1 X146.5 Y104.617 E44.34457
G1 X146.5 Y115.383 E44.70265
G1 X146.46 Y115.662 E44.71203
G1 X146.344 Y115.919 E44.7214
G1 X146.207 Y116.09 E44.72869
G1 X146.09 Y116.207 E44.7342
G1 X145.864 Y116.376 E44.74358
G1 X145.6 Y116.476 E44.75297
G1 X145.383 Y116.5 E44.76023
G1 X74.617 Y116.5 E47.11392
G1 X74.338 Y116.46 E47.12329
G1 X74.081 Y116.344 E47.13267
G1 X73.91 Y116.207 E47.13996
G1 X73.793 Y116.09 E47.14546
G1 X73.624 Y115.864 E47.15485
G1 X73.524 Y115.6 E47.16424
G1 X73.5 Y115.383 E47.1715
G1 X73.5 Y104.617 E47.52958
G1 X73.54 Y104.338 E47.53895
G1 X73.656 Y104.081 E47.54833
G1 X73.793 Y103.91 E47.55562
G1 X73.91 Y103.793 E47.56112
G1 X74.136 Y103.624 E47.57051
G0 F6000 X74.193 Y104.076
G1 F1200 X74.372 Y103.952 E47.57775
G1 X74.617 Y103.9 E47.58608
G1 X145.383 Y103.9 E49.93977
G1 X145.598 Y103.94 E49.94704
G1 X145.807 Y104.076 E49.95533
G1 X145.924 Y104.193 E49.96084
G1 X146.048 Y104.372 E49.96808
G1 X146.1 Y104.617 E49.97641
G1 X146.1 Y115.383 E50.33449
G1 X146.06 Y115.598 E50.34176
G1 X145.924 Y115.807 E50.35006
G1 X145.807 Y115.924 E50.35556
G1 X145.628 Y116.048 E50.3628
G1 X145.383 Y116.1 E50.37113
G1 X74.617 Y116.1 E52.72482
G1 X74.402 Y116.06 E52.73209
G1 X74.193 Y115.924 E52.74039
G1 X74.076 Y115.807 E52.74589
G1 X73.952 Y115.628 E52.75313
G1 X73.9 Y115.383 E52.76146
G1 X73.9 Y104.617 E53.11954
G1 X73.94 Y104.402 E53.12682
G1 X74.076 Y104.193 E53.13511
G1 X74.193 Y104.076 E53.14061
G0 F6000 X74.476 Y104.359
G1 F1200 X74.617 Y104.3 E53.1457
G1 X145.383 Y104.3 E55.49938
G1 X145.524 Y104.359 E55.50447
G1 X145.641 Y104.476 E55.50997
G1 X145.7 Y104.617 E55.51505
G1 X145.7 Y115.383 E55.87313
G1 X145.641 Y115.524 E55.87822
G1 X145.524 Y115.641 E55.88372
G1 X145.383 Y115.7 E55.8888
G1 X74.617 Y115.7 E58.24249
G1 X74.476 Y115.641 E58.24757
G1 X74.359 Y115.524 E58.25308
G1 X74.3 Y115.383 E58.25816
G1 X74.3 Y104.617 E58.61624
G1 X74.359 Y104.476 E58.62132
G1 X74.476 Y104.359 E58.62683
G1 F2700 E53.62683
;MESH:spacer.stl
G0 F6000 X75.31 Y105.31
G0 X75.282 Y114.718
G0 X145 Y115.03
G0 X145.3 Y115.3
;TYPE:WALL-OUTER
G1 F2700 E58.62683
G1 F1200 X74.7 Y115.3 E60.97499
G1 X74.7 Y104.7 E61.32755
G1 X145.3 Y104.7 E63.67571
G1 X145.3 Y115.3 E64.02827
G1 F2700 E59.02827
G0 F6000 X145 Y115.03
G0 X93.5 Y114.69
G0 X93.5 Y114.29
G0 X93.5 Y113.7
G0 X93.8 Y113.7
G1 F2700 E64.02827
G1 F1200 X126.2 Y113.7 E65.1059
G1 X126.2 Y106.3 E65.35202
G1 X93.8 Y106.3 E66.42965
G1 X93.8 Y113.7 E66.67578
G0 F6000 X93.4 Y114.1
;TYPE:WALL-INNER
G1 F1200 X126.6 Y114.1 E67.78001
G1 X126.6 Y105.9 E68.05275
G1 X93.4 Y105.9 E69.15698
G1 X93.4 Y114.1 E69.42972
G1 F2700 E64.42972
G0 F6000 X126.796 Y114.296
G0 X126.796 Y114.69
G0 X144.9 Y114.9
G1 F2700 E69.42972
G1 F1200 X75.1 Y114.9 E71.75127
G1 X75.1 Y105.1 E72.07722
G1 X144.9 Y105.1 E74.39878
G1 X144.9 Y114.9 E74.72473
G0 F6000 X144.51 Y114.51
;TYPE:SKIN
G1 F1200 X75.49 Y114.51 E77.02035
G1 X75.49 Y105.49 E77.32035
G1 X144.51 Y105.49 E79.61597
G1 X144.51 Y114.51 E79.91597
G0 F6000 X144.79 Y114.51
G0 X144.726 Y114.697
G0 X126.99 Y114.79
G0 X126.99 Y114.49
G1 F1200 X126.99 Y105.51 E80.21465
G1 X93.01 Y105.51 E81.34483
G1 X93.01 Y114.49 E81.6435
G1 X126.99 Y114.49 E82.77368
G0 F6000 X126.99 Y114.79
G0 X144.718 Y114.718
G0 X144.79 Y105.882
G0 X144.349 Y105.882
G1 F1200 X144.116 Y105.65 E82.78462
G0 F6000 X143.551 Y105.65
G1 F1200 X144.349 Y106.448 E82.82216
G0 F6000 X144.349 Y107.014
G1 F1200 X142.985 Y105.65 E82.88631
G0 F6000 X142.419 Y105.65
G1 F1200 X144.349 Y107.579 E82.97707
G0 F6000 X144.349 Y108.145
G1 F1200 X141.854 Y105.65 E83.09443
G0 F6000 X141.288 Y105.65
G1 F1200 X144.349 Y108.711 E83.23841
G0 F6000 X144.349 Y109.276
G1 F1200 X140.722 Y105.65 E83.40899
G0 F6000 X140.157 Y105.65
G1 F1200 X144.349 Y109.842 E83.60617
G0 F6000 X144.349 Y110.408
G1 F1200 X139.591 Y105.65 E83.82997
G0 F6000 X139.025 Y105.65
G1 F1200 X144.349 Y110.974 E84.08039
G0 F6000 X144.349 Y111.539
G1 F1200 X138.459 Y105.65 E84.35742
G0 F6000 X137.894 Y105.65
G1 F1200 X144.349 Y112.105 E84.66104
G0 F6000 X144.349 Y112.671
G1 F1200 X137.328 Y105.65 E84.99129
G0 F6000 X136.762 Y105.65
G1 F1200 X144.349 Y113.236 E85.34813
G0 F6000 X144.349 Y113.802
G1 F1200 X136.197 Y105.65 E85.73158
G0 F6000 X135.631 Y105.65
G1 F1200 X144.331 Y114.349 E86.14078
G0 F6000 X143.765 Y114.349
G1 F1200 X135.065 Y105.65 E86.54997
G0 F6000 X134.5 Y105.65
G1 F1200 X143.199 Y114.349 E86.95915
G0 F6000 X142.634 Y114.349
G1 F1200 X133.934 Y105.65 E87.36835
G0 F6000 X133.368 Y105.65
G1 F1200 X142.068 Y114.349 E87.77754
G0 F6000 X141.502 Y114.349
G1 F1200 X132.803 Y105.65 E88.18672
G0 F6000 X132.237 Y105.65
G1 F1200 X140.936 Y114.349 E88.59589
G0 F6000 X140.371 Y114.349
G1 F1200 X131.671 Y105.65 E89.00509
G0 F6000 X131.106 Y105.65
G1 F1200 X139.805 Y114.349 E89.41426
G0 F6000 X139.239 Y114.349
G1 F1200 X130.54 Y105.65 E89.82344
G0 F6000 X129.974 Y105.65
G1 F1200 X138.674 Y114.349 E90.23264
G0 F6000 X138.108 Y114.349
G1 F1200 X129.409 Y105.65 E90.64181
G0 F6000 X128.843 Y105.65
G1 F1200 X137.542 Y114.349 E91.05098
G0 F6000 X136.977 Y114.349
G1 F1200 X128.277 Y105.65 E91.46018
G0 F6000 X127.711 Y105.65
G1 F1200 X136.411 Y114.349 E91.86938
G0 F6000 X135.845 Y114.349
G1 F1200 X127.149 Y105.653 E92.27841
G0 F6000 X127.149 Y106.218
G1 F1200 X135.28 Y114.349 E92.66087
G0 F6000 X134.714 Y114.349
G1 F1200 X127.149 Y106.784 E93.0167
G0 F6000 X127.149 Y107.35
G1 F1200 X134.148 Y114.349 E93.34592
G0 F6000 X133.583 Y114.349
G1 F1200 X127.149 Y107.915 E93.64855
G0 F6000 X127.149 Y108.481
G1 F1200 X133.017 Y114.349 E93.92456
G0 F6000 X132.451 Y114.349
G1 F1200 X127.149 Y109.047 E94.17395
G0 F6000 X127.149 Y109.612
G1 F1200 X131.886 Y114.349 E94.39677
G0 F6000 X131.32 Y114.349
G1 F1200 X127.149 Y110.178 E94.59296
G0 F6000 X127.149 Y110.744
G1 F1200 X130.754 Y114.349 E94.76253
G0 F6000 X130.188 Y114.349
G1 F1200 X127.149 Y111.309 E94.9055
