;FLAVOR:Marlin
;TIME:12054
;Filament used: 7.76659m
;Layer height: 0.2
;MINX:68.205
;MINY:89.438
;MINZ:0.24
;MAXX:151.794
;MAXY:130.562
;MAXZ:116.79
;Generated with Cura_SteamEngine master
M140 S70
M105
M190 S70
M104 S200
M105
M109 S200
M82 ;absolute extrusion mode
M201 X500.00 Y500.00 Z100.00 E5000.00 ;Setup machine max acceleration
M203 X500.00 Y500.00 Z10.00 E50.00 ;Setup machine max feedrate
M204 P500.00 R1000.00 T500.00 ;Setup Print/Retract/Travel acceleration
M205 X8.00 Y8.00 Z0.40 E5.00 ;Setup Jerk
M220 S100 ;Reset Feedrate
M221 S100 ;Reset Flowrate

G28 ;Home

G92 E0 ;Reset Extruder
G1 Z2.0 F3000 ;Move Z Axis up
G1 X10.1 Y20 Z0.28 F5000.0 ;Move to start position
G1 X10.1 Y200.0 Z0.28 F1500.0 E15 ;Draw the first line
G1 X10.4 Y200.0 Z0.28 F5000.0 ;Move to side a little
G1 X10.4 Y20 Z0.28 F1500.0 E30 ;Draw the second line
G92 E0 ;Reset Extruder
G1 Z2.0 F3000 ;Move Z Axis up

G92 E0
G92 E0
G1 F2700 E-5
;LAYER_COUNT:576
;LAYER:-6
M107
G0 F12000 X73.964 Y96.39 Z0.24
;TYPE:SUPPORT-INTERFACE
G1 F2700 E0
G1 F1800 X74.704 Y95.833 E0.07393
G1 X74.831 Y95.743 E0.08636
G1 X75.595 Y95.251 E0.1589
G1 X75.731 Y95.17 E0.17153
G1 X76.528 Y94.735 E0.24401
G1 X76.679 Y94.66 E0.25747
G1 X77.485 Y94.294 E0.32813
G1 X77.654 Y94.225 E0.3427
G1 X78.483 Y93.919 E0.41324
G1 X78.655 Y93.862 E0.4277
G1 X79.506 Y93.617 E0.49839
G1 X79.683 Y93.574 E0.51293
G1 X80.551 Y93.39 E0.58376
G1 X80.716 Y93.361 E0.59713
G1 X81.636 Y93.237 E0.67124
G1 X81.734 Y93.226 E0.67911
G1 X83.164 Y93.083 E0.79383
G1 X83.415 Y93.061 E0.81394
G1 X85.536 Y92.889 E0.9838
G1 X85.591 Y92.886 E0.9882
G1 X85.72 Y92.874 E0.99854
G1 X85.847 Y92.867 E1.00869
G1 X86.751 Y92.843 E1.08088
G1 X86.911 Y92.844 E1.09365
G1 X87.829 Y92.887 E1.16701
G1 X87.991 Y92.9 E1.17998
G1 X88.882 Y93.006 E1.25161
G1 X89.035 Y93.031 E1.26399
G1 X89.08 Y93.04 E1.26765
G1 X89.747 Y93.127 E1.32134
G1 X90.43 Y93.129 E1.37586
G1 X91.108 Y93.045 E1.4304
G1 X91.77 Y92.876 E1.48494
G1 X92.408 Y92.623 E1.53972
G1 X93.153 Y92.196 E1.60827
G1 X93.485 Y91.968 E1.64042
G1 X93.649 Y91.863 E1.65596
G1 X94.404 Y91.421 E1.7258
G1 X94.546 Y91.344 E1.73869
G1 X95.378 Y90.935 E1.81269
G1 X95.491 Y90.885 E1.82256
G1 X96.341 Y90.542 E1.89572
G1 X96.514 Y90.48 E1.91039
G1 X97.352 Y90.211 E1.98065
G1 X97.516 Y90.165 E1.99425
G1 X98.388 Y89.953 E2.06588
G1 X98.55 Y89.92 E2.07908
G1 X99.443 Y89.772 E2.15133
G1 X99.62 Y89.749 E2.16558
G1 X100.514 Y89.666 E2.23725
G1 X100.656 Y89.659 E2.2486
G1 X101.397 Y89.638 E2.30777
G1 X118.674 Y89.639 E3.6869
G1 X119.675 Y89.675 E3.76685
G1 X119.798 Y89.684 E3.7767
G1 X120.715 Y89.786 E3.85035
G1 X120.89 Y89.811 E3.86446
G1 X121.779 Y89.975 E3.93662
G1 X121.902 Y90.003 E3.94669
G1 X122.796 Y90.237 E4.02046
G1 X122.959 Y90.286 E4.03404
G1 X123.801 Y90.572 E4.10503
G1 X123.967 Y90.636 E4.11923
G1 X124.77 Y90.977 E4.18887
G1 X124.959 Y91.065 E4.20551
G1 X125.753 Y91.474 E4.2768
G1 X125.877 Y91.543 E4.28813
G1 X126.367 Y91.842 E4.33395
G1 X126.96 Y92.154 E4.38744
G1 X127.6 Y92.393 E4.44197
G1 X128.264 Y92.549 E4.49642
G1 X128.945 Y92.621 E4.55108
G1 X129.696 Y92.598 E4.61106
G1 X129.847 Y92.583 E4.62317
G1 X130.021 Y92.572 E4.63709
G1 X130.906 Y92.548 E4.70776
G1 X131.073 Y92.549 E4.72109
G1 X131.993 Y92.591 E4.79461
G1 X132.107 Y92.599 E4.80373
G1 X132.667 Y92.661 E4.8487
G1 X132.861 Y92.679 E4.86426
G1 X133.358 Y92.715 E4.90403
G1 X133.521 Y92.733 E4.91712
G1 X133.584 Y92.742 E4.9222
G1 X133.884 Y92.776 E4.9463
G1 X133.903 Y92.777 E4.94782
G1 X134.08 Y92.797 E4.96204
G1 X134.178 Y92.813 E4.96997
G1 X134.376 Y92.839 E4.98591
G1 X134.376 Y92.842 E4.98615
G1 X134.973 Y92.905 E5.03407
G1 X135.247 Y92.938 E5.0561
G1 X135.43 Y92.955 E5.07077
G1 X135.726 Y92.986 E5.09453
G1 X136.076 Y93.012 E5.12254
G1 X136.318 Y93.038 E5.14197
G1 X136.413 Y93.05 E5.14961
G1 X138.275 Y93.232 E5.29896
G1 X138.352 Y93.241 E5.30514
G1 X139.285 Y93.366 E5.38028
G1 X139.463 Y93.397 E5.39471
G1 X140.318 Y93.576 E5.46444
G1 X140.504 Y93.622 E5.47973
G1 X141.374 Y93.872 E5.55199
G1 X141.523 Y93.921 E5.56451
G1 X142.364 Y94.231 E5.63606
G1 X142.513 Y94.292 E5.64891
G1 X143.331 Y94.663 E5.72061
G1 X143.496 Y94.745 E5.73532
G1 X144.287 Y95.176 E5.80722
G1 X144.41 Y95.249 E5.81864
G1 X145.178 Y95.744 E5.89157
G1 X145.299 Y95.828 E5.90333
G1 X146.042 Y96.387 E5.97755
G1 X146.157 Y96.481 E5.98941
G1 X146.843 Y97.08 E6.06211
G1 X146.945 Y97.175 E6.07323
G1 X147.606 Y97.844 E6.14831
G1 X147.693 Y97.938 E6.15853
G1 X148.124 Y98.43 E6.21074
G1 X148.218 Y98.543 E6.22247
G1 X148.836 Y99.343 E6.30317
G1 X148.904 Y99.439 E6.31256
G1 X149.405 Y100.197 E6.38509
G1 X149.498 Y100.349 E6.39931
G1 X149.942 Y101.14 E6.47172
G1 X150.012 Y101.276 E6.48393
G1 X150.386 Y102.074 E6.55428
G1 X150.465 Y102.26 E6.57041
G1 X150.777 Y103.077 E6.64022
G1 X150.837 Y103.249 E6.65476
G1 X151.1 Y104.124 E6.72769
G1 X151.133 Y104.251 E6.73817
G1 X151.332 Y105.142 E6.81104
G1 X151.363 Y105.309 E6.8246
G1 X151.491 Y106.184 E6.89519
G1 X151.513 Y106.38 E6.91094
G1 X151.58 Y107.294 E6.98409
G1 X151.585 Y107.402 E6.99272
G1 X151.594 Y107.935 E7.03527
G1 X151.594 Y112.092 E7.3671
G1 X151.558 Y113.098 E7.44746
G1 X151.548 Y113.233 E7.45826
G1 X151.446 Y114.15 E7.53191
G1 X151.422 Y114.32 E7.54562
G1 X151.258 Y115.203 E7.61731
G1 X151.225 Y115.352 E7.62949
G1 X150.998 Y116.222 E7.70126
G1 X150.946 Y116.394 E7.71561
G1 X150.66 Y117.236 E7.78659
G1 X150.596 Y117.402 E7.80079
G1 X150.255 Y118.205 E7.87043
G1 X150.174 Y118.38 E7.88582
G1 X149.759 Y119.188 E7.95833
G1 X149.692 Y119.305 E7.9691
G1 X149.218 Y120.084 E8.04189
G1 X149.118 Y120.235 E8.05634
G1 X148.614 Y120.94 E8.12552
G1 X148.488 Y121.102 E8.1419
G1 X147.796 Y121.926 E8.2278
G1 X147.646 Y122.091 E8.2456
G1 X146.975 Y122.773 E8.32197
G1 X146.857 Y122.884 E8.3349
G1 X146.175 Y123.484 E8.40741
G1 X146.039 Y123.594 E8.42137
G1 X145.339 Y124.123 E8.49141
G1 X145.175 Y124.238 E8.5074
G1 X144.435 Y124.718 E8.57781
G1 X144.307 Y124.794 E8.58969
G1 X143.503 Y125.234 E8.66285
G1 X143.36 Y125.305 E8.6756
G1 X142.528 Y125.686 E8.74864
G1 X142.392 Y125.742 E8.76038
G1 X141.542 Y126.057 E8.83274
G1 X141.372 Y126.113 E8.84703
G1 X140.537 Y126.355 E8.91643
G1 X140.336 Y126.406 E8.93298
G1 X139.502 Y126.584 E9.00105
G1 X139.292 Y126.62 E9.01806
G1 X138.445 Y126.738 E9.08632
G1 X138.34 Y126.751 E9.09477
G1 X137.52 Y126.835 E9.16057
G1 X137.154 Y126.868 E9.1899
G1 X134.446 Y127.072 E9.40668
G1 X134.311 Y127.079 E9.41747
G1 X133.396 Y127.114 E9.49056
G1 X133.23 Y127.115 E9.50381
G1 X132.29 Y127.081 E9.5789
G1 X132.258 Y127.081 E9.58145
G1 X131.818 Y127.061 E9.61661
G1 X131.818 Y127.078 E9.61797
G1 X131.621 Y127.077 E9.63369
G1 X130.943 Y127.159 E9.68821
G1 X130.281 Y127.325 E9.74269
G1 X129.648 Y127.574 E9.79699
G1 X129.208 Y127.805 E9.83665
G1 X128.458 Y128.245 E9.90606
G1 X128.31 Y128.324 E9.91946
G1 X127.51 Y128.719 E9.99068
G1 X127.335 Y128.798 E10.006
G1 X126.518 Y129.128 E10.07634
G1 X126.365 Y129.184 E10.08934
G1 X125.495 Y129.465 E10.16232
G1 X125.347 Y129.506 E10.17458
G1 X124.479 Y129.717 E10.24589
G1 X124.28 Y129.758 E10.26211
G1 X123.424 Y129.902 E10.3314
G1 X123.258 Y129.923 E10.34475
G1 X122.33 Y130.01 E10.41915
G1 X122.149 Y130.019 E10.43362
G1 X122.136 Y130.021 E10.43467
G1 X121.742 Y130.038 E10.46615
G1 X121.742 Y130.061 E10.46799
G1 X121.429 Y130.094 E10.49311
G1 X120.773 Y130.208 E10.54626
G1 X120.582 Y130.234 E10.56165
G1 X119.678 Y130.325 E10.63417
G1 X119.537 Y130.334 E10.64545
G1 X118.63 Y130.362 E10.71789
G1 X101.185 Y130.361 E12.11042
G1 X100.184 Y130.325 E12.19038
G1 X100.061 Y130.316 E12.20022
G1 X99.135 Y130.213 E12.27459
G1 X98.998 Y130.193 E12.28565
G1 X98.447 Y130.091 E12.33038
G1 X97.688 Y130.008 E12.39132
G1 X97.46 Y129.999 E12.40954
G1 X97.299 Y129.987 E12.42243
G1 X96.379 Y129.885 E12.49631
G1 X96.261 Y129.868 E12.50583
G1 X95.761 Y129.785 E12.54629
G1 X95.659 Y129.765 E12.55459
G1 X94.723 Y129.556 E12.63114
G1 X94.564 Y129.514 E12.64427
G1 X93.733 Y129.264 E12.71354
G1 X93.54 Y129.198 E12.72982
G1 X92.716 Y128.883 E12.80024
G1 X92.531 Y128.804 E12.8163
G1 X91.75 Y128.437 E12.88518
G1 X91.594 Y128.358 E12.89914
G1 X91.188 Y128.128 E12.93639
G1 X90.585 Y127.838 E12.9898
G1 X89.938 Y127.621 E13.04427
G1 X89.272 Y127.487 E13.0985
G1 X88.812 Y127.447 E13.13536
G1 X87.959 Y127.406 E13.20353
G1 X87.82 Y127.395 E13.21466
G1 X87.128 Y127.319 E13.27023
G1 X86.831 Y127.277 E13.29417
G1 X86.736 Y127.266 E13.30181
G1 X86.495 Y127.233 E13.32122
G1 X86.495 Y127.238 E13.32162
G1 X86.362 Y127.224 E13.3323
G1 X85.626 Y127.156 E13.3913
G1 X85.498 Y127.142 E13.40158
G1 X85.156 Y127.093 E13.42915
G1 X84.89 Y127.062 E13.45053
G1 X84.833 Y127.057 E13.4551
G1 X84.635 Y127.032 E13.47103
G1 X84.308 Y127.002 E13.49724
G1 X83.683 Y126.963 E13.54723
G1 X83.576 Y126.954 E13.5558
G1 X81.596 Y126.745 E13.71473
G1 X80.588 Y126.601 E13.79601
G1 X80.462 Y126.578 E13.80623
G1 X79.552 Y126.379 E13.88059
G1 X79.398 Y126.339 E13.89329
G1 X78.543 Y126.087 E13.96444
G1 X78.377 Y126.031 E13.97843
G1 X77.521 Y125.707 E14.05149
G1 X77.4 Y125.656 E14.06197
G1 X76.561 Y125.267 E14.13579
G1 X76.42 Y125.195 E14.14843
G1 X75.629 Y124.755 E14.22068
G1 X75.499 Y124.676 E14.23283
G1 X74.721 Y124.167 E14.30704
G1 X74.612 Y124.089 E14.31774
G1 X73.883 Y123.531 E14.39102
G1 X73.762 Y123.431 E14.40355
G1 X73.085 Y122.83 E14.47581
G1 X72.97 Y122.72 E14.48852
G1 X72.281 Y122.01 E14.56749
G1 X72.148 Y121.859 E14.58355
G1 X71.565 Y121.168 E14.65572
G1 X71.461 Y121.036 E14.66914
G1 X70.927 Y120.3 E14.74172
G1 X70.846 Y120.179 E14.75334
G1 X70.363 Y119.4 E14.82651
G1 X70.284 Y119.26 E14.83934
G1 X69.862 Y118.452 E14.91211
G1 X69.797 Y118.316 E14.92414
G1 X69.431 Y117.47 E14.99772
G1 X69.387 Y117.358 E15.00733
G1 X69.077 Y116.471 E15.08233
G1 X69.028 Y116.309 E15.09584
G1 X68.795 Y115.443 E15.16743
G1 X68.761 Y115.291 E15.17986
G1 X68.589 Y114.389 E15.25316
G1 X68.569 Y114.26 E15.26358
G1 X68.464 Y113.369 E15.33519
G1 X68.449 Y113.171 E15.35104
G1 X68.408 Y112.138 E15.43357
G1 X68.406 Y112.054 E15.44027
G1 X68.406 Y107.896 E15.77218
G1 X68.442 Y106.89 E15.85254
G1 X68.452 Y106.755 E15.86334
G1 X68.554 Y105.838 E15.937
G1 X68.579 Y105.663 E15.95111
G1 X68.741 Y104.785 E16.02238
G1 X68.771 Y104.651 E16.03334
G1 X69.002 Y103.766 E16.10635
G1 X69.054 Y103.594 E16.12069
G1 X69.34 Y102.752 E16.19167
G1 X69.404 Y102.586 E16.20588
G1 X69.75 Y101.77 E16.27663
G1 X69.826 Y101.608 E16.29091
G1 X70.241 Y100.8 E16.36342
G1 X70.308 Y100.683 E16.37418
G1 X70.782 Y99.904 E16.44697
G1 X70.882 Y99.753 E16.46143
G1 X71.387 Y99.048 E16.53065
G1 X71.516 Y98.881 E16.5475
G1 X72.207 Y98.061 E16.63309
G1 X72.328 Y97.924 E16.64768
G1 X72.376 Y97.873 E16.65328
G1 X73.051 Y97.19 E16.72993
G1 X73.164 Y97.084 E16.7423
G1 X73.872 Y96.464 E16.81742
G1 X73.964 Y96.39 E16.82684
G0 F12000 X73.6 Y96.702
G1 F1800 X73.6 Y123.287 E18.94897
G1 F2700 E13.94897
G1 F300 Z0.74
G0 F12000 X75.2 Y124.48 Z0.74
G1 F300 Z0.24
G1 F2700 E18.94897
G1 F1800 X75.2 Y95.505 E21.26188
G1 F2700 E16.26188
G1 F300 Z0.74
G0 F12000 X76.8 Y94.605 Z0.74
G1 F300 Z0.24
G1 F2700 E21.26188
G1 F1800 X76.8 Y125.377 E23.71824
G1 F2700 E18.71824
G1 F300 Z0.74
G0 F12000 X78.4 Y126.038 Z0.74
G1 F300 Z0.24
G1 F2700 E23.71824
G1 F1800 X78.4 Y93.949 E26.27972
G1 F2700 E21.27972
G1 F300 Z0.74
G0 F12000 X80 Y93.506 Z0.74
G1 F300 Z0.24
G1 F2700 E26.27972
G1 F1800 X80 Y126.476 E28.91153
G1 F2700 E23.91153
G1 F300 Z0.74
G0 F12000 X81.6 Y126.745 Z0.74
G1 F300 Z0.24
G1 F2700 E28.91153
G1 F1800 X81.6 Y93.241 E31.58596
G1 F2700 E26.58596
G1 F300 Z0.74
G0 F12000 X83.2 Y93.079 Z0.74
G1 F300 Z0.24
G1 F2700 E31.58596
G1 F1800 X83.2 Y126.914 E34.28682
G1 F2700 E29.28682
G1 F300 Z0.74
G0 F12000 X84.8 Y127.052 Z0.74
G1 F300 Z0.24
G1 F2700 E34.28682
G1 F1800 X84.8 Y92.948 E37.00915
G1 F2700 E32.00915
G1 F300 Z0.74
G0 F12000 X86.4 Y92.852 Z0.74
G1 F300 Z0.24
G1 F2700 E37.00915
G1 F1800 X86.4 Y127.228 E39.75319
G1 F2700 E34.75319
G1 F300 Z0.74
G0 F12000 X88 Y127.407 Z0.74
G1 F300 Z0.24
G1 F2700 E39.75319
G1 F1800 X88 Y92.902 E42.50753
G1 F2700 E37.50753
G1 F300 Z0.74
G0 F12000 X89.6 Y93.108 Z0.74
G1 F300 Z0.24
G1 F2700 E42.50753
G1 F1800 X89.6 Y127.552 E45.25699
G1 F2700 E40.25699
G1 F300 Z0.74
G0 F12000 X91.2 Y128.134 Z0.74
G1 F300 Z0.24
G1 F2700 E45.25699
G1 F1800 X91.2 Y93.021 E48.05987
G1 F2700 E43.05987
G1 F300 Z0.74
G0 F12000 X92.8 Y92.398 Z0.74
G1 F300 Z0.24
G1 F2700 E48.05987
G1 F1800 X92.8 Y128.915 E50.97481
G1 F2700 E45.97481
G1 F300 Z0.74
G0 F12000 X94.4 Y129.464 Z0.74
G1 F300 Z0.24
G1 F2700 E50.97481
G1 F1800 X94.4 Y91.423 E54.01141
G1 F2700 E49.01141
G1 F300 Z0.74
G0 F12000 X96 Y90.679 Z0.74
G1 F300 Z0.24
G1 F2700 E54.01141
G1 F1800 X96 Y129.824 E57.13613
G1 F2700 E52.13613
G1 F300 Z0.74
G0 F12000 X97.6 Y130.004 Z0.74
G1 F300 Z0.24
G1 F2700 E57.13613
G1 F1800 X97.6 Y90.144 E60.31793
G1 F2700 E55.31793
G1 F300 Z0.74
G0 F12000 X99.2 Y89.812 Z0.74
G1 F300 Z0.24
G1 F2700 E60.31793
G1 F1800 X99.2 Y130.22 E63.54347
G1 F2700 E58.54347
G1 F300 Z0.74
G0 F12000 X100.8 Y130.347 Z0.74
G1 F300 Z0.24
G1 F2700 E63.54347
G1 F1800 X100.8 Y89.654 E66.79176
G1 F2700 E61.79176
G1 F300 Z0.74
G0 F12000 X102.4 Y89.639 Z0.74
G1 F300 Z0.24
G1 F2700 E66.79176
G1 F1800 X102.4 Y130.361 E70.04237
G1 F2700 E65.04237
G1 F300 Z0.74
G0 F12000 X104 Y130.361 Z0.74
G1 F300 Z0.24
G1 F2700 E70.04237
G1 F1800 X104 Y89.639 E73.29297
G1 F2700 E68.29297
G1 F300 Z0.74
G0 F12000 X105.6 Y89.639 Z0.74
G1 F300 Z0.24
G1 F2700 E73.29297
G1 F1800 X105.6 Y130.361 E76.54358
G1 F2700 E71.54358
G1 F300 Z0.74
G0 F12000 X107.2 Y130.361 Z0.74
G1 F300 Z0.24
G1 F2700 E76.54358
G1 F1800 X107.2 Y89.639 E79.79419
G1 F2700 E74.79419
G1 F300 Z0.74
G0 F12000 X108.8 Y89.639 Z0.74
G1 F300 Z0.24
G1 F2700 E79.79419
G1 F1800 X108.8 Y130.361 E83.04479
G1 F2700 E78.04479
G1 F300 Z0.74
G0 F12000 X110.4 Y130.361 Z0.74
G1 F300 Z0.24
G1 F2700 E83.04479
G1 F1800 X110.4 Y89.639 E86.2954
G1 F2700 E81.2954
G1 F300 Z0.74
G0 F12000 X112 Y89.639 Z0.74
G1 F300 Z0.24
G1 F2700 E86.2954
G1 F1800 X112 Y130.361 E89.546
G1 F2700 E84.546
G1 F300 Z0.74
G0 F12000 X113.6 Y130.361 Z0.74
G1 F300 Z0.24
G1 F2700 E89.546
G1 F1800 X113.6 Y89.639 E92.79661
G1 F2700 E87.79661
G1 F300 Z0.74
G0 F12000 X115.2 Y89.639 Z0.74
G1 F300 Z0.24
G1 F2700 E92.79661
G1 F1800 X115.2 Y130.361 E96.04722
G1 F2700 E91.04722
G1 F300 Z0.74
G0 F12000 X116.8 Y130.361 Z0.74
G1 F300 Z0.24
G1 F2700 E96.04722
G1 F1800 X116.8 Y89.639 E99.29782
G1 F2700 E94.29782
G1 F300 Z0.74
G0 F12000 X118.4 Y89.639 Z0.74
G1 F300 Z0.24
G1 F2700 E99.29782
G1 F1800 X118.4 Y130.361 E102.54843
G1 F2700 E97.54843
G1 F300 Z0.74
G0 F12000 X120 Y130.293 Z0.74
G1 F300 Z0.24
G1 F2700 E102.54843
G1 F1800 X120 Y89.707 E105.78818
G1 F2700 E100.78818
G1 F300 Z0.74
G0 F12000 X121.6 Y89.942 Z0.74
G1 F300 Z0.24
G1 F2700 E105.78818
G1 F1800 X121.6 Y130.076 E108.99185
G1 F2700 E103.99185
G1 F300 Z0.74
G0 F12000 X123.2 Y129.929 Z0.74
G1 F300 Z0.24
G1 F2700 E108.99185
G1 F1800 X123.2 Y90.368 E112.14978
G1 F2700 E107.14978
G1 F300 Z0.74
G0 F12000 X124.8 Y90.991 Z0.74
G1 F300 Z0.24
G1 F2700 E112.14978
G1 F1800 X124.8 Y129.639 E115.23483
G1 F2700 E110.23483
G1 F300 Z0.74
G0 F12000 X126.4 Y129.172 Z0.74
G1 F300 Z0.24
G1 F2700 E115.23483
G1 F1800 X126.4 Y91.86 E118.21323
G1 F2700 E113.21323
G1 F300 Z0.74
G0 F12000 X128 Y92.487 Z0.74
G1 F300 Z0.24
G1 F2700 E118.21323
G1 F1800 X128 Y128.478 E121.08619
G1 F2700 E116.08619
G1 F300 Z0.74
G0 F12000 X129.6 Y127.6 Z0.74
G1 F300 Z0.24
G1 F2700 E121.08619
G1 F1800 X129.6 Y92.6 E123.88004
G1 F2700 E118.88004
G1 F300 Z0.74
G0 F12000 X131.2 Y92.555 Z0.74
G1 F300 Z0.24
G1 F2700 E123.88004
G1 F1800 X131.2 Y127.128 E126.63981
G1 F2700 E121.63981
G1 F300 Z0.74
G0 F12000 X132.8 Y127.099 Z0.74
G1 F300 Z0.24
G1 F2700 E126.63981
G1 F1800 X132.8 Y92.674 E129.38776
G1 F2700 E124.38776
G1 F300 Z0.74
G0 F12000 X134.4 Y92.845 Z0.74
G1 F300 Z0.24
G1 F2700 E129.38776
G1 F1800 X134.4 Y127.075 E132.12015
G1 F2700 E127.12015
G1 F300 Z0.74
G0 F12000 X136 Y126.955 Z0.74
G1 F300 Z0.24
G1 F2700 E132.12015
G1 F1800 X136 Y93.007 E134.83002
G1 F2700 E129.83002
G1 F300 Z0.74
G0 F12000 X137.6 Y93.167 Z0.74
G1 F300 Z0.24
G1 F2700 E134.83002
G1 F1800 X137.6 Y126.827 E137.51691
G1 F2700 E132.51691
G1 F300 Z0.74
G0 F12000 X139.2 Y126.633 Z0.74
G1 F300 Z0.24
