;FLAVOR:Marlin
;TIME:548
;Filament used: 0.149678m
;Layer height: 0.2
;MINX:85.136
;MINY:96.395
;MINZ:0.2
;MAXX:134.864
;MAXY:123.605
;MAXZ:4.1
;Generated with Cura_SteamEngine master
M140 S70
M105
M190 S70
M104 S200
M105
M109 S200
M82 ;absolute extrusion mode
M201 X500.00 Y500.00 Z100.00 E5000.00 ;Setup machine max acceleration
M203 X500.00 Y500.00 Z10.00 E50.00 ;Setup machine max feedrate
M204 P500.00 R1000.00 T500.00 ;Setup Print/Retract/Travel acceleration
M205 X8.00 Y8.00 Z0.40 E5.00 ;Setup Jerk
M220 S100 ;Reset Feedrate
M221 S100 ;Reset Flowrate

G28 ;Home

G92 E0 ;Reset Extruder
G1 Z2.0 F3000 ;Move Z Axis up
G1 X10.1 Y20 Z0.28 F5000.0 ;Move to start position
G1 X10.1 Y200.0 Z0.28 F1500.0 E15 ;Draw the first line
G1 X10.4 Y200.0 Z0.28 F5000.0 ;Move to side a little
G1 X10.4 Y20 Z0.28 F1500.0 E30 ;Draw the second line
G92 E0 ;Reset Extruder
G1 Z2.0 F3000 ;Move Z Axis up

G92 E0
G92 E0
G1 F2700 E-5
;LAYER_COUNT:18
;LAYER:0
M107
G1 F300 Z0.7
G0 F6000 X113.322 Y99.234 Z0.7
;TYPE:SKIRT
G1 F300 Z0.2
G1 F2700 E0
G1 F600 X113.727 Y98.797 E0.01982
G1 X113.844 Y98.68 E0.02532
G1 X114.43 Y98.15 E0.0516
G1 X115.066 Y97.683 E0.07784
G1 X115.746 Y97.282 E0.1041
G1 X116.464 Y96.952 E0.13038
G1 X117.211 Y96.697 E0.15664
G1 X117.98 Y96.518 E0.1829
G1 X118.764 Y96.418 E0.20918
G1 X119.359 Y96.395 E0.22899
G1 X120.384 Y96.395 E0.26308
G1 X121.173 Y96.435 E0.28936
G1 X121.74 Y96.514 E0.3084
G1 X121.774 Y96.52 E0.30954
G1 X122.819 Y96.78 E0.34536
G1 X123.057 Y96.857 E0.35368
G1 X123.489 Y97.011 E0.36893
G1 X124.02 Y97.218 E0.38789
G1 X124.675 Y97.508 E0.41172
G1 X124.699 Y97.52 E0.41261
G1 X125.387 Y97.909 E0.4389
G1 X125.777 Y98.173 E0.45456
G1 X126.443 Y98.654 E0.48188
G1 X127.24 Y99.234 E0.51467
G1 X128.018 Y99.795 E0.54657
G1 X131.568 Y102.343 E0.69191
G1 X132.186 Y102.836 E0.7182
G1 X132.75 Y103.388 E0.74445
G1 X133.256 Y103.994 E0.77071
G1 X133.698 Y104.649 E0.79699
G1 X133.964 Y105.127 E0.81519
G1 X134.008 Y105.213 E0.8184
G1 X134.332 Y105.934 E0.84469
G1 X134.581 Y106.683 E0.87094
G1 X134.753 Y107.454 E0.89722
G1 X134.846 Y108.238 E0.92347
G1 X134.864 Y108.766 E0.94105
G1 X134.864 Y111.234 E1.02313
G1 X134.824 Y112.023 E1.04941
G1 X134.705 Y112.803 E1.07565
G1 X134.507 Y113.568 E1.10193
G1 X134.233 Y114.308 E1.12818
G1 X134.008 Y114.787 E1.14578
G1 X133.964 Y114.873 E1.14899
G1 X133.569 Y115.557 E1.17526
G1 X133.107 Y116.197 E1.20152
G1 X132.583 Y116.788 E1.22779
G1 X132.002 Y117.322 E1.25403
G1 X131.568 Y117.657 E1.27227
G1 X128.046 Y120.185 E1.41646
G1 X125.788 Y121.82 E1.50919
G1 X125.125 Y122.25 E1.53547
G1 X124.701 Y122.479 E1.5515
G1 X124.669 Y122.495 E1.55269
G1 X123.946 Y122.811 E1.57893
G1 X123.53 Y122.955 E1.59357
G1 X123.257 Y123.062 E1.60332
G1 X122.508 Y123.312 E1.62959
G1 X121.949 Y123.446 E1.64871
G1 X121.909 Y123.454 E1.65006
G1 X121.128 Y123.569 E1.67632
G1 X120.379 Y123.605 E1.70126
G1 X119.359 Y123.605 E1.73519
G1 X118.57 Y123.565 E1.76146
G1 X117.79 Y123.446 E1.7877
G1 X117.025 Y123.248 E1.81399
G1 X116.285 Y122.974 E1.84023
G1 X115.576 Y122.626 E1.8665
G1 X114.905 Y122.208 E1.8928
G1 X114.281 Y121.725 E1.91904
G1 X113.844 Y121.32 E1.93886
G1 X113.727 Y121.203 E1.94436
G1 X113.197 Y120.617 E1.97064
G1 X112.73 Y119.981 E1.99688
G1 X112.329 Y119.301 E2.02314
G1 X111.999 Y118.583 E2.04942
G1 X111.744 Y117.836 E2.07568
G1 X111.565 Y117.067 E2.10194
G1 X111.465 Y116.283 E2.12822
G1 X111.442 Y115.688 E2.14803
G1 X111.442 Y114.959 E2.17227
G1 X111.482 Y114.17 E2.19855
G1 X111.601 Y113.39 E2.22479
G1 X111.799 Y112.625 E2.25108
G1 X112.073 Y111.885 E2.27732
G1 X112.421 Y111.176 E2.30359
G1 X112.839 Y110.505 E2.32988
G1 X113.266 Y109.954 E2.35307
G1 X113.197 Y109.878 E2.35648
G1 X112.73 Y109.242 E2.38273
G1 X112.329 Y108.562 E2.40898
G1 X111.999 Y107.844 E2.43527
G1 X111.744 Y107.097 E2.46152
G1 X111.565 Y106.328 E2.48778
G1 X111.465 Y105.544 E2.51407
G1 X111.442 Y104.949 E2.53387
G1 X111.442 Y104.312 E2.55506
G1 X111.482 Y103.523 E2.58133
G1 X111.601 Y102.743 E2.60758
G1 X111.799 Y101.978 E2.63386
G1 X112.073 Y101.238 E2.66011
G1 X112.421 Y100.529 E2.68637
G1 X112.839 Y99.858 E2.71267
G1 X113.322 Y99.234 E2.73891
G0 F6000 X113.717 Y99.389
G1 F600 X114.009 Y99.079 E2.75308
G1 X114.126 Y98.962 E2.75858
G1 X114.698 Y98.448 E2.78416
G1 X115.32 Y97.995 E2.80975
G1 X115.985 Y97.609 E2.83533
G1 X116.687 Y97.294 E2.86092
G1 X117.418 Y97.054 E2.88651
G1 X118.169 Y96.891 E2.91207
G1 X118.934 Y96.807 E2.93766
G1 X119.359 Y96.795 E2.95181
G1 X120.384 Y96.795 E2.9859
G1 X121.152 Y96.835 E3.01148
G1 X121.67 Y96.908 E3.02887
G1 X121.704 Y96.914 E3.03002
G1 X122.696 Y97.16 E3.06402
G1 X122.934 Y97.237 E3.07234
G1 X123.344 Y97.383 E3.08681
G1 X123.875 Y97.59 E3.10577
G1 X124.496 Y97.866 E3.12837
G1 X124.52 Y97.878 E3.12926
G1 X125.19 Y98.258 E3.15488
G1 X125.543 Y98.497 E3.16906
G1 X126.208 Y98.978 E3.19636
G1 X126.992 Y99.548 E3.2286
G1 X127.785 Y100.12 E3.26112
G1 X131.335 Y102.668 E3.40646
G1 X131.936 Y103.149 E3.43206
G1 X132.483 Y103.689 E3.45762
G1 X132.972 Y104.283 E3.48321
G1 X133.396 Y104.924 E3.50878
G1 X133.608 Y105.309 E3.52339
G1 X133.652 Y105.395 E3.52661
G1 X133.966 Y106.097 E3.55218
G1 X134.206 Y106.828 E3.57777
G1 X134.368 Y107.58 E3.60336
G1 X134.452 Y108.345 E3.62896
G1 X134.464 Y108.766 E3.64297
G1 X134.464 Y111.234 E3.72505
G1 X134.424 Y112.002 E3.75063
G1 X134.305 Y112.762 E3.77622
G1 X134.107 Y113.505 E3.80179
G1 X133.833 Y114.224 E3.82738
G1 X133.652 Y114.605 E3.84141
G1 X133.608 Y114.691 E3.84462
G1 X133.222 Y115.356 E3.8702
G1 X132.77 Y115.978 E3.89577
G1 X132.255 Y116.55 E3.92137
G1 X131.684 Y117.065 E3.94695
G1 X131.335 Y117.332 E3.96156
G1 X127.786 Y119.879 E4.10685
G1 X125.553 Y121.496 E4.19855
G1 X124.907 Y121.914 E4.22414
G1 X124.49 Y122.137 E4.23987
G1 X123.785 Y122.445 E4.26546
G1 X123.395 Y122.579 E4.27918
G1 X123.111 Y122.69 E4.28932
G1 X122.381 Y122.932 E4.3149
G1 X121.87 Y123.053 E4.33236
G1 X121.83 Y123.061 E4.33372
G1 X121.069 Y123.173 E4.3593
G1 X120.379 Y123.205 E4.38228
G1 X119.359 Y123.205 E4.4162
G1 X118.591 Y123.165 E4.44178
G1 X117.831 Y123.046 E4.46737
G1 X117.088 Y122.848 E4.49294
G1 X116.369 Y122.574 E4.51853
G1 X115.683 Y122.227 E4.5441
G1 X115.036 Y121.811 E4.56969
G1 X114.436 Y121.33 E4.59526
G1 X114.126 Y121.038 E4.60943
G1 X114.009 Y120.921 E4.61493
G1 X113.495 Y120.349 E4.64051
G1 X113.042 Y119.727 E4.6661
G1 X112.656 Y119.062 E4.69168
G1 X112.341 Y118.36 E4.71727
G1 X112.101 Y117.629 E4.74286
G1 X111.938 Y116.878 E4.76842
G1 X111.854 Y116.113 E4.79401
G1 X111.842 Y115.688 E4.80815
G1 X111.842 Y114.959 E4.8324
G1 X111.882 Y114.191 E4.85798
G1 X112.001 Y113.431 E4.88357
G1 X112.199 Y112.688 E4.90914
G1 X112.473 Y111.969 E4.93473
G1 X112.82 Y111.283 E4.9603
G1 X113.236 Y110.636 E4.98588
G1 X113.717 Y110.036 E5.01146
G1 X113.8 Y109.949 E5.01546
G1 X113.495 Y109.61 E5.03063
G1 X113.042 Y108.988 E5.05622
G1 X112.656 Y108.323 E5.08179
G1 X112.341 Y107.621 E5.10739
G1 X112.101 Y106.89 E5.13298
G1 X111.938 Y106.139 E5.15854
G1 X111.854 Y105.374 E5.18413
G1 X111.842 Y104.949 E5.19827
G1 X111.842 Y104.312 E5.21946
G1 X111.882 Y103.544 E5.24504
G1 X112.001 Y102.784 E5.27063
G1 X112.199 Y102.041 E5.2962
G1 X112.473 Y101.322 E5.32179
G1 X112.82 Y100.636 E5.34736
G1 X113.236 Y99.989 E5.37294
G1 X113.717 Y99.389 E5.39852
G0 F6000 X113.634 Y100.123
G1 F600 X114.292 Y99.362 E5.43198
G1 X114.409 Y99.245 E5.43749
G1 X114.966 Y98.745 E5.46238
G1 X115.572 Y98.308 E5.48723
G1 X116.222 Y97.937 E5.51212
G1 X116.908 Y97.638 E5.53701
G1 X117.622 Y97.414 E5.5619
G1 X118.355 Y97.267 E5.58677
G1 X119.359 Y97.195 E5.62025
G1 X120.384 Y97.195 E5.65434
G1 X121.131 Y97.235 E5.67922
G1 X121.6 Y97.302 E5.69498
G1 X121.634 Y97.308 E5.69612
G1 X122.573 Y97.541 E5.7283
G1 X122.811 Y97.618 E5.73662
G1 X123.198 Y97.756 E5.75029
G1 X123.729 Y97.963 E5.76924
G1 X124.317 Y98.224 E5.79064
G1 X124.341 Y98.236 E5.79153
G1 X124.992 Y98.606 E5.81644
G1 X125.309 Y98.822 E5.8292
G1 X125.973 Y99.301 E5.85643
G1 X126.758 Y99.872 E5.88871
G1 X127.552 Y100.445 E5.92128
G1 X131.102 Y102.993 E6.06662
G1 X131.685 Y103.461 E6.09148
G1 X132.216 Y103.989 E6.11639
G1 X132.686 Y104.57 E6.14125
G1 X133.252 Y105.492 E6.17723
G1 X133.296 Y105.578 E6.18044
G1 X133.6 Y106.261 E6.20531
G1 X133.83 Y106.973 E6.23019
G1 X133.983 Y107.705 E6.25507
G1 X134.064 Y108.766 E6.29046
G1 X134.064 Y111.234 E6.37254
G1 X134.024 Y111.981 E6.39743
G1 X133.905 Y112.719 E6.42229
G1 X133.707 Y113.441 E6.44719
G1 X133.296 Y114.422 E6.48256
G1 X133.252 Y114.508 E6.48578
G1 X132.876 Y115.155 E6.51067
G1 X132.433 Y115.758 E6.53555
G1 X131.929 Y116.31 E6.56041
G1 X131.101 Y117.007 E6.59641
G1 X127.576 Y119.537 E6.74073
G1 X125.318 Y121.172 E6.83345
G1 X124.69 Y121.577 E6.8583
G1 X124.311 Y121.779 E6.87259
G1 X123.29 Y122.193 E6.90923
G1 X123.256 Y122.204 E6.91042
G1 X122.966 Y122.317 E6.92077
G1 X122.256 Y122.552 E6.94565
G1 X121.792 Y122.661 E6.9615
G1 X121.752 Y122.669 E6.96286
G1 X121.011 Y122.776 E6.98776
G1 X120.379 Y122.805 E7.0088
G1 X119.359 Y122.805 E7.04273
G1 X118.612 Y122.765 E7.06761
G1 X117.874 Y122.646 E7.09247
G1 X117.152 Y122.448 E7.11737
G1 X116.456 Y122.175 E7.14224
G1 X115.793 Y121.828 E7.16712
G1 X115.17 Y121.413 E7.19202
G1 X114.409 Y120.755 E7.22548
G1 X114.292 Y120.638 E7.23099
G1 X113.792 Y120.081 E7.25588
G1 X113.355 Y119.475 E7.28073
G1 X112.984 Y118.825 E7.30562
G1 X112.685 Y118.139 E7.33051
G1 X112.461 Y117.425 E7.3554
G1 X112.314 Y116.692 E7.38027
G1 X112.242 Y115.688 E7.41375
G1 X112.242 Y114.959 E7.43799
G1 X112.282 Y114.212 E7.46287
G1 X112.401 Y113.474 E7.48774
G1 X112.599 Y112.752 E7.51264
G1 X112.872 Y112.056 E7.5375
G1 X113.219 Y111.393 E7.56239
G1 X113.634 Y110.77 E7.58729
G1 X114.313 Y109.988 E7.62174
G1 X114.347 Y109.954 E7.62334
G1 X114.292 Y109.899 E7.62592
G1 X113.792 Y109.342 E7.65082
G1 X113.355 Y108.736 E7.67567
G1 X112.984 Y108.086 E7.70056
G1 X112.685 Y107.4 E7.72545
G1 X112.461 Y106.686 E7.75034
G1 X112.314 Y105.953 E7.7752
G1 X112.242 Y104.949 E7.80868
G1 X112.242 Y104.312 E7.82987
G1 X112.282 Y103.565 E7.85475
G1 X112.401 Y102.827 E7.87961
G1 X112.599 Y102.105 E7.90451
G1 X112.872 Y101.409 E7.92938
G1 X113.219 Y100.746 E7.95427
G1 X113.634 Y100.123 E7.97917
G0 F6000 X114.031 Y100.262
G1 F600 X114.575 Y99.645 E8.00652
G1 X114.692 Y99.528 E8.01203
G1 X115.233 Y99.044 E8.03617
G1 X115.824 Y98.621 E8.06034
G1 X116.458 Y98.267 E8.0845
G1 X117.127 Y97.984 E8.10866
G1 X117.823 Y97.776 E8.13282
G1 X118.538 Y97.646 E8.15699
G1 X119.359 Y97.595 E8.18435
G1 X120.384 Y97.595 E8.21844
G1 X121.109 Y97.635 E8.24259
G1 X121.531 Y97.695 E8.25677
G1 X121.565 Y97.701 E8.25791
G1 X122.45 Y97.921 E8.28825
G1 X122.688 Y97.998 E8.29656
G1 X123.053 Y98.129 E8.30946
G1 X123.584 Y98.336 E8.32842
G1 X124.139 Y98.582 E8.34861
G1 X124.163 Y98.594 E8.3495
G1 X125.075 Y99.146 E8.38496
G1 X126.524 Y100.197 E8.4445
G1 X127.318 Y100.77 E8.47706
G1 X130.868 Y103.318 E8.6224
G1 X131.434 Y103.774 E8.64658
G1 X131.947 Y104.288 E8.67073
G1 X132.4 Y104.856 E8.69489
G1 X132.896 Y105.674 E8.72671
G1 X132.94 Y105.76 E8.72992
G1 X133.234 Y106.424 E8.75408
G1 X133.454 Y107.116 E8.77823
G1 X133.597 Y107.828 E8.80238
G1 X133.664 Y108.766 E8.83366
G1 X133.664 Y111.234 E8.91575
G1 X133.624 Y111.959 E8.9399
G1 X133.505 Y112.676 E8.96407
G1 X133.307 Y113.375 E8.98823
G1 X132.94 Y114.24 E9.01949
G1 X132.896 Y114.326 E9.0227
G1 X132.53 Y114.954 E9.04688
G1 X132.097 Y115.537 E9.07103
G1 X131.603 Y116.069 E9.09518
G1 X130.868 Y116.682 E9.12701
G1 X127.342 Y119.213 E9.27137
G1 X125.084 Y120.848 E9.36409
G1 X124.165 Y121.405 E9.39983
G1 X124.133 Y121.421 E9.40102
G1 X123.17 Y121.811 E9.43558
G1 X123.134 Y121.823 E9.43684
G1 X122.82 Y121.945 E9.44805
G1 X122.13 Y122.171 E9.47219
G1 X121.713 Y122.269 E9.48644
G1 X121.673 Y122.277 E9.4878
G1 X120.954 Y122.38 E9.51196
G1 X120.379 Y122.405 E9.5311
G1 X119.359 Y122.405 E9.56503
G1 X118.634 Y122.365 E9.58918
G1 X117.917 Y122.246 E9.61335
G1 X117.218 Y122.048 E9.63751
G1 X116.545 Y121.775 E9.66167
G1 X115.906 Y121.43 E9.68582
G1 X115.309 Y121.016 E9.70998
G1 X114.692 Y120.472 E9.73734
G1 X114.575 Y120.355 E9.74285
G1 X114.091 Y119.814 E9.76699
G1 X113.668 Y119.223 E9.79116
G1 X113.314 Y118.589 E9.81531
G1 X113.031 Y117.92 E9.83947
G1 X112.823 Y117.224 E9.86364
G1 X112.693 Y116.509 E9.88781
G1 X112.642 Y115.688 E9.91517
G1 X112.642 Y114.959 E9.93941
G1 X112.682 Y114.234 E9.96356
G1 X112.801 Y113.517 E9.98774
G1 X112.999 Y112.818 E10.0119
G1 X113.272 Y112.145 E10.03606
G1 X113.617 Y111.506 E10.06021
G1 X114.031 Y110.909 E10.08437
G1 X114.595 Y110.272 E10.11267
G1 X114.713 Y110.155 E10.1182
G1 X114.941 Y109.953 E10.12833
G1 X114.692 Y109.733 E10.13938
G1 X114.575 Y109.616 E10.14488
G1 X114.091 Y109.075 E10.16903
G1 X113.668 Y108.484 E10.1932
G1 X113.314 Y107.85 E10.21735
G1 X113.031 Y107.181 E10.24151
G1 X112.823 Y106.485 E10.26567
G1 X112.693 Y105.77 E10.28984
G1 X112.642 Y104.949 E10.3172
G1 X112.642 Y104.312 E10.33839
G1 X112.682 Y103.587 E10.36254
G1 X112.801 Y102.87 E10.38671
G1 X112.999 Y102.171 E10.41088
G1 X113.272 Y101.498 E10.43503
G1 X113.617 Y100.859 E10.45918
G1 X114.031 Y100.262 E10.48335
G0 F6000 X114.427 Y100.406
G1 F600 X114.858 Y99.928 E10.50475
G1 X114.975 Y99.811 E10.51026
G1 X115.5 Y99.342 E10.53367
G1 X116.075 Y98.936 E10.55708
G1 X116.693 Y98.598 E10.58051
G1 X117.344 Y98.331 E10.60391
G1 X118.022 Y98.141 E10.62733
G1 X118.717 Y98.028 E10.65075
G1 X119.359 Y97.995 E10.67213
G1 X120.384 Y97.995 E10.70623
G1 X121.087 Y98.035 E10.72965
G1 X121.495 Y98.095 E10.74336
G1 X122.326 Y98.302 E10.77185
G1 X122.564 Y98.379 E10.78017
G1 X122.908 Y98.501 E10.79231
G1 X123.439 Y98.708 E10.81126
G1 X123.96 Y98.94 E10.83023
G1 X123.984 Y98.952 E10.83112
G1 X124.84 Y99.47 E10.8644
G1 X125.502 Y99.948 E10.89156
G1 X126.29 Y100.521 E10.92396
G1 X127.098 Y101.104 E10.9571
G1 X130.635 Y103.643 E11.10192
G1 X131.183 Y104.085 E11.12533
G1 X131.677 Y104.587 E11.14876
G1 X132.111 Y105.141 E11.17216
G1 X132.54 Y105.856 E11.1999
G1 X132.584 Y105.942 E11.20311
G1 X132.868 Y106.586 E11.22652
G1 X133.078 Y107.258 E11.24994
G1 X133.21 Y107.949 E11.27334
G1 X133.264 Y108.766 E11.30057
G1 X133.264 Y111.234 E11.38265
G1 X133.224 Y111.937 E11.40607
G1 X133.105 Y112.631 E11.42949
G1 X132.907 Y113.306 E11.45289
G1 X132.584 Y114.058 E11.48011
G1 X132.54 Y114.144 E11.48332
G1 X132.184 Y114.751 E11.50673
G1 X131.762 Y115.315 E11.53016
G1 X131.278 Y115.826 E11.55357
G1 X130.635 Y116.357 E11.5813
G1 X127.086 Y118.904 E11.7266
G1 X124.849 Y120.524 E11.81846
G1 X123.986 Y121.047 E11.85202
G1 X123.954 Y121.063 E11.85321
G1 X123.049 Y121.43 E11.88569
G1 X122.994 Y121.447 E11.88761
G1 X122.675 Y121.572 E11.899
G1 X122.006 Y121.791 E11.92242
G1 X121.635 Y121.877 E11.93508
G1 X121.595 Y121.885 E11.93644
G1 X120.898 Y121.983 E11.95985
G1 X120.379 Y122.005 E11.97713
G1 X119.359 Y122.005 E12.01105
G1 X118.656 Y121.965 E12.03447
G1 X117.962 Y121.846 E12.05789
G1 X117.287 Y121.648 E12.08129
G1 X116.638 Y121.376 E12.10469
G1 X116.024 Y121.031 E12.12812
G1 X115.453 Y120.62 E12.15152
G1 X114.975 Y120.189 E12.17293
G1 X114.858 Y120.072 E12.17843
G1 X114.389 Y119.547 E12.20184
G1 X113.983 Y118.972 E12.22525
G1 X113.645 Y118.354 E12.24868
G1 X113.378 Y117.703 E12.27209
G1 X113.188 Y117.025 E12.2955
G1 X113.075 Y116.33 E12.31892
G1 X113.042 Y115.688 E12.34031
G1 X113.042 Y114.959 E12.36455
G1 X113.082 Y114.256 E12.38797
G1 X113.201 Y113.562 E12.41139
G1 X113.399 Y112.887 E12.43479
G1 X113.671 Y112.238 E12.45819
G1 X114.016 Y111.624 E12.48162
G1 X114.427 Y111.053 E12.50502
G1 X114.877 Y110.556 E12.52732
G1 X114.995 Y110.439 E12.53284
G1 X115.522 Y109.973 E12.55624
G1 X115.552 Y109.952 E12.55746
G1 X115.443 Y109.873 E12.56194
G1 X114.975 Y109.45 E12.58292
G1 X114.858 Y109.333 E12.58842
G1 X114.389 Y108.808 E12.61184
G1 X113.983 Y108.233 E12.63525
G1 X113.645 Y107.615 E12.65868
G1 X113.378 Y106.964 E12.68208
G1 X113.188 Y106.286 E12.7055
G1 X113.075 Y105.591 E12.72892
G1 X113.042 Y104.949 E12.7503
G1 X113.042 Y104.312 E12.77148
G1 X113.082 Y103.609 E12.7949
G1 X113.201 Y102.915 E12.81832
G1 X113.399 Y102.24 E12.84172
G1 X113.671 Y101.591 E12.86513
G1 X114.016 Y100.977 E12.88855
G1 X114.427 Y100.406 E12.91195
G0 F6000 X114.824 Y100.554
