;FLAVOR:Marlin
;TIME:409
;Filament used: 0.110291m
;Layer height: 0.2
;MINX:99.872
;MINY:95.32
;MINZ:0.2
;MAXX:120.127
;MAXY:124.658
;MAXZ:4.3
;Generated with Cura_SteamEngine master
M140 S70
M105
M190 S70
M104 S200
M105
M109 S200
M82 ;absolute extrusion mode
M201 X500.00 Y500.00 Z100.00 E5000.00 ;Setup machine max acceleration
M203 X500.00 Y500.00 Z10.00 E50.00 ;Setup machine max feedrate
M204 P500.00 R1000.00 T500.00 ;Setup Print/Retract/Travel acceleration
M205 X8.00 Y8.00 Z0.40 E5.00 ;Setup Jerk
M220 S100 ;Reset Feedrate
M221 S100 ;Reset Flowrate

G28 ;Home

G92 E0 ;Reset Extruder
G1 Z2.0 F3000 ;Move Z Axis up
G1 X10.1 Y20 Z0.28 F5000.0 ;Move to start position
G1 X10.1 Y200.0 Z0.28 F1500.0 E15 ;Draw the first line
G1 X10.4 Y200.0 Z0.28 F5000.0 ;Move to side a little
G1 X10.4 Y20 Z0.28 F1500.0 E30 ;Draw the second line
G92 E0 ;Reset Extruder
G1 Z2.0 F3000 ;Move Z Axis up

G92 E0
G92 E0
G1 F2700 E-5
;LAYER_COUNT:19
;LAYER:0
M107
G1 F300 Z0.7
G0 F6000 X102.212 Y98.595 Z0.7
;TYPE:SKIRT
G1 F300 Z0.2
G1 F2700 E0
G1 F600 X103.239 Y97.577 E0.0481
G1 X103.827 Y97.051 E0.07434
G1 X104.466 Y96.586 E0.10062
G1 X105.148 Y96.188 E0.12688
G1 X105.867 Y95.861 E0.15316
G1 X106.615 Y95.609 E0.17941
G1 X107.385 Y95.434 E0.20567
G1 X108.169 Y95.337 E0.23195
G1 X108.958 Y95.32 E0.25819
G1 X109.746 Y95.383 E0.28449
G1 X110.009 Y95.431 E0.29338
G1 X110.546 Y95.363 E0.31138
G1 X111.335 Y95.342 E0.33763
G1 X112.169 Y95.408 E0.36546
G1 X112.372 Y95.435 E0.37227
G1 X113.149 Y95.579 E0.39855
G1 X113.907 Y95.8 E0.42481
G1 X114.639 Y96.097 E0.45109
G1 X115.337 Y96.466 E0.47735
G1 X115.994 Y96.904 E0.50361
G1 X116.508 Y97.322 E0.52565
G1 X116.963 Y97.724 E0.54584
G1 X117.64 Y98.399 E0.57764
G1 X118.141 Y98.965 E0.60278
G1 X118.633 Y99.582 E0.62903
G1 X119.061 Y100.246 E0.6553
G1 X119.564 Y101.293 E0.69393
G1 X119.591 Y101.362 E0.6964
G1 X119.841 Y102.111 E0.72266
G1 X120.014 Y102.881 E0.74891
G1 X120.108 Y103.665 E0.77517
G1 X120.127 Y104.204 E0.79311
G1 X120.127 Y104.637 E0.80751
G1 X120.087 Y105.426 E0.83379
G1 X119.968 Y106.206 E0.86003
G1 X119.77 Y106.971 E0.88631
G1 X119.671 Y107.253 E0.89625
G1 X119.671 Y112.759 E1.07939
G1 X119.851 Y113.306 E1.09854
G1 X120.02 Y114.078 E1.12482
G1 X120.111 Y114.862 E1.15107
G1 X120.127 Y115.363 E1.16775
G1 X120.127 Y115.796 E1.18215
G1 X120.087 Y116.585 E1.20842
G1 X119.968 Y117.365 E1.23467
G1 X119.77 Y118.13 E1.26095
G1 X119.496 Y118.87 E1.28719
G1 X119.148 Y119.579 E1.31346
G1 X118.662 Y120.347 E1.34369
G1 X118.509 Y120.56 E1.35241
G1 X118.016 Y121.177 E1.37868
G1 X117.659 Y121.554 E1.39595
G1 X116.829 Y122.375 E1.43478
G1 X116.24 Y122.902 E1.46107
G1 X115.601 Y123.366 E1.48733
G1 X114.919 Y123.763 E1.51358
G1 X114.2 Y124.089 E1.53984
G1 X113.451 Y124.34 E1.56611
G1 X112.484 Y124.546 E1.599
G1 X112.281 Y124.576 E1.60582
G1 X111.495 Y124.652 E1.63208
G1 X110.706 Y124.648 E1.65833
G1 X109.978 Y124.57 E1.68268
G1 X109.454 Y124.637 E1.70025
G1 X108.665 Y124.658 E1.7265
G1 X107.831 Y124.592 E1.75433
G1 X107.628 Y124.565 E1.76114
G1 X106.851 Y124.421 E1.78742
G1 X106.093 Y124.2 E1.81368
G1 X105.361 Y123.903 E1.83996
G1 X104.663 Y123.534 E1.86622
G1 X104.006 Y123.096 E1.89248
G1 X103.49 Y122.677 E1.91459
G1 X103.033 Y122.273 E1.93487
G1 X102.357 Y121.598 E1.96665
G1 X101.858 Y121.034 E1.99169
G1 X101.366 Y120.416 E2.01797
G1 X100.938 Y119.753 E2.04422
G1 X100.436 Y118.707 E2.0828
G1 X100.409 Y118.638 E2.08527
G1 X100.159 Y117.889 E2.11153
G1 X99.986 Y117.119 E2.13778
G1 X99.892 Y116.335 E2.16404
G1 X99.873 Y115.814 E2.18138
G1 X99.872 Y115.382 E2.19575
G1 X99.91 Y114.593 E2.22202
G1 X100.028 Y113.812 E2.2483
G1 X100.224 Y113.047 E2.27456
G1 X100.329 Y112.742 E2.28529
G1 X100.33 Y107.243 E2.46819
G1 X100.149 Y106.694 E2.48741
G1 X99.98 Y105.922 E2.5137
G1 X99.889 Y105.138 E2.53995
G1 X99.873 Y104.655 E2.55602
G1 X99.872 Y104.226 E2.57029
G1 X99.91 Y103.437 E2.59656
G1 X100.028 Y102.657 E2.6228
G1 X100.224 Y101.892 E2.64907
G1 X100.493 Y101.159 E2.67504
G1 X100.524 Y101.086 E2.67768
G1 X100.869 Y100.376 E2.70393
G1 X101.284 Y99.704 E2.7302
G1 X101.765 Y99.078 E2.75646
G1 X102.212 Y98.595 E2.77835
G0 F6000 X102.493 Y98.879
G1 F600 X103.52 Y97.861 E2.82644
G1 X104.094 Y97.349 E2.85202
G1 X104.718 Y96.899 E2.87761
G1 X105.385 Y96.516 E2.90319
G1 X106.088 Y96.205 E2.92876
G1 X106.82 Y95.968 E2.95435
G1 X107.572 Y95.808 E2.97992
G1 X108.337 Y95.727 E3.00551
G1 X109.106 Y95.727 E3.03109
G1 X109.872 Y95.806 E3.0567
G1 X109.993 Y95.831 E3.06081
G1 X110.716 Y95.752 E3.085
G1 X111.485 Y95.748 E3.11058
G1 X112.117 Y95.805 E3.13168
G1 X112.32 Y95.832 E3.13849
G1 X113.076 Y95.972 E3.16407
G1 X113.813 Y96.191 E3.18964
G1 X114.524 Y96.485 E3.21523
G1 X115.2 Y96.851 E3.2408
G1 X115.835 Y97.286 E3.2664
G1 X116.244 Y97.621 E3.28398
G1 X116.699 Y98.023 E3.30417
G1 X117.34 Y98.664 E3.33432
G1 X117.841 Y99.23 E3.35947
G1 X118.32 Y99.832 E3.38505
G1 X118.734 Y100.48 E3.41063
G1 X119.191 Y101.438 E3.44593
G1 X119.218 Y101.507 E3.4484
G1 X119.461 Y102.237 E3.47399
G1 X119.626 Y102.988 E3.49956
G1 X119.713 Y103.753 E3.52517
G1 X119.727 Y104.204 E3.54018
G1 X119.727 Y104.637 E3.55458
G1 X119.687 Y105.405 E3.58016
G1 X119.568 Y106.165 E3.60574
G1 X119.37 Y106.908 E3.63132
G1 X119.271 Y107.187 E3.64116
G1 X119.271 Y112.822 E3.82858
G1 X119.47 Y113.431 E3.84989
G1 X119.632 Y114.183 E3.87548
G1 X119.715 Y114.948 E3.90107
G1 X119.727 Y115.363 E3.91488
G1 X119.727 Y115.796 E3.92928
G1 X119.687 Y116.564 E3.95486
G1 X119.568 Y117.324 E3.98045
G1 X119.37 Y118.067 E4.00602
G1 X119.096 Y118.786 E4.03161
G1 X118.749 Y119.472 E4.05718
G1 X118.337 Y120.113 E4.08253
G1 X118.184 Y120.326 E4.09125
G1 X117.704 Y120.927 E4.11683
G1 X117.378 Y121.27 E4.13257
G1 X116.548 Y122.091 E4.1714
G1 X115.974 Y122.603 E4.19698
G1 X115.35 Y123.052 E4.22255
G1 X114.682 Y123.434 E4.24814
G1 X113.979 Y123.745 E4.27371
G1 X113.246 Y123.981 E4.29932
G1 X112.426 Y124.15 E4.32717
G1 X112.223 Y124.18 E4.334
G1 X111.457 Y124.253 E4.35959
G1 X110.688 Y124.246 E4.38517
G1 X110.008 Y124.169 E4.40793
G1 X109.284 Y124.248 E4.43215
G1 X108.515 Y124.252 E4.45773
G1 X107.883 Y124.195 E4.47883
G1 X107.68 Y124.168 E4.48565
G1 X106.924 Y124.028 E4.51122
G1 X106.187 Y123.809 E4.53679
G1 X105.476 Y123.515 E4.56238
G1 X104.8 Y123.149 E4.58795
G1 X104.165 Y122.714 E4.61355
G1 X103.755 Y122.377 E4.6312
G1 X103.298 Y121.973 E4.65149
G1 X102.657 Y121.332 E4.68164
G1 X102.158 Y120.768 E4.70669
G1 X101.679 Y120.167 E4.73225
G1 X101.265 Y119.518 E4.75785
G1 X100.809 Y118.562 E4.79308
G1 X100.782 Y118.493 E4.79554
G1 X100.539 Y117.763 E4.82113
G1 X100.374 Y117.012 E4.84671
G1 X100.287 Y116.247 E4.87232
G1 X100.273 Y115.813 E4.88676
G1 X100.272 Y115.381 E4.90113
G1 X100.31 Y114.613 E4.9267
G1 X100.428 Y113.853 E4.95228
G1 X100.624 Y113.109 E4.97787
G1 X100.729 Y112.808 E4.98847
G1 X100.73 Y107.18 E5.17566
G1 X100.53 Y106.569 E5.19705
G1 X100.368 Y105.817 E5.22263
G1 X100.285 Y105.052 E5.24822
G1 X100.273 Y104.654 E5.26147
G1 X100.272 Y104.225 E5.27574
G1 X100.31 Y103.457 E5.30131
G1 X100.428 Y102.697 E5.32689
G1 X100.624 Y101.953 E5.35248
G1 X100.861 Y101.316 E5.37509
G1 X100.892 Y101.243 E5.37773
G1 X101.229 Y100.551 E5.40333
G1 X101.636 Y99.898 E5.42892
G1 X102.108 Y99.292 E5.45447
G1 X102.493 Y98.879 E5.47325
G0 F6000 X102.775 Y99.164
G1 F600 X103.802 Y98.146 E5.52134
G1 X104.361 Y97.648 E5.54624
G1 X104.969 Y97.213 E5.57111
G1 X105.621 Y96.845 E5.59601
G1 X106.308 Y96.549 E5.62089
G1 X107.023 Y96.328 E5.64578
G1 X107.757 Y96.185 E5.67065
G1 X108.502 Y96.121 E5.69552
G1 X109.25 Y96.136 E5.7204
G1 X109.992 Y96.232 E5.74529
G1 X110.013 Y96.237 E5.74601
G1 X110.137 Y96.212 E5.75021
G1 X110.882 Y96.145 E5.77509
G1 X111.63 Y96.157 E5.79998
G1 X112.064 Y96.201 E5.81448
G1 X112.267 Y96.228 E5.8213
G1 X113.002 Y96.366 E5.84617
G1 X113.718 Y96.582 E5.87104
G1 X114.408 Y96.873 E5.89595
G1 X115.062 Y97.236 E5.92083
G1 X115.673 Y97.666 E5.94568
G1 X115.979 Y97.921 E5.95893
G1 X116.434 Y98.323 E5.97912
G1 X117.041 Y98.929 E6.00765
G1 X117.542 Y99.495 E6.03279
G1 X118.007 Y100.081 E6.05767
G1 X118.407 Y100.713 E6.08255
G1 X118.819 Y101.584 E6.11459
G1 X118.846 Y101.653 E6.11706
G1 X119.081 Y102.363 E6.14193
G1 X119.239 Y103.095 E6.16684
G1 X119.327 Y104.204 E6.20384
G1 X119.327 Y104.637 E6.21824
G1 X119.287 Y105.384 E6.24312
G1 X119.168 Y106.122 E6.26799
G1 X118.871 Y107.113 E6.3024
G1 X118.871 Y112.884 E6.49434
G1 X119.09 Y113.555 E6.51782
G1 X119.244 Y114.287 E6.5427
G1 X119.327 Y115.363 E6.57859
G1 X119.327 Y115.796 E6.59299
G1 X119.287 Y116.543 E6.61787
G1 X119.168 Y117.281 E6.64274
G1 X118.97 Y118.003 E6.66764
G1 X118.697 Y118.699 E6.6925
G1 X118.35 Y119.362 E6.71739
G1 X118.012 Y119.88 E6.73796
G1 X117.859 Y120.093 E6.74669
G1 X117.391 Y120.676 E6.77155
G1 X117.097 Y120.986 E6.78576
G1 X116.267 Y121.807 E6.82459
G1 X115.708 Y122.304 E6.84947
G1 X115.098 Y122.738 E6.87437
G1 X114.447 Y123.105 E6.89923
G1 X113.759 Y123.4 E6.92412
G1 X113.044 Y123.62 E6.949
G1 X112.367 Y123.755 E6.97197
G1 X112.164 Y123.785 E6.97879
G1 X111.42 Y123.854 E7.00364
G1 X110.672 Y123.844 E7.02852
G1 X109.994 Y123.762 E7.05124
G1 X109.863 Y123.788 E7.05568
G1 X109.118 Y123.855 E7.08056
G1 X108.37 Y123.843 E7.10544
G1 X107.936 Y123.799 E7.11995
G1 X107.733 Y123.772 E7.12676
G1 X106.998 Y123.634 E7.15163
G1 X106.282 Y123.418 E7.17651
G1 X105.592 Y123.127 E7.20141
G1 X104.938 Y122.764 E7.22629
G1 X104.327 Y122.334 E7.25114
G1 X104.02 Y122.078 E7.26444
G1 X103.563 Y121.674 E7.28473
G1 X102.956 Y121.067 E7.31328
G1 X102.457 Y120.503 E7.33832
G1 X101.992 Y119.917 E7.36321
G1 X101.592 Y119.285 E7.38808
G1 X101.181 Y118.416 E7.42005
G1 X101.154 Y118.347 E7.42252
G1 X100.919 Y117.637 E7.44739
G1 X100.761 Y116.905 E7.4723
G1 X100.673 Y115.812 E7.50877
G1 X100.672 Y115.38 E7.52314
G1 X100.71 Y114.633 E7.54802
G1 X100.828 Y113.894 E7.57291
G1 X101.129 Y112.875 E7.60825
G1 X101.13 Y107.119 E7.79969
G1 X100.91 Y106.445 E7.82327
G1 X100.756 Y105.713 E7.84815
G1 X100.673 Y104.653 E7.88352
G1 X100.672 Y104.224 E7.89779
G1 X100.71 Y103.477 E7.92266
G1 X100.828 Y102.738 E7.94755
G1 X101.024 Y102.017 E7.97241
G1 X101.229 Y101.472 E7.99177
G1 X101.26 Y101.399 E7.99441
G1 X101.589 Y100.727 E8.0193
G1 X101.987 Y100.094 E8.04417
G1 X102.451 Y99.507 E8.06905
G1 X102.775 Y99.164 E8.08474
G0 F6000 X103.057 Y99.448
G1 F600 X104.084 Y98.43 E8.13284
G1 X104.627 Y97.947 E8.15701
G1 X105.22 Y97.528 E8.18116
G1 X105.855 Y97.176 E8.20531
G1 X106.526 Y96.896 E8.22949
G1 X107.222 Y96.691 E8.25362
G1 X107.938 Y96.565 E8.2778
G1 X108.663 Y96.517 E8.30197
G1 X109.388 Y96.55 E8.32611
G1 X110.011 Y96.647 E8.34708
G1 X110.32 Y96.591 E8.35753
G1 X111.044 Y96.541 E8.38166
G1 X112.011 Y96.598 E8.41388
G1 X112.214 Y96.625 E8.42069
G1 X112.928 Y96.76 E8.44486
G1 X113.622 Y96.973 E8.46901
G1 X114.289 Y97.261 E8.49317
G1 X114.92 Y97.62 E8.51732
G1 X115.714 Y98.221 E8.55044
G1 X116.169 Y98.623 E8.57063
G1 X116.741 Y99.195 E8.59754
G1 X117.242 Y99.761 E8.62268
G1 X117.693 Y100.33 E8.64683
G1 X118.078 Y100.946 E8.67099
G1 X118.446 Y101.73 E8.69979
G1 X118.473 Y101.799 E8.70226
G1 X118.7 Y102.489 E8.72642
G1 X118.85 Y103.2 E8.75058
G1 X118.927 Y104.204 E8.78408
G1 X118.927 Y104.637 E8.79848
G1 X118.887 Y105.362 E8.82263
G1 X118.768 Y106.079 E8.8468
G1 X118.485 Y107.012 E8.87923
G1 X118.471 Y107.048 E8.88051
G1 X118.471 Y112.952 E9.07688
G1 X118.485 Y112.988 E9.07817
G1 X118.709 Y113.679 E9.10233
G1 X118.855 Y114.39 E9.12647
G1 X118.927 Y115.363 E9.15892
G1 X118.927 Y115.796 E9.17332
G1 X118.887 Y116.521 E9.19747
G1 X118.768 Y117.238 E9.22164
G1 X118.57 Y117.937 E9.24581
G1 X118.297 Y118.61 E9.26996
G1 X117.952 Y119.249 E9.29412
G1 X117.687 Y119.646 E9.30999
G1 X117.534 Y119.859 E9.31872
G1 X117.079 Y120.425 E9.34287
G1 X116.815 Y120.701 E9.35557
G1 X115.985 Y121.522 E9.3944
G1 X115.442 Y122.004 E9.41855
G1 X114.848 Y122.423 E9.44273
G1 X114.212 Y122.774 E9.46689
G1 X113.542 Y123.053 E9.49103
G1 X112.845 Y123.257 E9.51518
G1 X112.309 Y123.359 E9.53333
G1 X112.106 Y123.389 E9.54016
G1 X111.383 Y123.456 E9.56431
G1 X110.656 Y123.442 E9.58849
G1 X109.979 Y123.355 E9.61119
G1 X109.68 Y123.409 E9.6213
G1 X108.956 Y123.459 E9.64544
G1 X107.989 Y123.402 E9.67765
G1 X107.786 Y123.375 E9.68447
G1 X107.072 Y123.24 E9.70863
G1 X106.378 Y123.027 E9.73278
G1 X105.711 Y122.739 E9.75694
G1 X105.08 Y122.38 E9.78109
G1 X104.285 Y121.778 E9.81426
G1 X103.828 Y121.374 E9.83454
G1 X103.256 Y120.802 E9.86145
G1 X102.757 Y120.238 E9.8865
G1 X102.306 Y119.669 E9.91065
G1 X101.921 Y119.053 E9.93481
G1 X101.554 Y118.27 E9.96357
G1 X101.527 Y118.201 E9.96603
G1 X101.3 Y117.511 E9.99019
G1 X101.15 Y116.8 E10.01436
G1 X101.073 Y115.811 E10.04735
G1 X101.072 Y115.379 E10.06172
G1 X101.11 Y114.654 E10.08587
G1 X101.228 Y113.937 E10.11004
G1 X101.503 Y113.018 E10.14194
G1 X101.529 Y112.949 E10.14439
G1 X101.53 Y107.05 E10.3406
G1 X101.515 Y107.012 E10.34196
G1 X101.291 Y106.321 E10.36612
G1 X101.145 Y105.61 E10.39026
G1 X101.073 Y104.652 E10.42221
G1 X101.072 Y104.223 E10.43648
G1 X101.11 Y103.498 E10.46063
G1 X101.228 Y102.781 E10.48479
G1 X101.424 Y102.082 E10.50894
G1 X101.597 Y101.628 E10.5251
G1 X101.628 Y101.555 E10.52774
G1 X101.948 Y100.903 E10.55189
G1 X102.338 Y100.29 E10.57606
G1 X102.793 Y99.724 E10.60021
G1 X103.057 Y99.448 E10.61291
G0 F6000 X103.338 Y99.732
G1 F600 X104.365 Y98.714 E10.66101
G1 X104.893 Y98.247 E10.68446
G1 X105.469 Y97.844 E10.70784
G1 X106.088 Y97.508 E10.73126
G1 X106.741 Y97.245 E10.75468
G1 X107.42 Y97.057 E10.77811
G1 X108.115 Y96.948 E10.80151
G1 X108.818 Y96.918 E10.82491
G1 X109.521 Y96.968 E10.84835
G1 X109.991 Y97.056 E10.86426
G1 X110.499 Y96.973 E10.88138
G1 X111.202 Y96.94 E10.90478
G1 X111.958 Y96.994 E10.92999
G1 X112.161 Y97.021 E10.9368
G1 X112.853 Y97.153 E10.96023
G1 X113.525 Y97.363 E10.98365
G1 X114.169 Y97.648 E11.00707
G1 X114.776 Y98.004 E11.03048
G1 X115.449 Y98.521 E11.05871
G1 X115.904 Y98.923 E11.0789
G1 X116.442 Y99.46 E11.10418
G1 X116.943 Y100.026 E11.12932
G1 X117.378 Y100.578 E11.1527
G1 X117.749 Y101.177 E11.17613
G1 X118.074 Y101.876 E11.20177
G1 X118.101 Y101.945 E11.20424
G1 X118.32 Y102.614 E11.22765
G1 X118.461 Y103.303 E11.25104
G1 X118.527 Y104.204 E11.28109
G1 X118.527 Y104.637 E11.29549
G1 X118.487 Y105.34 E11.31891
G1 X118.368 Y106.034 E11.34233
G1 X118.112 Y106.868 E11.37135
G1 X118.085 Y106.938 E11.37384
G1 X118.071 Y106.969 E11.37497
G1 X118.071 Y113.032 E11.57663
G1 X118.085 Y113.062 E11.57773
G1 X118.112 Y113.132 E11.58022
G1 X118.327 Y113.802 E11.60363
G1 X118.466 Y114.492 E11.62704
G1 X118.527 Y115.363 E11.65608
G1 X118.527 Y115.796 E11.67048
G1 X118.487 Y116.499 E11.6939
G1 X118.368 Y117.193 E11.71732
G1 X118.17 Y117.868 E11.74072
G1 X117.898 Y118.517 E11.76412
G1 X117.363 Y119.413 E11.79883
G1 X117.21 Y119.626 E11.80755
G1 X116.534 Y120.417 E11.84216
G1 X115.704 Y121.238 E11.88099
G1 X115.176 Y121.704 E11.90441
G1 X114.599 Y122.107 E11.92782
G1 X113.98 Y122.442 E11.95123
G1 X113.327 Y122.704 E11.97463
G1 X112.648 Y122.891 E11.99806
G1 X112.25 Y122.963 E12.01151
G1 X112.047 Y122.993 E12.01834
G1 X111.346 Y123.057 E12.04175
G1 X110.642 Y123.04 E12.06517
G1 X109.981 Y122.949 E12.08736
G1 X109.501 Y123.027 E12.10354
G1 X108.798 Y123.06 E12.12694
G1 X108.042 Y123.006 E12.15215
G1 X107.839 Y122.979 E12.15896
G1 X107.147 Y122.847 E12.18239
G1 X106.475 Y122.637 E12.20581
G1 X105.831 Y122.352 E12.22923
G1 X105.224 Y121.996 E12.25264
G1 X104.55 Y121.478 E12.28091
G1 X104.093 Y121.074 E12.3012
G1 X103.556 Y120.537 E12.32646
G1 X103.057 Y119.973 E12.35151
G1 X102.621 Y119.42 E12.37493
G1 X102.25 Y118.822 E12.39833
G1 X101.926 Y118.124 E12.42393
G1 X101.899 Y118.055 E12.42639
G1 X101.68 Y117.386 E12.44981
G1 X101.539 Y116.697 E12.4732
G1 X101.473 Y115.81 E12.50278
G1 X101.472 Y115.378 E12.51715
G1 X101.51 Y114.675 E12.54057
G1 X101.628 Y113.981 E12.56398
G1 X101.877 Y113.16 E12.59251
G1 X101.904 Y113.089 E12.59504
G1 X101.929 Y113.033 E12.59708
G1 X101.93 Y106.97 E12.79874
G1 X101.915 Y106.938 E12.79991
G1 X101.888 Y106.868 E12.80241
G1 X101.673 Y106.198 E12.82581
G1 X101.534 Y105.508 E12.84922
G1 X101.473 Y104.651 E12.8778
G1 X101.472 Y104.222 E12.89207
G1 X101.51 Y103.52 E12.91545
G1 X101.628 Y102.825 E12.9389
