;FLAVOR:Marlin
;TIME:11006
;Filament used: 7.09431m
;Layer height: 0.2
;MINX:72.514
;MINY:90.403
;MINZ:0.24
;MAXX:147.487
;MAXY:129.596
;MAXZ:114.79
;Generated with Cura_SteamEngine master
M140 S70
M105
M190 S70
M104 S200
M105
M109 S200
M82 ;absolute extrusion mode
M201 X500.00 Y500.00 Z100.00 E5000.00 ;Setup machine max acceleration
M203 X500.00 Y500.00 Z10.00 E50.00 ;Setup machine max feedrate
M204 P500.00 R1000.00 T500.00 ;Setup Print/Retract/Travel acceleration
M205 X8.00 Y8.00 Z0.40 E5.00 ;Setup Jerk
M220 S100 ;Reset Feedrate
M221 S100 ;Reset Flowrate

G28 ;Home

G92 E0 ;Reset Extruder
G1 Z2.0 F3000 ;Move Z Axis up
G1 X10.1 Y20 Z0.28 F5000.0 ;Move to start position
G1 X10.1 Y200.0 Z0.28 F1500.0 E15 ;Draw the first line
G1 X10.4 Y200.0 Z0.28 F5000.0 ;Move to side a little
G1 X10.4 Y20 Z0.28 F1500.0 E30 ;Draw the second line
G92 E0 ;Reset Extruder
G1 Z2.0 F3000 ;Move Z Axis up

G92 E0
G92 E0
G1 F2700 E-5
;LAYER_COUNT:566
;LAYER:-6
M107
G0 F12000 X78.367 Y98.327 Z0.24
;TYPE:SUPPORT-INTERFACE
G1 F2700 E0
G1 F1800 X78.496 Y98.228 E0.01298
G1 X79.223 Y97.714 E0.08405
G1 X79.404 Y97.597 E0.10126
G1 X80.566 Y96.917 E0.20873
G1 X80.64 Y96.877 E0.21544
G1 X83.677 Y95.302 E0.48853
G1 X84.571 Y94.874 E0.56765
G1 X91.34 Y91.882 E1.15841
G1 X91.423 Y91.846 E1.16563
G1 X92.296 Y91.498 E1.24065
G1 X92.476 Y91.434 E1.2559
G1 X93.335 Y91.161 E1.32785
G1 X93.457 Y91.127 E1.33796
G1 X94.17 Y90.95 E1.3966
G1 X95.169 Y90.768 E1.47766
G1 X95.338 Y90.744 E1.49128
G1 X96.233 Y90.648 E1.56314
G1 X96.398 Y90.637 E1.57634
G1 X97.37 Y90.603 E1.65397
G1 X122.664 Y90.604 E3.67305
G1 X123.665 Y90.64 E3.75301
G1 X123.788 Y90.649 E3.76285
G1 X124.695 Y90.749 E3.83569
G1 X124.882 Y90.777 E3.85078
G1 X125.938 Y90.979 E3.93661
G1 X126.023 Y90.997 E3.94354
G1 X126.085 Y91.012 E3.94863
G1 X126.995 Y91.26 E4.02392
G1 X127.136 Y91.305 E4.03574
G1 X127.965 Y91.598 E4.10592
G1 X128.163 Y91.677 E4.12294
G1 X129.35 Y92.217 E4.22704
G1 X129.504 Y92.292 E4.24071
G1 X132.149 Y93.662 E4.47849
G1 X132.438 Y93.801 E4.50409
G1 X135.51 Y95.164 E4.77236
G1 X135.729 Y95.263 E4.79154
G1 X136.081 Y95.417 E4.82221
G1 X138.527 Y96.502 E5.03581
G1 X138.648 Y96.558 E5.04645
G1 X139.499 Y96.972 E5.122
G1 X139.624 Y97.039 E5.13332
G1 X140.432 Y97.51 E5.20797
G1 X140.552 Y97.586 E5.21931
G1 X141.302 Y98.099 E5.29184
G1 X141.431 Y98.195 E5.30468
G1 X142.129 Y98.751 E5.37591
G1 X142.263 Y98.866 E5.39001
G1 X142.93 Y99.483 E5.46254
G1 X143.043 Y99.596 E5.4753
G1 X143.649 Y100.243 E5.54606
G1 X143.759 Y100.371 E5.55953
G1 X144.322 Y101.07 E5.63118
G1 X144.428 Y101.212 E5.64532
G1 X144.925 Y101.928 E5.71489
G1 X145.039 Y102.105 E5.7317
G1 X145.485 Y102.863 E5.8019
G1 X145.562 Y103.006 E5.81487
G1 X145.957 Y103.804 E5.88594
G1 X146.034 Y103.975 E5.90091
G1 X146.368 Y104.793 E5.97144
G1 X146.431 Y104.967 E5.98622
G1 X146.703 Y105.807 E6.0567
G1 X146.749 Y105.967 E6.06999
G1 X146.962 Y106.838 E6.14156
G1 X146.999 Y107.016 E6.15607
G1 X147.145 Y107.88 E6.22602
G1 X147.168 Y108.057 E6.24027
G1 X147.276 Y109.381 E6.34631
G1 X147.285 Y109.59 E6.363
G1 X147.287 Y109.68 E6.37019
G1 X147.282 Y110.644 E6.44714
G1 X147.276 Y110.818 E6.46104
G1 X147.205 Y111.73 E6.53406
G1 X147.189 Y111.871 E6.54539
G1 X147.052 Y112.768 E6.61782
G1 X147.021 Y112.931 E6.63106
G1 X146.823 Y113.803 E6.70244
G1 X146.781 Y113.962 E6.71557
G1 X146.511 Y114.845 E6.78928
G1 X146.459 Y114.995 E6.80195
G1 X146.139 Y115.823 E6.87281
G1 X146.073 Y115.976 E6.88611
G1 X145.683 Y116.797 E6.95866
G1 X145.608 Y116.941 E6.97162
G1 X145.172 Y117.711 E7.04226
G1 X145.067 Y117.88 E7.05814
G1 X144.572 Y118.621 E7.12927
G1 X144.497 Y118.727 E7.13964
G1 X144.496 Y118.726 E7.13975
G1 X143.912 Y119.475 E7.21557
G1 X143.82 Y119.585 E7.22701
G1 X143.206 Y120.265 E7.30015
G1 X143.109 Y120.365 E7.31127
G1 X142.457 Y120.987 E7.3832
G1 X142.322 Y121.108 E7.39767
G1 X141.635 Y121.674 E7.46872
G1 X141.493 Y121.783 E7.48301
G1 X140.788 Y122.282 E7.55196
G1 X140.607 Y122.398 E7.56912
G1 X139.464 Y123.067 E7.67484
G1 X139.335 Y123.138 E7.68659
G1 X136.349 Y124.684 E7.955
G1 X136.233 Y124.741 E7.96532
G1 X135.522 Y125.082 E8.02826
G1 X135.421 Y125.129 E8.03716
G1 X128.66 Y128.118 E8.62724
G1 X128.577 Y128.154 E8.63446
G1 X127.704 Y128.502 E8.70948
G1 X127.524 Y128.566 E8.72473
G1 X126.667 Y128.838 E8.7965
G1 X126.543 Y128.873 E8.80678
G1 X125.83 Y129.05 E8.86543
G1 X124.831 Y129.232 E8.94648
G1 X124.662 Y129.256 E8.96011
G1 X123.767 Y129.352 E9.03196
G1 X123.602 Y129.363 E9.04516
G1 X122.63 Y129.397 E9.1228
G1 X97.336 Y129.396 E11.14187
G1 X96.335 Y129.36 E11.22183
G1 X96.212 Y129.351 E11.23168
G1 X95.305 Y129.251 E11.30451
G1 X95.118 Y129.223 E11.31961
G1 X94.062 Y129.021 E11.40543
G1 X93.961 Y129 E11.41367
G1 X93.005 Y128.74 E11.49275
G1 X92.864 Y128.695 E11.50456
G1 X92.043 Y128.405 E11.57407
G1 X91.825 Y128.318 E11.5928
G1 X90.638 Y127.778 E11.6969
G1 X90.531 Y127.726 E11.7064
G1 X87.79 Y126.31 E11.95267
G1 X87.51 Y126.177 E11.97741
G1 X84.287 Y124.745 E12.25894
G1 X83.918 Y124.584 E12.29107
G1 X81.367 Y123.451 E12.51388
G1 X80.514 Y123.034 E12.58968
G1 X80.361 Y122.952 E12.60353
G1 X79.579 Y122.496 E12.67579
G1 X79.442 Y122.41 E12.6887
G1 X78.695 Y121.899 E12.76095
G1 X78.559 Y121.797 E12.77452
G1 X77.868 Y121.246 E12.84507
G1 X77.731 Y121.128 E12.8595
G1 X77.08 Y120.526 E12.93028
G1 X76.956 Y120.402 E12.94428
G1 X76.347 Y119.752 E13.01538
G1 X76.24 Y119.627 E13.02851
G1 X75.669 Y118.918 E13.10118
G1 X75.572 Y118.789 E13.11406
G1 X75.06 Y118.048 E13.18596
G1 X74.964 Y117.896 E13.20031
G1 X74.515 Y117.134 E13.27091
G1 X74.438 Y116.991 E13.28388
G1 X74.037 Y116.18 E13.3561
G1 X73.966 Y116.022 E13.36992
G1 X73.635 Y115.21 E13.43992
G1 X73.565 Y115.018 E13.45623
G1 X73.297 Y114.189 E13.52578
G1 X73.25 Y114.022 E13.53963
G1 X73.036 Y113.143 E13.61184
G1 X73 Y112.974 E13.62563
G1 X72.858 Y112.124 E13.69443
G1 X72.832 Y111.922 E13.71068
G1 X72.726 Y110.616 E13.81528
G1 X72.715 Y110.309 E13.8398
G1 X72.72 Y109.357 E13.91579
G1 X72.726 Y109.183 E13.92969
G1 X72.797 Y108.271 E14.00271
G1 X72.813 Y108.13 E14.01404
G1 X72.95 Y107.233 E14.08647
G1 X72.981 Y107.07 E14.09971
G1 X73.179 Y106.198 E14.17109
G1 X73.221 Y106.039 E14.18422
G1 X73.491 Y105.156 E14.25793
G1 X73.543 Y105.005 E14.27068
G1 X73.863 Y104.178 E14.34146
G1 X73.929 Y104.025 E14.35476
G1 X74.319 Y103.204 E14.42731
G1 X74.394 Y103.06 E14.44027
G1 X74.83 Y102.29 E14.51091
G1 X74.935 Y102.121 E14.52679
G1 X75.43 Y101.38 E14.59792
G1 X75.505 Y101.274 E14.60829
G1 X75.506 Y101.275 E14.6084
G1 X76.091 Y100.524 E14.68439
G1 X76.182 Y100.416 E14.69567
G1 X76.796 Y99.736 E14.7688
G1 X76.893 Y99.636 E14.77992
G1 X77.545 Y99.014 E14.85185
G1 X77.682 Y98.892 E14.86649
G1 X78.367 Y98.327 E14.93737
G0 F12000 X78.4 Y98.301
G1 F1800 X78.4 Y121.67 E16.80279
G1 F2700 E11.80279
G1 F300 Z0.74
G0 F12000 X80 Y122.741 Z0.74
G1 F300 Z0.24
G1 F2700 E16.80279
G1 F1800 X80 Y97.248 E18.83775
G1 F2700 E13.83775
G1 F300 Z0.74
G0 F12000 X81.6 Y96.379 Z0.74
G1 F300 Z0.24
G1 F2700 E18.83775
G1 F1800 X81.6 Y123.554 E21.00698
G1 F2700 E16.00698
G1 F300 Z0.74
G0 F12000 X83.2 Y124.265 Z0.74
G1 F300 Z0.24
G1 F2700 E21.00698
G1 F1800 X83.2 Y95.549 E23.29921
G1 F2700 E18.29921
G1 F300 Z0.74
G0 F12000 X84.8 Y94.772 Z0.74
G1 F300 Z0.24
G1 F2700 E23.29921
G1 F1800 X84.8 Y124.972 E25.70991
G1 F2700 E20.70991
G1 F300 Z0.74
G0 F12000 X86.4 Y125.683 Z0.74
G1 F300 Z0.24
G1 F2700 E25.70991
G1 F1800 X86.4 Y94.065 E28.23379
G1 F2700 E23.23379
G1 F300 Z0.74
G0 F12000 X88 Y93.358 Z0.74
G1 F300 Z0.24
G1 F2700 E28.23379
G1 F1800 X88 Y126.418 E30.87278
G1 F2700 E25.87278
G1 F300 Z0.74
G0 F12000 X89.6 Y127.245 Z0.74
G1 F300 Z0.24
G1 F2700 E30.87278
G1 F1800 X89.6 Y92.651 E33.63423
G1 F2700 E28.63423
G1 F300 Z0.74
G0 F12000 X91.2 Y91.943 Z0.74
G1 F300 Z0.24
G1 F2700 E33.63423
G1 F1800 X91.2 Y128.033 E36.51509
G1 F2700 E31.51509
G1 F300 Z0.74
G0 F12000 X92.8 Y128.672 Z0.74
G1 F300 Z0.24
G1 F2700 E36.51509
G1 F1800 X92.8 Y91.331 E39.49581
G1 F2700 E34.49581
G1 F300 Z0.74
G0 F12000 X94.4 Y90.908 Z0.74
G1 F300 Z0.24
G1 F2700 E39.49581
G1 F1800 X94.4 Y129.085 E42.54326
G1 F2700 E37.54326
G1 F300 Z0.74
G0 F12000 X96 Y129.327 Z0.74
G1 F300 Z0.24
G1 F2700 E42.54326
G1 F1800 X96 Y90.672 E45.62887
G1 F2700 E40.62887
G1 F300 Z0.74
G0 F12000 X97.6 Y90.604 Z0.74
G1 F300 Z0.24
G1 F2700 E45.62887
G1 F1800 X97.6 Y129.396 E48.72541
G1 F2700 E43.72541
G1 F300 Z0.74
G0 F12000 X99.2 Y129.396 Z0.74
G1 F300 Z0.24
G1 F2700 E48.72541
G1 F1800 X99.2 Y90.604 E51.82196
G1 F2700 E46.82196
G1 F300 Z0.74
G0 F12000 X100.8 Y90.604 Z0.74
G1 F300 Z0.24
G1 F2700 E51.82196
G1 F1800 X100.8 Y129.396 E54.9185
G1 F2700 E49.9185
G1 F300 Z0.74
G0 F12000 X102.4 Y129.396 Z0.74
G1 F300 Z0.24
G1 F2700 E54.9185
G1 F1800 X102.4 Y90.604 E58.01505
G1 F2700 E53.01505
G1 F300 Z0.74
G0 F12000 X104 Y90.604 Z0.74
G1 F300 Z0.24
G1 F2700 E58.01505
G1 F1800 X104 Y129.396 E61.11159
G1 F2700 E56.11159
G1 F300 Z0.74
G0 F12000 X105.6 Y129.396 Z0.74
G1 F300 Z0.24
G1 F2700 E61.11159
G1 F1800 X105.6 Y90.604 E64.20814
G1 F2700 E59.20814
G1 F300 Z0.74
G0 F12000 X107.2 Y90.604 Z0.74
G1 F300 Z0.24
G1 F2700 E64.20814
G1 F1800 X107.2 Y129.396 E67.30468
G1 F2700 E62.30468
G1 F300 Z0.74
G0 F12000 X108.8 Y129.396 Z0.74
G1 F300 Z0.24
G1 F2700 E67.30468
G1 F1800 X108.8 Y90.604 E70.40123
G1 F2700 E65.40123
G1 F300 Z0.74
G0 F12000 X110.4 Y90.604 Z0.74
G1 F300 Z0.24
G1 F2700 E70.40123
G1 F1800 X110.4 Y129.396 E73.49778
G1 F2700 E68.49778
G1 F300 Z0.74
G0 F12000 X112 Y129.396 Z0.74
G1 F300 Z0.24
G1 F2700 E73.49778
G1 F1800 X112 Y90.604 E76.59432
G1 F2700 E71.59432
G1 F300 Z0.74
G0 F12000 X113.6 Y90.604 Z0.74
G1 F300 Z0.24
G1 F2700 E76.59432
G1 F1800 X113.6 Y129.396 E79.69087
G1 F2700 E74.69087
G1 F300 Z0.74
G0 F12000 X115.2 Y129.396 Z0.74
G1 F300 Z0.24
G1 F2700 E79.69087
G1 F1800 X115.2 Y90.604 E82.78741
G1 F2700 E77.78741
G1 F300 Z0.74
G0 F12000 X116.8 Y90.604 Z0.74
G1 F300 Z0.24
G1 F2700 E82.78741
G1 F1800 X116.8 Y129.396 E85.88396
G1 F2700 E80.88396
G1 F300 Z0.74
G0 F12000 X118.4 Y129.396 Z0.74
G1 F300 Z0.24
G1 F2700 E85.88396
G1 F1800 X118.4 Y90.604 E88.9805
G1 F2700 E83.9805
G1 F300 Z0.74
G0 F12000 X120 Y90.604 Z0.74
G1 F300 Z0.24
G1 F2700 E88.9805
G1 F1800 X120 Y129.396 E92.07705
G1 F2700 E87.07705
G1 F300 Z0.74
G0 F12000 X121.6 Y129.396 Z0.74
G1 F300 Z0.24
G1 F2700 E92.07705
G1 F1800 X121.6 Y90.604 E95.17359
G1 F2700 E90.17359
G1 F300 Z0.74
G0 F12000 X123.2 Y90.624 Z0.74
G1 F300 Z0.24
G1 F2700 E95.17359
G1 F1800 X123.2 Y129.378 E98.2671
G1 F2700 E93.2671
G1 F300 Z0.74
G0 F12000 X124.8 Y129.237 Z0.74
G1 F300 Z0.24
G1 F2700 E98.2671
G1 F1800 X124.8 Y90.765 E101.3381
G1 F2700 E96.3381
G1 F300 Z0.74
G0 F12000 X126.4 Y91.098 Z0.74
G1 F300 Z0.24
G1 F2700 E101.3381
G1 F1800 X126.4 Y128.909 E104.35634
G1 F2700 E99.35634
G1 F300 Z0.74
G0 F12000 X128 Y128.385 Z0.74
G1 F300 Z0.24
G1 F2700 E104.35634
G1 F1800 X128 Y91.612 E107.29172
G1 F2700 E102.29172
G1 F300 Z0.74
G0 F12000 X129.6 Y92.342 Z0.74
G1 F300 Z0.24
G1 F2700 E107.29172
G1 F1800 X129.6 Y127.703 E110.11439
G1 F2700 E105.11439
G1 F300 Z0.74
G0 F12000 X131.2 Y126.996 Z0.74
G1 F300 Z0.24
G1 F2700 E110.11439
G1 F1800 X131.2 Y93.171 E112.81445
G1 F2700 E107.81445
G1 F300 Z0.74
G0 F12000 X132.8 Y93.962 Z0.74
G1 F300 Z0.24
G1 F2700 E112.81445
G1 F1800 X132.8 Y126.288 E115.39485
G1 F2700 E110.39485
G1 F300 Z0.74
G0 F12000 X134.4 Y125.581 Z0.74
G1 F300 Z0.24
G1 F2700 E115.39485
G1 F1800 X134.4 Y94.672 E117.86214
G1 F2700 E112.86214
G1 F300 Z0.74
G0 F12000 X136 Y95.382 Z0.74
G1 F300 Z0.24
G1 F2700 E117.86214
G1 F1800 X136 Y124.853 E120.21464
G1 F2700 E115.21464
G1 F300 Z0.74
G0 F12000 X137.6 Y124.037 Z0.74
G1 F300 Z0.24
G1 F2700 E120.21464
G1 F1800 X137.6 Y96.091 E122.44541
G1 F2700 E117.44541
G1 F300 Z0.74
G0 F12000 X139.2 Y96.827 Z0.74
G1 F300 Z0.24
G1 F2700 E122.44541
G1 F1800 X139.2 Y123.208 E124.55126
G1 F2700 E119.55126
G1 F300 Z0.74
G0 F12000 X140.8 Y122.274 Z0.74
G1 F300 Z0.24
G1 F2700 E124.55126
G1 F1800 X140.8 Y97.756 E126.50839
G1 F2700 E121.50839
G1 F300 Z0.74
G0 F12000 X142.4 Y98.993 Z0.74
G1 F300 Z0.24
G1 F2700 E126.50839
G1 F1800 X142.4 Y121.039 E128.2682
G1 F2700 E123.2682
G1 F300 Z0.74
G0 F12000 X144 Y119.363 Z0.74
G1 F300 Z0.24
G1 F2700 E128.2682
G1 F1800 X144 Y100.671 E129.76027
G1 F2700 E124.76027
G1 F300 Z0.74
G0 F12000 X145.6 Y103.083 Z0.74
G1 F300 Z0.24
G1 F2700 E129.76027
G1 F1800 X145.6 Y116.956 E130.86768
G1 F2700 E125.86768
G1 F300 Z0.74
G0 F12000 X147.2 Y111.775 Z0.74
G1 F300 Z0.24
G1 F2700 E130.86768
G1 F1800 X147.2 Y108.45 E131.13309
G1 F2700 E126.13309
G1 F300 Z0.74
G0 F12000 X76.8 Y99.731 Z0.74
G1 F300 Z0.24
G1 F2700 E131.13309
G1 F1800 X76.8 Y120.235 E132.76981
G1 F2700 E127.76981
G1 F300 Z0.74
G0 F12000 X75.2 Y118.25 Z0.74
G1 F300 Z0.24
G1 F2700 E132.76981
G1 F1800 X75.2 Y101.724 E134.08899
G1 F2700 E129.08899
G1 F300 Z0.74
G0 F12000 X73.6 Y104.857 Z0.74
G1 F300 Z0.24
G1 F2700 E134.08899
G1 F1800 X73.6 Y115.114 E134.90775
G1 F2700 E129.90775
G1 F300 Z0.74
G0 F12000 X74.437 Y116.99 Z0.74
;TIME_ELAPSED:89.824676
;LAYER:-5
M140 S65
G0 X74.437 Y116.99 Z1.04
;TYPE:SUPPORT
G1 F300 Z0.54
G1 F2700 E134.90775
G1 F1800 X74.514 Y117.133 E134.92395
G1 X74.963 Y117.895 E135.0122
G1 X75.059 Y118.047 E135.03014
G1 X75.571 Y118.788 E135.12001
G1 X75.668 Y118.916 E135.13603
G1 X76.239 Y119.626 E135.22695
G1 X76.347 Y119.75 E135.24335
G1 X76.956 Y120.401 E135.3323
G1 X77.08 Y120.524 E135.34973
G1 X77.73 Y121.127 E135.4382
G1 X77.868 Y121.244 E135.45625
G1 X78.559 Y121.796 E135.5445
G1 X78.695 Y121.898 E135.56146
G1 X79.442 Y122.408 E135.65171
G1 X79.579 Y122.494 E135.66785
G1 X80.361 Y122.951 E135.75823
G1 X80.514 Y123.033 E135.77555
G1 X80.695 Y123.122 E135.79567
G1 X74.314 Y116.74 E136.69617
G1 X74.036 Y116.179 E136.75865
G1 X73.965 Y116.021 E136.77593
G1 X73.635 Y115.208 E136.86348
G1 X73.565 Y115.017 E136.88378
G1 X73.353 Y114.366 E136.95209
G1 X83.294 Y124.306 E138.3548
G1 X83.918 Y124.583 E138.42292
G1 X84.286 Y124.744 E138.463
G1 X85.832 Y125.43 E138.63177
G1 X72.924 Y112.522 E140.45323
G1 X72.858 Y112.123 E140.49358
G1 X72.831 Y111.92 E140.51401
G1 X72.751 Y110.935 E140.61262
G1 X88.483 Y126.666 E142.83251
G1 X90.531 Y127.725 E143.06256
G1 X90.638 Y127.777 E143.07443
G1 X91.315 Y128.085 E143.14864
G1 X72.718 Y109.488 E145.77288
G1 X72.719 Y109.356 E145.78605
G1 X72.726 Y109.182 E145.80343
G1 X72.797 Y108.27 E145.8947
G1 X72.809 Y108.164 E145.90535
G1 X93.525 Y128.88 E148.8286
G1 X93.961 Y128.999 E148.8737
G1 X94.062 Y129.02 E148.88399
G1 X95.118 Y129.222 E148.99127
G1 X95.305 Y129.25 E149.01013
G0 F12000 X95.309 Y129.25
G1 F1800 X73.008 Y106.949 E152.15705
G1 X73.179 Y106.196 E152.23409
G1 X73.22 Y106.037 E152.25048
G1 X73.288 Y105.815 E152.27365
G1 X96.85 Y129.377 E155.5985
G1 X97.336 Y129.394 E155.64702
G1 X98.282 Y129.394 E155.74141
G1 X73.64 Y104.752 E159.21867
G1 X73.862 Y104.176 E159.28026
G1 X73.928 Y104.024 E159.29679
G1 X74.056 Y103.754 E159.32661
G1 X99.696 Y129.394 E162.94469
G1 X101.11 Y129.394 E163.08578
G1 X74.531 Y102.815 E166.83636
G1 X74.829 Y102.289 E166.89669
G1 X74.934 Y102.12 E166.91654
G1 X75.06 Y101.93 E166.93929
G1 X102.524 Y129.394 E170.81475
G1 X103.939 Y129.394 E170.95594
G1 X75.642 Y101.098 E174.94888
G1 X76.091 Y100.523 E175.02168
G1 X76.181 Y100.415 E175.03571
G1 X76.272 Y100.314 E175.04927
G1 X105.353 Y129.394 E179.15284
G1 X106.767 Y129.394 E179.29393
G1 X76.951 Y99.579 E183.50122
G1 X77.545 Y99.013 E183.58309
G1 X77.679 Y98.893 E183.60104
G1 X108.181 Y129.394 E187.90513
G1 X109.595 Y129.394 E188.04622
G1 X78.457 Y98.256 E192.44013
G1 X78.495 Y98.227 E192.4449
G1 X79.222 Y97.713 E192.53374
G1 X79.287 Y97.671 E192.54146
G1 X111.01 Y129.395 E197.01799
G1 X112.425 Y129.395 E197.15918
G1 X80.175 Y97.145 E201.71
G1 X80.566 Y96.916 E201.75521
G1 X80.639 Y96.876 E201.76352
G1 X81.088 Y96.644 E201.81395
G1 X113.839 Y129.395 E206.43547
G1 X115.253 Y129.395 E206.57656
G1 X82.019 Y96.161 E211.26623
G1 X82.95 Y95.678 E211.37089
G1 X116.667 Y129.395 E216.12872
G1 X118.081 Y129.395 E216.26981
G1 X83.887 Y95.201 E221.09495
G1 X84.57 Y94.873 E221.17055
G1 X84.85 Y94.75 E221.20107
G1 X119.496 Y129.395 E226.08992
G1 X120.91 Y129.395 E226.23101
G1 X85.831 Y94.316 E231.18104
G1 X86.812 Y93.883 E231.28803
