;FLAVOR:Marlin
;TIME:11192
;Filament used: 8.88752m
;Layer height: 0.2
;MINX:78.241
;MINY:78.081
;MINZ:0.24
;MAXX:141.697
;MAXY:141.91
;MAXZ:117.79
;Generated with Cura_SteamEngine master
M140 S70
M105
M190 S70
M104 S200
M105
M109 S200
M82 ;absolute extrusion mode
M201 X500.00 Y500.00 Z100.00 E5000.00 ;Setup machine max acceleration
M203 X500.00 Y500.00 Z10.00 E50.00 ;Setup machine max feedrate
M204 P500.00 R1000.00 T500.00 ;Setup Print/Retract/Travel acceleration
M205 X8.00 Y8.00 Z0.40 E5.00 ;Setup Jerk
M220 S100 ;Reset Feedrate
M221 S100 ;Reset Flowrate

G28 ;Home

G92 E0 ;Reset Extruder
G1 Z2.0 F3000 ;Move Z Axis up
G1 X10.1 Y20 Z0.28 F5000.0 ;Move to start position
G1 X10.1 Y200.0 Z0.28 F1500.0 E15 ;Draw the first line
G1 X10.4 Y200.0 Z0.28 F5000.0 ;Move to side a little
G1 X10.4 Y20 Z0.28 F1500.0 E30 ;Draw the second line
G92 E0 ;Reset Extruder
G1 Z2.0 F3000 ;Move Z Axis up

G92 E0
G92 E0
G1 F2700 E-5
;LAYER_COUNT:581
;LAYER:-6
M107
G0 F12000 X88.285 Y86.853 Z0.24
;TYPE:SUPPORT-INTERFACE
G1 F2700 E0
G1 F1800 X88.423 Y86.717 E0.01547
G1 X89.066 Y86.123 E0.08534
G1 X89.203 Y86.005 E0.09978
G1 X90.131 Y85.28 E0.19378
G1 X90.219 Y85.215 E0.20251
G1 X90.749 Y84.837 E0.25448
G1 X91.061 Y84.621 E0.28477
G1 X91.96 Y84.013 E0.3714
G1 X92.037 Y83.963 E0.37873
G1 X92.848 Y83.458 E0.45499
G1 X92.999 Y83.371 E0.4689
G1 X93.513 Y83.1 E0.51529
G1 X93.962 Y82.835 E0.5569
G1 X94.42 Y82.531 E0.60078
G1 X94.583 Y82.431 E0.61605
G1 X95.324 Y82.014 E0.68392
G1 X95.517 Y81.916 E0.7012
G1 X96.722 Y81.37 E0.8068
G1 X96.83 Y81.325 E0.81614
G1 X100.543 Y79.863 E1.13468
G1 X101.525 Y79.515 E1.21784
G1 X101.663 Y79.472 E1.22938
G1 X102.503 Y79.244 E1.29886
G1 X102.746 Y79.188 E1.31876
G1 X103.911 Y78.974 E1.41332
G1 X104.008 Y78.958 E1.42116
G1 X107.929 Y78.421 E1.73708
G1 X108.037 Y78.408 E1.74576
G1 X108.966 Y78.315 E1.82029
G1 X109.126 Y78.305 E1.83308
G1 X110.006 Y78.282 E1.90335
G1 X110.22 Y78.286 E1.92044
G1 X111.563 Y78.369 E2.02785
G1 X111.725 Y78.383 E2.04083
G1 X115.662 Y78.837 E2.35718
G1 X115.764 Y78.849 E2.36538
G1 X116.691 Y78.991 E2.44024
G1 X116.863 Y79.024 E2.45422
G1 X117.696 Y79.213 E2.5224
G1 X117.934 Y79.278 E2.54209
G1 X119.104 Y79.651 E2.64012
G1 X119.204 Y79.686 E2.64858
G1 X123.062 Y81.12 E2.97712
G1 X123.159 Y81.158 E2.98544
G1 X124.065 Y81.533 E3.06371
G1 X124.171 Y81.582 E3.07303
G1 X124.989 Y81.992 E3.14607
G1 X125.152 Y82.084 E3.16101
G1 X126.217 Y82.737 E3.26073
G1 X126.325 Y82.807 E3.27101
G1 X126.805 Y83.135 E3.31741
G1 X128.827 Y84.551 E3.51446
G1 X129.613 Y85.145 E3.59311
G1 X129.781 Y85.282 E3.61041
G1 X130.589 Y85.998 E3.69659
G1 X130.588 Y85.999 E3.6967
G1 X130.636 Y86.043 E3.7019
G1 X131.289 Y86.672 E3.77427
G1 X131.398 Y86.781 E3.78658
G1 X132.092 Y87.501 E3.8664
G1 X132.147 Y87.561 E3.8729
G1 X134.868 Y90.608 E4.19899
G1 X134.942 Y90.692 E4.20793
G1 X135.59 Y91.487 E4.2898
G1 X135.683 Y91.611 E4.30217
G1 X136.208 Y92.36 E4.37518
G1 X136.292 Y92.492 E4.38767
G1 X136.855 Y93.449 E4.4763
G1 X136.916 Y93.557 E4.4862
G1 X138.742 Y96.995 E4.79695
G1 X139.156 Y97.844 E4.87235
G1 X139.209 Y97.957 E4.88231
G1 X139.272 Y98.101 E4.89486
G1 X139.63 Y98.987 E4.97114
G1 X139.693 Y99.168 E4.98643
G1 X140.091 Y100.474 E5.09542
G1 X140.126 Y100.601 E5.10593
G1 X141.017 Y104.19 E5.40112
G1 X141.04 Y104.293 E5.40954
G1 X141.309 Y105.684 E5.52264
G1 X141.342 Y105.888 E5.53913
G1 X141.363 Y106.059 E5.55288
G1 X141.456 Y106.956 E5.62487
G1 X141.467 Y107.113 E5.63743
G1 X141.495 Y107.946 E5.70397
G1 X141.497 Y108.049 E5.71219
G1 X141.496 Y111.872 E6.01736
G1 X141.493 Y111.992 E6.02694
G1 X141.418 Y113.417 E6.14085
G1 X141.406 Y113.555 E6.1519
G1 X141.396 Y113.637 E6.1585
G1 X141.265 Y114.563 E6.23315
G1 X141.232 Y114.748 E6.24815
G1 X141.049 Y115.607 E6.31826
G1 X140.065 Y119.56 E6.64343
G1 X139.79 Y120.512 E6.72253
G1 X139.75 Y120.636 E6.73293
G1 X139.434 Y121.493 E6.80585
G1 X139.368 Y121.652 E6.81959
G1 X138.819 Y122.823 E6.92283
G1 X138.774 Y122.913 E6.93086
G1 X136.868 Y126.515 E7.25616
G1 X136.819 Y126.604 E7.26427
G1 X136.355 Y127.407 E7.3383
G1 X136.261 Y127.557 E7.35243
G1 X135.767 Y128.285 E7.42266
G1 X135.645 Y128.45 E7.43904
G1 X134.818 Y129.468 E7.54373
G1 X134.817 Y129.467 E7.54385
G1 X134.75 Y129.547 E7.55218
G1 X131.981 Y132.625 E7.88267
G1 X131.501 Y133.133 E7.93846
G1 X131.037 Y133.602 E7.99112
G1 X130.953 Y133.683 E8.00043
G1 X130.257 Y134.336 E8.07662
G1 X130.125 Y134.449 E8.09049
G1 X128.979 Y135.342 E8.20646
G1 X128.914 Y135.39 E8.21291
G1 X126.374 Y137.159 E8.45999
G1 X126.316 Y137.198 E8.46557
G1 X125.493 Y137.728 E8.54371
G1 X125.392 Y137.788 E8.55309
G1 X124.587 Y138.227 E8.62628
G1 X124.42 Y138.308 E8.6411
G1 X123.126 Y138.869 E8.75368
G1 X123.023 Y138.91 E8.76253
G1 X119.197 Y140.33 E9.08829
G1 X118.274 Y140.635 E9.16589
G1 X118.16 Y140.669 E9.17538
G1 X117.435 Y140.858 E9.23519
G1 X117.16 Y140.919 E9.25768
G1 X116.228 Y141.102 E9.33349
G1 X116.081 Y141.126 E9.34538
G1 X115.562 Y141.197 E9.3872
G1 X111.841 Y141.619 E9.68613
G1 X111.757 Y141.627 E9.69286
G1 X110.789 Y141.7 E9.77035
G1 X110.637 Y141.706 E9.78249
G1 X109.767 Y141.71 E9.85194
G1 X109.547 Y141.7 E9.86952
G1 X108.243 Y141.59 E9.97398
G1 X108.091 Y141.575 E9.98617
G1 X103.906 Y141.006 E10.32331
G1 X102.901 Y140.833 E10.40472
G1 X102.764 Y140.804 E10.41589
G1 X101.888 Y140.585 E10.48797
G1 X101.715 Y140.535 E10.50235
G1 X100.506 Y140.122 E10.60433
G1 X100.434 Y140.095 E10.61047
G1 X96.793 Y138.657 E10.92296
G1 X96.736 Y138.634 E10.92786
G1 X95.843 Y138.242 E11.00571
G1 X95.709 Y138.178 E11.01756
G1 X94.903 Y137.752 E11.09034
G1 X94.755 Y137.666 E11.104
G1 X94.068 Y137.227 E11.16908
G1 X93.62 Y136.971 E11.21027
G1 X93.55 Y136.935 E11.21655
G1 X92.735 Y136.487 E11.29079
G1 X92.632 Y136.426 E11.30034
G1 X91.963 Y135.998 E11.36374
G1 X90.861 Y135.247 E11.47019
G1 X90.27 Y134.83 E11.52793
G1 X90.181 Y134.765 E11.53673
G1 X89.438 Y134.199 E11.61128
G1 X89.321 Y134.103 E11.62337
G1 X88.644 Y133.504 E11.69552
G1 X88.509 Y133.374 E11.71048
G1 X87.665 Y132.492 E11.80793
G1 X87.58 Y132.399 E11.81799
G1 X84.891 Y129.311 E12.14484
G1 X84.291 Y128.569 E12.22101
G1 X84.195 Y128.441 E12.23379
G1 X83.659 Y127.669 E12.30881
G1 X83.59 Y127.563 E12.3189
G1 X83.312 Y127.11 E12.36133
G1 X82.938 Y126.433 E12.42307
G1 X82.896 Y126.355 E12.43014
G1 X81.063 Y122.804 E12.74913
G1 X80.645 Y121.915 E12.82755
G1 X80.567 Y121.73 E12.84358
G1 X80.26 Y120.934 E12.91168
G1 X80.192 Y120.732 E12.92869
G1 X79.852 Y119.567 E13.02557
G1 X79.833 Y119.494 E13.03159
G1 X78.87 Y115.529 E13.35729
G1 X78.84 Y115.397 E13.3681
G1 X78.662 Y114.526 E13.43906
G1 X78.628 Y114.322 E13.45557
G1 X78.516 Y113.451 E13.52567
G1 X78.501 Y113.281 E13.53929
G1 X78.444 Y112.05 E13.63766
G1 X78.442 Y111.941 E13.64637
G1 X78.442 Y107.933 E13.9663
G1 X78.479 Y106.929 E14.0465
G1 X78.49 Y106.771 E14.05914
G1 X78.581 Y105.927 E14.1269
G1 X78.59 Y105.857 E14.13254
G1 X78.602 Y105.783 E14.13852
G1 X78.858 Y104.46 E14.24609
G1 X78.879 Y104.36 E14.25425
G1 X79.847 Y100.418 E14.57826
G1 X80.159 Y99.338 E14.668
G1 X80.188 Y99.251 E14.67532
G1 X80.515 Y98.376 E14.74988
G1 X80.598 Y98.179 E14.76695
G1 X81.047 Y97.22 E14.85147
G1 X81.124 Y97.064 E14.86536
G1 X82.917 Y93.618 E15.17544
G1 X82.98 Y93.501 E15.18605
G1 X83.445 Y92.681 E15.2613
G1 X83.515 Y92.568 E15.27191
G1 X84.028 Y91.799 E15.3457
G1 X84.128 Y91.662 E15.35924
G1 X84.864 Y90.735 E15.45372
G1 X84.939 Y90.646 E15.46301
G1 X87.655 Y87.526 E15.79321
G1 X88.285 Y86.853 E15.8668
G0 F12000 X88 Y87.157
G1 F1800 X88 Y132.842 E19.51357
G1 F2700 E14.51357
G1 F300 Z0.74
G0 F12000 X89.6 Y134.322 Z0.74
G1 F300 Z0.24
G1 F2700 E19.51357
G1 F1800 X89.6 Y85.694 E23.39527
G1 F2700 E18.39527
G1 F300 Z0.74
G0 F12000 X91.2 Y84.526 Z0.74
G1 F300 Z0.24
G1 F2700 E23.39527
G1 F1800 X91.2 Y135.478 E27.46248
G1 F2700 E22.46248
G1 F300 Z0.74
G0 F12000 X92.8 Y136.522 Z0.74
G1 F300 Z0.24
G1 F2700 E27.46248
G1 F1800 X92.8 Y83.487 E31.69596
G1 F2700 E26.69596
G1 F300 Z0.74
G0 F12000 X94.4 Y82.544 Z0.74
G1 F300 Z0.24
G1 F2700 E31.69596
G1 F1800 X94.4 Y137.439 E36.07791
G1 F2700 E31.07791
G1 F300 Z0.74
G0 F12000 X96 Y138.31 Z0.74
G1 F300 Z0.24
G1 F2700 E36.07791
G1 F1800 X96 Y81.697 E40.59701
G1 F2700 E35.59701
G1 F300 Z0.74
G0 F12000 X97.6 Y81.021 Z0.74
G1 F300 Z0.24
G1 F2700 E40.59701
G1 F1800 X97.6 Y138.975 E45.22315
G1 F2700 E40.22315
G1 F300 Z0.74
G0 F12000 X99.2 Y139.607 Z0.74
G1 F300 Z0.24
G1 F2700 E45.22315
G1 F1800 X99.2 Y80.391 E49.95003
G1 F2700 E44.95003
G1 F300 Z0.74
G0 F12000 X100.8 Y79.771 Z0.74
G1 F300 Z0.24
G1 F2700 E49.95003
G1 F1800 X100.8 Y140.222 E54.77549
G1 F2700 E49.77549
G1 F300 Z0.74
G0 F12000 X102.4 Y140.713 Z0.74
G1 F300 Z0.24
G1 F2700 E54.77549
G1 F1800 X102.4 Y79.271 E59.68005
G1 F2700 E54.68005
G1 F300 Z0.74
G0 F12000 X104 Y78.959 Z0.74
G1 F300 Z0.24
G1 F2700 E59.68005
G1 F1800 X104 Y141.018 E64.63387
G1 F2700 E59.63387
G1 F300 Z0.74
G0 F12000 X105.6 Y141.236 Z0.74
G1 F300 Z0.24
G1 F2700 E64.63387
G1 F1800 X105.6 Y78.739 E69.62265
G1 F2700 E64.62265
G1 F300 Z0.74
G0 F12000 X107.2 Y78.52 Z0.74
G1 F300 Z0.24
G1 F2700 E69.62265
G1 F1800 X107.2 Y141.453 E74.64623
G1 F2700 E69.64623
G1 F300 Z0.74
G0 F12000 X108.8 Y141.636 Z0.74
G1 F300 Z0.24
G1 F2700 E74.64623
G1 F1800 X108.8 Y78.331 E79.69951
G1 F2700 E74.69951
G1 F300 Z0.74
G0 F12000 X110.4 Y78.298 Z0.74
G1 F300 Z0.24
G1 F2700 E79.69951
G1 F1800 X110.4 Y141.708 E84.76117
G1 F2700 E79.76117
G1 F300 Z0.74
G0 F12000 X112 Y141.601 Z0.74
G1 F300 Z0.24
G1 F2700 E84.76117
G1 F1800 X112 Y78.415 E89.80495
G1 F2700 E84.80495
G1 F300 Z0.74
G0 F12000 X113.6 Y78.6 Z0.74
G1 F300 Z0.24
G1 F2700 E89.80495
G1 F1800 X113.6 Y141.42 E94.81952
G1 F2700 E89.81952
G1 F300 Z0.74
G0 F12000 X115.2 Y141.239 Z0.74
G1 F300 Z0.24
G1 F2700 E94.81952
G1 F1800 X115.2 Y78.784 E99.80495
G1 F2700 E94.80495
G1 F300 Z0.74
G0 F12000 X116.8 Y79.012 Z0.74
G1 F300 Z0.24
G1 F2700 E99.80495
G1 F1800 X116.8 Y140.99 E104.7523
G1 F2700 E99.7523
G1 F300 Z0.74
G0 F12000 X118.4 Y140.594 Z0.74
G1 F300 Z0.24
G1 F2700 E104.7523
G1 F1800 X118.4 Y79.427 E109.63491
G1 F2700 E104.63491
G1 F300 Z0.74
G0 F12000 X120 Y79.982 Z0.74
G1 F300 Z0.24
G1 F2700 E109.63491
G1 F1800 X120 Y140.032 E114.42836
G1 F2700 E109.42836
G1 F300 Z0.74
G0 F12000 X121.6 Y139.439 Z0.74
G1 F300 Z0.24
G1 F2700 E114.42836
G1 F1800 X121.6 Y80.577 E119.12698
G1 F2700 E114.12698
G1 F300 Z0.74
G0 F12000 X123.2 Y81.175 Z0.74
G1 F300 Z0.24
G1 F2700 E119.12698
G1 F1800 X123.2 Y138.837 E123.72981
G1 F2700 E118.72981
G1 F300 Z0.74
G0 F12000 X124.8 Y138.111 Z0.74
G1 F300 Z0.24
G1 F2700 E123.72981
G1 F1800 X124.8 Y81.898 E128.21698
G1 F2700 E123.21698
G1 F300 Z0.74
G0 F12000 X126.4 Y82.859 Z0.74
G1 F300 Z0.24
G1 F2700 E128.21698
G1 F1800 X126.4 Y137.141 E132.55
G1 F2700 E127.55
G1 F300 Z0.74
G0 F12000 X128 Y136.027 Z0.74
G1 F300 Z0.24
G1 F2700 E132.55
G1 F1800 X128 Y83.972 E136.70526
G1 F2700 E131.70526
G1 F300 Z0.74
G0 F12000 X129.6 Y85.136 Z0.74
G1 F300 Z0.24
G1 F2700 E136.70526
G1 F1800 X129.6 Y134.859 E140.67436
G1 F2700 E135.67436
G1 F300 Z0.74
G0 F12000 X131.2 Y133.438 Z0.74
G1 F300 Z0.24
G1 F2700 E140.67436
G1 F1800 X131.2 Y86.587 E144.41421
G1 F2700 E139.41421
G1 F300 Z0.74
G0 F12000 X132.8 Y88.293 Z0.74
G1 F300 Z0.24
G1 F2700 E144.41421
G1 F1800 X132.8 Y131.715 E147.88034
G1 F2700 E142.88034
G1 F300 Z0.74
G0 F12000 X134.4 Y129.937 Z0.74
G1 F300 Z0.24
G1 F2700 E147.88034
G1 F1800 X134.4 Y90.084 E151.06158
G1 F2700 E146.06158
G1 F300 Z0.74
G0 F12000 X136 Y92.064 Z0.74
G1 F300 Z0.24
G1 F2700 E151.06158
G1 F1800 X136 Y127.942 E153.92552
G1 F2700 E148.92552
G1 F300 Z0.74
G0 F12000 X137.6 Y125.132 Z0.74
G1 F300 Z0.24
G1 F2700 E153.92552
G1 F1800 X137.6 Y94.845 E156.34316
G1 F2700 E151.34316
G1 F300 Z0.74
G0 F12000 X139.2 Y97.938 Z0.74
G1 F300 Z0.24
G1 F2700 E156.34316
G1 F1800 X139.2 Y122.011 E158.26477
G1 F2700 E153.26477
G1 F300 Z0.74
G0 F12000 X140.8 Y116.608 Z0.74
G1 F300 Z0.24
G1 F2700 E158.26477
G1 F1800 X140.8 Y103.316 E159.32579
G1 F2700 E154.32579
G1 F300 Z0.74
G0 F12000 X86.4 Y88.967 Z0.74
G1 F300 Z0.24
G1 F2700 E159.32579
G1 F1800 X86.4 Y131.043 E162.68448
G1 F2700 E157.68448
G1 F300 Z0.74
G0 F12000 X84.8 Y129.198 Z0.74
G1 F300 Z0.24
G1 F2700 E162.68448
G1 F1800 X84.8 Y90.815 E165.74838
G1 F2700 E160.74838
G1 F300 Z0.74
G0 F12000 X83.2 Y93.113 Z0.74
G1 F300 Z0.24
G1 F2700 E165.74838
G1 F1800 X83.2 Y126.907 E168.44596
G1 F2700 E163.44596
G1 F300 Z0.74
G0 F12000 X81.6 Y123.844 Z0.74
G1 F300 Z0.24
G1 F2700 E168.44596
G1 F1800 X81.6 Y96.149 E170.6567
G1 F2700 E165.6567
G1 F300 Z0.74
G0 F12000 X80 Y99.888 Z0.74
G1 F300 Z0.24
G1 F2700 E170.6567
G1 F1800 X80 Y120.074 E172.26803
G1 F2700 E167.26803
G1 F300 Z0.74
G0 F12000 X83.381 Y127.221 Z0.74
;TIME_ELAPSED:100.329402
;LAYER:-5
M140 S65
G0 X83.381 Y127.221 Z1.04
;TYPE:SUPPORT
G1 F300 Z0.54
G1 F2700 E172.26803
G1 F1800 X92.501 Y136.342 E173.55503
G1 X91.962 Y135.997 E173.61889
G1 X90.861 Y135.246 E173.75187
G1 X90.269 Y134.828 E173.82418
G1 X90.18 Y134.763 E173.83518
G1 X89.438 Y134.198 E173.92823
G1 X89.321 Y134.102 E173.94333
G1 X88.644 Y133.503 E174.03353
G1 X88.508 Y133.373 E174.0523
G1 X87.664 Y132.491 E174.17411
G1 X87.58 Y132.397 E174.18669
G1 X84.89 Y129.31 E174.59525
G1 X84.29 Y128.568 E174.69046
G1 X84.195 Y128.44 E174.70637
G1 X83.659 Y127.668 E174.80015
G1 X83.589 Y127.562 E174.81282
G1 F2700 E169.81282
G1 F300 Z1.04
G0 F12000 X92.501 Y136.342 Z1.04
G1 F300 Z0.54
G1 F2700 E174.81282
G1 F1800 X92.631 Y136.425 E174.82821
G1 X92.734 Y136.486 E174.84016
G1 X93.55 Y136.934 E174.93304
G1 X93.62 Y136.97 E174.94089
G1 X94.067 Y137.226 E174.99229
G1 X94.755 Y137.665 E175.07373
G1 X94.902 Y137.75 E175.09067
G1 X95.709 Y138.177 E175.18177
G1 X95.789 Y138.216 E175.19065
G1 X81.793 Y124.22 E177.16564
G1 X81.062 Y122.803 E177.32473
G1 X80.644 Y121.914 E177.42275
G1 X80.567 Y121.729 E177.44275
G1 X80.472 Y121.485 E177.46887
G1 X98.199 Y139.211 E179.97027
G1 X100.433 Y140.094 E180.20996
G1 X100.506 Y140.12 E180.2177
G1 X100.531 Y140.129 E180.22035
G1 X79.812 Y119.41 E183.14402
G1 X79.359 Y117.543 E183.33572
G1 X102.57 Y140.754 E186.61104
G1 X102.763 Y140.803 E186.63091
G1 X102.901 Y140.831 E186.64496
G1 X103.905 Y141.004 E186.74661
G1 X104.286 Y141.056 E186.78498
G1 X78.905 Y115.674 E190.36659
G1 X78.869 Y115.527 E190.38169
G1 X78.84 Y115.396 E190.39508
G1 X78.662 Y114.525 E190.48378
G1 X78.628 Y114.321 E190.50442
G1 X78.577 Y113.933 E190.54346
G1 X105.923 Y141.279 E194.40228
G1 X107.56 Y141.501 E194.56712
G1 X78.459 Y112.4 E198.67358
G1 X78.443 Y112.049 E198.70864
G1 X78.442 Y111.94 E198.71952
G1 X78.442 Y110.969 E198.8164
G1 X109.137 Y141.664 E203.1478
G1 X109.547 Y141.699 E203.18886
G1 X109.767 Y141.709 E203.21083
G1 X110.592 Y141.705 E203.29315
G1 X78.442 Y109.554 E207.82994
G1 X78.442 Y108.14 E207.97103
G1 X111.911 Y141.61 E212.69393
G1 X113.181 Y141.465 E212.82148
G1 X78.489 Y106.773 E217.71689
G0 F12000 X78.49 Y106.77
G1 F1800 X78.58 Y105.926 E217.80159
G1 X78.589 Y105.856 E217.80863
G1 X78.601 Y105.781 E217.81621
G1 X78.652 Y105.522 E217.84255
G1 X114.452 Y141.322 E222.89431
G1 X115.562 Y141.196 E223.00578
G1 X115.718 Y141.174 E223.0215
G1 X78.883 Y104.339 E228.21932
G1 X79.162 Y103.204 E228.33594
G1 X116.922 Y140.964 E233.66428
G1 X117.159 Y140.918 E233.68837
G1 X117.434 Y140.857 E233.71648
G1 X118.064 Y140.692 E233.78146
G1 X79.441 Y102.068 E239.23165
G1 X79.719 Y100.933 E239.34825
G1 X119.136 Y140.349 E244.91035
G1 X119.196 Y140.329 E244.91666
G1 X120.169 Y139.968 E245.02021
G1 X80.019 Y99.818 E250.68581
G1 X80.159 Y99.337 E250.73579
G1 X80.188 Y99.25 E250.74495
G1 X80.371 Y98.756 E250.79751
G1 X121.2 Y139.584 E256.55885
G1 X122.231 Y139.202 E256.66856
G1 X80.791 Y97.762 E262.51619
G1 X81.046 Y97.219 E262.57605
G1 X81.123 Y97.063 E262.59341
G1 X81.254 Y96.81 E262.62184
G1 X123.255 Y138.811 E268.54863
G1 X124.241 Y138.383 E268.65588
G1 X81.738 Y95.88 E274.65352
G1 X82.223 Y94.951 E274.75808
G1 X125.176 Y137.904 E280.81922
G1 X125.391 Y137.787 E280.84364
G1 X125.493 Y137.727 E280.85545
G1 X126.052 Y137.366 E280.92184
G1 X82.706 Y94.02 E287.03843
G1 X82.917 Y93.617 E287.08382
G1 X82.979 Y93.5 E287.09704
G1 X83.203 Y93.103 E287.14252
G1 X126.895 Y136.794 E293.30786
G1 X127.728 Y136.214 E293.40914
