;FLAVOR:Marlin
;TIME:1113
;Filament used: 0.480123m
;Layer height: 0.2
;MINX:87.913
;MINY:83.991
;MINZ:0.2
;MAXX:132.092
;MAXY:136.23
;MAXZ:7.2
;Generated with Cura_SteamEngine master
M140 S70
M105
M190 S70
M104 S200
M105
M109 S200
M82 ;absolute extrusion mode
M201 X500.00 Y500.00 Z100.00 E5000.00 ;Setup machine max acceleration
M203 X500.00 Y500.00 Z10.00 E50.00 ;Setup machine max feedrate
M204 P500.00 R1000.00 T500.00 ;Setup Print/Retract/Travel acceleration
M205 X8.00 Y8.00 Z0.40 E5.00 ;Setup Jerk
M220 S100 ;Reset Feedrate
M221 S100 ;Reset Flowrate

G28 ;Home

G92 E0 ;Reset Extruder
G1 Z2.0 F3000 ;Move Z Axis up
G1 X10.1 Y20 Z0.28 F5000.0 ;Move to start position
G1 X10.1 Y200.0 Z0.28 F1500.0 E15 ;Draw the first line
G1 X10.4 Y200.0 Z0.28 F5000.0 ;Move to side a little
G1 X10.4 Y20 Z0.28 F1500.0 E30 ;Draw the second line
G92 E0 ;Reset Extruder
G1 Z2.0 F3000 ;Move Z Axis up

G92 E0
G92 E0
G1 F2700 E-5
;LAYER_COUNT:36
;LAYER:0
M107
G1 F300 Z0.7
G0 F6000 X95.628 Y93.327 Z0.7
;TYPE:SKIRT
G1 F300 Z0.2
G1 F2700 E0
G1 F600 X96.378 Y92.652 E0.03356
G1 X96.397 Y92.637 E0.03437
G1 X97.096 Y92.145 E0.0628
G1 X97.888 Y91.65 E0.09386
G1 X98.683 Y91.215 E0.124
G1 X98.702 Y91.206 E0.1247
G1 X99.62 Y90.84 E0.15757
G1 X100.502 Y90.552 E0.18843
G1 X101.137 Y90.374 E0.21036
G1 X101.445 Y90.317 E0.22078
G1 X102.849 Y87.889 E0.31407
G1 X103.279 Y87.226 E0.34035
G1 X103.773 Y86.61 E0.36661
G1 X104.327 Y86.047 E0.39288
G1 X104.935 Y85.544 E0.41913
G1 X105.59 Y85.104 E0.44537
G1 X106.287 Y84.732 E0.47165
G1 X107.018 Y84.433 E0.49792
G1 X107.776 Y84.21 E0.5242
G1 X108.552 Y84.064 E0.55046
G1 X109.534 Y83.993 E0.58321
G1 X109.763 Y83.991 E0.59083
G1 X110.552 Y84.024 E0.61709
G1 X111.333 Y84.137 E0.64334
G1 X112.1 Y84.328 E0.66963
G1 X112.843 Y84.596 E0.6959
G1 X113.555 Y84.937 E0.72216
G1 X114.229 Y85.349 E0.74843
G1 X114.857 Y85.827 E0.77468
G1 X115.435 Y86.365 E0.80094
G1 X115.955 Y86.96 E0.82722
G1 X116.505 Y87.753 E0.85932
G1 X117.946 Y90.135 E0.95192
G1 X118.9 Y90.349 E0.98444
G1 X119.784 Y90.616 E1.01515
G1 X120.602 Y90.914 E1.04411
G1 X120.623 Y90.923 E1.04487
G1 X121.532 Y91.385 E1.07878
G1 X122.332 Y91.86 E1.10972
G1 X123.119 Y92.395 E1.14138
G1 X123.141 Y92.412 E1.1423
G1 X123.845 Y93.026 E1.17337
G1 X124.501 Y93.672 E1.20399
G1 X125.268 Y94.55 E1.24277
G1 X125.283 Y94.57 E1.2436
G1 X125.675 Y95.144 E1.26672
G1 X126.166 Y95.937 E1.29774
G1 X126.583 Y96.704 E1.32678
G1 X126.592 Y96.723 E1.32748
G1 X126.97 Y97.68 E1.3617
G1 X127.249 Y98.55 E1.39209
G1 X127.452 Y99.313 E1.41835
G1 X127.605 Y100.424 E1.45565
G1 X127.608 Y100.47 E1.45718
G1 X127.62 Y101.26 E1.48346
G1 X127.531 Y102.183 E1.5143
G1 X127.322 Y103.52 E1.55931
G1 X127.141 Y104.367 E1.58812
G1 X127.135 Y104.389 E1.58888
G1 X126.776 Y105.416 E1.62506
G1 X126.238 Y106.668 E1.67038
G1 X126.173 Y106.796 E1.67516
G1 X127.725 Y108.641 E1.75535
G1 X128.201 Y109.118 E1.77776
G1 X128.413 Y109.339 E1.78795
G1 X128.461 Y109.391 E1.7903
G1 X128.772 Y109.749 E1.80607
G1 X129.128 Y110.185 E1.82479
G1 X129.769 Y111.096 E1.86184
G1 X130.221 Y111.847 E1.891
G1 X130.36 Y112.088 E1.90025
G1 X130.406 Y112.171 E1.90341
G1 X130.695 Y112.747 E1.92484
G1 X131.042 Y113.517 E1.95293
G1 X131.337 Y114.273 E1.97992
G1 X131.514 Y114.887 E2.00118
G1 X131.86 Y116.302 E2.04963
G1 X132.023 Y117.188 E2.07959
G1 X132.026 Y117.212 E2.08039
G1 X132.086 Y118.149 E2.11162
G1 X132.092 Y119.711 E2.16357
G1 X132.055 Y120.5 E2.18985
G1 X131.938 Y121.281 E2.21611
G1 X131.744 Y122.046 E2.24236
G1 X131.472 Y122.788 E2.26865
G1 X131.127 Y123.498 E2.2949
G1 X130.713 Y124.17 E2.32115
G1 X130.232 Y124.797 E2.34744
G1 X129.927 Y125.135 E2.36258
G1 X129.815 Y125.252 E2.36797
G1 X129.24 Y125.794 E2.39425
G1 X128.614 Y126.275 E2.4205
G1 X127.943 Y126.69 E2.44675
G1 X127.232 Y127.036 E2.47305
G1 X126.491 Y127.308 E2.4993
G1 X125.726 Y127.503 E2.52556
G1 X124.945 Y127.62 E2.55182
G1 X124.398 Y127.655 E2.57005
G1 X124.148 Y127.662 E2.57837
G1 X123.359 Y127.644 E2.60462
G1 X122.222 Y127.476 E2.64285
G1 X122.173 Y127.465 E2.64452
G1 X121.412 Y127.253 E2.67079
G1 X120.824 Y127.015 E2.69189
G1 X116.508 Y132.993 E2.93713
G1 X116.014 Y133.609 E2.96339
G1 X115.461 Y134.172 E2.98964
G1 X114.853 Y134.676 E3.0159
G1 X114.197 Y135.117 E3.04219
G1 X113.5 Y135.488 E3.06845
G1 X112.769 Y135.787 E3.09472
G1 X112.012 Y136.011 E3.12098
G1 X111.236 Y136.157 E3.14724
G1 X110.261 Y136.228 E3.17976
G1 X110.059 Y136.23 E3.18648
G1 X109.27 Y136.197 E3.21274
G1 X108.488 Y136.086 E3.23901
G1 X107.722 Y135.895 E3.26527
G1 X106.979 Y135.629 E3.29152
G1 X106.266 Y135.288 E3.3178
G1 X105.592 Y134.877 E3.34406
G1 X104.963 Y134.4 E3.37032
G1 X104.385 Y133.862 E3.39658
G1 X103.755 Y133.128 E3.42875
G1 X99.343 Y127.28 E3.6724
G1 X98.567 Y127.567 E3.69992
G1 X98.325 Y127.639 E3.70832
G1 X97.558 Y127.826 E3.73458
G1 X96.435 Y127.956 E3.77218
G1 X96.202 Y127.966 E3.77993
G1 X95.413 Y127.96 E3.80618
G1 X94.628 Y127.874 E3.83244
G1 X93.856 Y127.709 E3.8587
G1 X93.104 Y127.467 E3.88497
G1 X92.381 Y127.15 E3.91123
G1 X91.693 Y126.762 E3.9375
G1 X91.048 Y126.306 E3.96378
G1 X90.353 Y125.688 E3.99471
G1 X90.244 Y125.579 E3.99984
G1 X89.714 Y124.993 E4.02611
G1 X89.247 Y124.357 E4.05236
G1 X88.846 Y123.677 E4.07862
G1 X88.516 Y122.959 E4.1049
G1 X88.261 Y122.212 E4.13115
G1 X88.082 Y121.443 E4.15741
G1 X87.965 Y120.363 E4.19354
G1 X87.913 Y119.009 E4.23861
G1 X87.92 Y118.259 E4.26356
G1 X87.982 Y117.623 E4.28481
G1 X88.061 Y117.052 E4.30398
G1 X88.235 Y116.171 E4.33385
G1 X88.55 Y114.951 E4.37576
G1 X88.786 Y114.197 E4.40204
G1 X88.943 Y113.804 E4.41611
G1 X89.232 Y113.136 E4.44032
G1 X89.572 Y112.446 E4.4659
G1 X89.928 Y111.805 E4.49029
G1 X90.511 Y110.907 E4.5259
G1 X90.973 Y110.292 E4.55149
G1 X91.417 Y109.753 E4.57471
G1 X91.56 Y109.596 E4.58177
G1 X92.063 Y109.058 E4.60627
G1 X93.593 Y107.156 E4.68746
G1 X93.52 Y107.021 E4.69256
G1 X92.958 Y105.787 E4.73766
G1 X92.667 Y105.053 E4.76392
G1 X92.525 Y104.584 E4.78022
G1 X92.374 Y103.916 E4.803
G1 X92.134 Y102.585 E4.84798
G1 X92.033 Y101.802 E4.87424
G1 X92.027 Y100.693 E4.91113
G1 X92.03 Y100.647 E4.91266
G1 X92.121 Y99.863 E4.93891
G1 X92.336 Y98.933 E4.97066
G1 X92.596 Y98.058 E5.00102
G1 X92.793 Y97.48 E5.02133
G1 X92.803 Y97.454 E5.02226
G1 X93.123 Y96.732 E5.04852
G1 X93.353 Y96.311 E5.06448
G1 X93.82 Y95.514 E5.0952
G1 X94.242 Y94.869 E5.12084
G1 X94.258 Y94.847 E5.12175
G1 X94.983 Y93.988 E5.15913
G1 X95.628 Y93.327 E5.18985
G0 F6000 X95.915 Y93.606
G1 F600 X96.626 Y92.966 E5.22167
G1 X96.645 Y92.951 E5.22247
G1 X97.308 Y92.484 E5.24944
G1 X98.1 Y91.989 E5.28051
G1 X98.854 Y91.576 E5.3091
G1 X98.873 Y91.567 E5.3098
G1 X99.744 Y91.221 E5.34097
G1 X100.626 Y90.933 E5.37183
G1 X101.23 Y90.763 E5.3927
G1 X101.7 Y90.677 E5.40859
G1 X103.196 Y88.089 E5.50802
G1 X103.615 Y87.444 E5.5336
G1 X104.098 Y86.846 E5.55917
G1 X104.642 Y86.302 E5.58475
G1 X105.238 Y85.817 E5.61031
G1 X105.882 Y85.396 E5.6359
G1 X106.566 Y85.044 E5.66149
G1 X107.283 Y84.766 E5.68707
G1 X108.025 Y84.563 E5.71265
G1 X108.784 Y84.438 E5.73824
G1 X109.537 Y84.393 E5.76333
G1 X109.766 Y84.391 E5.77094
G1 X110.535 Y84.425 E5.79654
G1 X111.296 Y84.537 E5.82213
G1 X112.041 Y84.729 E5.84772
G1 X112.762 Y84.996 E5.87329
G1 X113.451 Y85.337 E5.89886
G1 X114.102 Y85.748 E5.92446
G1 X114.706 Y86.224 E5.95004
G1 X115.257 Y86.76 E5.97561
G1 X115.75 Y87.35 E6.00118
G1 X116.162 Y87.961 E6.02569
G1 X117.693 Y90.491 E6.12405
G1 X117.729 Y90.496 E6.12526
G1 X118.785 Y90.732 E6.16125
G1 X119.669 Y90.999 E6.19196
G1 X120.444 Y91.281 E6.21939
G1 X120.465 Y91.29 E6.22015
G1 X121.328 Y91.729 E6.25235
G1 X122.128 Y92.204 E6.2833
G1 X122.875 Y92.711 E6.31333
G1 X122.897 Y92.728 E6.31425
G1 X123.564 Y93.311 E6.34371
G1 X124.22 Y93.957 E6.37434
G1 X124.948 Y94.79 E6.41113
G1 X124.963 Y94.81 E6.41196
G1 X125.335 Y95.354 E6.43388
G1 X125.826 Y96.147 E6.4649
G1 X126.222 Y96.875 E6.49247
G1 X126.231 Y96.894 E6.49317
G1 X126.59 Y97.802 E6.52564
G1 X126.869 Y98.672 E6.55603
G1 X127.065 Y99.416 E6.58162
G1 X127.206 Y100.45 E6.61633
G1 X127.209 Y100.496 E6.61786
G1 X127.219 Y101.266 E6.64347
G1 X127.136 Y102.121 E6.67205
G1 X126.927 Y103.458 E6.71705
G1 X126.755 Y104.262 E6.7444
G1 X126.749 Y104.284 E6.74516
G1 X126.409 Y105.259 E6.7795
G1 X125.871 Y106.511 E6.82483
G1 X125.698 Y106.852 E6.83754
G1 X127.435 Y108.917 E6.92729
G1 X127.918 Y109.401 E6.95004
G1 X128.12 Y109.611 E6.95973
G1 X128.168 Y109.663 E6.96208
G1 X128.462 Y110.002 E6.97701
G1 X128.818 Y110.438 E6.99573
G1 X129.426 Y111.302 E7.03087
G1 X129.878 Y112.053 E7.06002
G1 X130.01 Y112.282 E7.06881
G1 X130.056 Y112.365 E7.07197
G1 X130.331 Y112.912 E7.09233
G1 X130.678 Y113.682 E7.12042
G1 X130.957 Y114.4 E7.14604
G1 X131.125 Y114.982 E7.16619
G1 X131.471 Y116.397 E7.21464
G1 X131.626 Y117.237 E7.24305
G1 X131.629 Y117.261 E7.24385
G1 X131.686 Y118.151 E7.27352
G1 X131.692 Y119.713 E7.32547
G1 X131.655 Y120.481 E7.35104
G1 X131.538 Y121.241 E7.37662
G1 X131.344 Y121.985 E7.40219
G1 X131.072 Y122.705 E7.42779
G1 X130.728 Y123.393 E7.45337
G1 X130.314 Y124.041 E7.47895
G1 X129.638 Y124.858 E7.51422
G1 X129.526 Y124.975 E7.51961
G1 X128.966 Y125.502 E7.54518
G1 X128.354 Y125.969 E7.57079
G1 X127.697 Y126.369 E7.59637
G1 X127.002 Y126.699 E7.62196
G1 X126.277 Y126.955 E7.64753
G1 X125.529 Y127.134 E7.67311
G1 X124.387 Y127.255 E7.71131
G1 X124.137 Y127.262 E7.71963
G1 X123.368 Y127.244 E7.74521
G1 X122.309 Y127.085 E7.78083
G1 X122.26 Y127.074 E7.7825
G1 X121.519 Y126.867 E7.80809
G1 X120.683 Y126.526 E7.83812
G1 X116.184 Y132.759 E8.09379
G1 X115.702 Y133.359 E8.11939
G1 X115.16 Y133.905 E8.14498
G1 X114.565 Y134.392 E8.17055
G1 X113.922 Y134.814 E8.19613
G1 X113.239 Y135.168 E8.22172
G1 X112.523 Y135.449 E8.2473
G1 X111.782 Y135.653 E8.27286
G1 X111.023 Y135.78 E8.29846
G1 X110.257 Y135.828 E8.32399
G1 X110.055 Y135.83 E8.3307
G1 X109.287 Y135.797 E8.35627
G1 X108.526 Y135.685 E8.38186
G1 X107.781 Y135.495 E8.40743
G1 X107.059 Y135.228 E8.43303
G1 X106.369 Y134.888 E8.45862
G1 X105.718 Y134.478 E8.4842
G1 X105.114 Y134.003 E8.50976
G1 X104.561 Y133.468 E8.53535
G1 X104.075 Y132.887 E8.56055
G1 X99.474 Y126.789 E8.81462
G1 X99.333 Y126.86 E8.81987
G1 X98.453 Y127.184 E8.85106
G1 X98.211 Y127.256 E8.85946
G1 X97.464 Y127.436 E8.88502
G1 X96.418 Y127.556 E8.92003
G1 X96.185 Y127.566 E8.92779
G1 X95.416 Y127.559 E8.95337
G1 X94.652 Y127.472 E8.97894
G1 X93.901 Y127.307 E9.00452
G1 X93.171 Y127.064 E9.03011
G1 X92.47 Y126.747 E9.0557
G1 X91.806 Y126.359 E9.08127
G1 X91.186 Y125.904 E9.10685
G1 X90.635 Y125.406 E9.13156
G1 X90.526 Y125.297 E9.13668
G1 X90.012 Y124.725 E9.16226
G1 X89.559 Y124.103 E9.18785
G1 X89.173 Y123.438 E9.21343
G1 X88.858 Y122.736 E9.23902
G1 X88.618 Y122.005 E9.26461
G1 X88.455 Y121.254 E9.29017
G1 X88.364 Y120.348 E9.32045
G1 X88.312 Y118.994 E9.36552
G1 X88.319 Y118.282 E9.3892
G1 X88.378 Y117.678 E9.40939
G1 X88.457 Y117.107 E9.42856
G1 X88.622 Y116.271 E9.4569
G1 X88.937 Y115.051 E9.49881
G1 X89.31 Y113.963 E9.53707
G1 X89.599 Y113.295 E9.56127
G1 X89.922 Y112.64 E9.58556
G1 X90.278 Y111.999 E9.60995
G1 X90.83 Y111.147 E9.64372
G1 X91.292 Y110.532 E9.6693
G1 X91.714 Y110.021 E9.69134
G1 X91.852 Y109.869 E9.69817
G1 X92.366 Y109.32 E9.72318
G1 X94.071 Y107.199 E9.8137
G1 X93.884 Y106.855 E9.82672
G1 X93.322 Y105.621 E9.87182
G1 X93.04 Y104.905 E9.89741
G1 X92.911 Y104.479 E9.91222
G1 X92.767 Y103.845 E9.93384
G1 X92.527 Y102.514 E9.97882
G1 X92.43 Y101.751 E10.00441
G1 X92.426 Y100.719 E10.03873
G1 X92.429 Y100.673 E10.04026
G1 X92.519 Y99.91 E10.06582
G1 X92.72 Y99.047 E10.09529
G1 X92.98 Y98.172 E10.12565
G1 X93.166 Y97.624 E10.1449
G1 X93.176 Y97.598 E10.14582
G1 X93.489 Y96.895 E10.17142
G1 X93.698 Y96.513 E10.1859
G1 X94.165 Y95.716 E10.21662
G1 X94.565 Y95.105 E10.24091
G1 X94.581 Y95.083 E10.24182
G1 X95.27 Y94.267 E10.27734
G1 X95.915 Y93.606 E10.30806
G0 F6000 X96.201 Y93.885
G1 F600 X96.873 Y93.28 E10.33813
G1 X96.892 Y93.265 E10.33894
G1 X97.52 Y92.823 E10.36448
G1 X98.312 Y92.328 E10.39554
G1 X99.025 Y91.938 E10.42257
G1 X99.044 Y91.929 E10.42327
G1 X99.868 Y91.601 E10.45277
G1 X100.75 Y91.313 E10.48363
G1 X101.323 Y91.152 E10.50343
G1 X101.957 Y91.037 E10.52486
G1 X101.988 Y90.977 E10.5271
G1 X103.542 Y88.289 E10.63037
G1 X103.95 Y87.663 E10.65522
G1 X104.423 Y87.083 E10.68012
G1 X104.956 Y86.558 E10.705
G1 X105.541 Y86.092 E10.72988
G1 X106.172 Y85.691 E10.75474
G1 X106.843 Y85.36 E10.77963
G1 X107.545 Y85.102 E10.8045
G1 X108.271 Y84.921 E10.82939
G1 X109.012 Y84.818 E10.85427
G1 X109.541 Y84.793 E10.87189
G1 X109.77 Y84.791 E10.8795
G1 X110.517 Y84.825 E10.90437
G1 X111.257 Y84.938 E10.92927
G1 X111.98 Y85.129 E10.95414
G1 X112.679 Y85.396 E10.97903
G1 X113.345 Y85.737 E11.00392
G1 X113.971 Y86.146 E11.02879
G1 X114.549 Y86.62 E11.05365
G1 X115.074 Y87.153 E11.07853
G1 X115.539 Y87.739 E11.10341
G1 X115.82 Y88.168 E11.12047
G1 X117.422 Y90.816 E11.22341
G1 X117.45 Y90.868 E11.22537
G1 X117.644 Y90.888 E11.23186
G1 X117.671 Y90.892 E11.23277
G1 X118.669 Y91.115 E11.26678
G1 X119.553 Y91.382 E11.29749
G1 X120.286 Y91.649 E11.32344
G1 X120.307 Y91.658 E11.3242
G1 X121.124 Y92.073 E11.35468
G1 X121.924 Y92.548 E11.38562
G1 X122.63 Y93.028 E11.41402
G1 X122.652 Y93.045 E11.41494
G1 X123.284 Y93.596 E11.44283
G1 X123.94 Y94.242 E11.47345
G1 X124.628 Y95.03 E11.50824
G1 X124.643 Y95.05 E11.50908
G1 X124.995 Y95.565 E11.52982
G1 X125.486 Y96.358 E11.56084
G1 X125.86 Y97.046 E11.58689
G1 X125.869 Y97.065 E11.58759
G1 X126.209 Y97.924 E11.61832
G1 X126.488 Y98.794 E11.6487
G1 X126.678 Y99.518 E11.6736
G1 X126.807 Y100.476 E11.70575
G1 X126.81 Y100.522 E11.70728
G1 X126.819 Y101.27 E11.73216
G1 X126.741 Y102.059 E11.75853
G1 X126.532 Y103.396 E11.80354
G1 X126.369 Y104.157 E11.82943
G1 X126.363 Y104.179 E11.83019
G1 X126.041 Y105.101 E11.86267
G1 X125.503 Y106.353 E11.90799
G1 X125.222 Y106.907 E11.92865
G1 X127.139 Y109.188 E12.02775
G1 X127.635 Y109.684 E12.05109
G1 X127.826 Y109.882 E12.06024
G1 X127.874 Y109.934 E12.06259
G1 X128.152 Y110.255 E12.07671
G1 X128.508 Y110.691 E12.09543
G1 X129.084 Y111.508 E12.12868
G1 X129.536 Y112.259 E12.15784
G1 X129.661 Y112.476 E12.16616
G1 X129.707 Y112.559 E12.16932
G1 X129.966 Y113.076 E12.18855
G1 X130.313 Y113.846 E12.21664
G1 X130.578 Y114.526 E12.24092
G1 X130.737 Y115.077 E12.25999
G1 X131.083 Y116.492 E12.30844
G1 X131.229 Y117.287 E12.33533
G1 X131.232 Y117.311 E12.33613
G1 X131.286 Y118.152 E12.36416
G1 X131.292 Y119.714 E12.41611
G1 X131.255 Y120.461 E12.44099
G1 X131.138 Y121.2 E12.46587
G1 X130.943 Y121.922 E12.49075
G1 X130.673 Y122.62 E12.51564
G1 X130.329 Y123.284 E12.54051
G1 X129.916 Y123.908 E12.5654
G1 X129.349 Y124.582 E12.5947
G1 X129.237 Y124.699 E12.60008
G1 X128.691 Y125.21 E12.62495
G1 X128.094 Y125.661 E12.64984
G1 X127.453 Y126.046 E12.67471
G1 X126.774 Y126.36 E12.69959
G1 X126.065 Y126.599 E12.72448
G1 X125.335 Y126.762 E12.74935
G1 X124.376 Y126.855 E12.7814
G1 X124.126 Y126.862 E12.78972
G1 X123.378 Y126.843 E12.81461
G1 X122.397 Y126.695 E12.8476
G1 X122.348 Y126.684 E12.84927
G1 X121.628 Y126.481 E12.87415
G1 X120.846 Y126.162 E12.90224
G1 X120.555 Y126.022 E12.91298
G1 X115.86 Y132.525 E13.17976
G1 X115.39 Y133.107 E13.20464
G1 X114.861 Y133.636 E13.22952
G1 X114.279 Y134.106 E13.2544
G1 X113.649 Y134.51 E13.27929
G1 X112.98 Y134.845 E13.30418
G1 X112.28 Y135.107 E13.32904
G1 X111.555 Y135.292 E13.35392
G1 X110.815 Y135.4 E13.3788
G1 X110.253 Y135.428 E13.39751
G1 X110.051 Y135.43 E13.40423
G1 X109.304 Y135.397 E13.4291
G1 X108.564 Y135.285 E13.45399
G1 X107.841 Y135.095 E13.47886
G1 X107.142 Y134.828 E13.50374
G1 X106.475 Y134.488 E13.52864
G1 X105.849 Y134.08 E13.5535
G1 X105.27 Y133.606 E13.57838
G1 X104.744 Y133.074 E13.60327
G1 X104.394 Y132.646 E13.62166
G1 X99.592 Y126.281 E13.88685
G1 X99.134 Y126.511 E13.90389
G1 X98.339 Y126.8 E13.93203
G1 X98.097 Y126.872 E13.94043
G1 X97.37 Y127.047 E13.9653
G1 X96.401 Y127.157 E13.99773
G1 X96.168 Y127.167 E14.00549
G1 X95.42 Y127.159 E14.03037
G1 X94.677 Y127.071 E14.05525
G1 X93.948 Y126.905 E14.08012
G1 X93.241 Y126.661 E14.105
G1 X92.563 Y126.344 E14.12989
G1 X91.924 Y125.956 E14.15476
G1 X91.329 Y125.502 E14.17965
G1 X90.918 Y125.123 E14.19824
