;FLAVOR:Marlin
;TIME:9256
;Filament used: 5.31056m
;Layer height: 0.2
;MINX:74.571
;MINY:90.402
;MINZ:0.24
;MAXX:145.426
;MAXY:129.598
;MAXZ:118.49
;Generated with Cura_SteamEngine master
M140 S70
M105
M190 S70
M104 S200
M105
M109 S200
M82 ;absolute extrusion mode
M201 X500.00 Y500.00 Z100.00 E5000.00 ;Setup machine max acceleration
M203 X500.00 Y500.00 Z10.00 E50.00 ;Setup machine max feedrate
M204 P500.00 R1000.00 T500.00 ;Setup Print/Retract/Travel acceleration
M205 X8.00 Y8.00 Z0.40 E5.00 ;Setup Jerk
M220 S100 ;Reset Feedrate
M221 S100 ;Reset Flowrate

G28 ;Home

G92 E0 ;Reset Extruder
G1 Z2.0 F3000 ;Move Z Axis up
G1 X10.1 Y20 Z0.28 F5000.0 ;Move to start position
G1 X10.1 Y200.0 Z0.28 F1500.0 E15 ;Draw the first line
G1 X10.4 Y200.0 Z0.28 F5000.0 ;Move to side a little
G1 X10.4 Y20 Z0.28 F1500.0 E30 ;Draw the second line
G92 E0 ;Reset Extruder
G1 Z2.0 F3000 ;Move Z Axis up

G92 E0
G92 E0
G1 F2700 E-5
;LAYER_COUNT:594
;LAYER:-6
M107
G0 F12000 X80.432 Y98.334 Z0.24
;TYPE:SUPPORT-INTERFACE
G1 F2700 E0
G1 F1800 X80.61 Y98.198 E0.01788
G1 X81.33 Y97.691 E0.08817
G1 X81.441 Y97.617 E0.09882
G1 X81.893 Y97.334 E0.14139
G1 X87.577 Y93.937 E0.66997
G1 X87.578 Y93.938 E0.67008
G1 X87.674 Y93.882 E0.67895
G1 X88.364 Y93.498 E0.74199
G1 X88.474 Y93.439 E0.75195
G1 X90.695 Y92.289 E0.9516
G1 X90.839 Y92.218 E0.96441
G1 X91.664 Y91.827 E1.03729
G1 X91.811 Y91.764 E1.05006
G1 X92.622 Y91.452 E1.11942
G1 X92.835 Y91.38 E1.13737
G1 X94.137 Y91.005 E1.24552
G1 X94.235 Y90.981 E1.25358
G1 X95.167 Y90.8 E1.32936
G1 X95.348 Y90.77 E1.34401
G1 X96.214 Y90.667 E1.41362
G1 X96.393 Y90.652 E1.42796
G1 X97.515 Y90.604 E1.51761
G1 X122.431 Y90.603 E3.50651
G1 X123.467 Y90.64 E3.58926
G1 X123.59 Y90.649 E3.59911
G1 X124.507 Y90.751 E3.67276
G1 X124.682 Y90.776 E3.68687
G1 X125.559 Y90.938 E3.75806
G1 X125.722 Y90.973 E3.77136
G1 X126.293 Y91.114 E3.81831
G1 X127.218 Y91.4 E3.8956
G1 X127.439 Y91.477 E3.91428
G1 X128.227 Y91.785 E3.98182
G1 X128.409 Y91.864 E3.99765
G1 X129.211 Y92.246 E4.06856
G1 X129.371 Y92.329 E4.08295
G1 X130.012 Y92.688 E4.1416
G1 X135.43 Y95.924 E4.64536
G1 X135.703 Y96.076 E4.6703
G1 X137.312 Y96.911 E4.815
G1 X138.198 Y97.409 E4.89613
G1 X138.346 Y97.501 E4.91004
G1 X139.087 Y97.995 E4.98113
G1 X139.244 Y98.109 E4.99662
G1 X139.924 Y98.637 E5.06534
G1 X140.071 Y98.76 E5.08064
G1 X140.744 Y99.368 E5.15304
G1 X140.846 Y99.466 E5.16433
G1 X141.464 Y100.113 E5.23575
G1 X141.592 Y100.256 E5.25107
G1 X142.163 Y100.947 E5.32262
G1 X142.247 Y101.056 E5.33361
G1 X142.79 Y101.821 E5.40849
G1 X142.871 Y101.944 E5.42025
G1 X143.339 Y102.717 E5.49238
G1 X143.419 Y102.861 E5.50553
G1 X143.83 Y103.667 E5.57775
G1 X143.89 Y103.796 E5.58911
G1 X144.256 Y104.663 E5.66423
G1 X144.299 Y104.775 E5.67381
G1 X144.594 Y105.65 E5.74752
G1 X144.639 Y105.799 E5.75994
G1 X144.863 Y106.672 E5.83188
G1 X144.901 Y106.844 E5.84595
G1 X145.061 Y107.724 E5.91734
G1 X145.085 Y107.889 E5.93065
G1 X145.182 Y108.796 E6.00347
G1 X145.193 Y108.938 E6.01483
G1 X145.219 Y109.452 E6.05592
G1 X145.226 Y109.727 E6.07788
G1 X145.22 Y110.668 E6.15299
G1 X145.213 Y110.828 E6.16578
G1 X145.141 Y111.729 E6.23793
G1 X145.121 Y111.907 E6.25223
G1 X144.989 Y112.759 E6.32105
G1 X144.95 Y112.964 E6.3377
G1 X144.755 Y113.814 E6.40732
G1 X144.704 Y114.005 E6.4231
G1 X144.442 Y114.857 E6.49425
G1 X144.399 Y114.981 E6.50473
G1 X144.062 Y115.846 E6.57883
G1 X143.995 Y116.001 E6.59231
G1 X143.616 Y116.794 E6.66247
G1 X143.533 Y116.954 E6.67686
G1 X143.093 Y117.727 E6.74786
G1 X142.992 Y117.891 E6.76323
G1 X142.492 Y118.636 E6.83485
G1 X142.413 Y118.745 E6.8456
G1 X141.847 Y119.469 E6.91896
G1 X141.738 Y119.597 E6.93238
G1 X141.12 Y120.278 E7.00578
G1 X141.033 Y120.366 E7.01566
G1 X140.363 Y121.004 E7.08951
G1 X140.24 Y121.113 E7.10263
G1 X139.566 Y121.667 E7.17228
G1 X139.4 Y121.794 E7.18896
G1 X138.67 Y122.309 E7.26027
G1 X138.555 Y122.386 E7.27132
G1 X138.115 Y122.661 E7.31274
G1 X132.396 Y126.078 E7.84453
G1 X132.327 Y126.118 E7.8509
G1 X131.634 Y126.504 E7.91422
G1 X131.527 Y126.561 E7.9239
G1 X129.303 Y127.712 E8.12379
G1 X129.167 Y127.78 E8.13593
G1 X128.335 Y128.174 E8.20941
G1 X128.188 Y128.237 E8.22218
G1 X127.377 Y128.549 E8.29154
G1 X127.166 Y128.62 E8.30931
G1 X125.862 Y128.996 E8.41765
G1 X125.764 Y129.02 E8.4257
G1 X124.832 Y129.201 E8.50149
G1 X124.651 Y129.231 E8.51613
G1 X123.785 Y129.334 E8.58575
G1 X123.606 Y129.349 E8.60009
G1 X122.484 Y129.397 E8.68973
G1 X97.568 Y129.398 E10.67863
G1 X96.532 Y129.361 E10.76138
G1 X96.409 Y129.352 E10.77123
G1 X95.492 Y129.25 E10.84488
G1 X95.317 Y129.225 E10.85899
G1 X94.441 Y129.063 E10.9301
G1 X94.275 Y129.028 E10.94364
G1 X93.706 Y128.887 E10.99044
G1 X92.781 Y128.601 E11.06772
G1 X92.56 Y128.524 E11.0864
G1 X91.772 Y128.216 E11.15394
G1 X91.59 Y128.137 E11.16978
G1 X90.788 Y127.755 E11.24069
G1 X90.63 Y127.673 E11.2549
G1 X89.976 Y127.306 E11.31476
G1 X84.576 Y124.081 E11.81683
G1 X84.303 Y123.929 E11.84178
G1 X82.686 Y123.09 E11.98719
G1 X81.8 Y122.592 E12.06832
G1 X81.652 Y122.5 E12.08223
G1 X80.905 Y122.002 E12.1539
G1 X80.754 Y121.892 E12.16881
G1 X80.074 Y121.364 E12.23753
G1 X79.927 Y121.241 E12.25283
G1 X79.254 Y120.633 E12.32523
G1 X79.149 Y120.53 E12.33697
G1 X78.525 Y119.878 E12.40901
G1 X78.406 Y119.745 E12.42326
G1 X77.834 Y119.052 E12.49499
G1 X77.742 Y118.933 E12.50699
G1 X77.208 Y118.18 E12.58068
G1 X77.127 Y118.057 E12.59244
G1 X76.659 Y117.284 E12.66457
G1 X76.579 Y117.14 E12.67772
G1 X76.168 Y116.334 E12.74994
G1 X76.108 Y116.204 E12.76137
G1 X75.742 Y115.338 E12.83642
G1 X75.694 Y115.212 E12.84718
G1 X75.4 Y114.338 E12.92079
G1 X75.355 Y114.187 E12.93337
G1 X75.135 Y113.329 E13.00407
G1 X75.094 Y113.143 E13.01927
G1 X74.937 Y112.277 E13.08953
G1 X74.911 Y112.097 E13.10405
G1 X74.815 Y111.194 E13.17653
G1 X74.804 Y111.052 E13.1879
G1 X74.779 Y110.54 E13.22882
G1 X74.772 Y110.274 E13.25006
G1 X74.778 Y109.333 E13.32518
G1 X74.785 Y109.173 E13.33796
G1 X74.857 Y108.272 E13.41011
G1 X74.877 Y108.094 E13.42441
G1 X75.009 Y107.242 E13.49323
G1 X75.048 Y107.037 E13.50989
G1 X75.243 Y106.186 E13.57958
G1 X75.294 Y105.996 E13.59529
G1 X75.556 Y105.145 E13.66636
G1 X75.601 Y105.015 E13.67734
G1 X75.937 Y104.153 E13.75119
G1 X76.003 Y104 E13.7645
G1 X76.382 Y103.207 E13.83465
G1 X76.465 Y103.047 E13.84904
G1 X76.905 Y102.274 E13.92004
G1 X77.006 Y102.11 E13.93542
G1 X77.506 Y101.365 E14.00704
G1 X77.585 Y101.256 E14.01778
G1 X78.153 Y100.53 E14.09137
G1 X78.26 Y100.404 E14.10456
G1 X78.878 Y99.723 E14.17797
G1 X78.965 Y99.635 E14.18785
G1 X79.639 Y98.993 E14.26215
G1 X79.758 Y98.888 E14.27482
G1 X80.432 Y98.334 E14.34446
G0 F12000 X80 Y98.689
G1 F1800 X80 Y121.302 E16.14953
G1 F2700 E11.14953
G1 F300 Z0.74
G0 F12000 X81.6 Y122.465 Z0.74
G1 F300 Z0.24
G1 F2700 E16.14953
G1 F1800 X81.6 Y97.517 E18.14099
G1 F2700 E13.14099
G1 F300 Z0.74
G0 F12000 X83.2 Y96.552 Z0.74
G1 F300 Z0.24
G1 F2700 E18.14099
G1 F1800 X83.2 Y123.356 E20.2806
G1 F2700 E15.2806
G1 F300 Z0.74
G0 F12000 X84.8 Y124.214 Z0.74
G1 F300 Z0.24
G1 F2700 E20.2806
G1 F1800 X84.8 Y95.596 E22.56501
G1 F2700 E17.56501
G1 F300 Z0.74
G0 F12000 X86.4 Y94.64 Z0.74
G1 F300 Z0.24
G1 F2700 E22.56501
G1 F1800 X86.4 Y125.17 E25.00205
G1 F2700 E20.00205
G1 F300 Z0.74
G0 F12000 X88 Y126.125 Z0.74
G1 F300 Z0.24
G1 F2700 E25.00205
G1 F1800 X88 Y93.7 E27.59035
G1 F2700 E22.59035
G1 F300 Z0.74
G0 F12000 X89.6 Y92.855 Z0.74
G1 F300 Z0.24
G1 F2700 E27.59035
G1 F1800 X89.6 Y127.081 E30.32242
G1 F2700 E25.32242
G1 F300 Z0.74
G0 F12000 X91.2 Y127.951 Z0.74
G1 F300 Z0.24
G1 F2700 E30.32242
G1 F1800 X91.2 Y92.046 E33.18851
G1 F2700 E28.18851
G1 F300 Z0.74
G0 F12000 X92.8 Y91.391 Z0.74
G1 F300 Z0.24
G1 F2700 E33.18851
G1 F1800 X92.8 Y128.606 E36.15917
G1 F2700 E31.15917
G1 F300 Z0.74
G0 F12000 X94.4 Y129.054 Z0.74
G1 F300 Z0.24
G1 F2700 E36.15917
G1 F1800 X94.4 Y90.948 E39.20096
G1 F2700 E34.20096
G1 F300 Z0.74
G0 F12000 X96 Y90.692 Z0.74
G1 F300 Z0.24
G1 F2700 E39.20096
G1 F1800 X96 Y129.306 E42.28329
G1 F2700 E37.28329
G1 F300 Z0.74
G0 F12000 X97.6 Y129.398 Z0.74
G1 F300 Z0.24
G1 F2700 E42.28329
G1 F1800 X97.6 Y90.603 E45.38008
G1 F2700 E40.38008
G1 F300 Z0.74
G0 F12000 X99.2 Y90.603 Z0.74
G1 F300 Z0.24
G1 F2700 E45.38008
G1 F1800 X99.2 Y129.398 E48.47686
G1 F2700 E43.47686
G1 F300 Z0.74
G0 F12000 X100.8 Y129.398 Z0.74
G1 F300 Z0.24
G1 F2700 E48.47686
G1 F1800 X100.8 Y90.603 E51.57365
G1 F2700 E46.57365
G1 F300 Z0.74
G0 F12000 X102.4 Y90.603 Z0.74
G1 F300 Z0.24
G1 F2700 E51.57365
G1 F1800 X102.4 Y129.398 E54.67043
G1 F2700 E49.67043
G1 F300 Z0.74
G0 F12000 X104 Y129.398 Z0.74
G1 F300 Z0.24
G1 F2700 E54.67043
G1 F1800 X104 Y90.603 E57.76722
G1 F2700 E52.76722
G1 F300 Z0.74
G0 F12000 X105.6 Y90.603 Z0.74
G1 F300 Z0.24
G1 F2700 E57.76722
G1 F1800 X105.6 Y129.398 E60.864
G1 F2700 E55.864
G1 F300 Z0.74
G0 F12000 X107.2 Y129.398 Z0.74
G1 F300 Z0.24
G1 F2700 E60.864
G1 F1800 X107.2 Y90.603 E63.96079
G1 F2700 E58.96079
G1 F300 Z0.74
G0 F12000 X108.8 Y90.603 Z0.74
G1 F300 Z0.24
G1 F2700 E63.96079
G1 F1800 X108.8 Y129.398 E67.05757
G1 F2700 E62.05757
G1 F300 Z0.74
G0 F12000 X110.4 Y129.398 Z0.74
G1 F300 Z0.24
G1 F2700 E67.05757
G1 F1800 X110.4 Y90.603 E70.15436
G1 F2700 E65.15436
G1 F300 Z0.74
G0 F12000 X112 Y90.603 Z0.74
G1 F300 Z0.24
G1 F2700 E70.15436
G1 F1800 X112 Y129.398 E73.25114
G1 F2700 E68.25114
G1 F300 Z0.74
G0 F12000 X113.6 Y129.398 Z0.74
G1 F300 Z0.24
G1 F2700 E73.25114
G1 F1800 X113.6 Y90.603 E76.34792
G1 F2700 E71.34792
G1 F300 Z0.74
G0 F12000 X115.2 Y90.603 Z0.74
G1 F300 Z0.24
G1 F2700 E76.34792
G1 F1800 X115.2 Y129.398 E79.44471
G1 F2700 E74.44471
G1 F300 Z0.74
G0 F12000 X116.8 Y129.398 Z0.74
G1 F300 Z0.24
G1 F2700 E79.44471
G1 F1800 X116.8 Y90.603 E82.54149
G1 F2700 E77.54149
G1 F300 Z0.74
G0 F12000 X118.4 Y90.603 Z0.74
G1 F300 Z0.24
G1 F2700 E82.54149
G1 F1800 X118.4 Y129.398 E85.63828
G1 F2700 E80.63828
G1 F300 Z0.74
G0 F12000 X120 Y129.398 Z0.74
G1 F300 Z0.24
G1 F2700 E85.63828
G1 F1800 X120 Y90.603 E88.73506
G1 F2700 E83.73506
G1 F300 Z0.74
G0 F12000 X121.6 Y90.603 Z0.74
G1 F300 Z0.24
G1 F2700 E88.73506
G1 F1800 X121.6 Y129.398 E91.83185
G1 F2700 E86.83185
G1 F300 Z0.74
G0 F12000 X123.2 Y129.367 Z0.74
G1 F300 Z0.24
G1 F2700 E91.83185
G1 F1800 X123.2 Y90.631 E94.92392
G1 F2700 E89.92392
G1 F300 Z0.74
G0 F12000 X124.8 Y90.798 Z0.74
G1 F300 Z0.24
G1 F2700 E94.92392
G1 F1800 X124.8 Y129.207 E97.9899
G1 F2700 E92.9899
G1 F300 Z0.74
G0 F12000 X126.4 Y128.841 Z0.74
G1 F300 Z0.24
G1 F2700 E97.9899
G1 F1800 X126.4 Y91.148 E100.99871
G1 F2700 E95.99871
G1 F300 Z0.74
G0 F12000 X128 Y91.697 Z0.74
G1 F300 Z0.24
G1 F2700 E100.99871
G1 F1800 X128 Y128.31 E103.92132
G1 F2700 E98.92132
G1 F300 Z0.74
G0 F12000 X129.6 Y127.559 Z0.74
G1 F300 Z0.24
G1 F2700 E103.92132
G1 F1800 X129.6 Y92.458 E106.72324
G1 F2700 E101.72324
G1 F300 Z0.74
G0 F12000 X131.2 Y93.398 Z0.74
G1 F300 Z0.24
G1 F2700 E106.72324
G1 F1800 X131.2 Y126.731 E109.38402
G1 F2700 E104.38402
G1 F300 Z0.74
G0 F12000 X132.8 Y125.837 Z0.74
G1 F300 Z0.24
G1 F2700 E109.38402
G1 F1800 X132.8 Y94.354 E111.89713
G1 F2700 E106.89713
G1 F300 Z0.74
G0 F12000 X134.4 Y95.309 Z0.74
G1 F300 Z0.24
G1 F2700 E111.89713
G1 F1800 X134.4 Y124.881 E114.25769
G1 F2700 E109.25769
G1 F300 Z0.74
G0 F12000 X136 Y123.925 Z0.74
G1 F300 Z0.24
G1 F2700 E114.25769
G1 F1800 X136 Y96.231 E116.46835
G1 F2700 E111.46835
G1 F300 Z0.74
G0 F12000 X137.6 Y97.073 Z0.74
G1 F300 Z0.24
G1 F2700 E116.46835
G1 F1800 X137.6 Y122.969 E118.53548
G1 F2700 E113.53548
G1 F300 Z0.74
G0 F12000 X139.2 Y121.936 Z0.74
G1 F300 Z0.24
G1 F2700 E118.53548
G1 F1800 X139.2 Y98.078 E120.43993
G1 F2700 E115.43993
G1 F300 Z0.74
G0 F12000 X140.8 Y99.422 Z0.74
G1 F300 Z0.24
G1 F2700 E120.43993
G1 F1800 X140.8 Y120.588 E122.12949
G1 F2700 E117.12949
G1 F300 Z0.74
G0 F12000 X142.4 Y118.762 Z0.74
G1 F300 Z0.24
G1 F2700 E122.12949
G1 F1800 X142.4 Y101.272 E123.52562
G1 F2700 E118.52562
G1 F300 Z0.74
G0 F12000 X144 Y104.057 Z0.74
G1 F300 Z0.24
G1 F2700 E123.52562
G1 F1800 X144 Y115.99 E124.47816
G1 F2700 E119.47816
G1 F300 Z0.74
G0 F12000 X78.4 Y119.737 Z0.74
G1 F300 Z0.24
G1 F2700 E124.47816
G1 F1800 X78.4 Y100.249 E126.03378
G1 F2700 E121.03378
G1 F300 Z0.74
G0 F12000 X76.8 Y102.458 Z0.74
G1 F300 Z0.24
G1 F2700 E126.03378
G1 F1800 X76.8 Y117.516 E127.23577
G1 F2700 E122.23577
G1 F300 Z0.74
G0 F12000 X75.2 Y113.582 Z0.74
G1 F300 Z0.24
G1 F2700 E127.23577
G1 F1800 X75.2 Y106.373 E127.81123
G1 F2700 E122.81123
G1 F300 Z0.74
G0 F12000 X77.307 Y118.32 Z0.74
;TIME_ELAPSED:85.126846
;LAYER:-5
M140 S65
G0 X77.307 Y118.32 Z1.04
;TYPE:SUPPORT
G1 F300 Z0.54
G1 F2700 E127.81123
G1 F1800 X81.155 Y122.167 E128.35415
G1 X80.905 Y122 E128.38415
G1 X80.754 Y121.891 E128.40273
G1 X80.074 Y121.363 E128.48863
G1 X79.927 Y121.24 E128.50776
G1 X79.253 Y120.632 E128.59833
G1 X79.149 Y120.529 E128.61293
G1 X78.525 Y119.877 E128.70299
G1 X78.405 Y119.744 E128.72086
G1 X77.834 Y119.051 E128.81046
G1 X77.742 Y118.932 E128.82546
G1 F2700 E123.82546
G1 F300 Z1.04
G0 F12000 X81.155 Y122.167 Z1.04
G1 F300 Z0.54
G1 F2700 E128.82546
G1 F1800 X81.652 Y122.499 E128.8851
G1 X81.799 Y122.591 E128.90241
G1 X82.686 Y123.088 E129.00386
G1 X84.303 Y123.928 E129.18567
G1 X84.364 Y123.962 E129.19264
G1 X75.743 Y115.341 E130.40916
G1 X75.741 Y115.336 E130.4097
G1 X75.693 Y115.211 E130.42306
G1 X75.4 Y114.337 E130.51503
G1 X75.354 Y114.186 E130.53078
G1 X75.135 Y113.328 E130.61914
G1 X75.132 Y113.315 E130.62047
G1 X87.854 Y126.038 E132.41575
G1 X89.975 Y127.305 E132.66227
G1 X90.629 Y127.672 E132.7371
G1 X90.788 Y127.754 E132.75495
G1 X91.163 Y127.932 E132.79637
G1 X74.861 Y111.63 E135.09676
G1 X74.815 Y111.193 E135.14061
G1 X74.804 Y111.051 E135.15482
G1 X74.779 Y110.539 E135.20596
G1 X74.772 Y110.273 E135.23252
G1 X74.773 Y110.128 E135.24698
G1 X93.451 Y128.807 E137.88272
G1 X93.706 Y128.886 E137.90936
G1 X94.275 Y129.027 E137.96785
G1 X94.441 Y129.062 E137.98478
G1 X95.275 Y129.216 E138.0694
G1 X74.817 Y108.758 E140.95625
G1 X74.857 Y108.27 E141.0051
G1 X74.877 Y108.093 E141.02288
G1 X74.968 Y107.495 E141.08323
G1 X96.843 Y129.37 E144.17003
G1 X97.568 Y129.397 E144.24242
G1 X98.284 Y129.397 E144.31387
G1 X75.21 Y106.323 E147.56986
G1 X75.242 Y106.185 E147.58399
G1 X75.294 Y105.995 E147.60365
G1 X75.529 Y105.228 E147.68369
G1 X99.698 Y129.397 E151.0942
G1 X101.112 Y129.397 E151.23529
G1 X75.917 Y104.201 E154.79064
G1 X75.936 Y104.151 E154.79598
G1 X76.003 Y103.999 E154.81256
G1 X76.366 Y103.236 E154.89686
G1 X102.526 Y129.397 E158.58839
G1 X103.941 Y129.397 E158.72958
G1 X76.873 Y102.328 E162.54924
G1 X76.904 Y102.273 E162.55554
G1 X77.006 Y102.109 E162.57481
G1 X77.431 Y101.473 E162.65114
G1 X105.355 Y129.397 E166.59151
G1 X106.769 Y129.397 E166.7326
G1 X78.041 Y100.669 E170.78643
G1 X78.152 Y100.528 E170.80434
G1 X78.259 Y100.403 E170.82076
G1 X78.701 Y99.914 E170.88653
G1 X108.183 Y129.397 E175.04683
G1 X109.598 Y129.397 E175.18802
G1 X79.41 Y99.209 E179.44787
G1 X79.638 Y98.992 E179.47928
G1 X79.758 Y98.886 E179.49525
G1 X80.166 Y98.551 E179.54793
G1 X111.011 Y129.396 E183.90049
G1 X112.425 Y129.396 E184.04158
G1 X80.972 Y97.942 E188.48001
G1 X81.33 Y97.689 E188.52375
G1 X81.441 Y97.616 E188.53701
G1 X81.822 Y97.378 E188.58183
G1 X113.839 Y129.396 E193.09985
G1 X115.254 Y129.396 E193.24104
G1 X82.706 Y96.848 E197.83391
G1 X83.591 Y96.319 E197.93679
G1 X116.668 Y129.396 E202.60431
G1 X118.082 Y129.396 E202.7454
G1 X84.475 Y95.789 E207.48771
G1 X85.361 Y95.26 E207.59067
G1 X119.496 Y129.396 E212.40756
G1 X120.911 Y129.396 E212.54875
G1 X86.246 Y94.731 E217.44036
G1 X87.131 Y94.202 E217.54324
G1 X122.325 Y129.396 E222.50949
G1 X122.483 Y129.396 E222.52526
G1 X123.606 Y129.348 E222.63741
G1 X123.684 Y129.341 E222.64523
G1 X88.027 Y93.684 E227.67681
G1 X88.363 Y93.497 E227.71518
G1 X88.473 Y93.437 E227.72768
G1 X88.949 Y93.192 E227.7811
G1 X124.937 Y129.179 E232.85933
G1 X125.763 Y129.019 E232.94328
G1 X125.861 Y128.995 E232.95334
G1 X126.098 Y128.926 E232.97797
G1 X89.881 Y92.71 E238.08851
G1 X90.694 Y92.288 E238.17991
G1 X90.815 Y92.229 E238.19335
G1 X127.195 Y128.609 E243.32696
G1 X127.377 Y128.548 E243.34611
G1 X128.187 Y128.235 E243.43276
G1 X128.221 Y128.221 E243.43642
G1 X91.778 Y91.778 E248.57893
