;FLAVOR:Marlin
;TIME:10987
;Filament used: 6.94162m
;Layer height: 0.2
;MINX:73.516
;MINY:90.403
;MINZ:0.24
;MAXX:146.483
;MAXY:129.596
;MAXZ:116.59
;Generated with Cura_SteamEngine master
M140 S70
M105
M190 S70
M104 S200
M105
M109 S200
M82 ;absolute extrusion mode
M201 X500.00 Y500.00 Z100.00 E5000.00 ;Setup machine max acceleration
M203 X500.00 Y500.00 Z10.00 E50.00 ;Setup machine max feedrate
M204 P500.00 R1000.00 T500.00 ;Setup Print/Retract/Travel acceleration
M205 X8.00 Y8.00 Z0.40 E5.00 ;Setup Jerk
M220 S100 ;Reset Feedrate
M221 S100 ;Reset Flowrate

G28 ;Home

G92 E0 ;Reset Extruder
G1 Z2.0 F3000 ;Move Z Axis up
G1 X10.1 Y20 Z0.28 F5000.0 ;Move to start position
G1 X10.1 Y200.0 Z0.28 F1500.0 E15 ;Draw the first line
G1 X10.4 Y200.0 Z0.28 F5000.0 ;Move to side a little
G1 X10.4 Y20 Z0.28 F1500.0 E30 ;Draw the second line
G92 E0 ;Reset Extruder
G1 Z2.0 F3000 ;Move Z Axis up

G92 E0
G92 E0
G1 F2700 E-5
;LAYER_COUNT:575
;LAYER:-6
M107
G0 F12000 X79.377 Y98.321 Z0.24
;TYPE:SUPPORT-INTERFACE
G1 F2700 E0
G1 F1800 X79.504 Y98.223 E0.01281
G1 X80.206 Y97.726 E0.08146
G1 X80.399 Y97.601 E0.09982
G1 X81.565 Y96.919 E0.20765
G1 X81.64 Y96.878 E0.21447
G1 X90.016 Y92.541 E0.96739
G1 X90.092 Y92.503 E0.97417
G1 X90.817 Y92.156 E1.03833
G1 X90.915 Y92.111 E1.04694
G1 X91.425 Y91.885 E1.09147
G1 X91.516 Y91.846 E1.09937
G1 X92.377 Y91.502 E1.17338
G1 X92.566 Y91.435 E1.18939
G1 X93.396 Y91.172 E1.25889
G1 X93.574 Y91.121 E1.27367
G1 X94.267 Y90.95 E1.33065
G1 X95.261 Y90.768 E1.41131
G1 X95.43 Y90.744 E1.42494
G1 X96.325 Y90.648 E1.49679
G1 X96.49 Y90.637 E1.50999
G1 X97.462 Y90.603 E1.58763
G1 X122.571 Y90.604 E3.59194
G1 X123.572 Y90.64 E3.67189
G1 X123.695 Y90.649 E3.68174
G1 X124.602 Y90.749 E3.75458
G1 X124.789 Y90.777 E3.76967
G1 X125.845 Y90.979 E3.85549
G1 X125.93 Y90.997 E3.86243
G1 X125.992 Y91.012 E3.86752
G1 X126.902 Y91.26 E3.94281
G1 X127.043 Y91.305 E3.95463
G1 X127.859 Y91.593 E4.0237
G1 X128.084 Y91.684 E4.04307
G1 X129.272 Y92.224 E4.14724
G1 X129.381 Y92.277 E4.15692
G1 X137.767 Y96.616 E4.91062
G1 X137.88 Y96.673 E4.92072
G1 X138.489 Y96.969 E4.97477
G1 X138.627 Y97.043 E4.98727
G1 X139.411 Y97.499 E5.05967
G1 X139.53 Y97.573 E5.07086
G1 X140.279 Y98.085 E5.14328
G1 X140.432 Y98.199 E5.15851
G1 X141.105 Y98.734 E5.22714
G1 X141.263 Y98.869 E5.24373
G1 X141.9 Y99.458 E5.31298
G1 X142.037 Y99.593 E5.32834
G1 X142.627 Y100.225 E5.39735
G1 X142.763 Y100.381 E5.41387
G1 X143.316 Y101.065 E5.48408
G1 X143.418 Y101.202 E5.49772
G1 X143.933 Y101.944 E5.56982
G1 X144.018 Y102.077 E5.58242
G1 X144.474 Y102.851 E5.65412
G1 X144.552 Y102.993 E5.66706
G1 X144.954 Y103.804 E5.73931
G1 X145.022 Y103.954 E5.75246
G1 X145.364 Y104.793 E5.82478
G1 X145.419 Y104.943 E5.83753
G1 X145.684 Y105.755 E5.90572
G1 X145.751 Y105.988 E5.92507
G1 X145.959 Y106.836 E5.99477
G1 X145.988 Y106.973 E6.00594
G1 X146.138 Y107.858 E6.0776
G1 X146.163 Y108.062 E6.094
G1 X146.271 Y109.366 E6.19845
G1 X146.281 Y109.589 E6.21627
G1 X146.283 Y109.679 E6.22345
G1 X146.278 Y110.643 E6.30041
G1 X146.272 Y110.817 E6.3143
G1 X146.201 Y111.729 E6.38732
G1 X146.183 Y111.883 E6.3997
G1 X146.048 Y112.767 E6.47108
G1 X146.017 Y112.93 E6.48433
G1 X145.819 Y113.802 E6.55571
G1 X145.777 Y113.961 E6.56883
G1 X145.507 Y114.844 E6.64254
G1 X145.455 Y114.994 E6.65521
G1 X145.135 Y115.822 E6.72607
G1 X145.069 Y115.975 E6.73937
G1 X144.679 Y116.796 E6.81193
G1 X144.604 Y116.94 E6.82489
G1 X144.168 Y117.71 E6.89552
G1 X144.063 Y117.879 E6.9114
G1 X143.568 Y118.62 E6.98254
G1 X143.493 Y118.726 E6.9929
G1 X143.492 Y118.725 E6.99302
G1 X142.908 Y119.474 E7.06883
G1 X142.816 Y119.584 E7.08028
G1 X142.202 Y120.264 E7.15341
G1 X142.105 Y120.364 E7.16453
G1 X141.453 Y120.986 E7.23646
G1 X141.318 Y121.107 E7.25093
G1 X140.631 Y121.673 E7.32199
G1 X140.489 Y121.782 E7.33628
G1 X139.787 Y122.279 E7.40493
G1 X139.597 Y122.401 E7.42296
G1 X138.477 Y123.056 E7.52653
G1 X138.311 Y123.147 E7.54164
G1 X130.017 Y127.445 E8.28732
G1 X129.916 Y127.496 E8.29635
G1 X129.147 Y127.863 E8.36437
G1 X129.011 Y127.925 E8.3763
G1 X128.554 Y128.125 E8.41612
G1 X128.414 Y128.183 E8.42821
G1 X127.572 Y128.516 E8.50049
G1 X127.394 Y128.579 E8.51556
G1 X126.514 Y128.855 E8.58918
G1 X126.389 Y128.889 E8.59952
G1 X125.802 Y129.034 E8.64779
G1 X125.72 Y129.051 E8.65447
G1 X124.819 Y129.22 E8.72765
G1 X124.641 Y129.246 E8.74201
G1 X123.762 Y129.346 E8.81263
G1 X123.601 Y129.358 E8.82551
G1 X122.542 Y129.397 E8.91011
G1 X97.428 Y129.396 E10.91481
G1 X96.427 Y129.36 E10.99477
G1 X96.304 Y129.351 E11.00461
G1 X95.397 Y129.251 E11.07745
G1 X95.21 Y129.223 E11.09255
G1 X94.154 Y129.021 E11.17837
G1 X94.053 Y129 E11.1866
G1 X93.097 Y128.74 E11.26569
G1 X92.956 Y128.695 E11.2775
G1 X92.132 Y128.404 E11.34726
G1 X91.927 Y128.322 E11.36488
G1 X90.756 Y127.789 E11.46759
G1 X90.569 Y127.698 E11.48419
G1 X82.227 Y123.381 E12.23396
G1 X81.431 Y122.987 E12.30486
G1 X81.301 Y122.917 E12.31665
G1 X80.521 Y122.458 E12.38889
G1 X80.386 Y122.371 E12.40171
G1 X79.638 Y121.853 E12.47434
G1 X79.497 Y121.748 E12.48837
G1 X78.815 Y121.197 E12.55836
G1 X78.676 Y121.076 E12.57307
G1 X78.034 Y120.477 E12.64316
G1 X77.897 Y120.339 E12.65868
G1 X77.303 Y119.695 E12.72862
G1 X77.182 Y119.555 E12.74339
G1 X76.636 Y118.87 E12.81331
G1 X76.532 Y118.73 E12.82723
G1 X76.022 Y117.984 E12.89937
G1 X75.933 Y117.844 E12.91261
G1 X75.481 Y117.067 E12.98437
G1 X75.393 Y116.901 E12.99936
G1 X75.001 Y116.099 E13.07062
G1 X74.938 Y115.957 E13.08302
G1 X74.613 Y115.143 E13.15299
G1 X74.542 Y114.947 E13.16963
G1 X74.276 Y114.108 E13.23988
G1 X74.234 Y113.956 E13.25247
G1 X74.017 Y113.053 E13.32661
G1 X73.993 Y112.93 E13.33661
G1 X73.845 Y112.02 E13.4102
G1 X73.827 Y111.868 E13.42242
G1 X73.727 Y110.602 E13.52379
G1 X73.723 Y110.531 E13.52947
G1 X73.717 Y110.311 E13.54704
G1 X73.722 Y109.359 E13.62303
G1 X73.728 Y109.185 E13.63693
G1 X73.799 Y108.272 E13.71003
G1 X73.814 Y108.138 E13.72079
G1 X73.95 Y107.243 E13.79306
G1 X73.985 Y107.057 E13.80816
G1 X74.181 Y106.196 E13.87865
G1 X74.225 Y106.029 E13.89244
G1 X74.485 Y105.18 E13.96331
G1 X74.544 Y105.008 E13.97783
G1 X74.86 Y104.191 E14.04775
G1 X74.94 Y104.006 E14.06384
G1 X75.32 Y103.206 E14.13454
G1 X75.395 Y103.062 E14.1475
G1 X75.829 Y102.297 E14.21771
G1 X75.936 Y102.123 E14.23401
G1 X76.417 Y101.402 E14.3032
G1 X76.534 Y101.241 E14.31909
G1 X77.073 Y100.549 E14.3891
G1 X77.185 Y100.415 E14.40305
G1 X77.795 Y99.74 E14.47567
G1 X77.895 Y99.637 E14.48713
G1 X78.548 Y99.013 E14.55923
G1 X78.682 Y98.893 E14.57358
G1 X79.377 Y98.321 E14.64544
G0 F12000 X80 Y97.871
G1 F1800 X80 Y122.103 E16.57974
G1 F2700 E11.57974
G1 F300 Z0.74
G0 F12000 X81.6 Y123.07 Z0.74
G1 F300 Z0.24
G1 F2700 E16.57974
G1 F1800 X81.6 Y96.899 E18.66882
G1 F2700 E13.66882
G1 F300 Z0.74
G0 F12000 X83.2 Y96.07 Z0.74
G1 F300 Z0.24
G1 F2700 E18.66882
G1 F1800 X83.2 Y123.884 E20.88906
G1 F2700 E15.88906
G1 F300 Z0.74
G0 F12000 X84.8 Y124.712 Z0.74
G1 F300 Z0.24
G1 F2700 E20.88906
G1 F1800 X84.8 Y95.241 E23.24156
G1 F2700 E18.24156
G1 F300 Z0.74
G0 F12000 X86.4 Y94.413 Z0.74
G1 F300 Z0.24
G1 F2700 E23.24156
G1 F1800 X86.4 Y125.54 E25.72625
G1 F2700 E20.72625
G1 F300 Z0.74
G0 F12000 X88 Y126.368 Z0.74
G1 F300 Z0.24
G1 F2700 E25.72625
G1 F1800 X88 Y93.584 E28.34321
G1 F2700 E23.34321
G1 F300 Z0.74
G0 F12000 X89.6 Y92.756 Z0.74
G1 F300 Z0.24
G1 F2700 E28.34321
G1 F1800 X89.6 Y127.196 E31.09236
G1 F2700 E26.09236
G1 F300 Z0.74
G0 F12000 X91.2 Y127.991 Z0.74
G1 F300 Z0.24
G1 F2700 E31.09236
G1 F1800 X91.2 Y91.984 E33.96659
G1 F2700 E28.96659
G1 F300 Z0.74
G0 F12000 X92.8 Y91.36 Z0.74
G1 F300 Z0.24
G1 F2700 E33.96659
G1 F1800 X92.8 Y128.639 E36.94237
G1 F2700 E31.94237
G1 F300 Z0.74
G0 F12000 X94.4 Y129.068 Z0.74
G1 F300 Z0.24
G1 F2700 E36.94237
G1 F1800 X94.4 Y90.925 E39.9871
G1 F2700 E34.9871
G1 F300 Z0.74
G0 F12000 X96 Y90.682 Z0.74
G1 F300 Z0.24
G1 F2700 E39.9871
G1 F1800 X96 Y129.317 E43.07112
G1 F2700 E38.07112
G1 F300 Z0.74
G0 F12000 X97.6 Y129.396 Z0.74
G1 F300 Z0.24
G1 F2700 E43.07112
G1 F1800 X97.6 Y90.604 E46.16766
G1 F2700 E41.16766
G1 F300 Z0.74
G0 F12000 X99.2 Y90.604 Z0.74
G1 F300 Z0.24
G1 F2700 E46.16766
G1 F1800 X99.2 Y129.396 E49.26421
G1 F2700 E44.26421
G1 F300 Z0.74
G0 F12000 X100.8 Y129.396 Z0.74
G1 F300 Z0.24
G1 F2700 E49.26421
G1 F1800 X100.8 Y90.604 E52.36075
G1 F2700 E47.36075
G1 F300 Z0.74
G0 F12000 X102.4 Y90.604 Z0.74
G1 F300 Z0.24
G1 F2700 E52.36075
G1 F1800 X102.4 Y129.396 E55.4573
G1 F2700 E50.4573
G1 F300 Z0.74
G0 F12000 X104 Y129.396 Z0.74
G1 F300 Z0.24
G1 F2700 E55.4573
G1 F1800 X104 Y90.604 E58.55384
G1 F2700 E53.55384
G1 F300 Z0.74
G0 F12000 X105.6 Y90.604 Z0.74
G1 F300 Z0.24
G1 F2700 E58.55384
G1 F1800 X105.6 Y129.396 E61.65039
G1 F2700 E56.65039
G1 F300 Z0.74
G0 F12000 X107.2 Y129.396 Z0.74
G1 F300 Z0.24
G1 F2700 E61.65039
G1 F1800 X107.2 Y90.604 E64.74693
G1 F2700 E59.74693
G1 F300 Z0.74
G0 F12000 X108.8 Y90.604 Z0.74
G1 F300 Z0.24
G1 F2700 E64.74693
G1 F1800 X108.8 Y129.396 E67.84348
G1 F2700 E62.84348
G1 F300 Z0.74
G0 F12000 X110.4 Y129.396 Z0.74
G1 F300 Z0.24
G1 F2700 E67.84348
G1 F1800 X110.4 Y90.604 E70.94002
G1 F2700 E65.94002
G1 F300 Z0.74
G0 F12000 X112 Y90.604 Z0.74
G1 F300 Z0.24
G1 F2700 E70.94002
G1 F1800 X112 Y129.396 E74.03657
G1 F2700 E69.03657
G1 F300 Z0.74
G0 F12000 X113.6 Y129.396 Z0.74
G1 F300 Z0.24
G1 F2700 E74.03657
G1 F1800 X113.6 Y90.604 E77.13311
G1 F2700 E72.13311
G1 F300 Z0.74
G0 F12000 X115.2 Y90.604 Z0.74
G1 F300 Z0.24
G1 F2700 E77.13311
G1 F1800 X115.2 Y129.396 E80.22966
G1 F2700 E75.22966
G1 F300 Z0.74
G0 F12000 X116.8 Y129.396 Z0.74
G1 F300 Z0.24
G1 F2700 E80.22966
G1 F1800 X116.8 Y90.604 E83.3262
G1 F2700 E78.3262
G1 F300 Z0.74
G0 F12000 X118.4 Y90.604 Z0.74
G1 F300 Z0.24
G1 F2700 E83.3262
G1 F1800 X118.4 Y129.396 E86.42275
G1 F2700 E81.42275
G1 F300 Z0.74
G0 F12000 X120 Y129.396 Z0.74
G1 F300 Z0.24
G1 F2700 E86.42275
G1 F1800 X120 Y90.604 E89.5193
G1 F2700 E84.5193
G1 F300 Z0.74
G0 F12000 X121.6 Y90.604 Z0.74
G1 F300 Z0.24
G1 F2700 E89.5193
G1 F1800 X121.6 Y129.396 E92.61584
G1 F2700 E87.61584
G1 F300 Z0.74
G0 F12000 X123.2 Y129.373 Z0.74
G1 F300 Z0.24
G1 F2700 E92.61584
G1 F1800 X123.2 Y90.627 E95.70871
G1 F2700 E90.70871
G1 F300 Z0.74
G0 F12000 X124.8 Y90.78 Z0.74
G1 F300 Z0.24
G1 F2700 E95.70871
G1 F1800 X124.8 Y129.223 E98.7774
G1 F2700 E93.7774
G1 F300 Z0.74
G0 F12000 X126.4 Y128.887 Z0.74
G1 F300 Z0.24
G1 F2700 E98.7774
G1 F1800 X126.4 Y91.124 E101.79181
G1 F2700 E96.79181
G1 F300 Z0.74
G0 F12000 X128 Y91.651 Z0.74
G1 F300 Z0.24
G1 F2700 E101.79181
G1 F1800 X128 Y128.347 E104.72104
G1 F2700 E99.72104
G1 F300 Z0.74
G0 F12000 X129.6 Y127.647 Z0.74
G1 F300 Z0.24
G1 F2700 E104.72104
G1 F1800 X129.6 Y92.391 E107.53533
G1 F2700 E102.53533
G1 F300 Z0.74
G0 F12000 X131.2 Y93.219 Z0.74
G1 F300 Z0.24
G1 F2700 E107.53533
G1 F1800 X131.2 Y126.832 E110.21846
G1 F2700 E105.21846
G1 F300 Z0.74
G0 F12000 X132.8 Y126.003 Z0.74
G1 F300 Z0.24
G1 F2700 E110.21846
G1 F1800 X132.8 Y94.047 E112.76933
G1 F2700 E107.76933
G1 F300 Z0.74
G0 F12000 X134.4 Y94.874 Z0.74
G1 F300 Z0.24
G1 F2700 E112.76933
G1 F1800 X134.4 Y125.174 E115.188
G1 F2700 E110.188
G1 F300 Z0.74
G0 F12000 X136 Y124.345 Z0.74
G1 F300 Z0.24
G1 F2700 E115.188
G1 F1800 X136 Y95.702 E117.47441
G1 F2700 E112.47441
G1 F300 Z0.74
G0 F12000 X137.6 Y96.53 Z0.74
G1 F300 Z0.24
G1 F2700 E117.47441
G1 F1800 X137.6 Y123.516 E119.62855
G1 F2700 E114.62855
G1 F300 Z0.74
G0 F12000 X139.2 Y122.634 Z0.74
G1 F300 Z0.24
G1 F2700 E119.62855
G1 F1800 X139.2 Y97.377 E121.64467
G1 F2700 E116.64467
G1 F300 Z0.74
G0 F12000 X140.8 Y98.492 Z0.74
G1 F300 Z0.24
G1 F2700 E121.64467
G1 F1800 X140.8 Y121.534 E123.48399
G1 F2700 E118.48399
G1 F300 Z0.74
G0 F12000 X142.4 Y120.045 Z0.74
G1 F300 Z0.24
G1 F2700 E123.48399
G1 F1800 X142.4 Y99.982 E125.0855
G1 F2700 E120.0855
G1 F300 Z0.74
G0 F12000 X144 Y102.049 Z0.74
G1 F300 Z0.24
G1 F2700 E125.0855
G1 F1800 X144 Y117.974 E126.3567
G1 F2700 E121.3567
G1 F300 Z0.74
G0 F12000 X145.6 Y114.54 Z0.74
G1 F300 Z0.24
G1 F2700 E126.3567
G1 F1800 X145.6 Y105.498 E127.07848
G1 F2700 E122.07848
G1 F300 Z0.74
G0 F12000 X78.4 Y99.154 Z0.74
G1 F300 Z0.24
G1 F2700 E127.07848
G1 F1800 X78.4 Y120.818 E128.80779
G1 F2700 E123.80779
G1 F300 Z0.74
G0 F12000 X76.8 Y119.075 Z0.74
G1 F300 Z0.24
G1 F2700 E128.80779
G1 F1800 X76.8 Y100.899 E130.25868
G1 F2700 E125.25868
G1 F300 Z0.74
G0 F12000 X75.2 Y103.458 Z0.74
G1 F300 Z0.24
G1 F2700 E130.25868
G1 F1800 X75.2 Y116.506 E131.30022
G1 F2700 E126.30022
G1 F300 Z0.74
G0 F12000 X77.897 Y120.338 Z0.74
;TIME_ELAPSED:87.081633
;LAYER:-5
M140 S65
G0 X77.897 Y120.338 Z1.04
;TYPE:SUPPORT
G1 F300 Z0.54
G1 F2700 E131.30022
G1 F1800 X78.034 Y120.476 E131.31963
G1 X78.268 Y120.695 E131.35161
G1 X77.715 Y120.141 E131.42971
G1 X77.303 Y119.694 E131.49037
G1 X77.182 Y119.554 E131.50883
G1 X76.636 Y118.868 E131.59632
G1 X76.532 Y118.729 E131.61364
G1 X76.021 Y117.982 E131.70394
G1 X75.933 Y117.843 E131.72036
G1 X75.48 Y117.065 E131.81019
G1 X75.393 Y116.9 E131.8288
G1 X75.001 Y116.098 E131.91787
G1 X74.938 Y115.956 E131.93337
G1 X74.934 Y115.946 E131.93445
G1 X82.519 Y123.531 E133.00477
G1 X85.451 Y125.049 E133.33422
G1 X74.194 Y113.792 E134.9227
G1 X74.017 Y113.052 E134.99862
G1 X73.993 Y112.929 E135.01112
G1 X73.846 Y112.03 E135.10202
G1 X88.381 Y126.565 E137.15306
G1 X90.569 Y127.697 E137.39887
G1 X90.755 Y127.788 E137.41953
G1 X91.237 Y128.007 E137.47236
G1 X73.721 Y110.491 E139.94406
G1 X73.717 Y110.31 E139.96212
G1 X73.721 Y109.358 E140.05711
G1 X73.728 Y109.184 E140.07449
G1 X73.735 Y109.091 E140.08379
G1 X93.49 Y128.846 E142.87144
G1 X94.052 Y128.999 E142.92955
G1 X94.154 Y129.02 E142.93995
G1 X95.21 Y129.222 E143.04722
G1 X95.293 Y129.234 E143.05559
G1 X73.864 Y107.805 E146.07946
G1 X73.949 Y107.241 E146.13637
G1 X73.985 Y107.056 E146.15517
G1 X74.085 Y106.612 E146.20059
G1 X96.847 Y129.374 E149.41255
G1 X97.428 Y129.394 E149.47056
G1 X98.282 Y129.394 E149.55577
G1 X74.386 Y105.499 E152.92768
G1 X74.485 Y105.179 E152.9611
G1 X74.543 Y105.007 E152.97922
G1 X74.756 Y104.455 E153.03825
G1 X99.696 Y129.394 E156.55749
G1 X101.11 Y129.394 E156.69858
G1 X75.19 Y103.475 E160.3561
G1 X75.319 Y103.205 E160.38595
G1 X75.395 Y103.061 E160.4022
G1 X75.683 Y102.553 E160.46047
G1 X102.524 Y129.394 E164.24802
G1 X103.939 Y129.394 E164.38921
G1 X76.228 Y101.684 E168.29946
G1 X76.417 Y101.401 E168.33342
G1 X76.533 Y101.24 E168.35322
G1 X76.824 Y100.865 E168.40058
G1 X105.353 Y129.394 E172.42633
G1 X106.767 Y129.394 E172.56742
G1 X77.47 Y100.098 E176.70147
G1 X77.795 Y99.739 E176.74979
G1 X77.895 Y99.636 E176.76412
G1 X78.165 Y99.378 E176.80138
G1 X108.181 Y129.394 E181.03696
G1 X109.595 Y129.394 E181.17805
G1 X78.908 Y98.707 E185.50832
G1 X79.376 Y98.32 E185.56891
G1 X79.503 Y98.222 E185.58492
G1 X79.699 Y98.084 E185.60884
G1 X111.01 Y129.395 E190.02716
G1 X112.425 Y129.395 E190.16835
G1 X80.545 Y97.515 E194.66696
G1 X81.437 Y96.993 E194.77009
G1 X113.839 Y129.395 E199.34236
G1 X115.253 Y129.395 E199.48345
G1 X82.361 Y96.503 E204.12486
G1 X83.293 Y96.021 E204.22956
G1 X116.667 Y129.395 E208.93899
G1 X118.081 Y129.395 E209.08008
G1 X84.225 Y95.539 E213.85753
G1 X85.157 Y95.057 E213.96222
G1 X119.496 Y129.395 E218.80776
G1 X120.91 Y129.395 E218.94885
G1 X86.088 Y94.574 E223.86254
G1 X87.02 Y94.091 E223.96728
G1 X122.324 Y129.395 E228.94905
G1 X122.541 Y129.396 E228.97071
G1 X123.601 Y129.357 E229.07655
G1 X123.693 Y129.35 E229.08575
G1 X87.952 Y93.609 E234.12919
G1 X88.884 Y93.126 E234.23393
G1 X124.951 Y129.194 E239.32345
G1 X125.72 Y129.05 E239.40151
G1 X125.802 Y129.033 E239.40987
G1 X126.124 Y128.952 E239.443
G1 X89.815 Y92.644 E244.56652
G1 X90.016 Y92.54 E244.5891
G1 X90.092 Y92.502 E244.59758
G1 X90.765 Y92.179 E244.67207
G1 X127.218 Y128.632 E249.81598
G1 X127.394 Y128.578 E249.83435
G1 X127.571 Y128.515 E249.85309
G1 X128.247 Y128.247 E249.92565
G1 X91.752 Y91.752 E255.07549
G1 X92.376 Y91.502 E255.14257
G1 X92.565 Y91.435 E255.16257
G1 X92.781 Y91.367 E255.18517
G1 X129.234 Y127.82 E260.32908
G1 X129.915 Y127.495 E260.40437
G1 X130.016 Y127.445 E260.41562
G1 X130.185 Y127.357 E260.43463
G1 X93.875 Y91.047 E265.55836
G1 X94.266 Y90.95 E265.59856
G1 X95.049 Y90.806 E265.678
