;FLAVOR:Marlin
;TIME:13043
;Filament used: 10.4682m
;Layer height: 0.2
;MINX:53.949
;MINY:53.949
;MINZ:0.24
;MAXX:166.05
;MAXY:166.05
;MAXZ:100.59
;Generated with Cura_SteamEngine master
M140 S70
M105
M190 S70
M104 S200
M105
M109 S200
M82 ;absolute extrusion mode
M201 X500.00 Y500.00 Z100.00 E5000.00 ;Setup machine max acceleration
M203 X500.00 Y500.00 Z10.00 E50.00 ;Setup machine max feedrate
M204 P500.00 R1000.00 T500.00 ;Setup Print/Retract/Travel acceleration
M205 X8.00 Y8.00 Z0.40 E5.00 ;Setup Jerk
M220 S100 ;Reset Feedrate
M221 S100 ;Reset Flowrate

G28 ;Home

G92 E0 ;Reset Extruder
G1 Z2.0 F3000 ;Move Z Axis up
G1 X10.1 Y20 Z0.28 F5000.0 ;Move to start position
G1 X10.1 Y200.0 Z0.28 F1500.0 E15 ;Draw the first line
G1 X10.4 Y200.0 Z0.28 F5000.0 ;Move to side a little
G1 X10.4 Y20 Z0.28 F1500.0 E30 ;Draw the second line
G92 E0 ;Reset Extruder
G1 Z2.0 F3000 ;Move Z Axis up

G92 E0
G92 E0
G1 F2700 E-5
;LAYER_COUNT:495
;LAYER:-6
M107
G0 F12000 X58.487 Y91.364 Z0.24
;TYPE:SUPPORT-INTERFACE
G1 F2700 E0
G1 F1800 X91.414 Y58.438 E3.71703
G1 X92.11 Y57.792 E3.79283
G1 X92.249 Y57.673 E3.80744
G1 X92.94 Y57.119 E3.87813
G1 X93.079 Y57.015 E3.89199
G1 X93.794 Y56.523 E3.96127
G1 X93.978 Y56.406 E3.97868
G1 X94.708 Y55.978 E4.04623
G1 X94.891 Y55.881 E4.06276
G1 X96.156 Y55.282 E4.17448
G1 X96.297 Y55.225 E4.18662
G1 X97.149 Y54.911 E4.25911
G1 X97.327 Y54.853 E4.27405
G1 X98.186 Y54.605 E4.34542
G1 X98.369 Y54.56 E4.36046
G1 X99.212 Y54.383 E4.42922
G1 X99.405 Y54.349 E4.44487
G1 X100.25 Y54.235 E4.51293
G1 X100.464 Y54.216 E4.53008
G1 X101.732 Y54.154 E4.63142
G1 X101.883 Y54.15 E4.64347
G1 X118.211 Y54.151 E5.94685
G1 X119.212 Y54.187 E6.0268
G1 X119.335 Y54.196 E6.03665
G1 X120.252 Y54.298 E6.1103
G1 X120.427 Y54.323 E6.12441
G1 X121.316 Y54.487 E6.19657
G1 X121.439 Y54.515 E6.20664
G1 X122.32 Y54.745 E6.27932
G1 X122.492 Y54.798 E6.29369
G1 X123.792 Y55.26 E6.40382
G1 X123.846 Y55.283 E6.4085
G1 X124.704 Y55.672 E6.4837
G1 X124.877 Y55.759 E6.49916
G1 X125.664 Y56.189 E6.57075
G1 X125.809 Y56.275 E6.5842
G1 X126.551 Y56.753 E6.65466
G1 X126.701 Y56.857 E6.66923
G1 X127.409 Y57.39 E6.73997
G1 X127.553 Y57.508 E6.75483
G1 X128.588 Y58.442 E6.86612
G1 X128.636 Y58.487 E6.87137
G1 X161.562 Y91.414 E10.5884
G1 X162.208 Y92.11 E10.6642
G1 X162.327 Y92.249 E10.6788
G1 X162.881 Y92.94 E10.7495
G1 X162.985 Y93.079 E10.76336
G1 X163.477 Y93.794 E10.83264
G1 X163.594 Y93.978 E10.85005
G1 X164.022 Y94.708 E10.91759
G1 X164.115 Y94.883 E10.93341
G1 X164.709 Y96.138 E11.04425
G1 X164.737 Y96.2 E11.04968
G1 X164.775 Y96.298 E11.05807
G1 X165.089 Y97.149 E11.13048
G1 X165.144 Y97.317 E11.14459
G1 X165.393 Y98.178 E11.21613
G1 X165.437 Y98.355 E11.23069
G1 X165.617 Y99.212 E11.30059
G1 X165.649 Y99.394 E11.31534
G1 X165.764 Y100.243 E11.38373
G1 X165.784 Y100.464 E11.40145
G1 X165.846 Y101.722 E11.50199
G1 X165.85 Y101.873 E11.51405
G1 X165.85 Y118.194 E12.81686
G1 X165.814 Y119.2 E12.89721
G1 X165.804 Y119.335 E12.90802
G1 X165.702 Y120.252 E12.98167
G1 X165.677 Y120.427 E12.99578
G1 X165.515 Y121.305 E13.06705
G1 X165.485 Y121.439 E13.07801
G1 X165.255 Y122.32 E13.15069
G1 X165.202 Y122.492 E13.16506
G1 X164.772 Y123.706 E13.26786
G1 X164.735 Y123.804 E13.27623
G1 X164.328 Y124.704 E13.35507
G1 X164.241 Y124.877 E13.37053
G1 X163.818 Y125.652 E13.44101
G1 X163.729 Y125.803 E13.455
G1 X163.247 Y126.551 E13.52603
G1 X163.143 Y126.701 E13.5406
G1 X162.61 Y127.409 E13.61134
G1 X162.497 Y127.547 E13.62558
G1 X161.561 Y128.586 E13.73721
G1 X161.522 Y128.627 E13.74173
G1 X128.586 Y161.562 E17.45977
G1 X127.89 Y162.208 E17.53557
G1 X127.751 Y162.327 E17.55018
G1 X127.06 Y162.881 E17.62087
G1 X126.921 Y162.985 E17.63473
G1 X126.206 Y163.477 E17.70401
G1 X126.022 Y163.594 E17.72142
G1 X125.292 Y164.022 E17.78897
G1 X125.109 Y164.119 E17.8055
G1 X123.809 Y164.733 E17.92026
G1 X123.706 Y164.774 E17.92911
G1 X122.851 Y165.089 E18.00185
G1 X122.677 Y165.146 E18.01646
G1 X121.814 Y165.395 E18.08816
G1 X121.633 Y165.44 E18.10305
G1 X120.788 Y165.617 E18.17197
G1 X120.595 Y165.651 E18.18761
G1 X119.75 Y165.765 E18.25567
G1 X119.536 Y165.784 E18.27282
G1 X118.268 Y165.846 E18.37416
G1 X118.117 Y165.85 E18.38622
G1 X101.789 Y165.849 E19.68959
G1 X100.788 Y165.813 E19.76954
G1 X100.665 Y165.804 E19.77939
G1 X99.748 Y165.702 E19.85304
G1 X99.573 Y165.677 E19.86715
G1 X98.684 Y165.513 E19.93931
G1 X98.561 Y165.485 E19.94938
G1 X97.68 Y165.255 E20.02206
G1 X97.507 Y165.202 E20.03651
G1 X96.273 Y164.764 E20.14103
G1 X96.198 Y164.736 E20.14742
G1 X96.141 Y164.712 E20.15236
G1 X95.292 Y164.326 E20.22681
G1 X95.124 Y164.241 E20.24183
G1 X94.336 Y163.811 E20.31349
G1 X94.191 Y163.725 E20.32695
G1 X93.449 Y163.247 E20.3974
G1 X93.299 Y163.143 E20.41197
G1 X92.591 Y162.61 E20.48272
G1 X92.447 Y162.492 E20.49758
G1 X91.412 Y161.558 E20.60886
G1 X91.364 Y161.513 E20.61411
G1 X58.434 Y128.582 E24.33159
G1 X57.79 Y127.888 E24.40717
G1 X57.673 Y127.751 E24.42155
G1 X57.119 Y127.06 E24.49225
G1 X57.015 Y126.921 E24.5061
G1 X56.523 Y126.206 E24.57539
G1 X56.406 Y126.022 E24.59279
G1 X55.978 Y125.292 E24.66034
G1 X55.877 Y125.101 E24.67759
G1 X55.267 Y123.809 E24.79164
G1 X55.223 Y123.696 E24.80132
G1 X54.906 Y122.837 E24.87441
G1 X54.852 Y122.67 E24.88842
G1 X54.603 Y121.807 E24.96011
G1 X54.56 Y121.631 E24.97458
G1 X54.383 Y120.788 E25.04334
G1 X54.349 Y120.592 E25.05922
G1 X54.234 Y119.74 E25.12784
G1 X54.216 Y119.536 E25.14419
G1 X54.154 Y118.268 E25.24553
G1 X54.15 Y118.126 E25.25687
G1 X54.15 Y101.806 E26.5596
G1 X54.186 Y100.8 E26.63996
G1 X54.196 Y100.665 E26.65076
G1 X54.298 Y99.748 E26.72441
G1 X54.323 Y99.573 E26.73852
G1 X54.485 Y98.695 E26.80979
G1 X54.515 Y98.561 E26.82075
G1 X54.746 Y97.675 E26.89384
G1 X54.798 Y97.508 E26.9078
G1 X55.239 Y96.263 E27.01323
G1 X55.262 Y96.204 E27.01829
G1 X55.29 Y96.138 E27.02401
G1 X55.672 Y95.296 E27.09782
G1 X55.759 Y95.123 E27.11328
G1 X56.182 Y94.348 E27.18375
G1 X56.271 Y94.197 E27.19775
G1 X56.753 Y93.449 E27.26878
G1 X56.857 Y93.299 E27.28335
G1 X57.39 Y92.591 E27.35409
G1 X57.503 Y92.453 E27.36833
G1 X58.264 Y91.61 E27.45898
G0 F1620 X58.442 Y91.412
G0 X58.487 Y91.364
G0 F12000 X59.2 Y90.651
G1 F1800 X59.2 Y129.348 E30.54794
G1 F2700 E25.54794
G1 F300 Z0.74
G0 F12000 X60.8 Y130.948 Z0.74
G1 F300 Z0.24
G1 F2700 E30.54794
G1 F1800 X60.8 Y89.051 E33.89234
G1 F2700 E28.89234
G1 F300 Z0.74
G0 F12000 X62.4 Y87.451 Z0.74
G1 F300 Z0.24
G1 F2700 E33.89234
G1 F1800 X62.4 Y132.548 E37.49218
G1 F2700 E32.49218
G1 F300 Z0.74
G0 F12000 X64 Y134.148 Z0.74
G1 F300 Z0.24
G1 F2700 E37.49218
G1 F1800 X64 Y85.851 E41.34745
G1 F2700 E36.34745
G1 F300 Z0.74
G0 F12000 X65.6 Y84.251 Z0.74
G1 F300 Z0.24
G1 F2700 E41.34745
G1 F1800 X65.6 Y135.748 E45.45817
G1 F2700 E40.45817
G1 F300 Z0.74
G0 F12000 X67.2 Y137.348 Z0.74
G1 F300 Z0.24
G1 F2700 E45.45817
G1 F1800 X67.2 Y82.651 E49.82432
G1 F2700 E44.82432
G1 F300 Z0.74
G0 F12000 X68.8 Y81.051 Z0.74
G1 F300 Z0.24
G1 F2700 E49.82432
G1 F1800 X68.8 Y138.948 E54.44591
G1 F2700 E49.44591
G1 F300 Z0.74
G0 F12000 X70.4 Y140.548 Z0.74
G1 F300 Z0.24
G1 F2700 E54.44591
G1 F1800 X70.4 Y79.451 E59.32293
G1 F2700 E54.32293
G1 F300 Z0.74
G0 F12000 X72 Y77.851 Z0.74
G1 F300 Z0.24
G1 F2700 E59.32293
G1 F1800 X72 Y142.148 E64.4554
G1 F2700 E59.4554
G1 F300 Z0.74
G0 F12000 X73.6 Y143.748 Z0.74
G1 F300 Z0.24
G1 F2700 E64.4554
G1 F1800 X73.6 Y76.251 E69.8433
G1 F2700 E64.8433
G1 F300 Z0.74
G0 F12000 X75.2 Y74.651 Z0.74
G1 F300 Z0.24
G1 F2700 E69.8433
G1 F1800 X75.2 Y145.348 E75.48664
G1 F2700 E70.48664
G1 F300 Z0.74
G0 F12000 X76.8 Y146.948 Z0.74
G1 F300 Z0.24
G1 F2700 E75.48664
G1 F1800 X76.8 Y73.051 E81.38542
G1 F2700 E76.38542
G1 F300 Z0.74
G0 F12000 X78.4 Y71.451 Z0.74
G1 F300 Z0.24
G1 F2700 E81.38542
G1 F1800 X78.4 Y148.548 E87.53964
G1 F2700 E82.53964
G1 F300 Z0.74
G0 F12000 X80 Y150.148 Z0.74
G1 F300 Z0.24
G1 F2700 E87.53964
G1 F1800 X80 Y69.851 E93.94929
G1 F2700 E88.94929
G1 F300 Z0.74
G0 F12000 X81.6 Y68.251 Z0.74
G1 F300 Z0.24
G1 F2700 E93.94929
G1 F1800 X81.6 Y151.748 E100.61438
G1 F2700 E95.61438
G1 F300 Z0.74
G0 F12000 X83.2 Y153.348 Z0.74
G1 F300 Z0.24
G1 F2700 E100.61438
G1 F1800 X83.2 Y66.651 E107.53491
G1 F2700 E102.53491
G1 F300 Z0.74
G0 F12000 X84.8 Y65.051 Z0.74
G1 F300 Z0.24
G1 F2700 E107.53491
G1 F1800 X84.8 Y154.948 E114.71088
G1 F2700 E109.71088
G1 F300 Z0.74
G0 F12000 X86.4 Y156.548 Z0.74
G1 F300 Z0.24
G1 F2700 E114.71088
G1 F1800 X86.4 Y63.451 E122.14228
G1 F2700 E117.14228
G1 F300 Z0.74
G0 F12000 X88 Y61.851 Z0.74
G1 F300 Z0.24
G1 F2700 E122.14228
G1 F1800 X88 Y158.148 E129.82913
G1 F2700 E124.82913
G1 F300 Z0.74
G0 F12000 X89.6 Y159.748 Z0.74
G1 F300 Z0.24
G1 F2700 E129.82913
G1 F1800 X89.6 Y60.251 E137.77141
G1 F2700 E132.77141
G1 F300 Z0.74
G0 F12000 X91.2 Y58.651 Z0.74
G1 F300 Z0.24
G1 F2700 E137.77141
G1 F1800 X91.2 Y161.348 E145.96913
G1 F2700 E140.96913
G1 F300 Z0.74
G0 F12000 X92.8 Y162.767 Z0.74
G1 F300 Z0.24
G1 F2700 E145.96913
G1 F1800 X92.8 Y57.231 E154.39347
G1 F2700 E149.39347
G1 F300 Z0.74
G0 F12000 X94.4 Y56.158 Z0.74
G1 F300 Z0.24
G1 F2700 E154.39347
G1 F1800 X94.4 Y163.845 E162.98951
G1 F2700 E157.98951
G1 F300 Z0.74
G0 F12000 X96 Y164.647 Z0.74
G1 F300 Z0.24
G1 F2700 E162.98951
G1 F1800 X96 Y55.355 E171.71367
G1 F2700 E166.71367
G1 F300 Z0.74
G0 F12000 X97.6 Y54.774 Z0.74
G1 F300 Z0.24
G1 F2700 E171.71367
G1 F1800 X97.6 Y165.23 E180.53074
G1 F2700 E175.53074
G1 F300 Z0.74
G0 F12000 X99.2 Y165.608 Z0.74
G1 F300 Z0.24
G1 F2700 E180.53074
G1 F1800 X99.2 Y54.385 E189.40904
G1 F2700 E184.40904
G1 F300 Z0.74
G0 F12000 X100.8 Y54.199 Z0.74
G1 F300 Z0.24
G1 F2700 E189.40904
G1 F1800 X100.8 Y165.813 E198.31856
G1 F2700 E193.31856
G1 F300 Z0.74
G0 F12000 X102.4 Y165.849 Z0.74
G1 F300 Z0.24
G1 F2700 E198.31856
G1 F1800 X102.4 Y54.151 E207.23477
G1 F2700 E202.23477
G1 F300 Z0.74
G0 F12000 X104 Y54.151 Z0.74
G1 F300 Z0.24
G1 F2700 E207.23477
G1 F1800 X104 Y165.849 E216.15099
G1 F2700 E211.15099
G1 F300 Z0.74
G0 F12000 X105.6 Y165.849 Z0.74
G1 F300 Z0.24
G1 F2700 E216.15099
G1 F1800 X105.6 Y54.151 E225.06721
G1 F2700 E220.06721
G1 F300 Z0.74
G0 F12000 X107.2 Y54.151 Z0.74
G1 F300 Z0.24
G1 F2700 E225.06721
G1 F1800 X107.2 Y165.849 E233.98343
G1 F2700 E228.98343
G1 F300 Z0.74
G0 F12000 X108.8 Y165.849 Z0.74
G1 F300 Z0.24
G1 F2700 E233.98343
G1 F1800 X108.8 Y54.151 E242.89964
G1 F2700 E237.89964
G1 F300 Z0.74
G0 F12000 X110.4 Y54.151 Z0.74
G1 F300 Z0.24
G1 F2700 E242.89964
G1 F1800 X110.4 Y165.849 E251.81586
G1 F2700 E246.81586
G1 F300 Z0.74
G0 F12000 X112 Y165.849 Z0.74
G1 F300 Z0.24
G1 F2700 E251.81586
G1 F1800 X112 Y54.151 E260.73208
G1 F2700 E255.73208
G1 F300 Z0.74
G0 F12000 X113.6 Y54.151 Z0.74
G1 F300 Z0.24
G1 F2700 E260.73208
G1 F1800 X113.6 Y165.849 E269.64829
G1 F2700 E264.64829
G1 F300 Z0.74
G0 F12000 X115.2 Y165.849 Z0.74
G1 F300 Z0.24
G1 F2700 E269.64829
G1 F1800 X115.2 Y54.151 E278.56451
G1 F2700 E273.56451
G1 F300 Z0.74
G0 F12000 X116.8 Y54.151 Z0.74
G1 F300 Z0.24
G1 F2700 E278.56451
G1 F1800 X116.8 Y165.849 E287.48073
G1 F2700 E282.48073
G1 F300 Z0.74
G0 F12000 X118.4 Y165.84 Z0.74
G1 F300 Z0.24
G1 F2700 E287.48073
G1 F1800 X118.4 Y54.158 E296.39567
G1 F2700 E291.39567
G1 F300 Z0.74
G0 F12000 X120 Y54.27 Z0.74
G1 F300 Z0.24
G1 F2700 E296.39567
G1 F1800 X120 Y165.732 E305.29305
G1 F2700 E300.29305
G1 F300 Z0.74
G0 F12000 X121.6 Y165.447 Z0.74
G1 F300 Z0.24
G1 F2700 E305.29305
G1 F1800 X121.6 Y54.558 E314.14469
G1 F2700 E309.14469
G1 F300 Z0.74
G0 F12000 X123.2 Y55.05 Z0.74
G1 F300 Z0.24
G1 F2700 E314.14469
G1 F1800 X123.2 Y164.961 E322.91826
G1 F2700 E317.91826
G1 F300 Z0.74
G0 F12000 X124.8 Y164.265 Z0.74
G1 F300 Z0.24
G1 F2700 E322.91826
G1 F1800 X124.8 Y55.721 E331.58271
G1 F2700 E326.58271
G1 F300 Z0.74
G0 F12000 X126.4 Y56.656 Z0.74
G1 F300 Z0.24
G1 F2700 E331.58271
G1 F1800 X126.4 Y163.344 E340.09901
G1 F2700 E335.09901
G1 F300 Z0.74
G0 F12000 X128 Y162.106 Z0.74
G1 F300 Z0.24
G1 F2700 E340.09901
G1 F1800 X128 Y57.912 E348.41622
G1 F2700 E343.41622
G1 F300 Z0.74
G0 F12000 X129.6 Y59.452 Z0.74
G1 F300 Z0.24
G1 F2700 E348.41622
G1 F1800 X129.6 Y160.549 E356.48622
G1 F2700 E351.48622
G1 F300 Z0.74
G0 F12000 X131.2 Y158.949 Z0.74
G1 F300 Z0.24
G1 F2700 E356.48622
G1 F1800 X131.2 Y61.052 E364.30079
G1 F2700 E359.30079
G1 F300 Z0.74
G0 F12000 X132.8 Y62.652 Z0.74
G1 F300 Z0.24
G1 F2700 E364.30079
G1 F1800 X132.8 Y157.349 E371.85991
G1 F2700 E366.85991
G1 F300 Z0.74
G0 F12000 X134.4 Y155.749 Z0.74
G1 F300 Z0.24
G1 F2700 E371.85991
G1 F1800 X134.4 Y64.252 E379.1636
G1 F2700 E374.1636
G1 F300 Z0.74
G0 F12000 X136 Y65.852 Z0.74
G1 F300 Z0.24
G1 F2700 E379.1636
G1 F1800 X136 Y154.149 E386.21184
G1 F2700 E381.21184
G1 F300 Z0.74
G0 F12000 X137.6 Y152.549 Z0.74
G1 F300 Z0.24
G1 F2700 E386.21184
G1 F1800 X137.6 Y67.452 E393.00465
G1 F2700 E388.00465
G1 F300 Z0.74
G0 F12000 X139.2 Y69.052 Z0.74
G1 F300 Z0.24
G1 F2700 E393.00465
G1 F1800 X139.2 Y150.949 E399.54203
G1 F2700 E394.54203
G1 F300 Z0.74
G0 F12000 X140.8 Y149.349 Z0.74
G1 F300 Z0.24
G1 F2700 E399.54203
G1 F1800 X140.8 Y70.652 E405.82396
G1 F2700 E400.82396
G1 F300 Z0.74
G0 F12000 X142.4 Y72.252 Z0.74
G1 F300 Z0.24
G1 F2700 E405.82396
G1 F1800 X142.4 Y147.749 E411.85046
G1 F2700 E406.85046
G1 F300 Z0.74
G0 F12000 X144 Y146.149 Z0.74
G1 F300 Z0.24
G1 F2700 E411.85046
G1 F1800 X144 Y73.852 E417.62152
G1 F2700 E412.62152
G1 F300 Z0.74
G0 F12000 X145.6 Y75.452 Z0.74
G1 F300 Z0.24
G1 F2700 E417.62152
G1 F1800 X145.6 Y144.549 E423.13714
G1 F2700 E418.13714
G1 F300 Z0.74
G0 F12000 X147.2 Y142.949 Z0.74
G1 F300 Z0.24
G1 F2700 E423.13714
G1 F1800 X147.2 Y77.052 E428.39732
G1 F2700 E423.39732
G1 F300 Z0.74
G0 F12000 X148.8 Y78.652 Z0.74
G1 F300 Z0.24
G1 F2700 E428.39732
G1 F1800 X148.8 Y141.349 E433.40207
G1 F2700 E428.40207
G1 F300 Z0.74
G0 F12000 X150.4 Y139.749 Z0.74
G1 F300 Z0.24
G1 F2700 E433.40207
G1 F1800 X150.4 Y80.252 E438.15138
G1 F2700 E433.15138
G1 F300 Z0.74
G0 F12000 X152 Y81.852 Z0.74
G1 F300 Z0.24
G1 F2700 E438.15138
G1 F1800 X152 Y138.149 E442.64525
G1 F2700 E437.64525
G1 F300 Z0.74
G0 F12000 X153.6 Y136.549 Z0.74
G1 F300 Z0.24
G1 F2700 E442.64525
G1 F1800 X153.6 Y83.452 E446.88368
G1 F2700 E441.88368
G1 F300 Z0.74
G0 F12000 X155.2 Y85.052 Z0.74
G1 F300 Z0.24
G1 F2700 E446.88368
G1 F1800 X155.2 Y134.949 E450.86667
G1 F2700 E445.86667
G1 F300 Z0.74
G0 F12000 X156.8 Y133.349 Z0.74
G1 F300 Z0.24
G1 F2700 E450.86667
G1 F1800 X156.8 Y86.652 E454.59423
G1 F2700 E449.59423
G1 F300 Z0.74
G0 F12000 X158.4 Y88.252 Z0.74
G1 F300 Z0.24
G1 F2700 E454.59423
G1 F1800 X158.4 Y131.749 E458.06635
G1 F2700 E453.06635
G1 F300 Z0.74
G0 F12000 X160 Y130.149 Z0.74
G1 F300 Z0.24
G1 F2700 E458.06635
G1 F1800 X160 Y89.852 E461.28303
G1 F2700 E456.28303
G1 F300 Z0.74
G0 F12000 X161.6 Y91.455 Z0.74
G1 F300 Z0.24
G1 F2700 E461.28303
G1 F1800 X161.6 Y128.543 E464.24355
G1 F2700 E459.24355
G1 F300 Z0.74
G0 F12000 X163.2 Y126.619 Z0.74
G1 F300 Z0.24
G1 F2700 E464.24355
G1 F1800 X163.2 Y93.392 E466.89588
G1 F2700 E461.89588
G1 F300 Z0.74
G0 F12000 X164.8 Y96.366 Z0.74
G1 F300 Z0.24
G1 F2700 E466.89588
G1 F1800 X164.8 Y123.627 E469.07197
G1 F2700 E464.07197
G1 F300 Z0.74
G0 F12000 X57.6 Y127.659 Z0.74
G1 F300 Z0.24
G1 F2700 E469.07197
G1 F1800 X57.6 Y92.345 E471.89088
G1 F2700 E466.89088
G1 F300 Z0.74
G0 F12000 X56 Y94.681 Z0.74
G1 F300 Z0.24
G1 F2700 E471.89088
G1 F1800 X56 Y125.329 E474.33734
G1 F2700 E469.33734
G1 F300 Z0.74
G0 F12000 X54.4 Y120.868 Z0.74
G1 F300 Z0.24
G1 F2700 E474.33734
G1 F1800 X54.4 Y99.155 E476.07056
G1 F2700 E471.07056
G1 F300 Z0.74
G0 F12000 X55.959 Y125.255 Z0.74
;TIME_ELAPSED:248.101867
;LAYER:-5
M140 S65
G0 X55.959 Y125.255 Z1.04
;TYPE:SUPPORT
G1 F300 Z0.54
G1 F2700 E476.07056
G1 F1800 X94.727 Y164.024 E481.54122
G1 X94.335 Y163.81 E481.58578
G1 X94.191 Y163.724 E481.60252
G1 X93.449 Y163.246 E481.69059
G1 X93.298 Y163.142 E481.70888
G1 X92.591 Y162.609 E481.79723
G1 X92.447 Y162.491 E481.8158
G1 X91.411 Y161.556 E481.95505
G1 X91.364 Y161.512 E481.96147
G1 X58.433 Y128.581 E486.60839
G1 X57.79 Y127.887 E486.7028
G1 X57.673 Y127.75 E486.72077
G1 X57.119 Y127.059 E486.80914
G1 X57.014 Y126.92 E486.82653
G1 X56.522 Y126.205 E486.91313
G1 X56.406 Y126.021 E486.93483
