;FLAVOR:Marlin
;TIME:838
;Filament used: 0.569668m
;Layer height: 0.2
;MINX:94.964
;MINY:89.523
;MINZ:0.24
;MAXX:125.096
;MAXY:130.366
;MAXZ:11.59
;Generated with Cura_SteamEngine 4.8.0
M140 S70
M105
M190 S70
M104 S200
M105
M109 S200
M82 ;absolute extrusion mode
M201 X500.00 Y500.00 Z100.00 E5000.00 ;Setup machine max acceleration
M203 X500.00 Y500.00 Z10.00 E50.00 ;Setup machine max feedrate
M204 P500.00 R1000.00 T500.00 ;Setup Print/Retract/Travel acceleration
M205 X8.00 Y8.00 Z0.40 E5.00 ;Setup Jerk
M220 S100 ;Reset Feedrate
M221 S100 ;Reset Flowrate

G28 ;Home

G92 E0 ;Reset Extruder
G1 Z2.0 F3000 ;Move Z Axis up
G1 X10.1 Y20 Z0.28 F5000.0 ;Move to start position
G1 X10.1 Y200.0 Z0.28 F1500.0 E15 ;Draw the first line
G1 X10.4 Y200.0 Z0.28 F5000.0 ;Move to side a little
G1 X10.4 Y20 Z0.28 F1500.0 E30 ;Draw the second line
G92 E0 ;Reset Extruder
G1 Z2.0 F3000 ;Move Z Axis up

G92 E0
G92 E0
G1 F2700 E-5
;LAYER_COUNT:50
;LAYER:-6
M107
G0 F12000 X100.839 Y93.754 Z0.24
;TYPE:SUPPORT-INTERFACE
G1 F2700 E0
G1 F1800 X101.027 Y93.559 E0.02162
G1 X101.118 Y93.468 E0.03189
G1 X101.539 Y93.064 E0.07847
G1 X101.694 Y92.923 E0.0952
G1 X102.156 Y92.515 E0.1444
G1 X102.229 Y92.454 E0.15199
G1 X102.567 Y92.184 E0.18652
G1 X103.182 Y91.737 E0.24721
G1 X103.483 Y91.539 E0.27597
G1 X104.047 Y91.199 E0.32854
G1 X104.202 Y91.113 E0.34269
G1 X104.713 Y90.856 E0.38835
G1 X105.097 Y90.669 E0.42244
G1 X105.58 Y90.457 E0.46455
G1 X105.683 Y90.415 E0.47343
G1 X105.874 Y90.347 E0.48961
G1 X106.241 Y90.231 E0.52034
G1 X106.981 Y90.029 E0.58157
G1 X107.163 Y89.987 E0.59648
G1 X107.672 Y89.887 E0.63789
G1 X107.845 Y89.859 E0.65187
G1 X108.533 Y89.776 E0.70719
G1 X108.614 Y89.766 E0.71371
G1 X108.882 Y89.742 E0.73519
G1 X109.151 Y89.726 E0.7567
G1 X109.323 Y89.723 E0.77043
G1 X109.865 Y89.731 E0.8137
G1 X110.04 Y89.741 E0.82769
G1 X110.746 Y89.803 E0.88426
G1 X111.233 Y89.866 E0.92346
G1 X111.41 Y89.895 E0.93778
G1 X112.074 Y90.028 E0.99183
G1 X112.19 Y90.053 E1.00131
G1 X112.567 Y90.146 E1.0323
G1 X113.126 Y90.307 E1.07874
G1 X113.403 Y90.399 E1.10204
G1 X113.557 Y90.454 E1.11509
G1 X114.317 Y90.743 E1.17999
G1 X114.482 Y90.81 E1.19421
G1 X114.76 Y90.928 E1.21832
G1 X114.942 Y91.015 E1.23442
G1 X115.556 Y91.339 E1.28984
G1 X116.219 Y91.705 E1.35029
G1 X116.554 Y91.9 E1.38123
G1 X116.927 Y92.127 E1.41609
G1 X117.028 Y92.193 E1.42572
G1 X117.37 Y92.425 E1.45871
G1 X117.621 Y92.613 E1.48374
G1 X118.495 Y93.278 E1.5714
G1 X119.054 Y93.729 E1.62874
G1 X119.134 Y93.797 E1.63712
G1 X119.457 Y94.085 E1.67166
G1 X119.824 Y94.441 E1.71248
G1 X120.088 Y94.709 E1.74251
G1 X120.708 Y95.397 E1.81643
G1 X120.798 Y95.507 E1.82778
G1 X120.848 Y95.563 E1.83377
G1 X121.066 Y95.826 E1.86104
G1 X121.261 Y96.077 E1.88641
G1 X121.636 Y96.596 E1.93752
G1 X121.782 Y96.811 E1.95827
G1 X121.915 Y97.02 E1.97804
G1 X122.418 Y97.849 E2.05545
G1 X122.543 Y98.065 E2.07537
G1 X122.709 Y98.387 E2.10429
G1 X123.157 Y99.313 E2.1864
G1 X123.289 Y99.609 E2.21227
G1 X123.446 Y99.986 E2.24487
G1 X123.785 Y100.833 E2.3177
G1 X123.922 Y101.223 E2.35069
G1 X123.983 Y101.421 E2.36723
G1 X124.033 Y101.597 E2.38184
G1 X124.243 Y102.402 E2.44824
G1 X124.298 Y102.6 E2.46465
G1 X124.326 Y102.691 E2.47225
G1 X124.359 Y102.812 E2.48226
G1 X124.467 Y103.269 E2.51974
G1 X124.496 Y103.41 E2.53123
G1 X124.534 Y103.643 E2.55008
G1 X124.737 Y104.997 E2.65937
G1 X124.757 Y105.149 E2.67161
G1 X124.799 Y105.545 E2.7034
G1 X124.873 Y106.437 E2.77484
G1 X124.889 Y106.768 E2.8013
G1 X124.896 Y107.485 E2.85853
G1 X124.891 Y107.955 E2.89605
G1 X124.881 Y108.226 E2.9177
G1 X124.782 Y109.774 E3.04152
G1 X124.76 Y110.022 E3.06139
G1 X124.731 Y110.283 E3.08236
G1 X124.692 Y110.549 E3.10382
G1 X124.489 Y111.678 E3.19538
G1 X124.428 Y112.009 E3.22225
G1 X124.372 Y112.266 E3.24325
G1 X124.223 Y112.884 E3.29399
G1 X124.148 Y113.165 E3.31721
G1 X123.993 Y113.7 E3.36167
G1 X123.913 Y113.952 E3.38277
G1 X123.493 Y115.137 E3.48313
G1 X123.434 Y115.291 E3.4963
G1 X123.274 Y115.668 E3.52899
G1 X123.208 Y115.812 E3.54163
G1 X122.87 Y116.494 E3.60239
G1 X122.771 Y116.704 E3.62092
G1 X122.557 Y117.188 E3.66317
G1 X122.503 Y117.304 E3.67338
G1 X122.333 Y117.643 E3.70365
G1 X122.109 Y118.05 E3.74074
G1 X121.778 Y118.662 E3.79628
G1 X121.283 Y119.532 E3.87618
G1 X121.047 Y119.926 E3.91284
G1 X120.972 Y120.047 E3.9242
G1 X120.655 Y120.53 E3.97032
G1 X120.14 Y121.363 E4.0485
G1 X120.037 Y121.521 E4.06355
G1 X119.701 Y122.019 E4.11151
G1 X119.601 Y122.161 E4.12537
G1 X119.229 Y122.671 E4.17576
G1 X118.408 Y123.745 E4.28367
G1 X118.206 Y123.991 E4.30908
G1 X118.131 Y124.08 E4.31837
G1 X117.732 Y124.532 E4.3665
G1 X117.266 Y125.082 E4.42404
G1 X117.08 Y125.307 E4.44734
G1 X116.848 Y125.57 E4.47534
G1 X116.693 Y125.735 E4.49341
G1 X116.444 Y125.982 E4.52141
G1 X116.091 Y126.31 E4.55987
G1 X115.977 Y126.41 E4.57197
G1 X115.766 Y126.582 E4.5937
G1 X115.332 Y126.978 E4.6406
G1 X115.13 Y127.186 E4.66375
G1 X115.023 Y127.287 E4.67549
G1 X114.83 Y127.459 E4.69613
G1 X114.711 Y127.558 E4.70849
G1 X114.344 Y127.843 E4.74558
G1 X114.209 Y127.941 E4.75889
G1 X113.957 Y128.112 E4.7832
G1 X113.843 Y128.183 E4.79392
G1 X113.501 Y128.384 E4.82559
G1 X113.269 Y128.502 E4.84637
G1 X112.984 Y128.624 E4.87111
G1 X112.616 Y128.755 E4.90229
G1 X112.004 Y129.016 E4.9554
G1 X111.619 Y129.232 E4.99064
G1 X111.256 Y129.454 E5.02461
G1 X110.996 Y129.592 E5.0481
G1 X110.704 Y129.723 E5.07365
G1 X110.463 Y129.816 E5.09427
G1 X110.177 Y129.906 E5.1182
G1 X110.046 Y129.943 E5.12907
G1 X109.904 Y129.98 E5.14078
G1 X109.788 Y130.007 E5.15029
G1 X109.393 Y130.088 E5.18248
G1 X108.963 Y130.135 E5.21701
G1 X108.841 Y130.146 E5.22679
G1 X108.517 Y130.163 E5.25268
G1 X108.362 Y130.166 E5.26506
G1 X107.985 Y130.162 E5.29515
G1 X107.69 Y130.14 E5.31877
G1 X107.411 Y130.102 E5.34124
G1 X107.129 Y130.045 E5.36421
G1 X106.854 Y129.971 E5.38694
G1 X106.568 Y129.875 E5.41102
G1 X106.299 Y129.765 E5.43422
G1 X106.038 Y129.638 E5.45739
G1 X105.801 Y129.503 E5.47917
G1 X105.738 Y129.463 E5.48512
G1 X105.155 Y129.133 E5.5386
G1 X104.464 Y128.854 E5.59808
G1 X104.323 Y128.81 E5.60987
G1 X104.159 Y128.749 E5.62384
G1 X103.998 Y128.679 E5.63785
G1 X103.688 Y128.53 E5.66531
G1 X103.408 Y128.375 E5.69086
G1 X103.185 Y128.232 E5.712
G1 X102.943 Y128.052 E5.73608
G1 X102.718 Y127.865 E5.75943
G1 X102.528 Y127.684 E5.78038
G1 X102.43 Y127.579 E5.79184
G1 X102.04 Y127.196 E5.83548
G1 X101.967 Y127.132 E5.84323
G1 X101.817 Y126.993 E5.85955
G1 X101.432 Y126.647 E5.90087
G1 X101.338 Y126.557 E5.91126
G1 X101.022 Y126.235 E5.94727
G1 X100.919 Y126.123 E5.95942
G1 X100.364 Y125.482 E6.0271
G1 X100.283 Y125.383 E6.03731
G1 X100.004 Y125.02 E6.07386
G1 X99.927 Y124.913 E6.08438
G1 X99.791 Y124.712 E6.10375
G1 X99.379 Y124.18 E6.15746
G1 X98.799 Y123.615 E6.2221
G1 X98.628 Y123.474 E6.23979
G1 X98.422 Y123.278 E6.26249
G1 X98.2 Y123.04 E6.28847
G1 X98.042 Y122.847 E6.30838
G1 X97.877 Y122.615 E6.3311
G1 X97.703 Y122.331 E6.35769
G1 X97.457 Y121.852 E6.40067
G1 X97.37 Y121.664 E6.41721
G1 X97.225 Y121.306 E6.44804
G1 X96.67 Y119.872 E6.57078
G1 X96.533 Y119.451 E6.60612
G1 X96.505 Y119.359 E6.6138
G1 X96.396 Y118.965 E6.64643
G1 X96.173 Y118.228 E6.7079
G1 X96.124 Y118.047 E6.72287
G1 X96.031 Y117.671 E6.75378
G1 X95.815 Y116.713 E6.83218
G1 X95.782 Y116.547 E6.84569
G1 X95.59 Y115.519 E6.92916
G1 X95.546 Y115.252 E6.95077
G1 X95.44 Y114.559 E7.00673
G1 X95.403 Y114.259 E7.03086
G1 X95.378 Y113.977 E7.05345
G1 X95.351 Y113.737 E7.07273
G1 X95.333 Y113.602 E7.0836
G1 X95.303 Y113.325 E7.10585
G1 X95.273 Y112.961 E7.135
G1 X95.229 Y112.299 E7.18796
G1 X95.207 Y112.021 E7.21022
G1 X95.195 Y111.8 E7.22789
G1 X95.192 Y111.721 E7.2342
G1 X95.165 Y110.282 E7.34909
G1 X95.168 Y109.975 E7.37359
G1 X95.214 Y108.95 E7.4555
G1 X95.226 Y108.553 E7.4872
G1 X95.232 Y108.439 E7.49631
G1 X95.338 Y107.195 E7.59597
G1 X95.408 Y106.51 E7.65094
G1 X95.467 Y106.08 E7.68558
G1 X95.499 Y105.903 E7.69994
G1 X95.525 Y105.739 E7.7132
G1 X95.631 Y105.018 E7.77137
G1 X95.659 Y104.851 E7.78489
G1 X95.697 Y104.644 E7.80169
G1 X95.724 Y104.511 E7.81252
G1 X95.9 Y103.745 E7.87526
G1 X96.156 Y102.686 E7.96223
G1 X96.237 Y102.372 E7.98811
G1 X96.339 Y102.022 E8.01721
G1 X96.385 Y101.878 E8.02928
G1 X96.627 Y101.176 E8.08855
G1 X96.68 Y101.014 E8.10216
G1 X96.766 Y100.732 E8.12569
G1 X96.909 Y100.327 E8.15998
G1 X96.955 Y100.206 E8.17031
G1 X97.072 Y99.92 E8.19498
G1 X97.312 Y99.315 E8.24693
G1 X97.469 Y98.955 E8.27828
G1 X97.68 Y98.484 E8.31948
G1 X97.821 Y98.197 E8.345
G1 X98.282 Y97.323 E8.42388
G1 X98.41 Y97.084 E8.44552
G1 X98.485 Y96.952 E8.45764
G1 X98.642 Y96.686 E8.4823
G1 X98.807 Y96.429 E8.50668
G1 X99.339 Y95.636 E8.5829
G1 X99.731 Y95.084 E8.63695
G1 X99.799 Y94.992 E8.64608
G1 X99.957 Y94.787 E8.66674
G1 X100.349 Y94.31 E8.71602
G1 X100.453 Y94.188 E8.72882
G1 X100.759 Y93.842 E8.76569
G1 X100.839 Y93.754 E8.77518
G0 F12000 X100.8 Y93.796
G1 F1800 X100.8 Y125.985 E11.34465
G1 F2700 E6.34465
G1 F300 Z0.74
G0 F12000 X102.4 Y127.549 Z0.74
G1 F300 Z0.24
G1 F2700 E11.34465
G1 F1800 X102.4 Y92.317 E14.15702
G1 F2700 E9.15702
G1 F300 Z0.74
G0 F12000 X104 Y91.227 Z0.74
G1 F300 Z0.24
G1 F2700 E14.15702
G1 F1800 X104 Y128.679 E17.1466
G1 F2700 E12.1466
G1 F300 Z0.74
G0 F12000 X105.6 Y129.384 Z0.74
G1 F300 Z0.24
G1 F2700 E17.1466
G1 F1800 X105.6 Y90.448 E20.25464
G1 F2700 E15.25464
G1 F300 Z0.74
G0 F12000 X107.2 Y89.979 Z0.74
G1 F300 Z0.24
G1 F2700 E20.25464
G1 F1800 X107.2 Y130.059 E23.454
G1 F2700 E18.454
G1 F300 Z0.74
G0 F12000 X108.8 Y130.149 Z0.74
G1 F300 Z0.24
G1 F2700 E23.454
G1 F1800 X108.8 Y89.749 E26.6789
G1 F2700 E21.6789
G1 F300 Z0.74
G0 F12000 X110.4 Y89.773 Z0.74
G1 F300 Z0.24
G1 F2700 E26.6789
G1 F1800 X110.4 Y129.836 E29.8769
G1 F2700 E24.8769
G1 F300 Z0.74
G0 F12000 X112 Y129.019 Z0.74
G1 F300 Z0.24
G1 F2700 E29.8769
G1 F1800 X112 Y90.014 E32.99045
G1 F2700 E27.99045
G1 F300 Z0.74
G0 F12000 X113.6 Y90.471 Z0.74
G1 F300 Z0.24
G1 F2700 E32.99045
G1 F1800 X113.6 Y128.326 E36.0122
G1 F2700 E31.0122
G1 F300 Z0.74
G0 F12000 X115.2 Y127.114 Z0.74
G1 F300 Z0.24
G1 F2700 E36.0122
G1 F1800 X115.2 Y91.152 E38.88284
G1 F2700 E33.88284
G1 F300 Z0.74
G0 F12000 X116.8 Y92.05 Z0.74
G1 F300 Z0.24
G1 F2700 E38.88284
G1 F1800 X116.8 Y125.622 E41.56271
G1 F2700 E36.56271
G1 F300 Z0.74
G0 F12000 X118.4 Y123.755 Z0.74
G1 F300 Z0.24
G1 F2700 E41.56271
G1 F1800 X118.4 Y93.206 E44.00126
G1 F2700 E39.00126
G1 F300 Z0.74
G0 F12000 X120 Y94.62 Z0.74
G1 F300 Z0.24
G1 F2700 E44.00126
G1 F1800 X120 Y121.576 E46.153
G1 F2700 E41.153
G1 F300 Z0.74
G0 F12000 X121.6 Y118.975 Z0.74
G1 F300 Z0.24
G1 F2700 E46.153
G1 F1800 X121.6 Y96.547 E47.9433
G1 F2700 E42.9433
G1 F300 Z0.74
G0 F12000 X123.2 Y99.41 Z0.74
G1 F300 Z0.24
G1 F2700 E47.9433
G1 F1800 X123.2 Y115.829 E49.25394
G1 F2700 E44.25394
G1 F300 Z0.74
G0 F12000 X124.8 Y109.493 Z0.74
G1 F300 Z0.24
G1 F2700 E49.25394
G1 F1800 X124.8 Y105.558 E49.56805
G1 F2700 E44.56805
G1 F300 Z0.74
G0 F12000 X99.2 Y95.843 Z0.74
G1 F300 Z0.24
G1 F2700 E49.56805
G1 F1800 X99.2 Y124.005 E51.81606
G1 F2700 E46.81606
G1 F300 Z0.74
G0 F12000 X97.6 Y122.13 Z0.74
G1 F300 Z0.24
G1 F2700 E51.81606
G1 F1800 X97.6 Y98.662 E53.68938
G1 F2700 E48.68938
G1 F300 Z0.74
G0 F12000 X96 Y103.331 Z0.74
G1 F300 Z0.24
G1 F2700 E53.68938
G1 F1800 X96 Y117.533 E54.82304
G1 F2700 E49.82304
G1 F300 Z0.74
G0 F12000 X97.2 Y121.241 Z0.74
;TIME_ELAPSED:38.599655
;LAYER:-5
M140 S65
G0 X97.2 Y121.241 Z1.04
;TYPE:SUPPORT
G1 F300 Z0.54
G1 F2700 E54.82304
G1 F1800 X105.047 Y129.088 E55.93034
G1 X104.463 Y128.853 E55.99315
G1 X104.322 Y128.808 E56.00792
G1 X104.158 Y128.747 E56.02538
G1 X103.997 Y128.678 E56.04286
G1 X103.688 Y128.528 E56.07713
G1 X103.408 Y128.374 E56.10902
G1 X103.185 Y128.23 E56.1355
G1 X102.943 Y128.051 E56.16554
G1 X102.717 Y127.863 E56.19487
G1 X102.528 Y127.682 E56.22098
G1 X102.429 Y127.578 E56.23531
G1 X102.04 Y127.195 E56.28978
G1 X101.966 Y127.131 E56.29954
G1 X101.817 Y126.992 E56.31987
G1 X101.432 Y126.646 E56.37152
G1 X101.338 Y126.556 E56.38451
G1 X101.021 Y126.234 E56.42959
G1 X100.918 Y126.121 E56.44485
G1 X100.363 Y125.481 E56.52938
G1 X100.282 Y125.382 E56.54214
G1 X100.003 Y125.018 E56.5879
G1 X99.926 Y124.911 E56.60106
G1 X99.791 Y124.711 E56.62513
G1 X99.379 Y124.179 E56.69227
G1 X98.799 Y123.614 E56.77307
G1 X98.627 Y123.472 E56.79532
G1 X98.422 Y123.276 E56.82362
G1 X98.2 Y123.039 E56.85602
G1 X98.042 Y122.846 E56.88091
G1 X97.877 Y122.614 E56.90932
G1 X97.703 Y122.33 E56.94255
G1 X97.456 Y121.85 E56.99641
G1 X97.37 Y121.663 E57.01695
G1 X97.225 Y121.304 E57.05558
G1 F2700 E52.05558
G1 F300 Z1.04
G0 F12000 X105.047 Y129.088 Z1.04
G1 F300 Z0.54
G1 F2700 E57.05558
G1 F1800 X105.154 Y129.132 E57.06713
G1 X105.737 Y129.462 E57.13397
G1 X105.801 Y129.502 E57.1415
G1 X106.038 Y129.637 E57.16872
G1 X106.299 Y129.763 E57.19764
G1 X106.568 Y129.874 E57.22667
G1 X106.853 Y129.97 E57.25668
G1 X107.128 Y130.044 E57.2851
G1 X107.411 Y130.101 E57.3139
G1 X107.483 Y130.11 E57.32114
G1 X96.418 Y119.045 E58.88253
G1 X96.396 Y118.964 E58.89091
G1 X96.172 Y118.227 E58.96777
G1 X96.124 Y118.045 E58.98655
G1 X96.031 Y117.67 E59.0251
G1 X95.906 Y117.119 E59.08148
G1 X108.924 Y130.137 E60.91846
G1 X108.963 Y130.133 E60.92237
G1 X109.392 Y130.087 E60.96542
G1 X109.788 Y130.005 E61.00577
G1 X109.904 Y129.978 E61.01765
G1 X110.045 Y129.942 E61.03218
G1 X110.121 Y129.92 E61.04007
G1 X95.564 Y115.363 E63.09422
G1 X95.545 Y115.251 E63.10555
G1 X95.439 Y114.558 E63.17551
G1 X95.402 Y114.258 E63.20567
G1 X95.378 Y113.976 E63.23391
G1 X95.351 Y113.736 E63.25801
G1 X111.133 Y129.517 E65.48495
G1 X111.256 Y129.452 E65.49883
G1 X111.618 Y129.231 E65.54115
G1 X112.003 Y129.015 E65.5852
G1 X112.031 Y129.002 E65.58828
G1 X95.22 Y112.19 E67.96056
G1 X95.206 Y112.02 E67.97758
G1 X95.194 Y111.799 E67.99966
G1 X95.192 Y111.72 E68.00755
G1 X95.173 Y110.729 E68.10645
G1 X113.041 Y128.597 E70.62782
G1 X113.268 Y128.501 E70.65241
G1 X113.501 Y128.383 E70.67847
G1 X113.843 Y128.182 E70.71805
G1 X113.956 Y128.111 E70.73137
G1 X113.963 Y128.105 E70.73229
G1 X95.196 Y109.338 E73.38051
G1 X95.214 Y108.948 E73.41947
G1 X95.226 Y108.552 E73.459
G1 X95.232 Y108.438 E73.47039
G1 X95.269 Y107.997 E73.51455
G1 X114.775 Y127.503 E76.26706
G1 X114.829 Y127.458 E76.27407
G1 X115.023 Y127.286 E76.29994
G1 X115.13 Y127.185 E76.31462
G1 X115.332 Y126.977 E76.34355
G1 X115.505 Y126.818 E76.367
G1 X95.387 Y106.701 E79.2058
G1 X95.407 Y106.509 E79.22506
G1 X95.467 Y106.079 E79.26838
G1 X95.499 Y105.901 E79.28642
G1 X95.525 Y105.738 E79.30289
G1 X95.564 Y105.464 E79.33051
G1 X116.256 Y126.155 E82.2503
G1 X116.444 Y125.981 E82.27586
G1 X116.693 Y125.734 E82.31086
G1 X116.847 Y125.569 E82.33338
G1 X116.958 Y125.444 E82.35006
G1 X95.779 Y104.265 E85.33865
G1 X95.899 Y103.744 E85.39199
G1 X96.049 Y103.12 E85.45603
G1 X117.607 Y124.678 E88.4981
G1 X117.731 Y124.531 E88.51729
G1 X118.131 Y124.079 E88.57751
G1 X118.206 Y123.99 E88.58912
G1 X118.264 Y123.921 E88.59812
G1 X96.344 Y102.001 E91.69127
G1 X96.385 Y101.877 E91.7043
G1 X96.626 Y101.174 E91.77845
G1 X96.679 Y101.013 E91.79536
G1 X96.701 Y100.943 E91.80268
G1 X118.882 Y123.124 E94.93266
G1 X119.229 Y122.67 E94.98968
G1 X119.487 Y122.316 E95.03339
G1 X97.077 Y99.905 E98.19575
G1 X97.312 Y99.314 E98.25921
G1 X97.469 Y98.953 E98.29849
G1 X97.49 Y98.904 E98.30381
G1 X120.064 Y121.478 E101.48925
G1 X120.14 Y121.362 E101.50309
G1 X120.606 Y120.606 E101.5917
G1 X97.949 Y97.949 E104.78885
G1 X98.281 Y97.322 E104.85964
G1 X98.409 Y97.084 E104.8866
G1 X98.441 Y97.027 E104.89312
G1 X121.156 Y119.742 E108.09846
G1 X121.282 Y119.531 E108.12298
G1 X121.673 Y118.844 E108.20185
G1 X98.987 Y96.158 E111.40309
G1 X99.338 Y95.636 E111.46586
G1 X99.562 Y95.32 E111.50451
G1 X122.174 Y117.931 E114.69523
G1 X122.332 Y117.642 E114.7281
G1 X122.502 Y117.304 E114.76585
G1 X122.556 Y117.188 E114.77862
G1 X122.645 Y116.988 E114.80046
G1 X100.175 Y94.518 E117.97122
G1 X100.348 Y94.309 E117.99829
G1 X100.452 Y94.187 E118.01429
G1 X100.758 Y93.841 E118.06037
G1 X100.832 Y93.76 E118.07132
G1 X123.1 Y116.029 E121.21365
G1 X123.206 Y115.812 E121.23775
G1 X123.273 Y115.667 E121.25368
G1 X123.433 Y115.291 E121.29446
