;FLAVOR:Marlin
;TIME:12656
;Filament used: 9.23663m
;Layer height: 0.2
;MINX:42.708
;MINY:55.202
;MINZ:0.2
;MAXX:177.292
;MAXY:164.797
;MAXZ:7.5
;Generated with Cura_SteamEngine master
M140 S50
M105
M190 S50
M104 S200
M105
M109 S200
M82 ;absolute extrusion mode
M201 X500.00 Y500.00 Z100.00 E5000.00 ;Setup machine max acceleration
M203 X500.00 Y500.00 Z10.00 E50.00 ;Setup machine max feedrate
M204 P500.00 R1000.00 T500.00 ;Setup Print/Retract/Travel acceleration
M205 X8.00 Y8.00 Z0.40 E5.00 ;Setup Jerk
M220 S100 ;Reset Feedrate
M221 S100 ;Reset Flowrate

G28 ;Home

G92 E0 ;Reset Extruder
G1 Z2.0 F3000 ;Move Z Axis up
G1 X10.1 Y20 Z0.28 F5000.0 ;Move to start position
G1 X10.1 Y200.0 Z0.28 F1500.0 E15 ;Draw the first line
G1 X10.4 Y200.0 Z0.28 F5000.0 ;Move to side a little
G1 X10.4 Y20 Z0.28 F1500.0 E30 ;Draw the second line
G92 E0 ;Reset Extruder
G1 Z2.0 F3000 ;Move Z Axis up

G92 E0
G92 E0
G1 F2700 E-5
;LAYER_COUNT:35
;LAYER:0
M107
G1 F300 Z0.7
G0 F6000 X67.229 Y91.213 Z0.7
;TYPE:SKIRT
G1 F300 Z0.2
G1 F2700 E0
G1 F600 X152.777 Y91.204 E2.84534
G1 X152.308 Y90.993 E2.86244
G1 X148.796 Y89.338 E2.99157
G1 X143.218 Y87.085 E3.19166
G1 X137.458 Y85.171 E3.39354
G1 X131.638 Y83.635 E3.59374
G1 X125.695 Y82.46 E3.79523
G1 X119.708 Y81.662 E3.99612
G1 X113.669 Y81.24 E4.19747
G1 X107.638 Y81.199 E4.39807
G1 X101.599 Y81.539 E4.59924
G1 X95.595 Y82.255 E4.80035
G1 X89.639 Y83.35 E5.00177
G1 X83.793 Y84.81 E5.20218
G1 X78.028 Y86.639 E5.40334
G1 X72.411 Y88.82 E5.60375
G1 X67.229 Y91.213 E5.7936
G0 F6000 X66.634 Y91.049
G1 F600 X66.4 Y91.147 E5.80203
G1 X65.708 Y91.407 E5.82662
G1 X65.501 Y91.477 E5.83389
G1 X65.053 Y91.613 E5.84946
G1 X154.904 Y91.604 E8.83792
G1 X153.915 Y91.262 E8.87272
G1 X153.631 Y91.149 E8.88289
G1 X152.479 Y90.631 E8.9249
G1 X148.974 Y88.979 E9.05378
G1 X143.336 Y86.702 E9.25601
G1 X137.58 Y84.789 E9.45775
G1 X131.721 Y83.243 E9.6593
G1 X125.763 Y82.065 E9.8613
G1 X119.758 Y81.264 E10.06279
G1 X113.683 Y80.84 E10.26534
G1 X107.635 Y80.799 E10.4665
G1 X101.562 Y81.14 E10.66881
G1 X95.539 Y81.859 E10.87056
G1 X89.548 Y82.96 E11.07315
G1 X83.686 Y84.424 E11.27411
G1 X77.888 Y86.263 E11.47642
G1 X72.258 Y88.45 E11.67731
G1 X66.634 Y91.049 E11.88337
G0 F6000 X66.975 Y90.45
G1 F600 X66.466 Y90.686 E11.90203
G1 X66.259 Y90.772 E11.90949
G1 X65.567 Y91.032 E11.93408
G1 X65.385 Y91.094 E11.94047
G1 X64.234 Y91.444 E11.98048
G1 X63.977 Y91.51 E11.98931
G1 X62.785 Y91.76 E12.02982
G1 X62.517 Y91.804 E12.03885
G1 X61.31 Y91.945 E12.07927
G1 X61.044 Y91.964 E12.08814
G1 X59.841 Y91.997 E12.12817
G1 X59.564 Y91.992 E12.13738
G1 X58.35 Y91.913 E12.17784
G1 X58.091 Y91.884 E12.18651
G1 X56.889 Y91.7 E12.22696
G1 X56.621 Y91.647 E12.23604
G1 X55.452 Y91.357 E12.2761
G1 X55.194 Y91.281 E12.28505
G1 X54.045 Y90.884 E12.32548
G1 X53.798 Y90.786 E12.33432
G1 X52.696 Y90.292 E12.37449
G1 X52.454 Y90.17 E12.3835
G1 X51.398 Y89.577 E12.42378
G1 X51.166 Y89.432 E12.43288
G1 X50.165 Y88.743 E12.4733
G1 X49.953 Y88.583 E12.48213
G1 X49.025 Y87.815 E12.5222
G1 X48.825 Y87.634 E12.53117
G1 X47.961 Y86.777 E12.57164
G1 X47.777 Y86.577 E12.58068
G1 X46.999 Y85.651 E12.62091
G1 X46.837 Y85.44 E12.62976
G1 X46.137 Y84.439 E12.67038
G1 X45.993 Y84.211 E12.67935
G1 X45.396 Y83.169 E12.7193
G1 X45.272 Y82.927 E12.72834
G1 X44.764 Y81.818 E12.76891
G1 X44.663 Y81.569 E12.77785
G1 X44.264 Y80.441 E12.81764
G1 X44.187 Y80.189 E12.82641
G1 X43.881 Y79.001 E12.86721
G1 X43.824 Y78.731 E12.87639
G1 X43.632 Y77.541 E12.91648
G1 X43.602 Y77.276 E12.92535
G1 X43.516 Y76.07 E12.96556
G1 X43.508 Y75.855 E12.97272
G1 X43.516 Y60.576 E13.4809
G1 X43.526 Y60.332 E13.48902
G1 X43.556 Y59.967 E13.5012
G1 X43.604 Y59.625 E13.51269
G1 X43.609 Y59.6 E13.51354
G1 X43.725 Y59.18 E13.52803
G1 X43.847 Y58.838 E13.54011
G1 X44.011 Y58.462 E13.55375
G1 X44.024 Y58.437 E13.55469
G1 X44.215 Y58.119 E13.56703
G1 X44.423 Y57.817 E13.57922
G1 X44.608 Y57.576 E13.58933
G1 X44.625 Y57.556 E13.5902
G1 X44.966 Y57.215 E13.60624
G1 X45.242 Y56.98 E13.6183
G1 X45.523 Y56.768 E13.63
G1 X45.547 Y56.752 E13.63096
G1 X45.932 Y56.534 E13.64568
G1 X46.265 Y56.377 E13.65792
G1 X46.755 Y56.197 E13.67529
G1 X47.018 Y56.135 E13.68427
G1 X47.384 Y56.067 E13.69666
G1 X47.619 Y56.033 E13.70455
G1 X47.95 Y56.015 E13.71558
G1 X171.948 Y56.002 E17.83977
G1 X172.193 Y56.012 E17.84792
G1 X172.571 Y56.043 E17.86054
G1 X172.955 Y56.1 E17.87345
G1 X172.983 Y56.106 E17.8744
G1 X173.36 Y56.213 E17.88744
G1 X173.7 Y56.334 E17.89944
G1 X174.036 Y56.477 E17.91159
G1 X174.06 Y56.489 E17.91248
G1 X174.42 Y56.701 E17.92637
G1 X174.722 Y56.909 E17.93857
G1 X174.963 Y57.094 E17.94868
G1 X174.983 Y57.111 E17.94955
G1 X175.324 Y57.452 E17.96559
G1 X175.559 Y57.728 E17.97764
G1 X175.754 Y57.983 E17.98832
G1 X175.769 Y58.005 E17.98921
G1 X176.001 Y58.409 E18.0047
G1 X176.158 Y58.74 E18.01689
G1 X176.314 Y59.144 E18.03129
G1 X176.322 Y59.17 E18.0322
G1 X176.412 Y59.545 E18.04502
G1 X176.449 Y59.761 E18.05231
G1 X176.492 Y60.268 E18.06923
G1 X176.491 Y75.555 E18.57768
G1 X176.475 Y76.407 E18.60602
G1 X176.458 Y76.676 E18.61499
G1 X176.326 Y77.887 E18.65551
G1 X176.285 Y78.152 E18.66443
G1 X176.049 Y79.328 E18.70432
G1 X175.986 Y79.586 E18.71315
G1 X175.641 Y80.757 E18.75375
G1 X175.552 Y81.015 E18.76283
G1 X175.107 Y82.137 E18.80298
G1 X174.995 Y82.385 E18.81203
G1 X174.447 Y83.468 E18.8524
G1 X174.318 Y83.697 E18.86114
G1 X173.677 Y84.729 E18.90155
G1 X173.522 Y84.955 E18.91066
G1 X172.791 Y85.922 E18.95098
G1 X172.62 Y86.129 E18.95991
G1 X171.815 Y87.016 E18.99975
G1 X171.628 Y87.204 E19.00857
G1 X170.731 Y88.032 E19.04917
G1 X170.523 Y88.208 E19.05823
G1 X169.559 Y88.948 E19.09865
G1 X169.337 Y89.102 E19.10764
G1 X168.322 Y89.745 E19.1476
G1 X168.09 Y89.878 E19.1565
G1 X167 Y90.439 E19.19727
G1 X166.758 Y90.551 E19.20614
G1 X165.643 Y91.005 E19.24618
G1 X165.38 Y91.098 E19.25546
G1 X164.229 Y91.446 E19.29545
G1 X163.977 Y91.51 E19.3041
G1 X162.785 Y91.76 E19.34461
G1 X162.517 Y91.804 E19.35364
G1 X161.31 Y91.945 E19.39406
G1 X161.044 Y91.964 E19.40293
G1 X159.841 Y91.997 E19.44296
G1 X159.564 Y91.992 E19.45217
G1 X158.35 Y91.913 E19.49264
G1 X158.091 Y91.884 E19.5013
G1 X156.889 Y91.7 E19.54175
G1 X156.621 Y91.647 E19.55083
G1 X155.452 Y91.357 E19.59089
G1 X155.194 Y91.281 E19.59984
G1 X154.045 Y90.884 E19.64027
G1 X153.795 Y90.784 E19.64923
G1 X152.649 Y90.269 E19.69102
G1 X149.136 Y88.614 E19.82018
G1 X143.48 Y86.329 E20.02307
G1 X137.696 Y84.407 E20.22579
G1 X131.807 Y82.852 E20.42837
G1 X125.827 Y81.67 E20.63111
G1 X119.792 Y80.865 E20.83362
G1 X113.698 Y80.44 E21.0368
G1 X107.614 Y80.399 E21.23915
G1 X101.539 Y80.74 E21.44153
G1 X95.482 Y81.463 E21.64441
G1 X89.46 Y82.57 E21.84806
G1 X83.58 Y84.038 E22.04964
G1 X77.749 Y85.888 E22.2531
G1 X72.091 Y88.086 E22.45499
G1 X66.975 Y90.45 E22.64244
G0 F6000 X66.807 Y90.087
G1 F600 X66.298 Y90.323 E22.6611
G1 X66.118 Y90.398 E22.66758
G1 X65.426 Y90.658 E22.69217
G1 X65.268 Y90.712 E22.69772
G1 X64.117 Y91.062 E22.73774
G1 X63.895 Y91.119 E22.74536
G1 X62.703 Y91.369 E22.78587
G1 X62.471 Y91.406 E22.79368
G1 X61.264 Y91.547 E22.8341
G1 X61.033 Y91.564 E22.8418
G1 X59.83 Y91.597 E22.88183
G1 X59.59 Y91.593 E22.88981
G1 X58.376 Y91.514 E22.93028
G1 X58.152 Y91.489 E22.93777
G1 X56.95 Y91.305 E22.97822
G1 X56.717 Y91.259 E22.98612
G1 X55.548 Y90.969 E23.02618
G1 X55.325 Y90.902 E23.03392
G1 X54.176 Y90.505 E23.07435
G1 X53.961 Y90.421 E23.08203
G1 X52.859 Y89.927 E23.1222
G1 X52.65 Y89.821 E23.12999
G1 X51.594 Y89.228 E23.17027
G1 X51.393 Y89.103 E23.17815
G1 X50.392 Y88.414 E23.21857
G1 X50.208 Y88.275 E23.22624
G1 X49.28 Y87.507 E23.2663
G1 X49.107 Y87.35 E23.27407
G1 X48.243 Y86.493 E23.31455
G1 X48.083 Y86.32 E23.32238
G1 X47.305 Y85.394 E23.36261
G1 X47.165 Y85.211 E23.37027
G1 X46.465 Y84.21 E23.4109
G1 X46.34 Y84.013 E23.41866
G1 X45.743 Y82.971 E23.4586
G1 X45.635 Y82.761 E23.46646
G1 X45.127 Y81.652 E23.50703
G1 X45.04 Y81.436 E23.51477
G1 X44.641 Y80.308 E23.55457
G1 X44.574 Y80.09 E23.56215
G1 X44.268 Y78.902 E23.60296
G1 X44.219 Y78.667 E23.61094
G1 X44.027 Y77.477 E23.65103
G1 X44.001 Y77.248 E23.6587
G1 X43.915 Y76.042 E23.69891
G1 X43.908 Y75.856 E23.7051
G1 X43.916 Y60.577 E24.21328
G1 X43.925 Y60.365 E24.22034
G1 X43.955 Y60 E24.23252
G1 X43.996 Y59.703 E24.24249
G1 X44.001 Y59.678 E24.24334
G1 X44.102 Y59.314 E24.2559
G1 X44.224 Y58.972 E24.26798
G1 X44.366 Y58.646 E24.27981
G1 X44.379 Y58.621 E24.28075
G1 X44.545 Y58.346 E24.29143
G1 X44.753 Y58.044 E24.30363
G1 X44.913 Y57.835 E24.31238
G1 X44.93 Y57.815 E24.31325
G1 X45.225 Y57.519 E24.32715
G1 X45.501 Y57.284 E24.33921
G1 X45.745 Y57.101 E24.34935
G1 X45.769 Y57.085 E24.35031
G1 X46.102 Y56.896 E24.36305
G1 X46.435 Y56.739 E24.37529
G1 X46.86 Y56.583 E24.39035
G1 X47.091 Y56.529 E24.39824
G1 X47.457 Y56.461 E24.41062
G1 X47.663 Y56.431 E24.41755
G1 X47.95 Y56.415 E24.42711
G1 X171.948 Y56.402 E28.5513
G1 X172.161 Y56.411 E28.55839
G1 X172.539 Y56.442 E28.571
G1 X172.871 Y56.491 E28.58216
G1 X172.899 Y56.497 E28.58312
G1 X173.226 Y56.589 E28.59442
G1 X173.566 Y56.71 E28.60642
G1 X173.857 Y56.834 E28.61694
G1 X173.881 Y56.846 E28.61783
G1 X174.193 Y57.031 E28.6299
G1 X174.495 Y57.239 E28.64209
G1 X174.704 Y57.399 E28.65085
G1 X174.724 Y57.416 E28.65172
G1 X175.02 Y57.711 E28.66562
G1 X175.255 Y57.987 E28.67768
G1 X175.423 Y58.208 E28.68691
G1 X175.438 Y58.23 E28.6878
G1 X175.639 Y58.581 E28.70125
G1 X175.796 Y58.912 E28.71343
G1 X175.932 Y59.261 E28.72589
G1 X175.94 Y59.287 E28.7268
G1 X176.018 Y59.613 E28.73794
G1 X176.055 Y59.829 E28.74523
G1 X176.092 Y60.268 E28.75989
G1 X176.092 Y75.548 E29.2681
G1 X176.076 Y76.4 E29.29644
G1 X176.061 Y76.633 E29.30421
G1 X175.929 Y77.844 E29.34473
G1 X175.893 Y78.074 E29.35247
G1 X175.657 Y79.25 E29.39236
G1 X175.602 Y79.473 E29.4
G1 X175.257 Y80.644 E29.4406
G1 X175.18 Y80.868 E29.44848
G1 X174.735 Y81.99 E29.48863
G1 X174.638 Y82.205 E29.49647
G1 X174.09 Y83.288 E29.53684
G1 X173.979 Y83.486 E29.54439
G1 X173.338 Y84.518 E29.5848
G1 X173.203 Y84.714 E29.59272
G1 X172.472 Y85.681 E29.63303
G1 X172.323 Y85.86 E29.64078
G1 X171.518 Y86.747 E29.68062
G1 X171.357 Y86.91 E29.68824
G1 X170.46 Y87.738 E29.72884
G1 X170.279 Y87.89 E29.7367
G1 X169.315 Y88.63 E29.77712
G1 X169.123 Y88.764 E29.78491
G1 X168.108 Y89.407 E29.82487
G1 X167.907 Y89.523 E29.83259
G1 X166.817 Y90.084 E29.87337
G1 X166.607 Y90.18 E29.88105
G1 X165.492 Y90.634 E29.92109
G1 X165.264 Y90.715 E29.92913
G1 X164.113 Y91.063 E29.96913
G1 X163.895 Y91.119 E29.97661
G1 X162.703 Y91.369 E30.01712
G1 X162.471 Y91.406 E30.02494
G1 X161.264 Y91.547 E30.06536
G1 X161.033 Y91.564 E30.07306
G1 X159.83 Y91.597 E30.11309
G1 X159.59 Y91.593 E30.12107
G1 X158.376 Y91.514 E30.16153
G1 X158.152 Y91.489 E30.16903
G1 X156.95 Y91.305 E30.20947
G1 X156.717 Y91.259 E30.21737
G1 X155.548 Y90.969 E30.25743
G1 X155.325 Y90.902 E30.26518
G1 X154.176 Y90.505 E30.30561
G1 X153.959 Y90.42 E30.31336
G1 X152.82 Y89.907 E30.35491
G1 X149.299 Y88.248 E30.48437
G1 X143.615 Y85.952 E30.68826
G1 X137.808 Y84.022 E30.89179
G1 X131.909 Y82.465 E31.09471
G1 X125.882 Y81.273 E31.29905
G1 X119.839 Y80.468 E31.50182
G1 X113.713 Y80.04 E31.70607
G1 X107.611 Y79.999 E31.90902
G1 X101.502 Y80.342 E32.11253
G1 X95.41 Y81.069 E32.31659
G1 X89.384 Y82.177 E32.52037
G1 X83.459 Y83.656 E32.72349
G1 X77.637 Y85.503 E32.92664
G1 X71.924 Y87.722 E33.13048
G1 X66.807 Y90.087 E33.31797
G0 F6000 X66.129 Y89.96
G1 F600 X65.978 Y90.023 E33.32342
G1 X65.286 Y90.283 E33.348
G1 X65.152 Y90.329 E33.35271
G1 X64.001 Y90.679 E33.39273
G1 X63.813 Y90.727 E33.39918
G1 X62.621 Y90.977 E33.43969
G1 X62.424 Y91.009 E33.44633
G1 X61.217 Y91.15 E33.48675
G1 X61.022 Y91.164 E33.49325
G1 X59.819 Y91.197 E33.53328
G1 X59.616 Y91.193 E33.54003
G1 X58.402 Y91.114 E33.58049
G1 X58.212 Y91.094 E33.58685
G1 X57.01 Y90.91 E33.62729
G1 X56.813 Y90.87 E33.63398
G1 X55.644 Y90.58 E33.67404
G1 X55.456 Y90.524 E33.68056
G1 X54.307 Y90.127 E33.72099
G1 X54.125 Y90.056 E33.72749
G1 X53.023 Y89.562 E33.76766
G1 X52.846 Y89.472 E33.77426
G1 X51.79 Y88.879 E33.81454
G1 X51.62 Y88.773 E33.82121
G1 X50.619 Y88.084 E33.86163
G1 X50.463 Y87.967 E33.86811
G1 X49.535 Y87.199 E33.90818
G1 X49.389 Y87.066 E33.91474
G1 X48.525 Y86.209 E33.95522
G1 X48.39 Y86.062 E33.96186
G1 X47.612 Y85.136 E34.00208
G1 X47.493 Y84.982 E34.00856
G1 X46.793 Y83.981 E34.04918
G1 X46.687 Y83.814 E34.05576
G1 X46.09 Y82.772 E34.09571
G1 X45.999 Y82.594 E34.10235
G1 X45.491 Y81.485 E34.14293
G1 X45.417 Y81.303 E34.14946
G1 X45.018 Y80.175 E34.18926
G1 X44.962 Y79.99 E34.19568
G1 X44.656 Y78.802 E34.23649
G1 X44.614 Y78.603 E34.24325
G1 X44.422 Y77.413 E34.28334
G1 X44.4 Y77.219 E34.28984
G1 X44.314 Y76.013 E34.33005
G1 X44.308 Y75.856 E34.33528
G1 X44.316 Y60.577 E34.84346
G1 X44.323 Y60.398 E34.84942
G1 X44.353 Y60.033 E34.8616
G1 X44.389 Y59.782 E34.87003
G1 X44.394 Y59.757 E34.87088
G1 X44.479 Y59.449 E34.88151
G1 X44.601 Y59.107 E34.89358
G1 X44.721 Y58.831 E34.90359
G1 X44.734 Y58.806 E34.90453
G1 X44.874 Y58.573 E34.91357
G1 X45.082 Y58.271 E34.92577
G1 X45.218 Y58.094 E34.93319
G1 X45.235 Y58.074 E34.93406
G1 X45.485 Y57.824 E34.94582
G1 X45.761 Y57.589 E34.95788
G1 X45.967 Y57.433 E34.96647
G1 X45.991 Y57.417 E34.96743
G1 X46.273 Y57.258 E34.9782
G1 X46.606 Y57.101 E34.99045
G1 X46.965 Y56.969 E35.00317
G1 X47.164 Y56.922 E35.00997
G1 X47.53 Y56.854 E35.02235
G1 X47.707 Y56.828 E35.0283
G1 X47.95 Y56.815 E35.03639
G1 X171.948 Y56.802 E39.16058
G1 X172.128 Y56.809 E39.16658
G1 X172.506 Y56.84 E39.17919
G1 X172.787 Y56.882 E39.18864
G1 X172.815 Y56.888 E39.18959
G1 X173.092 Y56.966 E39.19916
G1 X173.432 Y57.087 E39.21117
G1 X173.678 Y57.192 E39.22006
G1 X173.702 Y57.204 E39.22096
G1 X173.966 Y57.36 E39.23116
G1 X174.268 Y57.568 E39.24335
G1 X174.445 Y57.704 E39.25078
G1 X174.465 Y57.721 E39.25165
G1 X174.715 Y57.971 E39.26341
G1 X174.95 Y58.247 E39.27546
G1 X175.093 Y58.434 E39.28329
G1 X175.108 Y58.456 E39.28418
G1 X175.278 Y58.752 E39.29553
G1 X175.435 Y59.083 E39.30772
G1 X175.55 Y59.379 E39.31828
G1 X175.558 Y59.405 E39.31918
G1 X175.623 Y59.681 E39.32862
G1 X175.66 Y59.897 E39.3359
G1 X175.692 Y60.268 E39.34829
G1 X175.692 Y75.54 E39.85624
G1 X175.676 Y76.392 E39.88458
G1 X175.663 Y76.589 E39.89115
G1 X175.531 Y77.8 E39.93166
G1 X175.501 Y77.995 E39.93823
G1 X175.265 Y79.171 E39.97812
G1 X175.218 Y79.36 E39.9846
G1 X174.873 Y80.531 E40.0252
G1 X174.808 Y80.72 E40.03185
G1 X174.363 Y81.842 E40.07199
G1 X174.281 Y82.024 E40.07863
G1 X173.733 Y83.107 E40.119
G1 X173.639 Y83.275 E40.12541
G1 X172.998 Y84.307 E40.16581
G1 X172.884 Y84.473 E40.17251
G1 X172.153 Y85.44 E40.21283
G1 X172.027 Y85.592 E40.2194
G1 X171.222 Y86.479 E40.25923
G1 X171.085 Y86.617 E40.2657
G1 X170.188 Y87.445 E40.3063
G1 X170.036 Y87.573 E40.31291
G1 X169.072 Y88.313 E40.35333
G1 X168.909 Y88.426 E40.35993
G1 X167.894 Y89.069 E40.39989
G1 X167.724 Y89.167 E40.40642
G1 X166.634 Y89.728 E40.44719
G1 X166.457 Y89.81 E40.45368
G1 X165.342 Y90.264 E40.49372
G1 X165.149 Y90.332 E40.50053
G1 X163.998 Y90.68 E40.54052
G1 X163.813 Y90.727 E40.54687
G1 X162.621 Y90.977 E40.58738
G1 X162.424 Y91.009 E40.59402
G1 X161.217 Y91.15 E40.63444
G1 X161.022 Y91.164 E40.64094
G1 X159.819 Y91.197 E40.68097
G1 X159.616 Y91.193 E40.68772
G1 X158.402 Y91.114 E40.72818
G1 X158.212 Y91.094 E40.73454
G1 X157.01 Y90.91 E40.77498
G1 X156.813 Y90.87 E40.78167
G1 X155.644 Y90.58 E40.82173
G1 X155.456 Y90.524 E40.82825
G1 X154.307 Y90.127 E40.86868
G1 X154.123 Y90.055 E40.87526
G1 X152.99 Y89.545 E40.91658
G1 X149.456 Y87.88 E41.04651
G1 X143.765 Y85.581 E41.25066
G1 X137.91 Y83.635 E41.45587
G1 X131.995 Y82.074 E41.65934
G1 X125.962 Y80.881 E41.86388
G1 X119.872 Y80.069 E42.06823
G1 X113.727 Y79.64 E42.27311
G1 X107.607 Y79.599 E42.47667
G1 X101.464 Y79.944 E42.68131
G1 X95.354 Y80.673 E42.88597
G1 X89.278 Y81.79 E43.09144
G1 X83.368 Y83.266 E43.29405
G1 X77.503 Y85.127 E43.4987
G1 X71.771 Y87.353 E43.70322
G1 X66.129 Y89.96 E43.90994
G0 F6000 X65.961 Y89.597
G1 F600 X65.837 Y89.649 E43.91441
G1 X65.145 Y89.909 E43.939
G1 X65.036 Y89.946 E43.94283
G1 X63.885 Y90.296 E43.98284
G1 X63.73 Y90.336 E43.98817
G1 X62.538 Y90.586 E44.02867
