;FLAVOR:Marlin
;TIME:4177
;Filament used: 3.08089m
;Layer height: 0.2
;MINX:42.708
;MINY:91.202
;MINZ:0.2
;MAXX:177.292
;MAXY:128.797
;MAXZ:7.5
;Generated with Cura_SteamEngine master
M140 S50
M105
M190 S50
M104 S200
M105
M109 S200
M82 ;absolute extrusion mode
M201 X500.00 Y500.00 Z100.00 E5000.00 ;Setup machine max acceleration
M203 X500.00 Y500.00 Z10.00 E50.00 ;Setup machine max feedrate
M204 P500.00 R1000.00 T500.00 ;Setup Print/Retract/Travel acceleration
M205 X8.00 Y8.00 Z0.40 E5.00 ;Setup Jerk
M220 S100 ;Reset Feedrate
M221 S100 ;Reset Flowrate

G28 ;Home

G92 E0 ;Reset Extruder
G1 Z2.0 F3000 ;Move Z Axis up
G1 X10.1 Y20 Z0.28 F5000.0 ;Move to start position
G1 X10.1 Y200.0 Z0.28 F1500.0 E15 ;Draw the first line
G1 X10.4 Y200.0 Z0.28 F5000.0 ;Move to side a little
G1 X10.4 Y20 Z0.28 F1500.0 E30 ;Draw the second line
G92 E0 ;Reset Extruder
G1 Z2.0 F3000 ;Move Z Axis up

G92 E0
G92 E0
G1 F2700 E-5
;LAYER_COUNT:35
;LAYER:0
M107
G1 F300 Z0.7
G0 F6000 X45.59 Y91.811 Z0.7
;TYPE:SKIRT
G1 F300 Z0.2
G1 F2700 E0
G1 F600 X45.923 Y91.654 E0.01224
G1 X46.544 Y91.425 E0.03426
G1 X46.872 Y91.349 E0.04546
G1 X47.238 Y91.281 E0.05784
G1 X47.53 Y91.238 E0.06766
G1 X47.95 Y91.215 E0.08165
G1 X171.948 Y91.202 E4.20584
G1 X172.259 Y91.215 E4.21619
G1 X172.637 Y91.246 E4.2288
G1 X173.122 Y91.317 E4.24511
G1 X173.15 Y91.323 E4.24606
G1 X173.628 Y91.459 E4.26259
G1 X173.968 Y91.58 E4.27459
G1 X174.393 Y91.761 E4.28996
G1 X174.417 Y91.773 E4.29085
G1 X174.873 Y92.042 E4.30846
G1 X175.175 Y92.25 E4.32065
G1 X175.481 Y92.485 E4.33349
G1 X175.501 Y92.502 E4.33436
G1 X175.933 Y92.934 E4.35468
G1 X176.168 Y93.21 E4.36674
G1 X176.415 Y93.532 E4.38023
G1 X176.43 Y93.554 E4.38112
G1 X176.723 Y94.066 E4.40074
G1 X176.88 Y94.397 E4.41292
G1 X177.079 Y94.908 E4.43116
G1 X177.087 Y94.934 E4.43207
G1 X177.2 Y95.41 E4.44834
G1 X177.237 Y95.626 E4.45563
G1 X177.292 Y96.268 E4.47706
G1 X177.291 Y111.57 E4.98601
G1 X177.275 Y112.422 E5.01435
G1 X177.254 Y112.763 E5.02571
G1 X177.122 Y113.974 E5.06623
G1 X177.07 Y114.31 E5.07754
G1 X176.834 Y115.486 E5.11743
G1 X176.753 Y115.812 E5.1286
G1 X176.408 Y116.983 E5.16921
G1 X176.295 Y117.31 E5.18071
G1 X175.85 Y118.432 E5.22086
G1 X175.709 Y118.747 E5.23234
G1 X175.161 Y119.83 E5.27271
G1 X174.998 Y120.119 E5.28374
G1 X174.357 Y121.151 E5.32415
G1 X174.16 Y121.438 E5.33573
G1 X173.429 Y122.405 E5.37605
G1 X173.212 Y122.667 E5.38736
G1 X172.407 Y123.554 E5.4272
G1 X172.17 Y123.792 E5.43837
G1 X171.273 Y124.62 E5.47897
G1 X171.01 Y124.842 E5.49042
G1 X170.046 Y125.582 E5.53084
G1 X169.766 Y125.778 E5.54221
G1 X168.751 Y126.421 E5.58217
G1 X168.456 Y126.59 E5.59348
G1 X167.366 Y127.151 E5.63425
G1 X167.06 Y127.291 E5.64545
G1 X165.945 Y127.745 E5.68549
G1 X165.612 Y127.863 E5.69724
G1 X164.461 Y128.211 E5.73723
G1 X164.141 Y128.293 E5.74822
G1 X162.949 Y128.543 E5.78873
G1 X162.61 Y128.598 E5.80015
G1 X161.403 Y128.739 E5.84057
G1 X161.066 Y128.764 E5.85181
G1 X159.863 Y128.797 E5.89183
G1 X159.512 Y128.79 E5.90351
G1 X158.298 Y128.711 E5.94397
G1 X157.97 Y128.675 E5.95495
G1 X156.768 Y128.491 E5.99539
G1 X156.428 Y128.423 E6.00693
G1 X155.259 Y128.133 E6.04699
G1 X154.933 Y128.037 E6.05829
G1 X153.784 Y127.64 E6.09872
G1 X153.467 Y127.514 E6.11007
G1 X152.308 Y126.993 E6.15233
G1 X148.796 Y125.338 E6.28146
G1 X143.218 Y123.085 E6.48155
G1 X137.458 Y121.171 E6.68343
G1 X131.638 Y119.635 E6.88363
G1 X125.695 Y118.46 E7.08512
G1 X119.708 Y117.662 E7.28601
G1 X113.669 Y117.24 E7.48736
G1 X107.638 Y117.199 E7.68795
G1 X101.599 Y117.539 E7.88913
G1 X95.595 Y118.255 E8.09024
G1 X89.639 Y119.35 E8.29166
G1 X83.793 Y120.81 E8.49207
G1 X78.028 Y122.639 E8.69323
G1 X72.411 Y124.82 E8.89364
G1 X66.802 Y127.411 E9.09914
G1 X66.541 Y127.521 E9.10856
G1 X65.849 Y127.781 E9.13315
G1 X65.618 Y127.86 E9.14127
G1 X64.467 Y128.21 E9.18128
G1 X64.141 Y128.293 E9.19247
G1 X62.949 Y128.543 E9.23298
G1 X62.61 Y128.598 E9.2444
G1 X61.403 Y128.739 E9.28482
G1 X61.066 Y128.764 E9.29606
G1 X59.863 Y128.797 E9.33608
G1 X59.512 Y128.79 E9.34776
G1 X58.298 Y128.711 E9.38822
G1 X57.97 Y128.675 E9.3992
G1 X56.768 Y128.491 E9.43964
G1 X56.428 Y128.423 E9.45118
G1 X55.259 Y128.133 E9.49124
G1 X54.933 Y128.037 E9.50254
G1 X53.784 Y127.64 E9.54297
G1 X53.471 Y127.516 E9.55417
G1 X52.369 Y127.022 E9.59434
G1 X52.062 Y126.867 E9.60577
G1 X51.006 Y126.274 E9.64606
G1 X50.712 Y126.091 E9.65757
G1 X49.711 Y125.402 E9.69799
G1 X49.443 Y125.199 E9.70917
G1 X48.515 Y124.431 E9.74924
G1 X48.262 Y124.202 E9.76059
G1 X47.398 Y123.345 E9.80106
G1 X47.165 Y123.091 E9.81253
G1 X46.387 Y122.165 E9.85275
G1 X46.182 Y121.899 E9.86392
G1 X45.482 Y120.898 E9.90455
G1 X45.299 Y120.609 E9.91593
G1 X44.702 Y119.567 E9.95587
G1 X44.544 Y119.261 E9.96732
G1 X44.036 Y118.152 E10.0079
G1 X43.909 Y117.836 E10.01922
G1 X43.51 Y116.708 E10.05902
G1 X43.412 Y116.389 E10.07012
G1 X43.106 Y115.201 E10.11092
G1 X43.035 Y114.858 E10.12257
G1 X42.843 Y113.668 E10.16266
G1 X42.804 Y113.333 E10.17388
G1 X42.718 Y112.127 E10.21409
G1 X42.708 Y111.855 E10.22315
G1 X42.716 Y96.576 E10.73133
G1 X42.729 Y96.267 E10.74161
G1 X42.759 Y95.902 E10.75379
G1 X42.82 Y95.468 E10.76837
G1 X42.825 Y95.443 E10.76922
G1 X42.972 Y94.911 E10.78758
G1 X43.094 Y94.569 E10.79965
G1 X43.302 Y94.093 E10.81693
G1 X43.315 Y94.068 E10.81787
G1 X43.556 Y93.666 E10.83346
G1 X43.764 Y93.364 E10.84565
G1 X43.999 Y93.058 E10.85849
G1 X44.016 Y93.038 E10.85936
G1 X44.448 Y92.606 E10.87968
G1 X44.724 Y92.371 E10.89174
G1 X45.079 Y92.102 E10.90655
G1 X45.103 Y92.086 E10.90751
G1 X45.59 Y91.811 E10.92611
G0 F6000 X45.761 Y92.173
G1 F600 X46.094 Y92.016 E10.93836
G1 X46.649 Y91.811 E10.95804
G1 X46.945 Y91.742 E10.96814
G1 X47.311 Y91.674 E10.98053
G1 X47.575 Y91.636 E10.9894
G1 X47.95 Y91.615 E11.00189
G1 X171.948 Y91.602 E15.12608
G1 X172.226 Y91.613 E15.13533
G1 X172.604 Y91.644 E15.14795
G1 X173.038 Y91.708 E15.16254
G1 X173.066 Y91.714 E15.16349
G1 X173.494 Y91.836 E15.17829
G1 X173.834 Y91.957 E15.1903
G1 X174.215 Y92.119 E15.20407
G1 X174.239 Y92.131 E15.20496
G1 X174.647 Y92.372 E15.22072
G1 X174.949 Y92.58 E15.23292
G1 X175.222 Y92.789 E15.24435
G1 X175.242 Y92.806 E15.24522
G1 X175.629 Y93.193 E15.26343
G1 X175.864 Y93.469 E15.27548
G1 X176.084 Y93.758 E15.28756
G1 X176.099 Y93.78 E15.28845
G1 X176.362 Y94.238 E15.30602
G1 X176.519 Y94.569 E15.3182
G1 X176.697 Y95.026 E15.33451
G1 X176.705 Y95.052 E15.33542
G1 X176.806 Y95.478 E15.34998
G1 X176.843 Y95.694 E15.35727
G1 X176.892 Y96.268 E15.37643
G1 X176.891 Y111.563 E15.88514
G1 X176.875 Y112.415 E15.91349
G1 X176.856 Y112.719 E15.92362
G1 X176.724 Y113.93 E15.96413
G1 X176.678 Y114.231 E15.97426
G1 X176.442 Y115.407 E16.01415
G1 X176.369 Y115.699 E16.02417
G1 X176.024 Y116.87 E16.06477
G1 X175.923 Y117.162 E16.07504
G1 X175.478 Y118.284 E16.11519
G1 X175.352 Y118.566 E16.12546
G1 X174.804 Y119.649 E16.16583
G1 X174.658 Y119.908 E16.17572
G1 X174.017 Y120.94 E16.21613
G1 X173.841 Y121.196 E16.22646
G1 X173.11 Y122.163 E16.26678
G1 X172.916 Y122.398 E16.27691
G1 X172.111 Y123.285 E16.31675
G1 X171.899 Y123.498 E16.32675
G1 X171.002 Y124.326 E16.36735
G1 X170.766 Y124.525 E16.37762
G1 X169.802 Y125.265 E16.41804
G1 X169.552 Y125.44 E16.42819
G1 X168.537 Y126.083 E16.46815
G1 X168.273 Y126.234 E16.47827
G1 X167.183 Y126.795 E16.51904
G1 X166.909 Y126.921 E16.52907
G1 X165.794 Y127.375 E16.56911
G1 X165.496 Y127.481 E16.57963
G1 X164.345 Y127.829 E16.61963
G1 X164.059 Y127.902 E16.62944
G1 X162.867 Y128.152 E16.66995
G1 X162.564 Y128.201 E16.68016
G1 X161.357 Y128.342 E16.72058
G1 X161.055 Y128.364 E16.73065
G1 X159.852 Y128.397 E16.77068
G1 X159.538 Y128.391 E16.78112
G1 X158.324 Y128.312 E16.82159
G1 X158.031 Y128.28 E16.83139
G1 X156.829 Y128.096 E16.87183
G1 X156.524 Y128.035 E16.88218
G1 X155.355 Y127.745 E16.92224
G1 X155.064 Y127.659 E16.93233
G1 X153.915 Y127.262 E16.97276
G1 X153.631 Y127.149 E16.98293
G1 X152.479 Y126.631 E17.02494
G1 X148.974 Y124.979 E17.15382
G1 X143.336 Y122.702 E17.35605
G1 X137.58 Y120.789 E17.5578
G1 X131.721 Y119.243 E17.75934
G1 X125.763 Y118.065 E17.96134
G1 X119.758 Y117.264 E18.16283
G1 X113.683 Y116.84 E18.36538
G1 X107.635 Y116.799 E18.56654
G1 X101.562 Y117.14 E18.76885
G1 X95.539 Y117.859 E18.9706
G1 X89.548 Y118.96 E19.1732
G1 X83.686 Y120.424 E19.37415
G1 X77.888 Y122.263 E19.57646
G1 X72.258 Y124.45 E19.77735
G1 X66.634 Y127.049 E19.98341
G1 X66.4 Y127.147 E19.99185
G1 X65.708 Y127.407 E20.01644
G1 X65.501 Y127.477 E20.02371
G1 X64.35 Y127.827 E20.06372
G1 X64.059 Y127.902 E20.07372
G1 X62.867 Y128.152 E20.11422
G1 X62.564 Y128.201 E20.12443
G1 X61.357 Y128.342 E20.16485
G1 X61.055 Y128.364 E20.17492
G1 X59.852 Y128.397 E20.21495
G1 X59.538 Y128.391 E20.22539
G1 X58.324 Y128.312 E20.26586
G1 X58.031 Y128.28 E20.27566
G1 X56.829 Y128.096 E20.31611
G1 X56.524 Y128.035 E20.32645
G1 X55.355 Y127.745 E20.36651
G1 X55.064 Y127.659 E20.3766
G1 X53.915 Y127.262 E20.41704
G1 X53.634 Y127.151 E20.42708
G1 X52.532 Y126.657 E20.46725
G1 X52.258 Y126.519 E20.47745
G1 X51.202 Y125.926 E20.51774
G1 X50.939 Y125.762 E20.52805
G1 X49.938 Y125.073 E20.56846
G1 X49.698 Y124.891 E20.57848
G1 X48.77 Y124.123 E20.61855
G1 X48.544 Y123.918 E20.62869
G1 X47.68 Y123.061 E20.66917
G1 X47.471 Y122.834 E20.67943
G1 X46.693 Y121.908 E20.71966
G1 X46.51 Y121.669 E20.72967
G1 X45.81 Y120.668 E20.7703
G1 X45.646 Y120.41 E20.78047
G1 X45.049 Y119.368 E20.82041
G1 X44.908 Y119.094 E20.83066
G1 X44.4 Y117.985 E20.87123
G1 X44.286 Y117.703 E20.88134
G1 X43.887 Y116.575 E20.92114
G1 X43.799 Y116.289 E20.93109
G1 X43.493 Y115.101 E20.9719
G1 X43.429 Y114.795 E20.98229
G1 X43.237 Y113.605 E21.02238
G1 X43.203 Y113.305 E21.03243
G1 X43.117 Y112.099 E21.07264
G1 X43.108 Y111.855 E21.08076
G1 X43.116 Y96.576 E21.58894
G1 X43.127 Y96.299 E21.59816
G1 X43.157 Y95.934 E21.61034
G1 X43.212 Y95.546 E21.62338
G1 X43.217 Y95.521 E21.62423
G1 X43.349 Y95.046 E21.64062
G1 X43.471 Y94.704 E21.6527
G1 X43.656 Y94.277 E21.66818
G1 X43.669 Y94.252 E21.66911
G1 X43.886 Y93.892 E21.6831
G1 X44.094 Y93.59 E21.69529
G1 X44.303 Y93.317 E21.70673
G1 X44.32 Y93.297 E21.7076
G1 X44.707 Y92.91 E21.7258
G1 X44.983 Y92.675 E21.73786
G1 X45.301 Y92.435 E21.75111
G1 X45.325 Y92.419 E21.75207
G1 X45.761 Y92.173 E21.76872
G0 F6000 X45.932 Y92.534
G1 F600 X46.265 Y92.377 E21.78097
G1 X46.755 Y92.197 E21.79833
G1 X47.018 Y92.135 E21.80732
G1 X47.384 Y92.067 E21.8197
G1 X47.619 Y92.033 E21.82759
G1 X47.95 Y92.015 E21.83862
G1 X171.948 Y92.002 E25.96281
G1 X172.193 Y92.012 E25.97097
G1 X172.571 Y92.043 E25.98358
G1 X172.955 Y92.1 E25.99649
G1 X172.983 Y92.106 E25.99744
G1 X173.36 Y92.213 E26.01048
G1 X173.7 Y92.334 E26.02248
G1 X174.036 Y92.477 E26.03463
G1 X174.06 Y92.489 E26.03552
G1 X174.42 Y92.701 E26.04942
G1 X174.722 Y92.909 E26.06161
G1 X174.963 Y93.094 E26.07172
G1 X174.983 Y93.111 E26.07259
G1 X175.324 Y93.452 E26.08863
G1 X175.559 Y93.728 E26.10069
G1 X175.754 Y93.983 E26.11136
G1 X175.769 Y94.005 E26.11225
G1 X176.001 Y94.409 E26.12774
G1 X176.158 Y94.74 E26.13993
G1 X176.314 Y95.144 E26.15433
G1 X176.322 Y95.17 E26.15524
G1 X176.412 Y95.545 E26.16806
G1 X176.449 Y95.761 E26.17535
G1 X176.492 Y96.268 E26.19228
G1 X176.491 Y111.555 E26.70072
G1 X176.475 Y112.407 E26.72907
G1 X176.458 Y112.676 E26.73803
G1 X176.326 Y113.887 E26.77855
G1 X176.285 Y114.152 E26.78747
G1 X176.049 Y115.328 E26.82736
G1 X175.986 Y115.586 E26.83619
G1 X175.641 Y116.757 E26.8768
G1 X175.552 Y117.015 E26.88587
G1 X175.107 Y118.137 E26.92602
G1 X174.995 Y118.385 E26.93507
G1 X174.447 Y119.468 E26.97544
G1 X174.318 Y119.697 E26.98418
G1 X173.677 Y120.729 E27.02459
G1 X173.522 Y120.955 E27.0337
G1 X172.791 Y121.922 E27.07402
G1 X172.62 Y122.129 E27.08295
G1 X171.815 Y123.016 E27.12279
G1 X171.628 Y123.204 E27.13161
G1 X170.731 Y124.032 E27.17221
G1 X170.523 Y124.208 E27.18128
G1 X169.559 Y124.948 E27.2217
G1 X169.337 Y125.102 E27.23068
G1 X168.322 Y125.745 E27.27065
G1 X168.09 Y125.878 E27.27954
G1 X167 Y126.439 E27.32031
G1 X166.758 Y126.551 E27.32918
G1 X165.643 Y127.005 E27.36922
G1 X165.38 Y127.098 E27.3785
G1 X164.229 Y127.446 E27.4185
G1 X163.977 Y127.51 E27.42714
G1 X162.785 Y127.76 E27.46765
G1 X162.517 Y127.804 E27.47669
G1 X161.31 Y127.945 E27.5171
G1 X161.044 Y127.964 E27.52597
G1 X159.841 Y127.997 E27.566
G1 X159.564 Y127.992 E27.57521
G1 X158.35 Y127.913 E27.61568
G1 X158.091 Y127.884 E27.62435
G1 X156.889 Y127.7 E27.66479
G1 X156.621 Y127.647 E27.67388
G1 X155.452 Y127.357 E27.71394
G1 X155.194 Y127.281 E27.72288
G1 X154.045 Y126.884 E27.76331
G1 X153.795 Y126.784 E27.77227
G1 X152.649 Y126.269 E27.81406
G1 X149.136 Y124.614 E27.94322
G1 X143.48 Y122.329 E28.14611
G1 X137.696 Y120.407 E28.34883
G1 X131.807 Y118.852 E28.55141
G1 X125.827 Y117.67 E28.75415
G1 X119.792 Y116.865 E28.95666
G1 X113.698 Y116.44 E29.15984
G1 X107.614 Y116.399 E29.3622
G1 X101.539 Y116.74 E29.56457
G1 X95.482 Y117.463 E29.76746
G1 X89.46 Y118.57 E29.9711
G1 X83.58 Y120.038 E30.17268
G1 X77.749 Y121.888 E30.37614
G1 X72.091 Y124.086 E30.57803
G1 X66.975 Y126.45 E30.76548
G1 X66.466 Y126.686 E30.78414
G1 X66.259 Y126.772 E30.79159
G1 X65.567 Y127.032 E30.81618
G1 X65.385 Y127.094 E30.82258
G1 X64.234 Y127.444 E30.86259
G1 X63.977 Y127.51 E30.87141
G1 X62.785 Y127.76 E30.91192
G1 X62.517 Y127.804 E30.92096
G1 X61.31 Y127.945 E30.96137
G1 X61.044 Y127.964 E30.97024
G1 X59.841 Y127.997 E31.01027
G1 X59.564 Y127.992 E31.01949
G1 X58.35 Y127.913 E31.05995
G1 X58.091 Y127.884 E31.06862
G1 X56.889 Y127.7 E31.10906
G1 X56.621 Y127.647 E31.11815
G1 X55.452 Y127.357 E31.15821
G1 X55.194 Y127.281 E31.16715
G1 X54.045 Y126.884 E31.20759
G1 X53.798 Y126.786 E31.21642
G1 X52.696 Y126.292 E31.25659
G1 X52.454 Y126.17 E31.2656
G1 X51.398 Y125.577 E31.30589
G1 X51.166 Y125.432 E31.31499
G1 X50.165 Y124.743 E31.3554
G1 X49.953 Y124.583 E31.36424
G1 X49.025 Y123.815 E31.4043
G1 X48.825 Y123.634 E31.41327
G1 X47.961 Y122.777 E31.45375
G1 X47.777 Y122.577 E31.46279
G1 X46.999 Y121.651 E31.50301
G1 X46.837 Y121.44 E31.51186
G1 X46.137 Y120.439 E31.55249
G1 X45.993 Y120.211 E31.56146
G1 X45.396 Y119.169 E31.6014
G1 X45.272 Y118.927 E31.61044
G1 X44.764 Y117.818 E31.65102
G1 X44.663 Y117.569 E31.65995
G1 X44.264 Y116.441 E31.69975
G1 X44.187 Y116.189 E31.70851
G1 X43.881 Y115.001 E31.74931
G1 X43.824 Y114.731 E31.75849
G1 X43.632 Y113.541 E31.79858
G1 X43.602 Y113.276 E31.80745
G1 X43.516 Y112.07 E31.84767
G1 X43.508 Y111.855 E31.85482
G1 X43.516 Y96.576 E32.36301
G1 X43.526 Y96.332 E32.37113
G1 X43.556 Y95.967 E32.38331
G1 X43.604 Y95.625 E32.3948
G1 X43.609 Y95.6 E32.39564
G1 X43.725 Y95.18 E32.41014
G1 X43.847 Y94.838 E32.42221
G1 X44.011 Y94.462 E32.43586
G1 X44.024 Y94.437 E32.43679
G1 X44.215 Y94.119 E32.44913
G1 X44.423 Y93.817 E32.46133
G1 X44.608 Y93.576 E32.47143
G1 X44.625 Y93.556 E32.47231
G1 X44.966 Y93.215 E32.48835
G1 X45.242 Y92.98 E32.5004
G1 X45.523 Y92.768 E32.51211
G1 X45.547 Y92.752 E32.51307
G1 X45.932 Y92.534 E32.52778
G0 F6000 X46.102 Y92.896
G1 F600 X46.435 Y92.739 E32.54003
G1 X46.86 Y92.583 E32.55509
G1 X47.091 Y92.529 E32.56298
G1 X47.457 Y92.461 E32.57536
G1 X47.663 Y92.431 E32.58228
G1 X47.95 Y92.415 E32.59184
G1 X171.948 Y92.402 E36.71603
G1 X172.161 Y92.411 E36.72312
G1 X172.539 Y92.442 E36.73574
G1 X172.871 Y92.491 E36.7469
G1 X172.899 Y92.497 E36.74785
G1 X173.226 Y92.589 E36.75915
G1 X173.566 Y92.71 E36.77115
G1 X173.857 Y92.834 E36.78168
G1 X173.881 Y92.846 E36.78257
G1 X174.193 Y93.031 E36.79463
G1 X174.495 Y93.239 E36.80683
G1 X174.704 Y93.399 E36.81558
G1 X174.724 Y93.416 E36.81646
G1 X175.02 Y93.711 E36.83036
G1 X175.255 Y93.987 E36.84241
G1 X175.423 Y94.208 E36.85165
G1 X175.438 Y94.23 E36.85253
G1 X175.639 Y94.581 E36.86598
G1 X175.796 Y94.912 E36.87817
G1 X175.932 Y95.261 E36.89063
G1 X175.94 Y95.287 E36.89153
G1 X176.018 Y95.613 E36.90268
G1 X176.055 Y95.829 E36.90997
G1 X176.092 Y96.268 E36.92462
G1 X176.092 Y111.548 E37.43284
G1 X176.076 Y112.4 E37.46118
G1 X176.061 Y112.633 E37.46895
G1 X175.929 Y113.844 E37.50946
G1 X175.893 Y114.074 E37.5172
G1 X175.657 Y115.25 E37.5571
G1 X175.602 Y115.473 E37.56474
G1 X175.257 Y116.644 E37.60534
G1 X175.18 Y116.868 E37.61322
