;FLAVOR:Marlin
;TIME:2869
;Filament used: 1.58428m
;Layer height: 0.2
;MINX:87.319
;MINY:93.175
;MINZ:0.24
;MAXX:133.3
;MAXY:125.607
;MAXZ:14.79
;Generated with Cura_SteamEngine 4.8.0
M140 S70
M105
M190 S70
M104 S200
M105
M109 S200
M82 ;absolute extrusion mode
M201 X500.00 Y500.00 Z100.00 E5000.00 ;Setup machine max acceleration
M203 X500.00 Y500.00 Z10.00 E50.00 ;Setup machine max feedrate
M204 P500.00 R1000.00 T500.00 ;Setup Print/Retract/Travel acceleration
M205 X8.00 Y8.00 Z0.40 E5.00 ;Setup Jerk
M220 S100 ;Reset Feedrate
M221 S100 ;Reset Flowrate

G28 ;Home

G92 E0 ;Reset Extruder
G1 Z2.0 F3000 ;Move Z Axis up
G1 X10.1 Y20 Z0.28 F5000.0 ;Move to start position
G1 X10.1 Y200.0 Z0.28 F1500.0 E15 ;Draw the first line
G1 X10.4 Y200.0 Z0.28 F5000.0 ;Move to side a little
G1 X10.4 Y20 Z0.28 F1500.0 E30 ;Draw the second line
G92 E0 ;Reset Extruder
G1 Z2.0 F3000 ;Move Z Axis up

G92 E0
G92 E0
G1 F2700 E-5
;LAYER_COUNT:66
;LAYER:-6
M107
G0 F12000 X90.319 Y98.917 Z0.24
;TYPE:SUPPORT-INTERFACE
G1 F2700 E0
G1 F1800 X90.502 Y98.755 E0.01951
G1 X90.659 Y98.62 E0.03604
G1 X90.929 Y98.398 E0.06394
G1 X91.225 Y98.171 E0.09372
G1 X91.996 Y97.61 E0.16983
G1 X92.111 Y97.532 E0.18092
G1 X92.435 Y97.327 E0.21153
G1 X92.676 Y97.195 E0.23346
G1 X92.981 Y97.051 E0.26038
G1 X93.195 Y96.964 E0.27882
G1 X93.514 Y96.857 E0.30568
G1 X95.162 Y96.374 E0.44277
G1 X95.296 Y96.339 E0.45382
G1 X95.616 Y96.267 E0.48
G1 X95.969 Y96.215 E0.50849
G1 X96.535 Y96.175 E0.55378
G1 X96.719 Y96.17 E0.56847
G1 X97.929 Y96.193 E0.66508
G1 X98.072 Y96.201 E0.67651
G1 X98.397 Y96.23 E0.70256
G1 X98.55 Y96.247 E0.71484
G1 X99.011 Y96.311 E0.752
G1 X99.202 Y96.343 E0.76746
G1 X99.584 Y96.42 E0.79856
G1 X99.811 Y96.479 E0.81728
G1 X100.148 Y96.588 E0.84556
G1 X100.542 Y96.735 E0.87913
G1 X101.113 Y96.956 E0.928
G1 X101.279 Y97.028 E0.94244
G1 X101.848 Y97.305 E0.99296
G1 X101.994 Y97.384 E1.00621
G1 X102.604 Y97.664 E1.05979
G1 X103.255 Y97.869 E1.11427
G1 X103.927 Y97.99 E1.16877
G1 X104.609 Y98.026 E1.22329
G1 X105.289 Y97.974 E1.27773
G1 X105.959 Y97.838 E1.3323
G1 X106.609 Y97.616 E1.38713
G1 X106.883 Y97.475 E1.41173
G1 X106.889 Y97.487 E1.4128
G1 X107.648 Y97.074 E1.48177
G1 X107.926 Y96.945 E1.50624
G1 X108.186 Y96.844 E1.5285
G1 X108.444 Y96.761 E1.55014
G1 X108.758 Y96.684 E1.57595
G1 X109.336 Y96.506 E1.62422
G1 X109.465 Y96.458 E1.63521
G1 X110.295 Y96.062 E1.70862
G1 X111.04 Y95.623 E1.77764
G1 X111.281 Y95.49 E1.79962
G1 X111.613 Y95.318 E1.82946
G1 X112.184 Y94.975 E1.88263
G1 X112.525 Y94.719 E1.91667
G1 X112.767 Y94.521 E1.94163
G1 X112.999 Y94.355 E1.9644
G1 X113.252 Y94.198 E1.98817
G1 X113.507 Y94.061 E2.01128
G1 X113.905 Y93.879 E2.04621
G1 X114.025 Y93.83 E2.05656
G1 X114.175 Y93.774 E2.06934
G1 X114.278 Y93.737 E2.07808
G1 X114.635 Y93.622 E2.10802
G1 X114.733 Y93.599 E2.11605
G1 X115.21 Y93.501 E2.15492
G1 X115.421 Y93.465 E2.17201
G1 X115.849 Y93.403 E2.20653
G1 X116.139 Y93.381 E2.22975
G1 X116.414 Y93.376 E2.2517
G1 X116.729 Y93.39 E2.27687
G1 X117.009 Y93.421 E2.29936
G1 X117.289 Y93.47 E2.32205
G1 X117.484 Y93.517 E2.33806
G1 X118.145 Y93.633 E2.39163
G1 X118.946 Y93.661 E2.45561
G1 X119.401 Y93.644 E2.49195
G1 X120.071 Y93.651 E2.54544
G1 X120.506 Y93.648 E2.58016
G1 X120.627 Y93.651 E2.58982
G1 X121.062 Y93.675 E2.6246
G1 X121.245 Y93.694 E2.63929
G1 X121.462 Y93.726 E2.6568
G1 X121.982 Y93.823 E2.69902
G1 X122.105 Y93.851 E2.70909
G1 X122.481 Y93.945 E2.74003
G1 X122.755 Y94.033 E2.763
G1 X123.025 Y94.139 E2.78615
G1 X123.285 Y94.261 E2.80908
G1 X123.559 Y94.41 E2.83398
G1 X124.249 Y94.838 E2.89879
G1 X124.258 Y94.823 E2.90019
G1 X124.468 Y94.946 E2.91961
G1 X124.881 Y95.146 E2.95624
G1 X125.138 Y95.291 E2.9798
G1 X125.396 Y95.459 E3.00438
G1 X125.63 Y95.633 E3.02765
G1 X125.676 Y95.672 E3.03247
G1 X126.211 Y96.073 E3.08584
G1 X126.68 Y96.346 E3.12915
G1 X126.834 Y96.426 E3.14301
G1 X127.083 Y96.574 E3.16613
G1 X127.315 Y96.734 E3.18863
G1 X127.554 Y96.921 E3.21285
G1 X127.782 Y97.126 E3.23732
G1 X127.963 Y97.311 E3.25798
G1 X128.162 Y97.539 E3.28214
G1 X128.34 Y97.772 E3.30555
G1 X128.516 Y98.035 E3.33081
G1 X128.65 Y98.259 E3.35164
G1 X128.76 Y98.471 E3.37071
G1 X129.032 Y99.029 E3.42026
G1 X129.365 Y99.617 E3.4742
G1 X129.604 Y99.921 E3.50507
G1 X129.593 Y99.932 E3.50631
G1 X130.036 Y100.463 E3.56151
G1 X130.494 Y100.946 E3.61465
G1 X130.828 Y101.233 E3.6498
G1 X131.169 Y101.502 E3.68447
G1 X131.375 Y101.685 E3.70646
G1 X131.595 Y101.907 E3.73141
G1 X131.782 Y102.124 E3.75428
G1 X131.954 Y102.348 E3.77682
G1 X132.107 Y102.577 E3.79881
G1 X132.259 Y102.841 E3.82312
G1 X132.429 Y103.182 E3.85354
G1 X132.487 Y103.308 E3.86461
G1 X132.516 Y103.378 E3.87066
G1 X132.586 Y103.565 E3.8866
G1 X132.749 Y104.051 E3.92752
G1 X132.791 Y104.192 E3.93926
G1 X132.845 Y104.402 E3.95657
G1 X132.869 Y104.504 E3.96493
G1 X132.963 Y104.973 E4.00311
G1 X133.003 Y105.234 E4.02419
G1 X133.042 Y105.509 E4.04636
G1 X133.057 Y105.652 E4.05784
G1 X133.093 Y106.167 E4.09905
G1 X133.099 Y106.325 E4.11167
G1 X133.099 Y107.037 E4.16851
G1 X133.09 Y107.251 E4.1856
G1 X133.094 Y107.763 E4.22648
G1 X133.1 Y107.929 E4.23974
G1 X133.1 Y114.009 E4.72507
G1 X133.096 Y114.135 E4.73513
G1 X133.072 Y114.512 E4.76529
G1 X133.035 Y114.81 E4.78926
G1 X132.98 Y115.094 E4.81235
G1 X132.904 Y115.385 E4.83635
G1 X132.82 Y115.643 E4.85801
G1 X132.709 Y115.922 E4.88198
G1 X132.587 Y116.18 E4.90476
G1 X132.444 Y116.438 E4.92831
G1 X132.23 Y116.773 E4.96004
G1 X131.906 Y117.36 E5.01356
G1 X131.653 Y117.995 E5.06813
G1 X131.483 Y118.654 E5.12245
G1 X131.41 Y119.191 E5.16571
G1 X131.361 Y119.53 E5.19305
G1 X131.302 Y119.807 E5.21566
G1 X131.226 Y120.081 E5.23836
G1 X131.13 Y120.357 E5.26168
G1 X131.016 Y120.631 E5.28537
G1 X130.88 Y120.901 E5.30951
G1 X130.75 Y121.127 E5.33032
G1 X130.567 Y121.403 E5.35675
G1 X130.424 Y121.592 E5.37567
G1 X130.207 Y121.848 E5.40246
G1 X130.123 Y121.941 E5.41246
G1 X129.65 Y122.44 E5.46735
G1 X129.557 Y122.532 E5.47779
G1 X129.266 Y122.802 E5.50948
G1 X129.052 Y122.977 E5.53154
G1 X128.782 Y123.17 E5.55804
G1 X128.469 Y123.37 E5.58769
G1 X128.464 Y123.365 E5.58825
G1 X127.799 Y123.842 E5.65358
G1 X127.577 Y123.982 E5.67453
G1 X127.319 Y124.122 E5.69796
G1 X127.046 Y124.249 E5.72199
G1 X126.781 Y124.352 E5.74469
G1 X126.502 Y124.44 E5.76804
G1 X126.377 Y124.471 E5.77832
G1 X126.028 Y124.568 E5.80724
G1 X125.748 Y124.63 E5.83013
G1 X125.444 Y124.678 E5.8547
G1 X125.17 Y124.704 E5.87667
G1 X124.966 Y124.709 E5.89296
G1 X124.298 Y124.77 E5.9465
G1 X123.636 Y124.917 E6.00063
G1 X123.194 Y125.064 E6.03781
G1 X123.014 Y125.134 E6.05323
G1 X122.747 Y125.217 E6.07555
G1 X122.462 Y125.287 E6.09898
G1 X122.132 Y125.346 E6.12574
G1 X121.932 Y125.373 E6.14185
G1 X121.649 Y125.393 E6.16449
G1 X121.431 Y125.403 E6.18191
G1 X121.16 Y125.408 E6.20355
G1 X120.829 Y125.405 E6.22997
G1 X120.472 Y125.393 E6.25848
G1 X120.336 Y125.383 E6.26937
G1 X120.199 Y125.369 E6.28036
G1 X119.975 Y125.35 E6.29831
G1 X119.746 Y125.336 E6.31662
G1 X119.641 Y125.327 E6.32503
G1 X119.157 Y125.269 E6.36394
G1 X118.532 Y125.233 E6.41392
G1 X118.239 Y125.234 E6.43731
G1 X117.915 Y125.214 E6.46322
G1 X117.772 Y125.199 E6.4747
G1 X117.15 Y125.17 E6.5244
G1 X116.811 Y125.147 E6.55152
G1 X116.167 Y125.054 E6.60346
G1 X115.698 Y125.007 E6.64109
G1 X115.566 Y125.001 E6.65164
G1 X115.3 Y124.97 E6.67301
G1 X114.948 Y124.906 E6.70157
G1 X114.254 Y124.746 E6.75842
G1 X114.251 Y124.754 E6.75911
G1 X113.668 Y124.642 E6.80649
G1 X113.574 Y124.618 E6.81424
G1 X113.575 Y124.61 E6.81488
G1 X112.749 Y124.453 E6.882
G1 X112.481 Y124.384 E6.90409
G1 X112.192 Y124.289 E6.92837
G1 X111.798 Y124.13 E6.96229
G1 X111.646 Y124.063 E6.97555
G1 X111.415 Y123.949 E6.99611
G1 X111.222 Y123.848 E7.0135
G1 X111.168 Y123.818 E7.01843
G1 X110.948 Y123.706 E7.03813
G1 X110.875 Y123.669 E7.04467
G1 X110.47 Y123.443 E7.08169
G1 X109.96 Y123.196 E7.12692
G1 X109.605 Y123.045 E7.15772
G1 X109.511 Y122.999 E7.16607
G1 X109.006 Y122.779 E7.21004
G1 X108.909 Y122.743 E7.2183
G1 X108.914 Y122.728 E7.21956
G1 X108.587 Y122.622 E7.247
G1 X108.432 Y122.564 E7.26021
G1 X108.429 Y122.571 E7.26082
G1 X108.067 Y122.454 E7.29119
G1 X107.681 Y122.299 E7.32439
G1 X107.572 Y122.258 E7.33369
G1 X107.225 Y122.116 E7.36362
G1 X107.115 Y122.063 E7.37336
G1 X106.496 Y121.808 E7.4268
G1 X105.836 Y121.63 E7.48137
G1 X105.159 Y121.537 E7.53592
G1 X104.476 Y121.531 E7.59044
G1 X103.798 Y121.611 E7.64494
G1 X103.135 Y121.775 E7.69946
G1 X102.495 Y122.023 E7.75424
G1 X101.707 Y122.472 E7.82664
G1 X101.455 Y122.645 E7.85104
G1 X101.237 Y122.783 E7.87164
G1 X100.909 Y122.97 E7.90177
G1 X100.812 Y123.023 E7.9106
G1 X100.596 Y123.132 E7.92991
G1 X100.48 Y123.186 E7.94012
G1 X100.023 Y123.385 E7.97991
G1 X99.581 Y123.57 E8.01816
G1 X99.156 Y123.715 E8.05401
G1 X99.015 Y123.757 E8.06575
G1 X98.885 Y123.791 E8.07648
G1 X98.742 Y123.825 E8.08821
G1 X98.364 Y123.899 E8.11896
G1 X98.101 Y123.935 E8.14015
G1 X97.843 Y123.957 E8.16082
G1 X97.692 Y123.965 E8.17289
G1 X97.355 Y123.976 E8.1998
G1 X97.267 Y123.977 E8.20683
G1 X96.923 Y123.972 E8.23429
G1 X96.672 Y123.96 E8.25435
G1 X96.401 Y123.938 E8.27605
G1 X95.925 Y123.885 E8.31428
G1 X95.821 Y123.871 E8.32266
G1 X95.456 Y123.813 E8.35216
G1 X95.254 Y123.767 E8.3687
G1 X94.79 Y123.646 E8.40697
G1 X94.647 Y123.604 E8.41887
G1 X94.389 Y123.514 E8.44068
G1 X94.058 Y123.387 E8.46898
G1 X93.728 Y123.246 E8.49763
G1 X93.58 Y123.177 E8.51066
G1 X93.219 Y122.996 E8.5429
G1 X93.026 Y122.887 E8.56059
G1 X92.851 Y122.775 E8.57718
G1 X92.604 Y122.613 E8.60076
G1 X92.329 Y122.442 E8.62661
G1 X92.214 Y122.365 E8.63765
G1 X91.909 Y122.148 E8.66753
G1 X91.671 Y121.955 E8.69199
G1 X91.461 Y121.761 E8.71481
G1 X91.268 Y121.559 E8.73712
G1 X91.041 Y121.289 E8.76527
G1 X90.929 Y121.142 E8.78003
G1 X90.796 Y120.95 E8.79867
G1 X90.321 Y120.206 E8.86913
G1 X90.21 Y120.011 E8.88704
G1 X89.887 Y119.379 E8.9437
G1 X89.804 Y119.195 E8.95981
G1 X89.645 Y118.791 E8.99447
G1 X89.517 Y118.427 E9.02527
G1 X89.489 Y118.343 E9.03234
G1 X89.402 Y118.052 E9.05658
G1 X89.359 Y117.898 E9.06934
G1 X89.101 Y116.88 E9.15317
G1 X89.072 Y116.746 E9.16412
G1 X89.002 Y116.374 E9.19433
G1 X88.968 Y116.092 E9.21701
G1 X88.95 Y115.79 E9.24116
G1 X88.949 Y115.534 E9.26159
G1 X88.958 Y115.334 E9.27757
G1 X88.967 Y115.194 E9.28877
G1 X89.078 Y113.999 E9.38457
G1 X89.097 Y113.845 E9.39696
G1 X89.156 Y113.473 E9.42702
G1 X89.18 Y113.369 E9.43554
G1 X89.285 Y112.708 E9.48897
G1 X89.306 Y112.025 E9.54352
G1 X89.241 Y111.346 E9.59796
G1 X89.091 Y110.679 E9.65254
G1 X88.858 Y110.04 E9.70683
G1 X88.62 Y109.562 E9.74945
G1 X88.459 Y109.267 E9.77628
G1 X88.259 Y108.889 E9.81042
G1 X88.155 Y108.659 E9.83057
G1 X88.06 Y108.419 E9.85117
G1 X88.008 Y108.275 E9.86339
G1 X87.87 Y107.861 E9.89823
G1 X87.822 Y107.699 E9.91171
G1 X87.684 Y107.159 E9.9562
G1 X87.651 Y107.006 E9.9687
G1 X87.624 Y106.85 E9.98134
G1 X87.604 Y106.71 E9.99262
G1 X87.551 Y106.222 E10.03181
G1 X87.542 Y106.094 E10.04205
G1 X87.525 Y105.71 E10.07273
G1 X87.52 Y105.511 E10.08862
G1 X87.52 Y104.355 E10.1809
G1 X87.524 Y104.229 E10.19096
G1 X87.548 Y103.852 E10.22112
G1 X87.585 Y103.552 E10.24525
G1 X87.64 Y103.27 E10.26818
G1 X87.716 Y102.979 E10.29219
G1 X87.808 Y102.696 E10.31594
G1 X87.892 Y102.477 E10.33467
G1 X88.018 Y102.198 E10.3591
G1 X88.484 Y101.268 E10.44214
G1 X88.561 Y101.128 E10.45489
G1 X88.71 Y100.868 E10.47881
G1 X88.864 Y100.624 E10.50185
G1 X89.097 Y100.283 E10.53481
G1 X89.261 Y100.072 E10.55615
G1 X89.53 Y99.742 E10.59013
G1 X89.617 Y99.641 E10.60077
G1 X89.817 Y99.418 E10.62468
G1 X89.898 Y99.329 E10.63429
G1 X90.131 Y99.096 E10.66059
G1 X90.319 Y98.917 E10.68131
G0 F12000 X89.6 Y99.66
G1 F1800 X89.6 Y118.663 E12.19821
G1 F2700 E7.19821
G1 F300 Z0.74
G0 F12000 X91.2 Y121.478 Z0.74
G1 F300 Z0.24
G1 F2700 E12.19821
G1 F1800 X91.2 Y98.19 E14.05716
G1 F2700 E9.05716
G1 F300 Z0.74
G0 F12000 X92.8 Y97.136 Z0.74
G1 F300 Z0.24
G1 F2700 E14.05716
G1 F1800 X92.8 Y122.741 E16.10107
G1 F2700 E11.10107
G1 F300 Z0.74
G0 F12000 X94.4 Y123.517 Z0.74
G1 F300 Z0.24
G1 F2700 E16.10107
G1 F1800 X94.4 Y96.597 E18.24994
G1 F2700 E13.24994
G1 F300 Z0.74
G0 F12000 X96 Y96.212 Z0.74
G1 F300 Z0.24
G1 F2700 E18.24994
G1 F1800 X96 Y123.893 E20.45955
G1 F2700 E15.45955
G1 F300 Z0.74
G0 F12000 X97.6 Y123.969 Z0.74
G1 F300 Z0.24
G1 F2700 E20.45955
G1 F1800 X97.6 Y96.187 E22.67723
G1 F2700 E17.67723
G1 F300 Z0.74
G0 F12000 X99.2 Y96.343 Z0.74
G1 F300 Z0.24
G1 F2700 E22.67723
G1 F1800 X99.2 Y123.7 E24.86099
G1 F2700 E19.86099
G1 F300 Z0.74
G0 F12000 X100.8 Y123.03 Z0.74
G1 F300 Z0.24
G1 F2700 E24.86099
G1 F1800 X100.8 Y96.835 E26.95198
G1 F2700 E21.95198
G1 F300 Z0.74
G0 F12000 X102.4 Y97.571 Z0.74
G1 F300 Z0.24
G1 F2700 E26.95198
G1 F1800 X102.4 Y122.078 E28.90824
G1 F2700 E23.90824
G1 F300 Z0.74
G0 F12000 X104 Y121.588 Z0.74
G1 F300 Z0.24
G1 F2700 E28.90824
G1 F1800 X104 Y97.994 E30.79161
G1 F2700 E25.79161
G1 F300 Z0.74
G0 F12000 X105.6 Y97.91 Z0.74
G1 F300 Z0.24
G1 F2700 E30.79161
G1 F1800 X105.6 Y121.597 E32.68241
G1 F2700 E27.68241
G1 F300 Z0.74
G0 F12000 X107.2 Y122.103 Z0.74
G1 F300 Z0.24
G1 F2700 E32.68241
G1 F1800 X107.2 Y97.317 E34.66094
G1 F2700 E29.66094
G1 F300 Z0.74
G0 F12000 X108.8 Y96.671 Z0.74
G1 F300 Z0.24
G1 F2700 E34.66094
G1 F1800 X108.8 Y122.691 E36.73797
G1 F2700 E31.73797
G1 F300 Z0.74
G0 F12000 X110.4 Y123.409 Z0.74
G1 F300 Z0.24
G1 F2700 E36.73797
G1 F1800 X110.4 Y96 E38.92587
G1 F2700 E33.92587
G1 F300 Z0.74
G0 F12000 X112 Y95.085 Z0.74
G1 F300 Z0.24
G1 F2700 E38.92587
G1 F1800 X112 Y124.211 E41.25084
G1 F2700 E36.25084
G1 F300 Z0.74
G0 F12000 X113.6 Y124.624 Z0.74
G1 F300 Z0.24
G1 F2700 E41.25084
G1 F1800 X113.6 Y94.018 E43.69394
G1 F2700 E38.69394
G1 F300 Z0.74
G0 F12000 X115.2 Y93.503 Z0.74
G1 F300 Z0.24
G1 F2700 E43.69394
G1 F1800 X115.2 Y124.951 E46.20425
G1 F2700 E41.20425
G1 F300 Z0.74
G0 F12000 X116.8 Y125.145 Z0.74
G1 F300 Z0.24
G1 F2700 E46.20425
G1 F1800 X116.8 Y93.398 E48.73844
G1 F2700 E43.73844
G1 F300 Z0.74
G0 F12000 X118.4 Y93.642 Z0.74
G1 F300 Z0.24
G1 F2700 E48.73844
G1 F1800 X118.4 Y125.234 E51.26025
G1 F2700 E46.26025
G1 F300 Z0.74
G0 F12000 X120 Y125.352 Z0.74
G1 F300 Z0.24
G1 F2700 E51.26025
G1 F1800 X120 Y93.651 E53.79076
G1 F2700 E48.79076
G1 F300 Z0.74
G0 F12000 X121.6 Y93.752 Z0.74
G1 F300 Z0.24
G1 F2700 E53.79076
G1 F1800 X121.6 Y125.396 E56.31672
G1 F2700 E51.31672
G1 F300 Z0.74
G0 F12000 X123.2 Y125.063 Z0.74
G1 F300 Z0.24
G1 F2700 E56.31672
G1 F1800 X123.2 Y94.222 E58.77858
G1 F2700 E53.77858
G1 F300 Z0.74
G0 F12000 X124.8 Y95.107 Z0.74
G1 F300 Z0.24
G1 F2700 E58.77858
G1 F1800 X124.8 Y124.725 E61.14282
G1 F2700 E56.14282
G1 F300 Z0.74
G0 F12000 X126.4 Y124.466 Z0.74
G1 F300 Z0.24
G1 F2700 E61.14282
G1 F1800 X126.4 Y96.184 E63.40041
G1 F2700 E58.40041
G1 F300 Z0.74
G0 F12000 X128 Y97.354 Z0.74
G1 F300 Z0.24
G1 F2700 E63.40041
G1 F1800 X128 Y123.698 E65.5033
G1 F2700 E60.5033
G1 F300 Z0.74
G0 F12000 X129.6 Y122.49 Z0.74
G1 F300 Z0.24
G1 F2700 E65.5033
G1 F1800 X129.6 Y99.941 E67.30326
G1 F2700 E62.30326
G1 F300 Z0.74
G0 F12000 X131.2 Y101.53 Z0.74
G1 F300 Z0.24
G1 F2700 E67.30326
G1 F1800 X131.2 Y120.156 E68.79007
G1 F2700 E63.79007
G1 F300 Z0.74
G0 F12000 X132.8 Y115.694 Z0.74
G1 F300 Z0.24
G1 F2700 E68.79007
G1 F1800 X132.8 Y104.227 E69.70541
G1 F2700 E64.70541
G1 F300 Z0.74
G0 F12000 X88 Y102.237 Z0.74
G1 F300 Z0.24
G1 F2700 E69.70541
G1 F1800 X88 Y108.251 E70.18548
G1 F2700 E65.18548
G1 F300 Z0.74
G0 F12000 X90.103 Y119.802 Z0.74
;TIME_ELAPSED:52.081767
;LAYER:-5
M140 S65
G0 X90.103 Y119.802 Z1.04
;TYPE:SUPPORT
G1 F300 Z0.54
G1 F2700 E70.18548
G1 F1800 X93.374 Y123.073 E70.64705
G1 X93.219 Y122.995 E70.66436
G1 X93.026 Y122.885 E70.68653
G1 X92.85 Y122.774 E70.70729
G1 X92.604 Y122.612 E70.73668
G1 X92.329 Y122.441 E70.76899
G1 X92.214 Y122.364 E70.7828
G1 X91.909 Y122.147 E70.82015
G1 X91.67 Y121.954 E70.85081
G1 X91.46 Y121.76 E70.87933
G1 X91.268 Y121.558 E70.90714
G1 X91.04 Y121.287 E70.94248
G1 X90.928 Y121.14 E70.96092
G1 X90.796 Y120.949 E70.98408
G1 X90.321 Y120.205 E71.07216
G1 X90.209 Y120.01 E71.0946
G1 F2700 E66.0946
G1 F300 Z1.04
G0 F12000 X93.374 Y123.073 Z1.04
G1 F300 Z0.54
G1 F2700 E71.0946
