;FLAVOR:Marlin
;TIME:1776
;Filament used: 0.719693m
;Layer height: 0.2
;MINX:90.699
;MINY:88.676
;MINZ:0.24
;MAXX:130.167
;MAXY:131.264
;MAXZ:19.39
;Generated with Cura_SteamEngine 4.8.0
M140 S70
M105
M190 S70
M104 S200
M105
M109 S200
M82 ;absolute extrusion mode
M201 X500.00 Y500.00 Z100.00 E5000.00 ;Setup machine max acceleration
M203 X500.00 Y500.00 Z10.00 E50.00 ;Setup machine max feedrate
M204 P500.00 R1000.00 T500.00 ;Setup Print/Retract/Travel acceleration
M205 X8.00 Y8.00 Z0.40 E5.00 ;Setup Jerk
M220 S100 ;Reset Feedrate
M221 S100 ;Reset Flowrate

G28 ;Home

G92 E0 ;Reset Extruder
G1 Z2.0 F3000 ;Move Z Axis up
G1 X10.1 Y20 Z0.28 F5000.0 ;Move to start position
G1 X10.1 Y200.0 Z0.28 F1500.0 E15 ;Draw the first line
G1 X10.4 Y200.0 Z0.28 F5000.0 ;Move to side a little
G1 X10.4 Y20 Z0.28 F1500.0 E30 ;Draw the second line
G92 E0 ;Reset Extruder
G1 Z2.0 F3000 ;Move Z Axis up

G92 E0
G92 E0
G1 F2700 E-5
;LAYER_COUNT:89
;LAYER:-6
M107
G0 F12000 X95.21 Y101.83 Z0.24
;TYPE:SUPPORT-INTERFACE
G1 F2700 E0
G1 F1800 X95.448 Y101.609 E0.02593
G1 X95.653 Y101.442 E0.04703
G1 X95.903 Y101.263 E0.07158
G1 X96.146 Y101.112 E0.09441
G1 X96.396 Y100.977 E0.11709
G1 X96.659 Y100.855 E0.14024
G1 X96.947 Y100.745 E0.16485
G1 X97.163 Y100.677 E0.18292
G1 X97.523 Y100.592 E0.21245
G1 X98.039 Y100.511 E0.25414
G1 X98.228 Y100.491 E0.26931
G1 X98.396 Y100.483 E0.28274
G1 X98.768 Y100.48 E0.31243
G1 X99.035 Y100.495 E0.33378
G1 X99.334 Y100.53 E0.35781
G1 X99.614 Y100.582 E0.38054
G1 X99.896 Y100.653 E0.40376
G1 X100.184 Y100.745 E0.42789
G1 X100.453 Y100.849 E0.45091
G1 X100.712 Y100.97 E0.47373
G1 X100.972 Y101.111 E0.49734
G1 X101.197 Y101.252 E0.51854
G1 X101.451 Y101.436 E0.54357
G1 X101.659 Y101.609 E0.56517
G1 X102.002 Y101.935 E0.60294
G1 X102.131 Y102.067 E0.61768
G1 X102.478 Y102.449 E0.65887
G1 X102.534 Y102.509 E0.66542
G1 X102.746 Y102.721 E0.68936
G1 X103.007 Y102.968 E0.71804
G1 X103.159 Y103.119 E0.73514
G1 X103.463 Y103.436 E0.7702
G1 X103.705 Y103.709 E0.79932
G1 X103.802 Y103.826 E0.81146
G1 X103.861 Y103.901 E0.81907
G1 X104.119 Y104.249 E0.85365
G1 X104.206 Y104.373 E0.86574
G1 X104.274 Y104.478 E0.87573
G1 X104.35 Y104.6 E0.8872
G1 X104.55 Y104.942 E0.91883
G1 X104.734 Y105.289 E0.95018
G1 X104.951 Y105.716 E0.98842
G1 X105.075 Y105.982 E1.01184
G1 X105.206 Y106.299 E1.03922
G1 X105.295 Y106.538 E1.05958
G1 X105.42 Y106.91 E1.09091
G1 X105.552 Y107.372 E1.12926
G1 X105.627 Y107.665 E1.1534
G1 X105.761 Y108.285 E1.20404
G1 X105.79 Y108.441 E1.2167
G1 X105.847 Y108.821 E1.24738
G1 X105.871 Y109.089 E1.26885
G1 X105.879 Y109.406 E1.29417
G1 X105.872 Y109.649 E1.31357
G1 X105.852 Y109.886 E1.33256
G1 X105.823 Y110.137 E1.35273
G1 X105.802 Y110.273 E1.36371
G1 X105.736 Y110.628 E1.39254
G1 X105.678 Y110.92 E1.4163
G1 X105.594 Y111.288 E1.44643
G1 X105.532 Y111.512 E1.46498
G1 X105.5 Y111.613 E1.47344
G1 X105.385 Y111.955 E1.50224
G1 X105.354 Y112.041 E1.50954
G1 X105.254 Y112.292 E1.53111
G1 X105.104 Y112.626 E1.56033
G1 X105.045 Y112.749 E1.57122
G1 X104.998 Y112.841 E1.57947
G1 X104.925 Y112.976 E1.59172
G1 X104.696 Y113.37 E1.6281
G1 X104.585 Y113.542 E1.64444
G1 X104.451 Y113.735 E1.66319
G1 X104.381 Y113.832 E1.67274
G1 X104.245 Y114.013 E1.69081
G1 X104.004 Y114.314 E1.72159
G1 X103.884 Y114.454 E1.73631
G1 X103.759 Y114.596 E1.75141
G1 X103.486 Y114.891 E1.7835
G1 X103.343 Y115.039 E1.79993
G1 X102.847 Y115.533 E1.85581
G1 X102.564 Y115.797 E1.8867
G1 X102.334 Y115.994 E1.91087
G1 X102.167 Y116.124 E1.92777
G1 X101.818 Y116.382 E1.96241
G1 X101.65 Y116.497 E1.97866
G1 X101.543 Y116.565 E1.98878
G1 X101.369 Y116.669 E2.00497
G1 X100.817 Y117.017 E2.05705
G1 X100.636 Y117.118 E2.0736
G1 X100.278 Y117.305 E2.10584
G1 X100.183 Y117.352 E2.1143
G1 X99.703 Y117.577 E2.15662
G1 X99.33 Y117.742 E2.18917
G1 X99.084 Y117.833 E2.21011
G1 X98.787 Y117.921 E2.23484
G1 X98.508 Y117.985 E2.25769
G1 X98.218 Y118.034 E2.28116
G1 X97.935 Y118.062 E2.30387
G1 X97.634 Y118.073 E2.32791
G1 X97.345 Y118.065 E2.35099
G1 X97.078 Y118.041 E2.37239
G1 X96.772 Y117.995 E2.39709
G1 X96.421 Y117.919 E2.42575
G1 X96.293 Y117.886 E2.43631
G1 X96.135 Y117.837 E2.44951
G1 X95.807 Y117.722 E2.47726
G1 X95.533 Y117.605 E2.50104
G1 X95.265 Y117.471 E2.52496
G1 X95.025 Y117.331 E2.54713
G1 X94.772 Y117.161 E2.57147
G1 X94.553 Y116.993 E2.5935
G1 X94.338 Y116.805 E2.6163
G1 X94.125 Y116.594 E2.64023
G1 X93.937 Y116.382 E2.66285
G1 X93.743 Y116.133 E2.68804
G1 X93.512 Y115.786 E2.72132
G1 X93.409 Y115.62 E2.73691
G1 X93.217 Y115.282 E2.76794
G1 X93.019 Y114.919 E2.80095
G1 X92.946 Y114.776 E2.81377
G1 X91.915 Y112.669 E3.00101
G1 X91.364 Y111.502 E3.10403
G1 X91.298 Y111.35 E3.11726
G1 X91.168 Y111.02 E3.14557
G1 X91.074 Y110.736 E3.16945
G1 X91.006 Y110.469 E3.19144
G1 X90.952 Y110.183 E3.21468
G1 X90.915 Y109.888 E3.23841
G1 X90.9 Y109.601 E3.26135
G1 X90.909 Y109.081 E3.30286
G1 X90.917 Y108.942 E3.31398
G1 X90.932 Y108.825 E3.32339
G1 X90.995 Y108.441 E3.35446
G1 X91.183 Y107.628 E3.42107
G1 X91.177 Y107.626 E3.42157
G1 X91.195 Y107.546 E3.42812
G1 X91.283 Y106.982 E3.47368
G1 X91.312 Y106.833 E3.4858
G1 X91.336 Y106.746 E3.493
G1 X91.449 Y106.373 E3.52411
G1 X91.54 Y106.126 E3.54513
G1 X91.664 Y105.848 E3.56942
G1 X91.801 Y105.586 E3.59302
G1 X91.951 Y105.339 E3.61609
G1 X92.121 Y105.098 E3.63963
G1 X92.31 Y104.86 E3.66389
G1 X92.48 Y104.671 E3.68419
G1 X92.705 Y104.449 E3.70942
G1 X92.802 Y104.359 E3.71998
G1 X93.027 Y104.16 E3.74396
G1 X93.159 Y104.039 E3.75825
G1 X93.911 Y103.327 E3.84092
G1 X94.319 Y102.891 E3.88858
G1 X94.574 Y102.588 E3.92019
G1 X94.781 Y102.324 E3.94697
G1 X94.828 Y102.26 E3.95331
G1 X95.027 Y102.023 E3.97801
G1 X95.21 Y101.83 E3.99925
G1 F2700 E-1.00075
G1 F300 Z0.74
G0 F12000 X120.362 Y91.276 Z0.74
G1 F300 Z0.24
G1 F2700 E3.99925
G1 F1800 X120.595 Y90.988 E4.02882
G1 X120.759 Y90.776 E4.05021
G1 X120.961 Y90.541 E4.07495
G1 X121.157 Y90.341 E4.0973
G1 X121.378 Y90.141 E4.12109
G1 X121.602 Y89.963 E4.14393
G1 X121.84 Y89.798 E4.16705
G1 X122.093 Y89.644 E4.19069
G1 X122.343 Y89.512 E4.21326
G1 X122.62 Y89.387 E4.23752
G1 X122.727 Y89.342 E4.24678
G1 X122.917 Y89.268 E4.26306
G1 X123.046 Y89.223 E4.27397
G1 X123.437 Y89.098 E4.30673
G1 X123.682 Y89.034 E4.32695
G1 X123.903 Y88.991 E4.34492
G1 X124.168 Y88.947 E4.36636
G1 X124.336 Y88.926 E4.37988
G1 X124.915 Y88.883 E4.42622
G1 X125.104 Y88.876 E4.44132
G1 X125.335 Y88.882 E4.45976
G1 X125.687 Y88.906 E4.48793
G1 X126.011 Y88.948 E4.51401
G1 X126.265 Y88.998 E4.53467
G1 X126.551 Y89.073 E4.55827
G1 X126.851 Y89.173 E4.58352
G1 X127.084 Y89.266 E4.60354
G1 X127.365 Y89.401 E4.62843
G1 X127.616 Y89.541 E4.65137
G1 X127.841 Y89.686 E4.67274
G1 X128.113 Y89.889 E4.69983
G1 X128.461 Y90.191 E4.73661
G1 X128.592 Y90.314 E4.75095
G1 X128.655 Y90.381 E4.75829
G1 X128.924 Y90.69 E4.791
G1 X129.093 Y90.911 E4.81321
G1 X129.263 Y91.163 E4.83747
G1 X129.406 Y91.408 E4.86011
G1 X129.535 Y91.666 E4.88314
G1 X129.647 Y91.928 E4.90589
G1 X129.747 Y92.213 E4.92999
G1 X129.82 Y92.471 E4.9514
G1 X129.882 Y92.757 E4.97476
G1 X129.927 Y93.07 E5
G1 X129.961 Y93.522 E5.03618
G1 X129.967 Y93.677 E5.04856
G1 X129.967 Y103.111 E5.80163
G1 X129.957 Y103.661 E5.84554
G1 X129.959 Y104.076 E5.87867
G1 X129.967 Y104.449 E5.90845
G1 X129.967 Y105.364 E5.98149
G1 X129.963 Y105.49 E5.99155
G1 X129.939 Y105.864 E6.02146
G1 X129.902 Y106.165 E6.04567
G1 X129.847 Y106.449 E6.06876
G1 X129.773 Y106.733 E6.09219
G1 X129.687 Y106.998 E6.11443
G1 X129.578 Y107.273 E6.13804
G1 X129.454 Y107.535 E6.16118
G1 X129.311 Y107.793 E6.18473
G1 X128.817 Y108.564 E6.25782
G1 X128.522 Y109.18 E6.31234
G1 X128.307 Y109.828 E6.36684
G1 X128.176 Y110.499 E6.42141
G1 X128.13 Y111.181 E6.47598
G1 X128.171 Y111.862 E6.53044
G1 X128.298 Y112.533 E6.58495
G1 X128.507 Y113.182 E6.63938
G1 X128.798 Y113.8 E6.6939
G1 X129.318 Y114.619 E6.77134
G1 X129.463 Y114.883 E6.79539
G1 X129.582 Y115.137 E6.81778
G1 X129.693 Y115.417 E6.84182
G1 X129.779 Y115.683 E6.86413
G1 X129.842 Y115.93 E6.88448
G1 X129.902 Y116.284 E6.91314
G1 X129.956 Y116.863 E6.95956
G1 X129.967 Y117.089 E6.97762
G1 X129.967 Y118.726 E7.1083
G1 X129.963 Y118.847 E7.11796
G1 X129.958 Y118.924 E7.12412
G1 X129.952 Y119.498 E7.16994
G1 X129.967 Y119.846 E7.19775
G1 X129.967 Y126.278 E7.71118
G1 X129.963 Y126.404 E7.72124
G1 X129.939 Y126.781 E7.75139
G1 X129.902 Y127.079 E7.77536
G1 X129.847 Y127.363 E7.79846
G1 X129.771 Y127.654 E7.82246
G1 X129.687 Y127.912 E7.84412
G1 X129.576 Y128.191 E7.86809
G1 X129.454 Y128.449 E7.89087
G1 X129.31 Y128.708 E7.91453
G1 X129.171 Y128.927 E7.93523
G1 X128.973 Y129.193 E7.9617
G1 X128.669 Y129.547 E7.99895
G1 X128.553 Y129.674 E8.01268
G1 X128.458 Y129.762 E8.02302
G1 X128.165 Y130.019 E8.05413
G1 X127.948 Y130.188 E8.07608
G1 X127.717 Y130.344 E8.09833
G1 X127.449 Y130.502 E8.12317
G1 X127.192 Y130.632 E8.14616
G1 X126.923 Y130.747 E8.16951
G1 X126.666 Y130.84 E8.19133
G1 X126.374 Y130.924 E8.21558
G1 X126.113 Y130.98 E8.23689
G1 X125.793 Y131.028 E8.26272
G1 X125.325 Y131.064 E8.30019
G1 X125.184 Y131.069 E8.31145
G1 X125.028 Y131.063 E8.32391
G1 X124.447 Y131.017 E8.37043
G1 X124.296 Y130.999 E8.38257
G1 X124.17 Y130.979 E8.39276
G1 X124.029 Y130.95 E8.40425
G1 X123.462 Y130.812 E8.45083
G1 X123.236 Y130.747 E8.4696
G1 X123.107 Y130.699 E8.48059
G1 X122.747 Y130.555 E8.51154
G1 X122.503 Y130.439 E8.5331
G1 X122.237 Y130.292 E8.55736
G1 X121.997 Y130.137 E8.58017
G1 X121.722 Y129.934 E8.60745
G1 X121.557 Y129.8 E8.62442
G1 X121.347 Y129.608 E8.64714
G1 X120.685 Y128.964 E8.72086
G1 X120.571 Y128.846 E8.73396
G1 X120.338 Y128.589 E8.76165
G1 X120.138 Y128.339 E8.7872
G1 X119.984 Y128.118 E8.8087
G1 X119.83 Y127.865 E8.83235
G1 X119.688 Y127.597 E8.85656
G1 X119.578 Y127.349 E8.87821
G1 X119.468 Y127.056 E8.9032
G1 X119.23 Y126.262 E8.96936
G1 X119.22 Y126.264 E8.97018
G1 X119.165 Y126.111 E8.98316
G1 X118.961 Y125.405 E9.04182
G1 X118.894 Y125.164 E9.06178
G1 X118.695 Y124.587 E9.11051
G1 X118.579 Y124.306 E9.13477
G1 X118.49 Y124.041 E9.15709
G1 X118.41 Y123.745 E9.18156
G1 X118.357 Y123.488 E9.20251
G1 X118.353 Y123.454 E9.20524
G1 X118.218 Y122.793 E9.25909
G1 X117.953 Y122.04 E9.32282
G1 X117.743 Y121.561 E9.36456
G1 X117.697 Y121.444 E9.3746
G1 X117.567 Y121.09 E9.4047
G1 X117.478 Y120.789 E9.42976
G1 X117.415 Y120.513 E9.45236
G1 X117.37 Y120.236 E9.47476
G1 X117.342 Y119.947 E9.49794
G1 X117.332 Y119.652 E9.5215
G1 X117.34 Y119.353 E9.54537
G1 X117.361 Y119.09 E9.56643
G1 X117.381 Y118.929 E9.57938
G1 X117.398 Y118.822 E9.58803
G1 X117.425 Y118.691 E9.59871
G1 X117.515 Y118.313 E9.62973
G1 X117.6 Y118.039 E9.65263
G1 X117.696 Y117.784 E9.67438
G1 X117.819 Y117.51 E9.69835
G1 X117.945 Y117.273 E9.71978
G1 X118.126 Y116.985 E9.74693
G1 X118.448 Y116.551 E9.79007
G1 X118.573 Y116.397 E9.8059
G1 X118.719 Y116.237 E9.82319
G1 X118.935 Y116.013 E9.84803
G1 X119.01 Y115.939 E9.85644
G1 X119.478 Y115.499 E9.90772
G1 X119.584 Y115.406 E9.91897
G1 X119.849 Y115.186 E9.94646
G1 X119.95 Y115.114 E9.95637
G1 X120.472 Y114.693 E10.0099
G1 X120.945 Y114.201 E10.06438
G1 X121.352 Y113.653 E10.11887
G1 X121.687 Y113.058 E10.17337
G1 X121.943 Y112.425 E10.22788
G1 X122.118 Y111.765 E10.28238
G1 X122.209 Y111.088 E10.33691
G1 X122.213 Y110.405 E10.39143
G1 X122.131 Y109.728 E10.44586
G1 X121.964 Y109.066 E10.50036
G1 X121.715 Y108.43 E10.55488
G1 X121.39 Y107.834 E10.60907
G1 X121.14 Y107.474 E10.64406
G1 X120.743 Y106.945 E10.69686
G1 X120.485 Y106.655 E10.72784
G1 X120.503 Y106.637 E10.72987
G1 X120.042 Y106.173 E10.78208
G1 X119.801 Y105.915 E10.81027
G1 X119.61 Y105.685 E10.83413
G1 X119.428 Y105.438 E10.85862
G1 X119.368 Y105.35 E10.86712
G1 X118.855 Y104.568 E10.94178
G1 X118.703 Y104.348 E10.96312
G1 X118.654 Y104.281 E10.96975
G1 X118.573 Y104.159 E10.98144
G1 X118.339 Y103.776 E11.01727
G1 X118.208 Y103.575 E11.03642
G1 X118.101 Y103.39 E11.05348
G1 X117.904 Y103.039 E11.08561
G1 X117.847 Y102.931 E11.09536
G1 X117.686 Y102.603 E11.12452
G1 X117.329 Y101.784 E11.19584
G1 X117.277 Y101.654 E11.20702
G1 X117.136 Y101.274 E11.23937
G1 X117.064 Y101.05 E11.25815
G1 X117.027 Y100.913 E11.26948
G1 X116.941 Y100.553 E11.29902
G1 X116.893 Y100.281 E11.32107
G1 X116.862 Y100.001 E11.34356
G1 X116.85 Y99.677 E11.36944
G1 X116.864 Y99.223 E11.4057
G1 X116.876 Y99.061 E11.41866
G1 X116.891 Y98.954 E11.42729
G1 X116.952 Y98.608 E11.45533
G1 X117.021 Y98.32 E11.47897
G1 X117.094 Y98.081 E11.49892
G1 X117.226 Y97.75 E11.52737
G1 X117.49 Y97.207 E11.57556
G1 X117.614 Y96.981 E11.59614
G1 X118.034 Y96.158 E11.6699
G1 X118.298 Y95.549 E11.72288
G1 X118.421 Y95.163 E11.75522
G1 X118.509 Y94.914 E11.7763
G1 X118.624 Y94.645 E11.79965
G1 X118.792 Y94.312 E11.82943
G1 X119.048 Y93.719 E11.88098
G1 X119.321 Y92.971 E11.94455
G1 X119.433 Y92.719 E11.96656
G1 X119.594 Y92.418 E11.99381
G1 X119.875 Y91.975 E12.03568
G1 X120.076 Y91.685 E12.06385
G1 X120.154 Y91.568 E12.07507
G1 X120.362 Y91.276 E12.10369
G0 F12000 X120 Y91.794
G1 F1800 X120 Y106.128 E13.24789
G1 F2700 E8.24789
G1 F300 Z0.74
G0 F12000 X121.6 Y108.219 Z0.74
G1 F300 Z0.24
G1 F2700 E13.24789
G1 F1800 X121.6 Y89.964 E14.70509
G1 F2700 E9.70509
G1 F300 Z0.74
G0 F12000 X123.2 Y89.173 Z0.74
G1 F300 Z0.24
G1 F2700 E14.70509
G1 F1800 X123.2 Y130.733 E18.02259
G1 F2700 E13.02259
G1 F300 Z0.74
G0 F12000 X124.8 Y131.044 Z0.74
G1 F300 Z0.24
G1 F2700 E18.02259
G1 F1800 X124.8 Y88.891 E21.38742
G1 F2700 E16.38742
G1 F300 Z0.74
G0 F12000 X126.4 Y89.034 Z0.74
G1 F300 Z0.24
G1 F2700 E21.38742
G1 F1800 X126.4 Y130.917 E24.7307
G1 F2700 E19.7307
G1 F300 Z0.74
G0 F12000 X128 Y130.148 Z0.74
G1 F300 Z0.24
G1 F2700 E24.7307
G1 F1800 X128 Y89.805 E27.95105
G1 F2700 E22.95105
G1 F300 Z0.74
G0 F12000 X129.6 Y91.819 Z0.74
G1 F300 Z0.24
G1 F2700 E27.95105
G1 F1800 X129.6 Y107.218 E29.18027
G1 F2700 E24.18027
G1 F300 Z0.74
G0 F12000 X129.6 Y115.183 Z0.74
G1 F300 Z0.24
G1 F2700 E29.18027
G1 F1800 X129.6 Y128.131 E30.21383
G1 F2700 E25.21383
G1 F300 Z0.74
G0 F12000 X121.6 Y129.834 Z0.74
G1 F300 Z0.24
G1 F2700 E30.21383
G1 F1800 X121.6 Y113.212 E31.54067
G1 F2700 E26.54067
G1 F300 Z0.74
G0 F12000 X120 Y115.073 Z0.74
G1 F300 Z0.24
G1 F2700 E31.54067
G1 F1800 X120 Y128.14 E32.58374
G1 F2700 E27.58374
G1 F300 Z0.74
G0 F12000 X118.4 Y123.696 Z0.74
G1 F300 Z0.24
G1 F2700 E32.58374
G1 F1800 X118.4 Y116.615 E33.14898
G1 F2700 E28.14898
G1 F300 Z0.74
G0 F12000 X118.4 Y103.875 Z0.74
G1 F300 Z0.24
G1 F2700 E33.14898
G1 F1800 X118.4 Y95.228 E33.83922
G1 F2700 E28.83922
G1 F300 Z0.74
G0 F12000 X104 Y104.089 Z0.74
G1 F300 Z0.24
G1 F2700 E33.83922
G1 F1800 X104 Y114.319 E34.65582
G1 F2700 E29.65582
G1 F300 Z0.74
G0 F12000 X102.4 Y115.938 Z0.74
G1 F300 Z0.24
G1 F2700 E34.65582
G1 F1800 X102.4 Y102.364 E35.73935
G1 F2700 E30.73935
G1 F300 Z0.74
G0 F12000 X100.8 Y101.018 Z0.74
G1 F300 Z0.24
G1 F2700 E35.73935
G1 F1800 X100.8 Y117.027 E37.01726
G1 F2700 E32.01726
G1 F300 Z0.74
G0 F12000 X99.2 Y117.791 Z0.74
G1 F300 Z0.24
G1 F2700 E37.01726
G1 F1800 X99.2 Y100.515 E38.39631
G1 F2700 E33.39631
G1 F300 Z0.74
G0 F12000 X97.6 Y100.579 Z0.74
G1 F300 Z0.24
G1 F2700 E38.39631
G1 F1800 X97.6 Y118.072 E39.79267
G1 F2700 E34.79267
G1 F300 Z0.74
G0 F12000 X96 Y117.789 Z0.74
G1 F300 Z0.24
G1 F2700 E39.79267
G1 F1800 X96 Y101.202 E41.11672
G1 F2700 E36.11672
G1 F300 Z0.74
G0 F12000 X94.4 Y102.794 Z0.74
G1 F300 Z0.24
G1 F2700 E41.11672
G1 F1800 X94.4 Y116.859 E42.23945
G1 F2700 E37.23945
G1 F300 Z0.74
G0 F12000 X92.8 Y114.477 Z0.74
G1 F300 Z0.24
G1 F2700 E42.23945
G1 F1800 X92.8 Y104.36 E43.04703
G1 F2700 E38.04703
G1 F300 Z0.74
G0 F12000 X91.2 Y107.513 Z0.74
G1 F300 Z0.24
G1 F2700 E43.04703
G1 F1800 X91.2 Y111.101 E43.33344
G1 F2700 E38.33344
G1 F300 Z0.74
G0 F12000 X105.6 Y111.262 Z0.74
G1 F300 Z0.24
G1 F2700 E43.33344
G1 F1800 X105.6 Y107.56 E43.62895
G1 F2700 E38.62895
G1 F300 Z0.74
G0 F12000 X103.462 Y103.435 Z0.74
;TIME_ELAPSED:36.610517
;LAYER:-5
M140 S65
G0 X103.462 Y103.435 Z1.04
;TYPE:SUPPORT
G1 F300 Z0.54
G1 F2700 E43.62895
G1 F1800 X103.158 Y103.118 E43.67278
G1 X103.006 Y102.968 E43.69408
G1 X102.745 Y102.721 E43.72994
G1 X102.533 Y102.509 E43.75986
G1 X102.477 Y102.449 E43.76804
G1 X102.13 Y102.066 E43.81961
