;FLAVOR:Marlin
;TIME:3274
;Filament used: 2.46469m
;Layer height: 0.2
;MINX:77.825
;MINY:87.2
;MINZ:0.2
;MAXX:142.175
;MAXY:132.8
;MAXZ:22
;Generated with Cura_SteamEngine master
M140 S50
M105
M190 S50
M104 S200
M105
M109 S200
M82 ;absolute extrusion mode
M201 X500.00 Y500.00 Z100.00 E5000.00 ;Setup machine max acceleration
M203 X500.00 Y500.00 Z10.00 E50.00 ;Setup machine max feedrate
M204 P500.00 R1000.00 T500.00 ;Setup Print/Retract/Travel acceleration
M205 X8.00 Y8.00 Z0.40 E5.00 ;Setup Jerk
M220 S100 ;Reset Feedrate
M221 S100 ;Reset Flowrate

G28 ;Home

G92 E0 ;Reset Extruder
G1 Z2.0 F3000 ;Move Z Axis up
G1 X10.1 Y20 Z0.28 F5000.0 ;Move to start position
G1 X10.1 Y200.0 Z0.28 F1500.0 E15 ;Draw the first line
G1 X10.4 Y200.0 Z0.28 F5000.0 ;Move to side a little
G1 X10.4 Y20 Z0.28 F1500.0 E30 ;Draw the second line
G92 E0 ;Reset Extruder
G1 Z2.0 F3000 ;Move Z Axis up

G92 E0
G92 E0
G1 F2700 E-5
;LAYER_COUNT:110
;LAYER:0
M107
G0 F6000 X81.731 Y90.246 Z0.2
;TYPE:SKIRT
G1 F2700 E0
G1 F1200 X82.479 Y89.626 E0.03231
G1 X83.275 Y89.069 E0.06463
G1 X84.114 Y88.58 E0.09693
G1 X84.99 Y88.161 E0.12922
G1 X85.898 Y87.816 E0.16153
G1 X86.832 Y87.547 E0.19386
G1 X87.784 Y87.355 E0.22616
G1 X88.749 Y87.242 E0.25847
G1 X89.303 Y87.214 E0.27692
G1 X89.624 Y87.205 E0.2876
G1 X89.955 Y87.2 E0.29861
G1 X111.086 Y87.201 E1.00143
G1 X111.787 Y87.211 E1.02475
G1 X112.757 Y87.265 E1.05706
G1 X113.77 Y87.408 E1.09109
G1 X114.973 Y87.631 E1.13178
G1 X115.552 Y87.746 E1.15142
G1 X118.009 Y88.164 E1.23431
G1 X120.476 Y88.512 E1.31718
G1 X122.973 Y88.794 E1.40076
G1 X125.445 Y89.001 E1.48326
G1 X127.965 Y89.141 E1.56721
G1 X130.398 Y89.209 E1.64816
G1 X130.6 Y89.213 E1.65488
G1 X131.569 Y89.273 E1.68717
G1 X132.531 Y89.411 E1.7195
G1 X133.477 Y89.629 E1.75178
G1 X134.403 Y89.923 E1.7841
G1 X135.301 Y90.293 E1.8164
G1 X136.166 Y90.735 E1.84871
G1 X136.992 Y91.247 E1.88103
G1 X137.772 Y91.825 E1.91332
G1 X138.503 Y92.465 E1.94564
G1 X139.178 Y93.163 E1.97793
G1 X139.794 Y93.915 E2.01026
G1 X140.346 Y94.714 E2.04256
G1 X140.83 Y95.557 E2.0749
G1 X141.243 Y96.436 E2.1072
G1 X141.582 Y97.346 E2.1395
G1 X141.846 Y98.281 E2.17181
G1 X142.031 Y99.234 E2.2041
G1 X142.161 Y100.678 E2.25232
G1 X142.17 Y100.997 E2.26294
G1 X142.175 Y101.33 E2.27401
G1 X142.174 Y118.41 E2.8421
G1 X142.165 Y119.137 E2.86628
G1 X142.113 Y120.107 E2.89859
G1 X141.981 Y121.07 E2.93091
G1 X141.771 Y122.018 E2.96321
G1 X141.484 Y122.946 E2.99552
G1 X141.121 Y123.847 E3.02783
G1 X140.685 Y124.715 E3.06013
G1 X140.179 Y125.544 E3.09244
G1 X139.607 Y126.329 E3.12474
G1 X138.972 Y127.064 E3.15705
G1 X138.279 Y127.745 E3.18936
G1 X137.532 Y128.366 E3.22167
G1 X136.736 Y128.924 E3.254
G1 X135.898 Y129.414 E3.28629
G1 X135.022 Y129.834 E3.3186
G1 X134.114 Y130.18 E3.35092
G1 X133.181 Y130.45 E3.38323
G1 X132.229 Y130.643 E3.41553
G1 X131.264 Y130.757 E3.44785
G1 X130.709 Y130.786 E3.46634
G1 X129.298 Y130.827 E3.51329
G1 X129.22 Y130.831 E3.51589
G1 X128.315 Y130.851 E3.54599
G1 X125.819 Y130.977 E3.62912
G1 X123.331 Y131.174 E3.71213
G1 X120.894 Y131.435 E3.79365
G1 X118.376 Y131.778 E3.87817
G1 X115.904 Y132.185 E3.96149
G1 X113.84 Y132.579 E4.03138
G1 X112.879 Y132.723 E4.0637
G1 X111.947 Y132.786 E4.09477
G1 X111.628 Y132.795 E4.10539
G1 X111.295 Y132.8 E4.11646
G1 X90.18 Y132.799 E4.81875
G1 X89.482 Y132.79 E4.84197
G1 X88.512 Y132.738 E4.87428
G1 X87.55 Y132.605 E4.90658
G1 X86.601 Y132.395 E4.9389
G1 X85.674 Y132.107 E4.97119
G1 X84.773 Y131.743 E5.00351
G1 X83.905 Y131.307 E5.03582
G1 X83.076 Y130.801 E5.06812
G1 X82.291 Y130.228 E5.10045
G1 X81.556 Y129.593 E5.13275
G1 X80.876 Y128.899 E5.16507
G1 X80.255 Y128.152 E5.19738
G1 X79.698 Y127.356 E5.22969
G1 X79.208 Y126.518 E5.26198
G1 X78.789 Y125.641 E5.2943
G1 X78.443 Y124.734 E5.32659
G1 X78.173 Y123.8 E5.35893
G1 X77.981 Y122.848 E5.39123
G1 X77.868 Y121.883 E5.42355
G1 X77.838 Y121.31 E5.44263
G1 X77.829 Y120.977 E5.45371
G1 X77.825 Y120.658 E5.46432
G1 X77.826 Y99.516 E6.16751
G1 X77.835 Y98.85 E6.18966
G1 X77.888 Y97.88 E6.22197
G1 X78.021 Y96.917 E6.2543
G1 X78.232 Y95.969 E6.28661
G1 X78.521 Y95.042 E6.3189
G1 X78.885 Y94.141 E6.35122
G1 X79.322 Y93.273 E6.38354
G1 X79.828 Y92.445 E6.41582
G1 X80.402 Y91.66 E6.44816
G1 X81.037 Y90.926 E6.48044
G1 X81.731 Y90.246 E6.51276
G0 F6000 X82.121 Y90.435
G1 F1200 X82.865 Y89.836 E6.54453
G1 X83.656 Y89.302 E6.57627
G1 X84.49 Y88.836 E6.60805
G1 X85.359 Y88.441 E6.6398
G1 X86.258 Y88.12 E6.67155
G1 X87.181 Y87.876 E6.7033
G1 X88.121 Y87.71 E6.73505
G1 X89.314 Y87.613 E6.77486
G1 X89.635 Y87.604 E6.78554
G1 X89.955 Y87.6 E6.79618
G1 X111.081 Y87.601 E7.49884
G1 X111.782 Y87.611 E7.52215
G1 X112.735 Y87.665 E7.5539
G1 X113.697 Y87.801 E7.58622
G1 X114.9 Y88.024 E7.62691
G1 X115.472 Y88.138 E7.64631
G1 X117.958 Y88.56 E7.73018
G1 X120.447 Y88.912 E7.81378
G1 X122.928 Y89.192 E7.89683
G1 X125.425 Y89.401 E7.98017
G1 X127.896 Y89.539 E8.06248
G1 X130.592 Y89.613 E8.15218
G1 X131.545 Y89.672 E8.18394
G1 X132.489 Y89.81 E8.21567
G1 X133.419 Y90.027 E8.24744
G1 X134.328 Y90.321 E8.27921
G1 X135.208 Y90.69 E8.31095
G1 X136.055 Y91.132 E8.34273
G1 X136.861 Y91.643 E8.37447
G1 X137.623 Y92.219 E8.40624
G1 X138.333 Y92.857 E8.43799
G1 X138.987 Y93.552 E8.46973
G1 X139.581 Y94.3 E8.5015
G1 X140.11 Y95.094 E8.53323
G1 X140.571 Y95.931 E8.56501
G1 X140.961 Y96.802 E8.59675
G1 X141.276 Y97.704 E8.62853
G1 X141.514 Y98.628 E8.66026
G1 X141.674 Y99.569 E8.69201
G1 X141.761 Y100.689 E8.72938
G1 X141.77 Y101.008 E8.73999
G1 X141.775 Y101.33 E8.7507
G1 X141.774 Y118.405 E9.31862
G1 X141.765 Y119.132 E9.3428
G1 X141.713 Y120.085 E9.37454
G1 X141.582 Y121.031 E9.40631
G1 X141.372 Y121.963 E9.43808
G1 X141.085 Y122.873 E9.46982
G1 X140.722 Y123.756 E9.50157
G1 X140.287 Y124.606 E9.53333
G1 X139.782 Y125.417 E9.56511
G1 X139.212 Y126.182 E9.59684
G1 X138.579 Y126.897 E9.6286
G1 X137.889 Y127.557 E9.66036
G1 X137.145 Y128.156 E9.69213
G1 X136.355 Y128.691 E9.72386
G1 X135.522 Y129.158 E9.75562
G1 X134.653 Y129.554 E9.78738
G1 X133.754 Y129.876 E9.81915
G1 X132.831 Y130.121 E9.85091
G1 X131.891 Y130.288 E9.88266
G1 X130.697 Y130.386 E9.92251
G1 X129.286 Y130.427 E9.96946
G1 X129.286 Y130.425 E9.96952
G1 X129.211 Y130.431 E9.97203
G1 X128.322 Y130.451 E10.0016
G1 X125.801 Y130.578 E10.08556
G1 X123.296 Y130.776 E10.16913
G1 X120.794 Y131.045 E10.25283
G1 X118.328 Y131.38 E10.3356
G1 X115.842 Y131.79 E10.41941
G1 X113.764 Y132.186 E10.48976
G1 X112.82 Y132.327 E10.52151
G1 X111.936 Y132.386 E10.55098
G1 X111.617 Y132.395 E10.56159
G1 X111.295 Y132.4 E10.5723
G1 X90.185 Y132.399 E11.27442
G1 X89.487 Y132.39 E11.29764
G1 X88.534 Y132.338 E11.32939
G1 X87.588 Y132.206 E11.36115
G1 X86.657 Y131.995 E11.3929
G1 X85.746 Y131.708 E11.42467
G1 X84.863 Y131.345 E11.45643
G1 X84.014 Y130.909 E11.48817
G1 X83.203 Y130.404 E11.51995
G1 X82.438 Y129.833 E11.5517
G1 X81.724 Y129.2 E11.58343
G1 X81.064 Y128.509 E11.61521
G1 X80.465 Y127.766 E11.64696
G1 X79.931 Y126.975 E11.6787
G1 X79.464 Y126.142 E11.71046
G1 X79.069 Y125.273 E11.74221
G1 X78.747 Y124.374 E11.77397
G1 X78.503 Y123.451 E11.80573
G1 X78.336 Y122.511 E11.83748
G1 X78.238 Y121.299 E11.87792
G1 X78.229 Y120.966 E11.889
G1 X78.225 Y120.658 E11.89925
G1 X78.226 Y99.521 E12.60227
G1 X78.235 Y98.855 E12.62442
G1 X78.288 Y97.902 E12.65617
G1 X78.42 Y96.956 E12.68794
G1 X78.631 Y96.025 E12.71969
G1 X78.92 Y95.115 E12.75144
G1 X79.283 Y94.232 E12.7832
G1 X79.719 Y93.382 E12.81497
G1 X80.225 Y92.573 E12.84671
G1 X80.796 Y91.808 E12.87846
G1 X81.43 Y91.094 E12.91022
G1 X82.121 Y90.435 E12.94197
G0 F6000 X82.511 Y90.627
G1 F1200 X83.25 Y90.051 E12.97314
G1 X84.037 Y89.54 E13.00435
G1 X84.864 Y89.097 E13.03555
G1 X85.725 Y88.727 E13.06672
G1 X86.615 Y88.431 E13.09792
G1 X87.527 Y88.213 E13.1291
G1 X88.455 Y88.072 E13.16032
G1 X89.326 Y88.013 E13.18936
G1 X89.647 Y88.004 E13.20004
G1 X89.955 Y88 E13.21029
G1 X111.075 Y88.001 E13.91274
G1 X111.776 Y88.011 E13.93606
G1 X112.712 Y88.064 E13.96724
G1 X113.624 Y88.194 E13.99788
G1 X114.827 Y88.417 E14.03857
G1 X115.424 Y88.536 E14.05882
G1 X117.871 Y88.952 E14.14137
G1 X120.378 Y89.306 E14.22558
G1 X122.887 Y89.589 E14.30956
G1 X125.406 Y89.8 E14.39364
G1 X127.899 Y89.939 E14.47669
G1 X130.584 Y90.013 E14.56602
G1 X131.52 Y90.072 E14.59722
G1 X132.447 Y90.21 E14.62839
G1 X133.36 Y90.426 E14.65959
G1 X134.251 Y90.72 E14.6908
G1 X135.113 Y91.088 E14.72197
G1 X135.941 Y91.529 E14.75317
G1 X136.729 Y92.038 E14.78438
G1 X137.47 Y92.613 E14.81557
G1 X138.16 Y93.248 E14.84676
G1 X138.793 Y93.94 E14.87795
G1 X139.364 Y94.684 E14.90915
G1 X139.87 Y95.473 E14.94032
G1 X140.308 Y96.303 E14.97154
G1 X140.673 Y97.167 E15.00273
G1 X140.962 Y98.059 E15.03392
G1 X141.175 Y98.972 E15.0651
G1 X141.31 Y99.901 E15.09632
G1 X141.362 Y100.701 E15.12299
G1 X141.371 Y101.02 E15.1336
G1 X141.375 Y101.33 E15.14391
G1 X141.374 Y118.4 E15.71166
G1 X141.365 Y119.127 E15.73585
G1 X141.314 Y120.064 E15.76706
G1 X141.182 Y120.992 E15.79823
G1 X140.973 Y121.906 E15.82942
G1 X140.686 Y122.799 E15.86061
G1 X140.324 Y123.665 E15.89183
G1 X139.89 Y124.496 E15.92301
G1 X139.386 Y125.287 E15.95421
G1 X138.817 Y126.032 E15.98539
G1 X138.186 Y126.727 E16.01661
G1 X137.499 Y127.365 E16.04779
G1 X136.76 Y127.942 E16.07898
G1 X135.974 Y128.454 E16.11018
G1 X135.148 Y128.897 E16.14135
G1 X134.286 Y129.269 E16.17258
G1 X133.397 Y129.565 E16.20374
G1 X132.485 Y129.785 E16.23495
G1 X131.558 Y129.926 E16.26613
G1 X130.685 Y129.986 E16.29524
G1 X129.274 Y130.026 E16.34219
G1 X129.202 Y130.031 E16.34459
G1 X128.293 Y130.051 E16.37483
G1 X125.786 Y130.178 E16.45832
G1 X123.255 Y130.378 E16.54276
G1 X120.769 Y130.645 E16.62592
G1 X118.246 Y130.987 E16.7106
G1 X115.781 Y131.394 E16.7937
G1 X113.689 Y131.794 E16.86454
G1 X112.761 Y131.931 E16.89574
G1 X111.924 Y131.987 E16.92364
G1 X111.605 Y131.996 E16.93426
G1 X111.295 Y132 E16.94457
G1 X90.19 Y131.999 E17.64652
G1 X89.492 Y131.99 E17.66974
G1 X88.556 Y131.938 E17.70092
G1 X87.627 Y131.806 E17.73213
G1 X86.713 Y131.596 E17.76332
G1 X85.82 Y131.309 E17.79452
G1 X84.955 Y130.946 E17.82572
G1 X84.124 Y130.512 E17.8569
G1 X83.333 Y130.008 E17.8881
G1 X82.588 Y129.438 E17.9193
G1 X81.894 Y128.807 E17.95049
G1 X81.257 Y128.12 E17.98165
G1 X80.68 Y127.38 E18.01286
G1 X80.168 Y126.594 E18.04406
G1 X79.725 Y125.767 E18.07527
G1 X79.354 Y124.906 E18.10645
G1 X79.058 Y124.016 E18.13764
G1 X78.839 Y123.104 E18.16884
G1 X78.698 Y122.177 E18.20003
G1 X78.638 Y121.288 E18.22966
G1 X78.629 Y120.955 E18.24074
G1 X78.625 Y120.658 E18.25062
G1 X78.626 Y99.526 E18.95347
G1 X78.635 Y98.86 E18.97563
G1 X78.688 Y97.924 E19.00681
G1 X78.82 Y96.995 E19.03802
G1 X79.031 Y96.082 E19.06919
G1 X79.319 Y95.189 E19.10039
G1 X79.681 Y94.324 E19.13158
G1 X80.117 Y93.493 E19.16279
G1 X80.621 Y92.703 E19.19396
G1 X81.191 Y91.958 E19.22516
G1 X81.822 Y91.264 E19.25636
G1 X82.511 Y90.627 E19.28757
G0 F6000 X82.214 Y91.439
G1 F1200 X82.899 Y90.823 E19.31821
G1 X83.635 Y90.27 E19.34883
G1 X84.416 Y89.782 E19.37946
G1 X85.236 Y89.364 E19.41007
G1 X86.09 Y89.019 E19.4407
G1 X86.97 Y88.749 E19.47132
G1 X87.87 Y88.557 E19.50193
G1 X88.784 Y88.443 E19.53256
G1 X89.337 Y88.413 E19.55098
G1 X89.658 Y88.404 E19.56166
G1 X89.955 Y88.4 E19.57154
G1 X110.918 Y88.4 E20.26877
G1 X111.77 Y88.411 E20.29711
G1 X112.689 Y88.464 E20.32773
G1 X113.551 Y88.588 E20.3567
G1 X114.908 Y88.84 E20.4026
G1 X115.35 Y88.929 E20.4176
G1 X117.82 Y89.349 E20.50093
G1 X120.349 Y89.706 E20.58588
G1 X122.845 Y89.988 E20.66942
G1 X125.35 Y90.197 E20.75303
G1 X127.901 Y90.339 E20.83801
G1 X130.427 Y90.41 E20.92206
G1 X130.576 Y90.413 E20.92701
G1 X131.495 Y90.471 E20.95764
G1 X132.405 Y90.609 E20.98825
G1 X133.3 Y90.825 E21.01888
G1 X134.173 Y91.118 E21.0495
G1 X135.017 Y91.486 E21.08013
G1 X135.826 Y91.925 E21.11074
G1 X136.594 Y92.433 E21.14137
G1 X137.314 Y93.006 E21.17197
G1 X137.983 Y93.639 E21.2026
G1 X138.594 Y94.328 E21.23323
G1 X139.143 Y95.067 E21.26385
G1 X139.625 Y95.851 E21.29446
G1 X140.038 Y96.674 E21.32509
G1 X140.378 Y97.529 E21.35569
G1 X140.642 Y98.411 E21.38631
G1 X140.829 Y99.313 E21.41695
G1 X140.937 Y100.227 E21.44756
G1 X140.962 Y100.712 E21.46372
G1 X140.971 Y101.031 E21.47433
G1 X140.975 Y101.33 E21.48428
G1 X140.974 Y118.395 E22.05186
G1 X140.965 Y119.122 E22.07604
G1 X140.914 Y120.041 E22.10666
G1 X140.783 Y120.953 E22.1373
G1 X140.573 Y121.849 E22.16791
G1 X140.287 Y122.724 E22.19853
G1 X139.926 Y123.571 E22.22915
G1 X139.492 Y124.383 E22.25977
G1 X138.99 Y125.155 E22.2904
G1 X138.422 Y125.88 E22.32103
G1 X137.794 Y126.553 E22.35165
G1 X137.11 Y127.169 E22.38227
G1 X136.375 Y127.723 E22.41288
G1 X135.595 Y128.212 E22.4435
G1 X134.775 Y128.631 E22.47413
G1 X133.922 Y128.977 E22.50474
G1 X133.042 Y129.248 E22.53537
G1 X132.142 Y129.441 E22.56598
G1 X131.228 Y129.556 E22.59662
G1 X130.674 Y129.587 E22.61508
G1 X129.263 Y129.627 E22.66202
G1 X129.193 Y129.631 E22.66436
G1 X128.3 Y129.651 E22.69407
G1 X125.733 Y129.78 E22.77955
G1 X123.217 Y129.979 E22.8635
G1 X120.709 Y130.249 E22.94739
G1 X118.233 Y130.585 E23.0305
G1 X115.681 Y131.006 E23.11653
G1 X113.613 Y131.401 E23.18655
G1 X112.702 Y131.535 E23.21718
G1 X111.913 Y131.587 E23.24348
G1 X111.594 Y131.596 E23.25409
G1 X111.295 Y131.6 E23.26404
G1 X90.195 Y131.599 E23.96583
G1 X89.497 Y131.59 E23.98905
G1 X88.578 Y131.538 E24.01966
G1 X87.667 Y131.407 E24.05027
G1 X86.771 Y131.197 E24.08088
G1 X85.896 Y130.91 E24.11151
G1 X85.049 Y130.548 E24.14214
G1 X84.237 Y130.114 E24.17277
G1 X83.466 Y129.612 E24.20337
G1 X82.741 Y129.044 E24.234
G1 X82.068 Y128.415 E24.26464
G1 X81.453 Y127.731 E24.29523
G1 X80.899 Y126.996 E24.32585
G1 X80.411 Y126.215 E24.35648
G1 X79.992 Y125.395 E24.3871
G1 X79.646 Y124.542 E24.41772
G1 X79.376 Y123.662 E24.44833
G1 X79.183 Y122.761 E24.47898
G1 X79.069 Y121.848 E24.50958
G1 X79.038 Y121.277 E24.5286
G1 X79.029 Y120.944 E24.53968
G1 X79.025 Y120.658 E24.5492
G1 X79.026 Y99.532 E25.25185
G1 X79.035 Y98.866 E25.274
G1 X79.087 Y97.947 E25.30462
G1 X79.219 Y97.035 E25.33527
G1 X79.43 Y96.139 E25.36588
G1 X79.717 Y95.265 E25.39648
G1 X80.08 Y94.418 E25.42713
G1 X80.514 Y93.607 E25.45772
G1 X81.017 Y92.836 E25.48834
G1 X81.585 Y92.111 E25.51897
G1 X82.214 Y91.439 E25.54959
G0 F6000 X82.606 Y91.617
G1 F1200 X83.287 Y91.024 E25.57962
G1 X84.018 Y90.494 E25.60965
G1 X84.794 Y90.031 E25.63971
G1 X85.607 Y89.638 E25.66974
G1 X86.451 Y89.318 E25.69976
G1 X87.321 Y89.075 E25.72981
G1 X88.209 Y88.909 E25.75985
G1 X89.348 Y88.813 E25.79787
G1 X89.669 Y88.804 E25.80855
G1 X89.955 Y88.8 E25.81807
G1 X110.918 Y88.8 E26.5153
G1 X111.764 Y88.811 E26.54344
G1 X112.666 Y88.864 E26.57349
G1 X113.478 Y88.981 E26.60078
G1 X114.829 Y89.232 E26.64648
G1 X115.27 Y89.321 E26.66144
G1 X117.768 Y89.745 E26.74572
G1 X120.284 Y90.101 E26.83023
G1 X122.834 Y90.389 E26.91559
G1 X125.331 Y90.598 E26.99893
G1 X127.867 Y90.739 E27.0834
G1 X130.409 Y90.81 E27.16798
G1 X130.568 Y90.813 E27.17327
G1 X131.469 Y90.871 E27.2033
G1 X132.362 Y91.008 E27.23335
G1 X133.239 Y91.224 E27.26339
G1 X134.093 Y91.516 E27.29341
G1 X134.918 Y91.883 E27.32344
G1 X135.708 Y92.322 E27.3535
G1 X136.456 Y92.828 E27.38354
G1 X137.156 Y93.399 E27.41359
G1 X137.802 Y94.029 E27.4436
G1 X138.391 Y94.715 E27.47367
G1 X138.916 Y95.449 E27.50368
G1 X139.375 Y96.227 E27.53373
G1 X139.762 Y97.043 E27.56377
G1 X140.077 Y97.889 E27.59379
G1 X140.315 Y98.761 E27.62386
G1 X140.475 Y99.649 E27.65387
G1 X140.562 Y100.723 E27.6897
G1 X140.571 Y101.042 E27.70032
G1 X140.575 Y101.33 E27.7099
G1 X140.574 Y118.39 E28.27732
G1 X140.565 Y119.117 E28.3015
G1 X140.514 Y120.019 E28.33155
G1 X140.383 Y120.913 E28.3616
G1 X140.174 Y121.791 E28.39162
G1 X139.888 Y122.648 E28.42167
G1 X139.527 Y123.476 E28.45171
G1 X139.095 Y124.268 E28.48172
G1 X138.594 Y125.02 E28.51177
G1 X138.028 Y125.724 E28.54181
G1 X137.403 Y126.375 E28.57183
G1 X136.722 Y126.969 E28.60189
G1 X135.991 Y127.5 E28.63194
G1 X135.217 Y127.964 E28.66195
G1 X134.404 Y128.358 E28.692
G1 X133.56 Y128.678 E28.72202
G1 X132.69 Y128.923 E28.75208
G1 X131.803 Y129.089 E28.7821
G1 X130.662 Y129.187 E28.82019
G1 X129.251 Y129.228 E28.86714
G1 X129.251 Y129.225 E28.86724
G1 X129.184 Y129.231 E28.86947
