;FLAVOR:Marlin
;TIME:3402
;Filament used: 2.54755m
;Layer height: 0.2
;MINX:81.825
;MINY:91.2
;MINZ:0.2
;MAXX:138.175
;MAXY:128.8
;MAXZ:22
;Generated with Cura_SteamEngine master
M140 S50
M105
M190 S50
M104 S200
M105
M109 S200
M82 ;absolute extrusion mode
M201 X500.00 Y500.00 Z100.00 E5000.00 ;Setup machine max acceleration
M203 X500.00 Y500.00 Z10.00 E50.00 ;Setup machine max feedrate
M204 P500.00 R1000.00 T500.00 ;Setup Print/Retract/Travel acceleration
M205 X8.00 Y8.00 Z0.40 E5.00 ;Setup Jerk
M220 S100 ;Reset Feedrate
M221 S100 ;Reset Flowrate

G28 ;Home

G92 E0 ;Reset Extruder
G1 Z2.0 F3000 ;Move Z Axis up
G1 X10.1 Y20 Z0.28 F5000.0 ;Move to start position
G1 X10.1 Y200.0 Z0.28 F1500.0 E15 ;Draw the first line
G1 X10.4 Y200.0 Z0.28 F5000.0 ;Move to side a little
G1 X10.4 Y20 Z0.28 F1500.0 E30 ;Draw the second line
G92 E0 ;Reset Extruder
G1 Z2.0 F3000 ;Move Z Axis up

G92 E0
G92 E0
G1 F2700 E-5
;LAYER_COUNT:110
;LAYER:0
M107
G0 F6000 X84.227 Y93.485 Z0.2
;TYPE:SKIRT
G1 F2700 E0
G1 F1200 X84.813 Y92.955 E0.02628
G1 X85.449 Y92.488 E0.05252
G1 X86.129 Y92.087 E0.07878
G1 X86.847 Y91.757 E0.10506
G1 X87.594 Y91.502 E0.13132
G1 X88.363 Y91.323 E0.15758
G1 X89.147 Y91.223 E0.18386
G1 X89.742 Y91.2 E0.20367
G1 X111.508 Y91.2 E0.92761
G1 X112.297 Y91.24 E0.95388
G1 X113.077 Y91.359 E0.98013
G1 X113.842 Y91.557 E1.00641
G1 X114.582 Y91.831 E1.03265
G1 X115.291 Y92.179 E1.05892
G1 X115.962 Y92.597 E1.08522
G1 X116.586 Y93.08 E1.11146
G1 X117.023 Y93.485 E1.13128
G1 X117.14 Y93.602 E1.13678
G1 X117.67 Y94.188 E1.16306
G1 X117.757 Y94.306 E1.16794
G1 X118.129 Y94.087 E1.1823
G1 X118.847 Y93.757 E1.20858
G1 X119.594 Y93.502 E1.23483
G1 X120.363 Y93.323 E1.26109
G1 X121.147 Y93.223 E1.28738
G1 X121.742 Y93.2 E1.30718
G1 X124.508 Y93.2 E1.39918
G1 X125.297 Y93.24 E1.42546
G1 X126.077 Y93.359 E1.4517
G1 X126.613 Y93.498 E1.47012
G1 X127.363 Y93.323 E1.49573
G1 X128.147 Y93.223 E1.52202
G1 X128.742 Y93.2 E1.54182
G1 X130.258 Y93.2 E1.59225
G1 X131.047 Y93.24 E1.61852
G1 X131.827 Y93.359 E1.64477
G1 X132.592 Y93.557 E1.67105
G1 X133.332 Y93.831 E1.69729
G1 X134.041 Y94.179 E1.72356
G1 X134.712 Y94.597 E1.74986
G1 X135.336 Y95.08 E1.7761
G1 X135.773 Y95.485 E1.79592
G1 X135.89 Y95.602 E1.80142
G1 X136.42 Y96.188 E1.8277
G1 X136.887 Y96.824 E1.85395
G1 X137.288 Y97.504 E1.8802
G1 X137.618 Y98.222 E1.90648
G1 X137.873 Y98.969 E1.93274
G1 X138.052 Y99.738 E1.959
G1 X138.152 Y100.522 E1.98529
G1 X138.175 Y101.117 E2.00509
G1 X138.175 Y118.883 E2.59599
G1 X138.135 Y119.672 E2.62227
G1 X138.016 Y120.452 E2.64851
G1 X137.818 Y121.217 E2.67479
G1 X137.544 Y121.957 E2.70104
G1 X137.196 Y122.666 E2.72731
G1 X136.778 Y123.337 E2.7536
G1 X136.295 Y123.961 E2.77984
G1 X135.89 Y124.398 E2.79966
G1 X135.773 Y124.515 E2.80516
G1 X135.187 Y125.045 E2.83144
G1 X134.551 Y125.512 E2.85769
G1 X133.871 Y125.913 E2.88394
G1 X133.153 Y126.243 E2.91023
G1 X132.406 Y126.498 E2.93648
G1 X131.637 Y126.677 E2.96274
G1 X130.853 Y126.777 E2.98903
G1 X130.258 Y126.8 E3.00883
G1 X128.742 Y126.8 E3.05925
G1 X127.953 Y126.76 E3.08553
G1 X127.173 Y126.641 E3.11177
G1 X126.637 Y126.502 E3.13019
G1 X125.887 Y126.677 E3.15581
G1 X125.103 Y126.777 E3.18209
G1 X124.508 Y126.8 E3.2019
G1 X121.742 Y126.8 E3.2939
G1 X120.953 Y126.76 E3.32017
G1 X120.173 Y126.641 E3.34641
G1 X119.408 Y126.443 E3.3727
G1 X118.668 Y126.169 E3.39894
G1 X117.959 Y125.821 E3.42521
G1 X117.753 Y125.693 E3.43328
G1 X117.545 Y125.961 E3.44456
G1 X117.14 Y126.398 E3.46438
G1 X117.023 Y126.515 E3.46988
G1 X116.437 Y127.045 E3.49616
G1 X115.801 Y127.512 E3.5224
G1 X115.121 Y127.913 E3.54866
G1 X114.403 Y128.243 E3.57494
G1 X113.656 Y128.498 E3.6012
G1 X112.887 Y128.677 E3.62746
G1 X112.103 Y128.777 E3.65374
G1 X111.508 Y128.8 E3.67355
G1 X89.742 Y128.8 E4.39749
G1 X88.953 Y128.76 E4.42377
G1 X88.173 Y128.641 E4.45001
G1 X87.408 Y128.443 E4.47629
G1 X86.668 Y128.169 E4.50254
G1 X85.959 Y127.821 E4.5288
G1 X85.288 Y127.403 E4.5551
G1 X84.664 Y126.92 E4.58134
G1 X84.227 Y126.515 E4.60116
G1 X84.11 Y126.398 E4.60666
G1 X83.58 Y125.812 E4.63294
G1 X83.113 Y125.176 E4.65919
G1 X82.712 Y124.496 E4.68544
G1 X82.382 Y123.778 E4.71173
G1 X82.127 Y123.031 E4.73798
G1 X81.948 Y122.262 E4.76424
G1 X81.848 Y121.478 E4.79053
G1 X81.825 Y120.883 E4.81033
G1 X81.825 Y99.117 E5.53427
G1 X81.865 Y98.328 E5.56055
G1 X81.984 Y97.548 E5.58679
G1 X82.182 Y96.783 E5.61307
G1 X82.456 Y96.043 E5.63932
G1 X82.804 Y95.334 E5.66559
G1 X83.222 Y94.663 E5.69188
G1 X83.705 Y94.039 E5.71813
G1 X84.11 Y93.602 E5.73794
G1 X84.227 Y93.485 E5.74345
G0 F6000 X84.509 Y93.767
G1 F1200 X85.081 Y93.253 E5.76902
G1 X85.703 Y92.8 E5.79462
G1 X86.368 Y92.414 E5.82019
G1 X87.07 Y92.099 E5.84578
G1 X87.801 Y91.859 E5.87137
G1 X88.552 Y91.696 E5.89693
G1 X89.317 Y91.612 E5.92253
G1 X89.742 Y91.6 E5.93667
G1 X111.508 Y91.6 E6.66061
G1 X112.276 Y91.64 E6.68619
G1 X113.036 Y91.759 E6.71178
G1 X113.779 Y91.957 E6.73735
G1 X114.498 Y92.231 E6.76294
G1 X115.184 Y92.578 E6.78851
G1 X115.831 Y92.994 E6.81409
G1 X116.431 Y93.475 E6.83967
G1 X116.741 Y93.767 E6.85384
G1 X116.858 Y93.884 E6.85934
G1 X117.372 Y94.456 E6.88492
G1 X117.65 Y94.838 E6.90063
G1 X117.703 Y94.8 E6.9028
G1 X118.368 Y94.414 E6.92837
G1 X119.07 Y94.099 E6.95396
G1 X119.801 Y93.859 E6.97955
G1 X120.552 Y93.696 E7.00511
G1 X121.317 Y93.612 E7.03071
G1 X121.742 Y93.6 E7.04485
G1 X124.508 Y93.6 E7.13685
G1 X125.276 Y93.64 E7.16243
G1 X126.036 Y93.759 E7.18801
G1 X126.626 Y93.916 E7.20832
G1 X126.801 Y93.859 E7.21444
G1 X127.552 Y93.696 E7.24
G1 X128.317 Y93.612 E7.2656
G1 X128.742 Y93.6 E7.27974
G1 X130.258 Y93.6 E7.33016
G1 X131.026 Y93.64 E7.35574
G1 X131.786 Y93.759 E7.38133
G1 X132.529 Y93.957 E7.4069
G1 X133.248 Y94.231 E7.43249
G1 X133.934 Y94.578 E7.45806
G1 X134.581 Y94.994 E7.48365
G1 X135.181 Y95.475 E7.50922
G1 X135.491 Y95.767 E7.52339
G1 X135.608 Y95.884 E7.52889
G1 X136.122 Y96.456 E7.55447
G1 X136.575 Y97.078 E7.58006
G1 X136.961 Y97.743 E7.60564
G1 X137.276 Y98.445 E7.63123
G1 X137.516 Y99.176 E7.65682
G1 X137.679 Y99.927 E7.68238
G1 X137.763 Y100.692 E7.70797
G1 X137.775 Y101.117 E7.72212
G1 X137.775 Y118.883 E8.31301
G1 X137.735 Y119.651 E8.33859
G1 X137.616 Y120.411 E8.36418
G1 X137.418 Y121.154 E8.38975
G1 X137.144 Y121.873 E8.41535
G1 X136.797 Y122.559 E8.44091
G1 X136.381 Y123.206 E8.4665
G1 X135.9 Y123.806 E8.49208
G1 X135.608 Y124.116 E8.50624
G1 X135.491 Y124.233 E8.51174
G1 X134.919 Y124.747 E8.53732
G1 X134.297 Y125.2 E8.56291
G1 X133.632 Y125.586 E8.58849
G1 X132.93 Y125.901 E8.61408
G1 X132.199 Y126.141 E8.63967
G1 X131.448 Y126.304 E8.66523
G1 X130.683 Y126.388 E8.69083
G1 X130.258 Y126.4 E8.70497
G1 X128.742 Y126.4 E8.75539
G1 X127.974 Y126.36 E8.78097
G1 X127.214 Y126.241 E8.80655
G1 X126.624 Y126.084 E8.82686
G1 X126.449 Y126.141 E8.83298
G1 X125.698 Y126.304 E8.85854
G1 X124.933 Y126.388 E8.88414
G1 X124.508 Y126.4 E8.89828
G1 X121.742 Y126.4 E8.99028
G1 X120.974 Y126.36 E9.01586
G1 X120.214 Y126.241 E9.04144
G1 X119.471 Y126.043 E9.06702
G1 X118.752 Y125.769 E9.09261
G1 X118.066 Y125.422 E9.11818
G1 X117.66 Y125.161 E9.13423
G1 X117.631 Y125.206 E9.13601
G1 X117.15 Y125.806 E9.16159
G1 X116.858 Y126.116 E9.17575
G1 X116.741 Y126.233 E9.18126
G1 X116.169 Y126.747 E9.20683
G1 X115.547 Y127.2 E9.23243
G1 X114.882 Y127.586 E9.258
G1 X114.18 Y127.901 E9.28359
G1 X113.449 Y128.141 E9.30918
G1 X112.698 Y128.304 E9.33474
G1 X111.933 Y128.388 E9.36034
G1 X111.508 Y128.4 E9.37448
G1 X89.742 Y128.4 E10.09842
G1 X88.974 Y128.36 E10.124
G1 X88.214 Y128.241 E10.14958
G1 X87.471 Y128.043 E10.17516
G1 X86.752 Y127.769 E10.20075
G1 X86.066 Y127.422 E10.22632
G1 X85.419 Y127.006 E10.2519
G1 X84.819 Y126.525 E10.27748
G1 X84.509 Y126.233 E10.29164
G1 X84.392 Y126.116 E10.29715
G1 X83.878 Y125.544 E10.32272
G1 X83.425 Y124.922 E10.34832
G1 X83.039 Y124.257 E10.37389
G1 X82.724 Y123.555 E10.39948
G1 X82.484 Y122.824 E10.42507
G1 X82.321 Y122.073 E10.45063
G1 X82.237 Y121.308 E10.47623
G1 X82.225 Y120.883 E10.49037
G1 X82.225 Y99.117 E11.21431
G1 X82.265 Y98.349 E11.23989
G1 X82.384 Y97.589 E11.26548
G1 X82.582 Y96.846 E11.29105
G1 X82.856 Y96.127 E11.31664
G1 X83.203 Y95.441 E11.34221
G1 X83.619 Y94.794 E11.36779
G1 X84.1 Y94.194 E11.39337
G1 X84.392 Y93.884 E11.40754
G1 X84.509 Y93.767 E11.41304
G0 F6000 X84.792 Y94.05
G1 F1200 X85.349 Y93.55 E11.43793
G1 X85.955 Y93.113 E11.46278
G1 X86.605 Y92.742 E11.48768
G1 X87.291 Y92.443 E11.51257
G1 X88.005 Y92.219 E11.53746
G1 X88.738 Y92.072 E11.56232
G1 X89.742 Y92 E11.5958
G1 X111.508 Y92 E12.31974
G1 X112.255 Y92.04 E12.34462
G1 X112.993 Y92.159 E12.36948
G1 X113.715 Y92.357 E12.39438
G1 X114.411 Y92.63 E12.41925
G1 X115.074 Y92.977 E12.44414
G1 X115.697 Y93.392 E12.46904
G1 X116.458 Y94.05 E12.5025
G1 X116.575 Y94.167 E12.508
G1 X117.075 Y94.724 E12.5329
G1 X117.512 Y95.33 E12.55775
G1 X117.553 Y95.403 E12.56053
G1 X117.955 Y95.113 E12.57702
G1 X118.605 Y94.742 E12.60191
G1 X119.291 Y94.443 E12.6268
G1 X120.005 Y94.219 E12.65169
G1 X120.738 Y94.072 E12.67655
G1 X121.742 Y94 E12.71003
G1 X124.508 Y94 E12.80203
G1 X125.255 Y94.04 E12.82691
G1 X125.993 Y94.159 E12.85177
G1 X126.635 Y94.335 E12.87391
G1 X127.005 Y94.219 E12.88681
G1 X127.738 Y94.072 E12.91168
G1 X128.742 Y94 E12.94516
G1 X130.258 Y94 E12.99558
G1 X131.005 Y94.04 E13.02046
G1 X131.743 Y94.159 E13.04532
G1 X132.465 Y94.357 E13.07022
G1 X133.161 Y94.63 E13.09509
G1 X133.824 Y94.977 E13.11998
G1 X134.447 Y95.392 E13.14487
G1 X135.208 Y96.05 E13.17834
G1 X135.325 Y96.167 E13.18384
G1 X135.825 Y96.724 E13.20873
G1 X136.262 Y97.33 E13.23358
G1 X136.633 Y97.98 E13.25848
G1 X136.932 Y98.666 E13.28337
G1 X137.156 Y99.38 E13.30825
G1 X137.303 Y100.113 E13.33312
G1 X137.375 Y101.117 E13.3666
G1 X137.375 Y118.883 E13.9575
G1 X137.335 Y119.63 E13.98238
G1 X137.216 Y120.368 E14.00724
G1 X137.018 Y121.09 E14.03214
G1 X136.745 Y121.786 E14.05701
G1 X136.398 Y122.449 E14.0819
G1 X135.983 Y123.072 E14.1068
G1 X135.325 Y123.833 E14.14026
G1 X135.208 Y123.95 E14.14576
G1 X134.651 Y124.45 E14.17065
G1 X134.045 Y124.887 E14.1955
G1 X133.395 Y125.258 E14.2204
G1 X132.709 Y125.557 E14.24529
G1 X131.995 Y125.781 E14.27018
G1 X131.262 Y125.928 E14.29504
G1 X130.258 Y126 E14.32852
G1 X128.742 Y126 E14.37894
G1 X127.995 Y125.96 E14.40382
G1 X127.257 Y125.841 E14.42869
G1 X126.615 Y125.665 E14.45083
G1 X126.245 Y125.781 E14.46372
G1 X125.512 Y125.928 E14.48859
G1 X124.508 Y126 E14.52207
G1 X121.742 Y126 E14.61407
G1 X120.995 Y125.96 E14.63895
G1 X120.257 Y125.841 E14.66381
G1 X119.535 Y125.643 E14.68871
G1 X118.839 Y125.37 E14.71358
G1 X118.176 Y125.023 E14.73846
G1 X117.553 Y124.608 E14.76336
G1 X117.546 Y124.602 E14.76367
G1 X117.233 Y125.072 E14.78245
G1 X116.575 Y125.833 E14.81591
G1 X116.458 Y125.95 E14.82141
G1 X115.901 Y126.45 E14.84631
G1 X115.295 Y126.887 E14.87116
G1 X114.645 Y127.258 E14.89605
G1 X113.959 Y127.557 E14.92094
G1 X113.245 Y127.781 E14.94583
G1 X112.512 Y127.928 E14.9707
G1 X111.508 Y128 E15.00417
G1 X89.742 Y128 E15.72811
G1 X88.995 Y127.96 E15.753
G1 X88.257 Y127.841 E15.77786
G1 X87.535 Y127.643 E15.80276
G1 X86.839 Y127.37 E15.82763
G1 X86.176 Y127.023 E15.85251
G1 X85.553 Y126.608 E15.87741
G1 X84.792 Y125.95 E15.91087
G1 X84.675 Y125.833 E15.91638
G1 X84.175 Y125.276 E15.94127
G1 X83.738 Y124.67 E15.96612
G1 X83.367 Y124.02 E15.99101
G1 X83.068 Y123.334 E16.0159
G1 X82.844 Y122.62 E16.04079
G1 X82.697 Y121.887 E16.06566
G1 X82.625 Y120.883 E16.09914
G1 X82.625 Y99.117 E16.82308
G1 X82.665 Y98.37 E16.84796
G1 X82.784 Y97.632 E16.87282
G1 X82.982 Y96.91 E16.89772
G1 X83.255 Y96.214 E16.92259
G1 X83.602 Y95.551 E16.94748
G1 X84.017 Y94.928 E16.97237
G1 X84.675 Y94.167 E17.00583
G1 X84.792 Y94.05 E17.01134
G0 F6000 X85.075 Y94.333
G1 F1200 X85.616 Y93.849 E17.03548
G1 X86.207 Y93.426 E17.05965
G1 X86.841 Y93.072 E17.0838
G1 X87.51 Y92.789 E17.10796
G1 X88.206 Y92.581 E17.13213
G1 X88.921 Y92.451 E17.1563
G1 X89.742 Y92.4 E17.18366
G1 X111.508 Y92.4 E17.9076
G1 X112.233 Y92.44 E17.93175
G1 X112.95 Y92.559 E17.95592
G1 X113.649 Y92.757 E17.98008
G1 X114.322 Y93.03 E18.00424
G1 X114.961 Y93.375 E18.02839
G1 X115.558 Y93.789 E18.05256
G1 X116.175 Y94.333 E18.07991
G1 X116.292 Y94.45 E18.08542
G1 X116.776 Y94.991 E18.10956
G1 X117.199 Y95.582 E18.13373
G1 X117.437 Y96.009 E18.14999
G1 X117.616 Y95.849 E18.15798
G1 X118.207 Y95.426 E18.18215
G1 X118.841 Y95.072 E18.2063
G1 X119.51 Y94.789 E18.23046
G1 X120.206 Y94.581 E18.25462
G1 X120.921 Y94.451 E18.27879
G1 X121.742 Y94.4 E18.30615
G1 X124.508 Y94.4 E18.39815
G1 X125.233 Y94.44 E18.4223
G1 X125.95 Y94.559 E18.44647
G1 X126.633 Y94.752 E18.47008
G1 X127.206 Y94.581 E18.48997
G1 X127.921 Y94.451 E18.51414
G1 X128.742 Y94.4 E18.5415
G1 X130.258 Y94.4 E18.59192
G1 X130.983 Y94.44 E18.61607
G1 X131.7 Y94.559 E18.64025
G1 X132.399 Y94.757 E18.66441
G1 X133.072 Y95.03 E18.68857
G1 X133.711 Y95.375 E18.71272
G1 X134.308 Y95.789 E18.73688
G1 X134.925 Y96.333 E18.76424
G1 X135.042 Y96.45 E18.76974
G1 X135.526 Y96.991 E18.79389
G1 X135.949 Y97.582 E18.81806
G1 X136.303 Y98.216 E18.84221
G1 X136.586 Y98.885 E18.86637
G1 X136.794 Y99.581 E18.89053
G1 X136.924 Y100.296 E18.9147
G1 X136.975 Y101.117 E18.94206
G1 X136.975 Y118.883 E19.53296
G1 X136.935 Y119.608 E19.55711
G1 X136.816 Y120.325 E19.58129
G1 X136.618 Y121.024 E19.60545
G1 X136.345 Y121.697 E19.62961
G1 X136 Y122.336 E19.65376
G1 X135.586 Y122.933 E19.67792
G1 X135.042 Y123.55 E19.70528
G1 X134.925 Y123.667 E19.71078
G1 X134.384 Y124.151 E19.73493
G1 X133.793 Y124.574 E19.7591
G1 X133.159 Y124.928 E19.78325
G1 X132.49 Y125.211 E19.80741
G1 X131.794 Y125.419 E19.83157
G1 X131.079 Y125.549 E19.85574
G1 X130.258 Y125.6 E19.8831
G1 X128.742 Y125.6 E19.93352
G1 X128.017 Y125.56 E19.95768
G1 X127.3 Y125.441 E19.98185
G1 X126.617 Y125.248 E20.00546
G1 X126.044 Y125.419 E20.02534
G1 X125.329 Y125.549 E20.04951
G1 X124.508 Y125.6 E20.07687
G1 X121.742 Y125.6 E20.16887
G1 X121.017 Y125.56 E20.19302
G1 X120.3 Y125.441 E20.2172
G1 X119.601 Y125.243 E20.24136
G1 X118.928 Y124.97 E20.26551
G1 X118.289 Y124.625 E20.28967
G1 X117.692 Y124.211 E20.31383
G1 X117.438 Y123.987 E20.3251
G1 X117.25 Y124.336 E20.33828
G1 X116.836 Y124.933 E20.36244
G1 X116.292 Y125.55 E20.3898
G1 X116.175 Y125.667 E20.39531
G1 X115.634 Y126.151 E20.41945
G1 X115.043 Y126.574 E20.44362
G1 X114.409 Y126.928 E20.46777
G1 X113.74 Y127.211 E20.49193
G1 X113.044 Y127.419 E20.51609
G1 X112.329 Y127.549 E20.54027
G1 X111.508 Y127.6 E20.56762
G1 X89.742 Y127.6 E21.29156
G1 X89.017 Y127.56 E21.31571
G1 X88.3 Y127.441 E21.33989
G1 X87.601 Y127.243 E21.36405
G1 X86.928 Y126.97 E21.38821
G1 X86.289 Y126.625 E21.41236
G1 X85.692 Y126.211 E21.43652
G1 X85.075 Y125.667 E21.46388
G1 X84.958 Y125.55 E21.46939
G1 X84.474 Y125.009 E21.49353
G1 X84.051 Y124.418 E21.5177
G1 X83.697 Y123.784 E21.54185
G1 X83.414 Y123.115 E21.56601
G1 X83.206 Y122.419 E21.59017
G1 X83.076 Y121.704 E21.61435
G1 X83.025 Y120.883 E21.6417
G1 X83.025 Y99.117 E22.36565
G1 X83.065 Y98.392 E22.3898
G1 X83.184 Y97.675 E22.41397
G1 X83.382 Y96.976 E22.43813
G1 X83.655 Y96.303 E22.46229
G1 X84 Y95.664 E22.48644
G1 X84.414 Y95.067 E22.5106
G1 X84.958 Y94.45 E22.53796
G1 X85.075 Y94.333 E22.54347
G0 F6000 X85.358 Y94.616
G1 F1200 X85.883 Y94.147 E22.56688
G1 X86.458 Y93.741 E22.59029
G1 X87.076 Y93.403 E22.61372
G1 X87.727 Y93.136 E22.63712
G1 X88.405 Y92.946 E22.66054
G1 X89.1 Y92.833 E22.68396
G1 X89.742 Y92.8 E22.70534
G1 X111.508 Y92.8 E23.42928
G1 X112.211 Y92.84 E23.4527
G1 X112.905 Y92.959 E23.47612
G1 X113.58 Y93.157 E23.49952
G1 X114.229 Y93.429 E23.52292
G1 X114.843 Y93.774 E23.54635
G1 X115.414 Y94.185 E23.56975
G1 X115.892 Y94.616 E23.59116
G1 X116.009 Y94.733 E23.59666
G1 X116.478 Y95.258 E23.62007
G1 X116.884 Y95.833 E23.64348
G1 X117.222 Y96.451 E23.66691
G1 X117.31 Y96.664 E23.67458
G1 X117.358 Y96.616 E23.67684
G1 X117.883 Y96.147 E23.70025
G1 X118.458 Y95.741 E23.72366
G1 X119.076 Y95.403 E23.74709
G1 X119.727 Y95.136 E23.77049
G1 X120.405 Y94.946 E23.79391
G1 X121.1 Y94.833 E23.81733
G1 X121.742 Y94.8 E23.83871
G1 X124.508 Y94.8 E23.93071
G1 X125.211 Y94.84 E23.95413
G1 X125.905 Y94.959 E23.97755
G1 X126.58 Y95.157 E24.00095
