;FLAVOR:Marlin
;TIME:1782
;Filament used: 0.793579m
;Layer height: 0.2
;MINX:95.2
;MINY:93.2
;MINZ:0.2
;MAXX:124.8
;MAXY:126.8
;MAXZ:20.5
;Generated with Cura_SteamEngine master
M140 S70
M105
M190 S70
M104 S200
M105
M109 S200
M82 ;absolute extrusion mode
M201 X500.00 Y500.00 Z100.00 E5000.00 ;Setup machine max acceleration
M203 X500.00 Y500.00 Z10.00 E50.00 ;Setup machine max feedrate
M204 P500.00 R1000.00 T500.00 ;Setup Print/Retract/Travel acceleration
M205 X8.00 Y8.00 Z0.40 E5.00 ;Setup Jerk
M220 S100 ;Reset Feedrate
M221 S100 ;Reset Flowrate

G28 ;Home

G92 E0 ;Reset Extruder
G1 Z2.0 F3000 ;Move Z Axis up
G1 X10.1 Y20 Z0.28 F5000.0 ;Move to start position
G1 X10.1 Y200.0 Z0.28 F1500.0 E15 ;Draw the first line
G1 X10.4 Y200.0 Z0.28 F5000.0 ;Move to side a little
G1 X10.4 Y20 Z0.28 F1500.0 E30 ;Draw the second line
G92 E0 ;Reset Extruder
G1 Z2.0 F3000 ;Move Z Axis up

G92 E0
G92 E0
G1 F2700 E-5
;LAYER_COUNT:100
;LAYER:0
M107
G1 F300 Z0.7
G0 F6000 X102.485 Y95.602 Z0.7
;TYPE:SKIRT
G1 F300 Z0.2
G1 F2700 E0
G1 F600 X102.602 Y95.485 E0.0055
G1 X103.188 Y94.955 E0.03178
G1 X103.824 Y94.488 E0.05803
G1 X104.504 Y94.087 E0.08428
G1 X105.222 Y93.757 E0.11057
G1 X105.969 Y93.502 E0.13682
G1 X106.738 Y93.323 E0.16308
G1 X107.522 Y93.223 E0.18937
G1 X108.117 Y93.2 E0.20917
G1 X109.883 Y93.2 E0.26791
G1 X110.672 Y93.24 E0.29418
G1 X111.452 Y93.359 E0.32043
G1 X111.988 Y93.498 E0.33884
G1 X112.738 Y93.323 E0.36446
G1 X113.522 Y93.223 E0.39075
G1 X114.117 Y93.2 E0.41055
G1 X116.883 Y93.2 E0.50255
G1 X117.672 Y93.24 E0.52883
G1 X118.452 Y93.359 E0.55507
G1 X119.217 Y93.557 E0.58135
G1 X119.957 Y93.831 E0.6076
G1 X120.666 Y94.179 E0.63386
G1 X121.337 Y94.597 E0.66016
G1 X121.961 Y95.08 E0.6864
G1 X122.398 Y95.485 E0.70622
G1 X122.515 Y95.602 E0.71172
G1 X123.045 Y96.188 E0.738
G1 X123.512 Y96.824 E0.76425
G1 X123.913 Y97.504 E0.7905
G1 X124.243 Y98.222 E0.81679
G1 X124.498 Y98.969 E0.84304
G1 X124.677 Y99.738 E0.8693
G1 X124.777 Y100.522 E0.89559
G1 X124.8 Y101.117 E0.91539
G1 X124.8 Y118.883 E1.50629
G1 X124.76 Y119.672 E1.53257
G1 X124.641 Y120.452 E1.55881
G1 X124.443 Y121.217 E1.58509
G1 X124.169 Y121.957 E1.61134
G1 X123.821 Y122.666 E1.63761
G1 X123.403 Y123.337 E1.6639
G1 X122.92 Y123.961 E1.69015
G1 X122.515 Y124.398 E1.70996
G1 X122.398 Y124.515 E1.71547
G1 X121.812 Y125.045 E1.74175
G1 X121.176 Y125.512 E1.76799
G1 X120.496 Y125.913 E1.79425
G1 X119.778 Y126.243 E1.82053
G1 X119.031 Y126.498 E1.84678
G1 X118.262 Y126.677 E1.87304
G1 X117.478 Y126.777 E1.89933
G1 X116.883 Y126.8 E1.91913
G1 X114.117 Y126.8 E2.01113
G1 X113.328 Y126.76 E2.03741
G1 X112.548 Y126.641 E2.06365
G1 X112.012 Y126.502 E2.08207
G1 X111.262 Y126.677 E2.10768
G1 X110.478 Y126.777 E2.13397
G1 X109.883 Y126.8 E2.15377
G1 X108.117 Y126.8 E2.21251
G1 X107.328 Y126.76 E2.23879
G1 X106.548 Y126.641 E2.26503
G1 X105.783 Y126.443 E2.29131
G1 X105.043 Y126.169 E2.31756
G1 X104.334 Y125.821 E2.34383
G1 X103.663 Y125.403 E2.37012
G1 X103.039 Y124.92 E2.39637
G1 X102.602 Y124.515 E2.41618
G1 X102.485 Y124.398 E2.42169
G1 X101.955 Y123.812 E2.44797
G1 X101.488 Y123.176 E2.47421
G1 X101.087 Y122.496 E2.50047
G1 X100.757 Y121.778 E2.52675
G1 X100.502 Y121.031 E2.553
G1 X100.323 Y120.262 E2.57926
G1 X100.224 Y119.486 E2.60528
G1 X100.043 Y119.419 E2.6117
G1 X99.334 Y119.071 E2.63797
G1 X98.663 Y118.653 E2.66426
G1 X98.039 Y118.17 E2.69051
G1 X97.602 Y117.765 E2.71033
G1 X97.485 Y117.648 E2.71583
G1 X96.955 Y117.062 E2.74211
G1 X96.488 Y116.426 E2.76835
G1 X96.087 Y115.746 E2.79461
G1 X95.757 Y115.028 E2.82089
G1 X95.502 Y114.281 E2.84714
G1 X95.323 Y113.512 E2.87341
G1 X95.223 Y112.728 E2.89969
G1 X95.2 Y112.133 E2.9195
G1 X95.2 Y107.867 E3.06139
G1 X95.24 Y107.078 E3.08766
G1 X95.359 Y106.298 E3.1139
G1 X95.557 Y105.533 E3.14019
G1 X95.831 Y104.793 E3.16643
G1 X96.179 Y104.084 E3.1927
G1 X96.597 Y103.413 E3.21899
G1 X97.08 Y102.789 E3.24524
G1 X97.508 Y102.328 E3.26616
G1 X97.626 Y102.211 E3.27169
G1 X98.214 Y101.684 E3.29795
G1 X98.853 Y101.219 E3.32424
G1 X99.535 Y100.822 E3.35048
G1 X100.231 Y100.505 E3.37592
G1 X100.24 Y100.328 E3.38181
G1 X100.359 Y99.548 E3.40806
G1 X100.557 Y98.783 E3.43434
G1 X100.831 Y98.043 E3.46059
G1 X101.179 Y97.334 E3.48685
G1 X101.597 Y96.663 E3.51315
G1 X102.08 Y96.039 E3.53939
G1 X102.485 Y95.602 E3.55921
G0 F6000 X102.767 Y95.884
G1 F600 X102.884 Y95.767 E3.56471
G1 X103.456 Y95.253 E3.59029
G1 X104.078 Y94.8 E3.61588
G1 X104.743 Y94.414 E3.64146
G1 X105.445 Y94.099 E3.66705
G1 X106.176 Y93.859 E3.69264
G1 X106.927 Y93.696 E3.7182
G1 X107.692 Y93.612 E3.7438
G1 X108.117 Y93.6 E3.75794
G1 X109.883 Y93.6 E3.81668
G1 X110.651 Y93.64 E3.84225
G1 X111.411 Y93.759 E3.86784
G1 X112.001 Y93.916 E3.88815
G1 X112.176 Y93.859 E3.89427
G1 X112.927 Y93.696 E3.91983
G1 X113.692 Y93.612 E3.94542
G1 X114.117 Y93.6 E3.95957
G1 X116.883 Y93.6 E4.05156
G1 X117.651 Y93.64 E4.07714
G1 X118.411 Y93.759 E4.10273
G1 X119.154 Y93.957 E4.1283
G1 X119.873 Y94.231 E4.15389
G1 X120.559 Y94.578 E4.17946
G1 X121.206 Y94.994 E4.20505
G1 X121.806 Y95.475 E4.23062
G1 X122.116 Y95.767 E4.24479
G1 X122.233 Y95.884 E4.25029
G1 X122.747 Y96.456 E4.27587
G1 X123.2 Y97.078 E4.30146
G1 X123.586 Y97.743 E4.32704
G1 X123.901 Y98.445 E4.35263
G1 X124.141 Y99.176 E4.37822
G1 X124.304 Y99.927 E4.40378
G1 X124.388 Y100.692 E4.42937
G1 X124.4 Y101.117 E4.44351
G1 X124.4 Y118.883 E5.03441
G1 X124.36 Y119.651 E5.05999
G1 X124.241 Y120.411 E5.08558
G1 X124.043 Y121.154 E5.11115
G1 X123.769 Y121.873 E5.13674
G1 X123.422 Y122.559 E5.16231
G1 X123.006 Y123.206 E5.1879
G1 X122.525 Y123.806 E5.21347
G1 X122.233 Y124.116 E5.22764
G1 X122.116 Y124.233 E5.23314
G1 X121.544 Y124.747 E5.25872
G1 X120.922 Y125.2 E5.28431
G1 X120.257 Y125.586 E5.30989
G1 X119.555 Y125.901 E5.33548
G1 X118.824 Y126.141 E5.36107
G1 X118.073 Y126.304 E5.38663
G1 X117.308 Y126.388 E5.41223
G1 X116.883 Y126.4 E5.42637
G1 X114.117 Y126.4 E5.51836
G1 X113.349 Y126.36 E5.54394
G1 X112.589 Y126.241 E5.56953
G1 X111.999 Y126.084 E5.58983
G1 X111.824 Y126.141 E5.59596
G1 X111.073 Y126.304 E5.62152
G1 X110.308 Y126.388 E5.64711
G1 X109.883 Y126.4 E5.66125
G1 X108.117 Y126.4 E5.71999
G1 X107.349 Y126.36 E5.74557
G1 X106.589 Y126.241 E5.77116
G1 X105.846 Y126.043 E5.79673
G1 X105.127 Y125.769 E5.82232
G1 X104.441 Y125.422 E5.84789
G1 X103.794 Y125.006 E5.87347
G1 X103.194 Y124.525 E5.89905
G1 X102.884 Y124.233 E5.91322
G1 X102.767 Y124.116 E5.91872
G1 X102.253 Y123.544 E5.9443
G1 X101.8 Y122.922 E5.96989
G1 X101.414 Y122.257 E5.99546
G1 X101.099 Y121.555 E6.02106
G1 X100.859 Y120.824 E6.04665
G1 X100.696 Y120.073 E6.07221
G1 X100.612 Y119.308 E6.0978
G1 X100.609 Y119.203 E6.1013
G1 X100.127 Y119.019 E6.11846
G1 X99.441 Y118.672 E6.14403
G1 X98.794 Y118.256 E6.16961
G1 X98.194 Y117.775 E6.19519
G1 X97.884 Y117.483 E6.20935
G1 X97.767 Y117.366 E6.21485
G1 X97.253 Y116.794 E6.24043
G1 X96.8 Y116.172 E6.26602
G1 X96.414 Y115.507 E6.2916
G1 X96.099 Y114.805 E6.31719
G1 X95.859 Y114.074 E6.34278
G1 X95.696 Y113.323 E6.36834
G1 X95.612 Y112.558 E6.39394
G1 X95.6 Y112.133 E6.40808
G1 X95.6 Y107.867 E6.54997
G1 X95.64 Y107.099 E6.57554
G1 X95.759 Y106.339 E6.60113
G1 X95.957 Y105.596 E6.6267
G1 X96.231 Y104.877 E6.6523
G1 X96.578 Y104.191 E6.67787
G1 X96.994 Y103.544 E6.70345
G1 X97.475 Y102.944 E6.72903
G1 X97.79 Y102.612 E6.74425
G1 X97.908 Y102.495 E6.74977
G1 X98.481 Y101.983 E6.77533
G1 X99.105 Y101.533 E6.80092
G1 X99.772 Y101.15 E6.8265
G1 X100.475 Y100.838 E6.85208
G1 X100.617 Y100.792 E6.85705
G1 X100.64 Y100.349 E6.8718
G1 X100.759 Y99.589 E6.89739
G1 X100.957 Y98.846 E6.92296
G1 X101.231 Y98.127 E6.94855
G1 X101.578 Y97.441 E6.97412
G1 X101.994 Y96.794 E6.99971
G1 X102.475 Y96.194 E7.02528
G1 X102.767 Y95.884 E7.03945
G0 F6000 X103.05 Y96.167
G1 F600 X103.167 Y96.05 E7.04495
G1 X103.724 Y95.55 E7.06985
G1 X104.33 Y95.113 E7.0947
G1 X104.98 Y94.742 E7.11959
G1 X105.666 Y94.443 E7.14448
G1 X106.38 Y94.219 E7.16937
G1 X107.113 Y94.072 E7.19423
G1 X108.117 Y94 E7.22771
G1 X109.883 Y94 E7.28645
G1 X110.63 Y94.04 E7.31133
G1 X111.368 Y94.159 E7.33619
G1 X112.01 Y94.335 E7.35833
G1 X112.38 Y94.219 E7.37123
G1 X113.113 Y94.072 E7.3961
G1 X114.117 Y94 E7.42958
G1 X116.883 Y94 E7.52157
G1 X117.63 Y94.04 E7.54645
G1 X118.368 Y94.159 E7.57132
G1 X119.09 Y94.357 E7.59622
G1 X119.786 Y94.63 E7.62108
G1 X120.449 Y94.977 E7.64597
G1 X121.072 Y95.392 E7.67087
G1 X121.833 Y96.05 E7.70433
G1 X121.95 Y96.167 E7.70983
G1 X122.45 Y96.724 E7.73473
G1 X122.887 Y97.33 E7.75958
G1 X123.258 Y97.98 E7.78447
G1 X123.557 Y98.666 E7.80936
G1 X123.781 Y99.38 E7.83425
G1 X123.928 Y100.113 E7.85911
G1 X124 Y101.117 E7.89259
G1 X124 Y118.883 E8.48349
G1 X123.96 Y119.63 E8.50837
G1 X123.841 Y120.368 E8.53324
G1 X123.643 Y121.09 E8.55814
G1 X123.37 Y121.786 E8.583
G1 X123.023 Y122.449 E8.60789
G1 X122.608 Y123.072 E8.63279
G1 X121.95 Y123.833 E8.66625
G1 X121.833 Y123.95 E8.67175
G1 X121.276 Y124.45 E8.69665
G1 X120.67 Y124.887 E8.7215
G1 X120.02 Y125.258 E8.74639
G1 X119.334 Y125.557 E8.77128
G1 X118.62 Y125.781 E8.79617
G1 X117.887 Y125.928 E8.82104
G1 X116.883 Y126 E8.85451
G1 X114.117 Y126 E8.94651
G1 X113.37 Y125.96 E8.97139
G1 X112.632 Y125.841 E8.99626
G1 X111.99 Y125.665 E9.0184
G1 X111.62 Y125.781 E9.03129
G1 X110.887 Y125.928 E9.05616
G1 X109.883 Y126 E9.08964
G1 X108.117 Y126 E9.14838
G1 X107.37 Y125.96 E9.17326
G1 X106.632 Y125.841 E9.19812
G1 X105.91 Y125.643 E9.22302
G1 X105.214 Y125.37 E9.24789
G1 X104.551 Y125.023 E9.27277
G1 X103.928 Y124.608 E9.29767
G1 X103.167 Y123.95 E9.33113
G1 X103.05 Y123.833 E9.33664
G1 X102.55 Y123.276 E9.36153
G1 X102.113 Y122.67 E9.38638
G1 X101.742 Y122.02 E9.41127
G1 X101.443 Y121.334 E9.43616
G1 X101.219 Y120.62 E9.46105
G1 X101.072 Y119.887 E9.48592
G1 X101.003 Y118.918 E9.51823
G1 X100.91 Y118.893 E9.52143
G1 X100.214 Y118.62 E9.5463
G1 X99.551 Y118.273 E9.57119
G1 X98.928 Y117.858 E9.59608
G1 X98.167 Y117.2 E9.62954
G1 X98.05 Y117.083 E9.63505
G1 X97.55 Y116.526 E9.65994
G1 X97.113 Y115.92 E9.68479
G1 X96.742 Y115.27 E9.70968
G1 X96.443 Y114.584 E9.73457
G1 X96.219 Y113.87 E9.75946
G1 X96.072 Y113.137 E9.78433
G1 X96 Y112.133 E9.81781
G1 X96 Y107.867 E9.9597
G1 X96.04 Y107.12 E9.98458
G1 X96.159 Y106.382 E10.00944
G1 X96.357 Y105.66 E10.03434
G1 X96.63 Y104.964 E10.05921
G1 X96.977 Y104.301 E10.08409
G1 X97.392 Y103.678 E10.10899
G1 X98.071 Y102.896 E10.14344
G1 X98.189 Y102.779 E10.14897
G1 X98.748 Y102.282 E10.17384
G1 X99.356 Y101.847 E10.19871
G1 X100.008 Y101.479 E10.22361
G1 X100.695 Y101.183 E10.24849
G1 X101.002 Y101.088 E10.25918
G1 X101.04 Y100.37 E10.28309
G1 X101.159 Y99.632 E10.30796
G1 X101.357 Y98.91 E10.33286
G1 X101.63 Y98.214 E10.35772
G1 X101.977 Y97.551 E10.38261
G1 X102.392 Y96.928 E10.40751
G1 X103.05 Y96.167 E10.44097
G0 F6000 X103.333 Y96.45
G1 F600 X103.45 Y96.333 E10.44647
G1 X103.991 Y95.849 E10.47062
G1 X104.582 Y95.426 E10.49479
G1 X105.216 Y95.072 E10.51894
G1 X105.885 Y94.789 E10.5431
G1 X106.581 Y94.581 E10.56726
G1 X107.296 Y94.451 E10.59143
G1 X108.117 Y94.4 E10.61879
G1 X109.883 Y94.4 E10.67753
G1 X110.608 Y94.44 E10.70168
G1 X111.325 Y94.559 E10.72585
G1 X112.008 Y94.752 E10.74946
G1 X112.581 Y94.581 E10.76935
G1 X113.296 Y94.451 E10.79352
G1 X114.117 Y94.4 E10.82088
G1 X116.883 Y94.4 E10.91288
G1 X117.608 Y94.44 E10.93703
G1 X118.325 Y94.559 E10.9612
G1 X119.024 Y94.757 E10.98536
G1 X119.697 Y95.03 E11.00952
G1 X120.336 Y95.375 E11.03367
G1 X120.933 Y95.789 E11.05784
G1 X121.55 Y96.333 E11.08519
G1 X121.667 Y96.45 E11.0907
G1 X122.151 Y96.991 E11.11484
G1 X122.574 Y97.582 E11.13901
G1 X122.928 Y98.216 E11.16317
G1 X123.211 Y98.885 E11.18733
G1 X123.419 Y99.581 E11.21149
G1 X123.549 Y100.296 E11.23566
G1 X123.6 Y101.117 E11.26302
G1 X123.6 Y118.883 E11.85392
G1 X123.56 Y119.608 E11.87807
G1 X123.441 Y120.325 E11.90224
G1 X123.243 Y121.024 E11.9264
G1 X122.97 Y121.697 E11.95056
G1 X122.625 Y122.336 E11.97471
G1 X122.211 Y122.933 E11.99888
G1 X121.667 Y123.55 E12.02623
G1 X121.55 Y123.667 E12.03174
G1 X121.009 Y124.151 E12.05588
G1 X120.418 Y124.574 E12.08005
G1 X119.784 Y124.928 E12.10421
G1 X119.115 Y125.211 E12.12837
G1 X118.419 Y125.419 E12.15253
G1 X117.704 Y125.549 E12.1767
G1 X116.883 Y125.6 E12.20406
G1 X114.117 Y125.6 E12.29605
G1 X113.392 Y125.56 E12.3202
G1 X112.675 Y125.441 E12.34438
G1 X111.992 Y125.248 E12.36798
G1 X111.419 Y125.419 E12.38787
G1 X110.704 Y125.549 E12.41204
G1 X109.883 Y125.6 E12.4394
G1 X108.117 Y125.6 E12.49814
G1 X107.392 Y125.56 E12.52229
G1 X106.675 Y125.441 E12.54646
G1 X105.976 Y125.243 E12.57063
G1 X105.303 Y124.97 E12.59478
G1 X104.664 Y124.625 E12.61894
G1 X104.067 Y124.211 E12.6431
G1 X103.45 Y123.667 E12.67046
G1 X103.333 Y123.55 E12.67596
G1 X102.849 Y123.009 E12.70011
G1 X102.426 Y122.418 E12.72428
G1 X102.072 Y121.784 E12.74843
G1 X101.789 Y121.115 E12.77259
G1 X101.581 Y120.419 E12.79675
G1 X101.451 Y119.704 E12.82092
G1 X101.4 Y118.883 E12.84828
G1 X101.4 Y118.613 E12.85726
G1 X100.976 Y118.493 E12.87192
G1 X100.303 Y118.22 E12.89607
G1 X99.664 Y117.875 E12.92023
G1 X99.067 Y117.461 E12.94439
G1 X98.45 Y116.917 E12.97175
G1 X98.333 Y116.8 E12.97725
G1 X97.849 Y116.259 E13.00139
G1 X97.426 Y115.668 E13.02557
G1 X97.072 Y115.034 E13.04972
G1 X96.789 Y114.365 E13.07388
G1 X96.581 Y113.669 E13.09804
G1 X96.451 Y112.954 E13.12221
G1 X96.4 Y112.133 E13.14957
G1 X96.4 Y107.867 E13.29146
G1 X96.44 Y107.142 E13.31561
G1 X96.559 Y106.425 E13.33978
G1 X96.757 Y105.726 E13.36395
G1 X97.03 Y105.053 E13.3881
G1 X97.375 Y104.414 E13.41225
G1 X97.789 Y103.817 E13.43642
G1 X98.353 Y103.18 E13.46472
G1 X98.471 Y103.063 E13.47024
G1 X99.014 Y102.581 E13.49439
G1 X99.607 Y102.161 E13.51856
G1 X100.242 Y101.809 E13.54271
G1 X100.913 Y101.529 E13.56689
G1 X101.4 Y101.386 E13.58377
G1 X101.4 Y101.117 E13.59272
G1 X101.44 Y100.392 E13.61687
G1 X101.559 Y99.675 E13.64104
G1 X101.757 Y98.976 E13.66521
G1 X102.03 Y98.303 E13.68936
G1 X102.375 Y97.664 E13.71352
G1 X102.789 Y97.067 E13.73768
G1 X103.333 Y96.45 E13.76504
G0 F6000 X103.616 Y96.733
G1 F600 X103.733 Y96.616 E13.77054
G1 X104.258 Y96.147 E13.79396
G1 X104.833 Y95.741 E13.81737
G1 X105.451 Y95.403 E13.8408
G1 X106.102 Y95.136 E13.8642
G1 X106.78 Y94.946 E13.88762
G1 X107.475 Y94.833 E13.91104
G1 X108.117 Y94.8 E13.93242
G1 X109.883 Y94.8 E13.99116
G1 X110.586 Y94.84 E14.01457
G1 X111.28 Y94.959 E14.03799
G1 X111.955 Y95.157 E14.06139
G1 X112.002 Y95.177 E14.06309
G1 X112.102 Y95.136 E14.06668
G1 X112.78 Y94.946 E14.0901
G1 X113.475 Y94.833 E14.11352
G1 X114.117 Y94.8 E14.1349
G1 X116.883 Y94.8 E14.2269
G1 X117.586 Y94.84 E14.25032
G1 X118.28 Y94.959 E14.27374
G1 X118.955 Y95.157 E14.29714
G1 X119.604 Y95.429 E14.32054
G1 X120.218 Y95.774 E14.34397
G1 X120.789 Y96.185 E14.36737
G1 X121.267 Y96.616 E14.38877
G1 X121.384 Y96.733 E14.39428
G1 X121.853 Y97.258 E14.41769
G1 X122.259 Y97.833 E14.4411
G1 X122.597 Y98.451 E14.46453
G1 X122.864 Y99.102 E14.48793
G1 X123.054 Y99.78 E14.51135
G1 X123.167 Y100.475 E14.53477
G1 X123.2 Y101.117 E14.55615
G1 X123.2 Y118.883 E15.14705
G1 X123.16 Y119.586 E15.17047
G1 X123.041 Y120.28 E15.19389
G1 X122.843 Y120.955 E15.21729
G1 X122.571 Y121.604 E15.24069
G1 X122.226 Y122.218 E15.26412
G1 X121.815 Y122.789 E15.28752
G1 X121.384 Y123.267 E15.30892
G1 X121.267 Y123.384 E15.31443
G1 X120.742 Y123.853 E15.33784
G1 X120.167 Y124.259 E15.36125
G1 X119.549 Y124.597 E15.38468
G1 X118.898 Y124.864 E15.40808
G1 X118.22 Y125.054 E15.4315
G1 X117.525 Y125.167 E15.45492
G1 X116.883 Y125.2 E15.4763
G1 X114.117 Y125.2 E15.5683
G1 X113.414 Y125.16 E15.59172
G1 X112.72 Y125.041 E15.61514
G1 X112.045 Y124.843 E15.63854
G1 X111.998 Y124.823 E15.64024
G1 X111.898 Y124.864 E15.64383
G1 X111.22 Y125.054 E15.66725
G1 X110.525 Y125.167 E15.69067
G1 X109.883 Y125.2 E15.71205
G1 X108.117 Y125.2 E15.77079
G1 X107.414 Y125.16 E15.79421
G1 X106.72 Y125.041 E15.81763
G1 X106.045 Y124.843 E15.84102
G1 X105.396 Y124.571 E15.86443
G1 X104.782 Y124.226 E15.88785
G1 X104.211 Y123.815 E15.91125
G1 X103.733 Y123.384 E15.93266
G1 X103.616 Y123.267 E15.93816
G1 X103.147 Y122.742 E15.96158
G1 X102.741 Y122.167 E15.98499
G1 X102.403 Y121.549 E16.00842
