;FLAVOR:Marlin
;TIME:3312
;Filament used: 2.50008m
;Layer height: 0.2
;MINX:62.996
;MINY:88
;MINZ:0.2
;MAXX:157.004
;MAXY:132
;MAXZ:22
;Generated with Cura_SteamEngine master
M140 S50
M105
M190 S50
M104 S200
M105
M109 S200
M82 ;absolute extrusion mode
M201 X500.00 Y500.00 Z100.00 E5000.00 ;Setup machine max acceleration
M203 X500.00 Y500.00 Z10.00 E50.00 ;Setup machine max feedrate
M204 P500.00 R1000.00 T500.00 ;Setup Print/Retract/Travel acceleration
M205 X8.00 Y8.00 Z0.40 E5.00 ;Setup Jerk
M220 S100 ;Reset Feedrate
M221 S100 ;Reset Flowrate

G28 ;Home

G92 E0 ;Reset Extruder
G1 Z2.0 F3000 ;Move Z Axis up
G1 X10.1 Y20 Z0.28 F5000.0 ;Move to start position
G1 X10.1 Y200.0 Z0.28 F1500.0 E15 ;Draw the first line
G1 X10.4 Y200.0 Z0.28 F5000.0 ;Move to side a little
G1 X10.4 Y20 Z0.28 F1500.0 E30 ;Draw the second line
G92 E0 ;Reset Extruder
G1 Z2.0 F3000 ;Move Z Axis up

G92 E0
G92 E0
G1 F2700 E-5
;LAYER_COUNT:110
;LAYER:0
M107
G0 F6000 X67.617 Y90.054 Z0.2
;TYPE:SKIRT
G1 F2700 E0
G1 F1200 X68.403 Y89.542 E0.0312
G1 X69.23 Y89.099 E0.0624
G1 X70.092 Y88.729 E0.0936
G1 X70.982 Y88.433 E0.1248
G1 X71.894 Y88.214 E0.15599
G1 X72.821 Y88.073 E0.18718
G1 X73.697 Y88.013 E0.21639
G1 X74.018 Y88.004 E0.22707
G1 X74.326 Y88 E0.23731
G1 X95.446 Y88.001 E0.93977
G1 X96.147 Y88.011 E0.96308
G1 X97.083 Y88.064 E0.99426
G1 X98.272 Y88.249 E1.03429
G1 X98.654 Y88.33 E1.04727
G1 X100.638 Y88.787 E1.11499
G1 X103.147 Y89.291 E1.20011
G1 X105.608 Y89.714 E1.28316
G1 X108.119 Y90.071 E1.36752
G1 X110.589 Y90.353 E1.4502
G1 X113.123 Y90.569 E1.53479
G1 X115.639 Y90.713 E1.61861
G1 X118.124 Y90.784 E1.70129
G1 X120.647 Y90.784 E1.78521
G1 X123.171 Y90.713 E1.86919
G1 X125.693 Y90.571 E1.95321
G1 X128.216 Y90.358 E2.03742
G1 X130.679 Y90.079 E2.11986
G1 X133.218 Y89.718 E2.20516
G1 X135.679 Y89.297 E2.2882
G1 X136.055 Y89.227 E2.30092
G1 X136.412 Y89.166 E2.31297
G1 X137.343 Y89.048 E2.34418
G1 X137.955 Y89.013 E2.36457
G1 X138.274 Y89.004 E2.37519
G1 X138.584 Y89 E2.3855
G1 X141.775 Y89 E2.49163
G1 X143.644 Y89.007 E2.55379
G1 X144.53 Y89 E2.58326
G1 X145.439 Y89.001 E2.6135
G1 X146.137 Y89.01 E2.63671
G1 X147.073 Y89.062 E2.66789
G1 X148.002 Y89.194 E2.6991
G1 X148.916 Y89.404 E2.73029
G1 X149.809 Y89.691 E2.76149
G1 X150.674 Y90.054 E2.79269
G1 X151.505 Y90.488 E2.82387
G1 X152.296 Y90.992 E2.85507
G1 X153.041 Y91.562 E2.88627
G1 X153.735 Y92.193 E2.91747
G1 X154.372 Y92.88 E2.94863
G1 X154.949 Y93.62 E2.97984
G1 X155.461 Y94.406 E3.01104
G1 X155.904 Y95.233 E3.04224
G1 X156.275 Y96.094 E3.07342
G1 X156.571 Y96.984 E3.10462
G1 X156.79 Y97.896 E3.13581
G1 X156.931 Y98.823 E3.167
G1 X156.99 Y99.685 E3.19574
G1 X156.999 Y99.99 E3.20589
G1 X157.004 Y100.314 E3.21666
G1 X157.003 Y119.415 E3.85197
G1 X156.993 Y120.142 E3.87615
G1 X156.94 Y121.079 E3.90736
G1 X156.808 Y122.007 E3.93854
G1 X156.597 Y122.921 E3.96974
G1 X156.308 Y123.813 E4.00092
G1 X155.945 Y124.678 E4.03213
G1 X155.51 Y125.509 E4.06332
G1 X155.005 Y126.299 E4.09451
G1 X154.435 Y127.044 E4.12571
G1 X153.804 Y127.738 E4.1569
G1 X153.115 Y128.375 E4.18811
G1 X152.375 Y128.951 E4.2193
G1 X151.589 Y129.462 E4.25049
G1 X150.762 Y129.904 E4.28167
G1 X149.9 Y130.274 E4.31287
G1 X149.01 Y130.569 E4.34406
G1 X148.098 Y130.788 E4.37525
G1 X147.171 Y130.928 E4.40644
G1 X146.303 Y130.987 E4.43537
G1 X145.983 Y130.996 E4.44602
G1 X145.674 Y131 E4.4563
G1 X144.733 Y131 E4.4876
G1 X142.864 Y130.993 E4.54976
G1 X141.978 Y131 E4.57923
G1 X138.804 Y130.999 E4.6848
G1 X138.103 Y130.989 E4.70811
G1 X137.167 Y130.936 E4.7393
G1 X136.258 Y130.806 E4.76984
G1 X135.843 Y130.729 E4.78387
G1 X133.231 Y130.281 E4.87202
G1 X130.741 Y129.927 E4.95567
G1 X128.247 Y129.643 E5.03916
G1 X125.74 Y129.429 E5.12284
G1 X123.257 Y129.288 E5.20556
G1 X120.698 Y129.216 E5.29071
G1 X118.21 Y129.216 E5.37346
G1 X115.677 Y129.288 E5.45774
G1 X113.14 Y129.431 E5.54226
G1 X110.675 Y129.64 E5.62454
G1 X108.167 Y129.925 E5.70849
G1 X105.656 Y130.282 E5.79284
G1 X103.161 Y130.71 E5.87704
G1 X100.699 Y131.203 E5.96055
G1 X99.333 Y131.507 E6.0071
G1 X98.464 Y131.708 E6.03676
G1 X97.542 Y131.88 E6.06796
G1 X96.295 Y131.987 E6.10959
G1 X95.975 Y131.996 E6.12023
G1 X95.666 Y132 E6.13051
G1 X74.561 Y131.999 E6.83247
G1 X73.863 Y131.99 E6.85569
G1 X72.927 Y131.938 E6.88686
G1 X71.998 Y131.806 E6.91807
G1 X71.084 Y131.596 E6.94927
G1 X70.191 Y131.309 E6.98046
G1 X69.326 Y130.946 E7.01166
G1 X68.495 Y130.512 E7.04285
G1 X67.704 Y130.008 E7.07404
G1 X66.959 Y129.438 E7.10524
G1 X66.265 Y128.807 E7.13644
G1 X65.628 Y128.12 E7.1676
G1 X65.051 Y127.38 E7.19881
G1 X64.539 Y126.594 E7.23001
G1 X64.096 Y125.767 E7.26121
G1 X63.725 Y124.906 E7.29239
G1 X63.429 Y124.016 E7.32359
G1 X63.21 Y123.104 E7.35479
G1 X63.069 Y122.177 E7.38597
G1 X63.009 Y121.288 E7.41561
G1 X63 Y120.955 E7.42669
G1 X62.996 Y120.658 E7.43657
G1 X62.997 Y99.554 E8.13849
G1 X63.006 Y98.865 E8.16141
G1 X63.058 Y97.929 E8.19259
G1 X63.19 Y97 E8.2238
G1 X63.4 Y96.086 E8.25499
G1 X63.688 Y95.194 E8.28616
G1 X64.05 Y94.329 E8.31735
G1 X64.485 Y93.498 E8.34855
G1 X64.989 Y92.707 E8.37974
G1 X65.559 Y91.962 E8.41094
G1 X66.19 Y91.268 E8.44214
G1 X66.878 Y90.63 E8.47335
G1 X67.617 Y90.054 E8.50451
G0 F6000 X68.002 Y90.273
G1 F1200 X68.783 Y89.785 E8.53514
G1 X69.603 Y89.366 E8.56577
G1 X70.456 Y89.021 E8.59637
G1 X71.336 Y88.75 E8.627
G1 X72.236 Y88.558 E8.65761
G1 X73.15 Y88.444 E8.68824
G1 X73.708 Y88.413 E8.70683
G1 X74.029 Y88.404 E8.71751
G1 X74.326 Y88.4 E8.72739
G1 X95.289 Y88.4 E9.42462
G1 X96.141 Y88.411 E9.45296
G1 X97.06 Y88.464 E9.48358
G1 X98.189 Y88.641 E9.52159
G1 X98.755 Y88.762 E9.54084
G1 X100.608 Y89.19 E9.60409
G1 X103.038 Y89.678 E9.68653
G1 X105.55 Y90.109 E9.7713
G1 X108.054 Y90.466 E9.85542
G1 X110.582 Y90.754 E9.94005
G1 X113.067 Y90.966 E10.023
G1 X115.604 Y91.111 E10.10752
G1 X118.148 Y91.184 E10.19217
G1 X120.658 Y91.184 E10.27565
G1 X123.206 Y91.113 E10.36043
G1 X125.713 Y90.972 E10.44394
G1 X128.224 Y90.759 E10.52776
G1 X130.744 Y90.474 E10.61211
G1 X133.269 Y90.115 E10.69694
G1 X135.771 Y89.687 E10.78136
G1 X136.123 Y89.621 E10.79327
G1 X136.48 Y89.56 E10.80532
G1 X137.393 Y89.445 E10.83593
G1 X137.966 Y89.413 E10.85501
G1 X138.285 Y89.404 E10.86563
G1 X138.584 Y89.4 E10.87557
G1 X141.774 Y89.4 E10.98167
G1 X143.646 Y89.407 E11.04394
G1 X144.533 Y89.4 E11.07344
G1 X145.434 Y89.401 E11.10341
G1 X146.132 Y89.41 E11.12663
G1 X147.051 Y89.462 E11.15724
G1 X147.962 Y89.593 E11.18785
G1 X148.858 Y89.803 E11.21846
G1 X149.733 Y90.09 E11.24909
G1 X150.58 Y90.452 E11.27972
G1 X151.392 Y90.886 E11.31035
G1 X152.163 Y91.388 E11.34095
G1 X152.888 Y91.956 E11.37158
G1 X153.561 Y92.585 E11.40222
G1 X154.176 Y93.269 E11.43281
G1 X154.73 Y94.004 E11.46343
G1 X155.218 Y94.785 E11.49406
G1 X155.637 Y95.605 E11.52468
G1 X155.983 Y96.458 E11.5553
G1 X156.253 Y97.338 E11.58591
G1 X156.446 Y98.239 E11.61656
G1 X156.56 Y99.152 E11.64716
G1 X156.59 Y99.696 E11.66529
G1 X156.599 Y100.001 E11.67543
G1 X156.604 Y100.314 E11.68585
G1 X156.603 Y119.41 E12.32098
G1 X156.593 Y120.137 E12.34516
G1 X156.54 Y121.056 E12.37578
G1 X156.408 Y121.967 E12.4064
G1 X156.197 Y122.863 E12.43701
G1 X155.91 Y123.738 E12.46764
G1 X155.547 Y124.584 E12.49826
G1 X155.113 Y125.396 E12.52888
G1 X154.609 Y126.167 E12.55952
G1 X154.041 Y126.891 E12.59013
G1 X153.412 Y127.563 E12.62074
G1 X152.727 Y128.178 E12.65136
G1 X151.991 Y128.731 E12.68198
G1 X151.21 Y129.219 E12.71261
G1 X150.39 Y129.637 E12.74322
G1 X149.536 Y129.982 E12.77385
G1 X148.656 Y130.251 E12.80446
G1 X147.755 Y130.444 E12.83511
G1 X146.842 Y130.557 E12.86571
G1 X146.292 Y130.587 E12.88403
G1 X145.972 Y130.596 E12.89467
G1 X145.674 Y130.6 E12.90459
G1 X144.734 Y130.6 E12.93585
G1 X142.862 Y130.593 E12.99811
G1 X141.975 Y130.6 E13.02762
G1 X138.81 Y130.599 E13.13289
G1 X138.109 Y130.589 E13.1562
G1 X137.19 Y130.536 E13.18682
G1 X136.331 Y130.413 E13.21568
G1 X135.905 Y130.334 E13.23009
G1 X133.289 Y129.886 E13.31837
G1 X130.806 Y129.532 E13.40179
G1 X128.29 Y129.245 E13.48601
G1 X125.762 Y129.03 E13.5704
G1 X123.255 Y128.888 E13.65391
G1 X120.709 Y128.816 E13.73863
G1 X118.199 Y128.816 E13.82211
G1 X115.644 Y128.888 E13.90712
G1 X113.154 Y129.028 E13.99007
G1 X110.594 Y129.247 E14.07553
G1 X108.137 Y129.525 E14.15777
G1 X105.57 Y129.89 E14.24401
G1 X103.115 Y130.311 E14.32685
G1 X100.584 Y130.818 E14.41271
G1 X99.285 Y131.107 E14.45697
G1 X98.374 Y131.318 E14.48807
G1 X97.469 Y131.487 E14.51869
G1 X96.284 Y131.587 E14.55825
G1 X95.964 Y131.596 E14.56889
G1 X95.666 Y131.6 E14.57881
G1 X74.566 Y131.599 E15.28059
G1 X73.868 Y131.59 E15.30381
G1 X72.949 Y131.538 E15.33443
G1 X72.038 Y131.407 E15.36504
G1 X71.142 Y131.197 E15.39565
G1 X70.267 Y130.91 E15.42628
G1 X69.42 Y130.548 E15.45691
G1 X68.608 Y130.114 E15.48753
G1 X67.837 Y129.612 E15.51813
G1 X67.112 Y129.044 E15.54877
G1 X66.439 Y128.415 E15.57941
G1 X65.824 Y127.731 E15.61
G1 X65.27 Y126.996 E15.64061
G1 X64.782 Y126.215 E15.67124
G1 X64.363 Y125.395 E15.70187
G1 X64.017 Y124.542 E15.73249
G1 X63.747 Y123.662 E15.7631
G1 X63.554 Y122.761 E15.79375
G1 X63.44 Y121.848 E15.82435
G1 X63.409 Y121.277 E15.84337
G1 X63.4 Y120.944 E15.85445
G1 X63.396 Y120.658 E15.86396
G1 X63.397 Y99.56 E16.56569
G1 X63.406 Y98.871 E16.5886
G1 X63.458 Y97.951 E16.61925
G1 X63.589 Y97.04 E16.64986
G1 X63.8 Y96.144 E16.68048
G1 X64.087 Y95.269 E16.71111
G1 X64.449 Y94.423 E16.74171
G1 X64.883 Y93.611 E16.77234
G1 X65.385 Y92.839 E16.80297
G1 X65.953 Y92.115 E16.83357
G1 X66.582 Y91.442 E16.86421
G1 X67.267 Y90.827 E16.89483
G1 X68.002 Y90.273 E16.92544
G0 F6000 X68.386 Y90.497
G1 F1200 X69.16 Y90.033 E16.95546
G1 X69.973 Y89.64 E16.98549
G1 X70.818 Y89.32 E17.01554
G1 X71.688 Y89.076 E17.0456
G1 X72.575 Y88.91 E17.07561
G1 X73.719 Y88.813 E17.1138
G1 X74.04 Y88.804 E17.12448
G1 X74.326 Y88.8 E17.13399
G1 X95.289 Y88.8 E17.83122
G1 X96.135 Y88.811 E17.85936
G1 X97.037 Y88.864 E17.88941
G1 X98.106 Y89.032 E17.92541
G1 X98.665 Y89.152 E17.94442
G1 X100.505 Y89.576 E18.00722
G1 X102.969 Y90.072 E18.09082
G1 X105.497 Y90.506 E18.17613
G1 X107.988 Y90.861 E18.25982
G1 X110.538 Y91.151 E18.34518
G1 X113.077 Y91.368 E18.42994
G1 X115.572 Y91.511 E18.51306
G1 X118.136 Y91.584 E18.59837
G1 X120.669 Y91.584 E18.68262
G1 X123.203 Y91.513 E18.76693
G1 X125.733 Y91.371 E18.85121
G1 X128.304 Y91.153 E18.93703
G1 X130.774 Y90.873 E19.01971
G1 X133.327 Y90.51 E19.10548
G1 X135.864 Y90.076 E19.19108
G1 X136.19 Y90.016 E19.20211
G1 X136.547 Y89.955 E19.21416
G1 X137.443 Y89.842 E19.24419
G1 X137.977 Y89.813 E19.26198
G1 X138.296 Y89.804 E19.27259
G1 X138.584 Y89.8 E19.28217
G1 X141.773 Y89.8 E19.38824
G1 X143.648 Y89.807 E19.4506
G1 X144.536 Y89.8 E19.48014
G1 X145.429 Y89.801 E19.50984
G1 X146.127 Y89.81 E19.53306
G1 X147.028 Y89.861 E19.56307
G1 X147.922 Y89.993 E19.59313
G1 X148.8 Y90.202 E19.62315
G1 X149.657 Y90.489 E19.65321
G1 X150.484 Y90.85 E19.68322
G1 X151.277 Y91.283 E19.71327
G1 X152.028 Y91.784 E19.7433
G1 X152.732 Y92.35 E19.77334
G1 X153.383 Y92.976 E19.80338
G1 X153.976 Y93.657 E19.83342
G1 X154.506 Y94.388 E19.86345
G1 X154.97 Y95.163 E19.89349
G1 X155.364 Y95.976 E19.92354
G1 X155.684 Y96.82 E19.95356
G1 X155.928 Y97.69 E19.98361
G1 X156.094 Y98.578 E20.01366
G1 X156.191 Y99.708 E20.05138
G1 X156.2 Y100.013 E20.06153
G1 X156.204 Y100.314 E20.07154
G1 X156.203 Y119.404 E20.70648
G1 X156.193 Y120.131 E20.73066
G1 X156.141 Y121.033 E20.76071
G1 X156.009 Y121.926 E20.79074
G1 X155.798 Y122.805 E20.8208
G1 X155.511 Y123.661 E20.85083
G1 X155.149 Y124.488 E20.88086
G1 X154.715 Y125.28 E20.91089
G1 X154.213 Y126.031 E20.94094
G1 X153.647 Y126.734 E20.97096
G1 X153.02 Y127.385 E21.00102
G1 X152.339 Y127.977 E21.03103
G1 X151.608 Y128.507 E21.06106
G1 X150.832 Y128.97 E21.09112
G1 X150.019 Y129.363 E21.12115
G1 X149.174 Y129.683 E21.1512
G1 X148.305 Y129.926 E21.18122
G1 X147.417 Y130.091 E21.21126
G1 X146.281 Y130.187 E21.24917
G1 X145.961 Y130.196 E21.25982
G1 X145.674 Y130.2 E21.26937
G1 X144.735 Y130.2 E21.3006
G1 X142.86 Y130.193 E21.36296
G1 X141.972 Y130.2 E21.3925
G1 X138.816 Y130.199 E21.49747
G1 X138.115 Y130.189 E21.52079
G1 X137.213 Y130.136 E21.55084
G1 X136.403 Y130.02 E21.57805
G1 X135.893 Y129.926 E21.5953
G1 X133.371 Y129.493 E21.68041
G1 X130.841 Y129.133 E21.76541
G1 X128.333 Y128.847 E21.84936
G1 X125.818 Y128.633 E21.93332
G1 X123.254 Y128.488 E22.01873
G1 X120.721 Y128.416 E22.10301
G1 X118.188 Y128.416 E22.18726
G1 X115.644 Y128.488 E22.27191
G1 X113.099 Y128.631 E22.35669
G1 X110.586 Y128.845 E22.44057
G1 X108.032 Y129.135 E22.52607
G1 X105.55 Y129.488 E22.60945
G1 X103.046 Y129.917 E22.69395
G1 X100.506 Y130.426 E22.78011
G1 X99.244 Y130.707 E22.82311
G1 X98.284 Y130.929 E22.85588
G1 X97.396 Y131.093 E22.88591
G1 X96.273 Y131.187 E22.9234
G1 X95.953 Y131.196 E22.93404
G1 X95.666 Y131.2 E22.94359
G1 X74.571 Y131.199 E23.64521
G1 X73.873 Y131.19 E23.66843
G1 X72.972 Y131.139 E23.69845
G1 X72.078 Y131.007 E23.7285
G1 X71.2 Y130.798 E23.75852
G1 X70.343 Y130.511 E23.78858
G1 X69.516 Y130.15 E23.81859
G1 X68.723 Y129.717 E23.84864
G1 X67.972 Y129.216 E23.87867
G1 X67.268 Y128.65 E23.90872
G1 X66.617 Y128.024 E23.93875
G1 X66.024 Y127.343 E23.96879
G1 X65.494 Y126.612 E23.99882
G1 X65.03 Y125.837 E24.02886
G1 X64.636 Y125.024 E24.05891
G1 X64.316 Y124.18 E24.08893
G1 X64.072 Y123.31 E24.11899
G1 X63.906 Y122.422 E24.14903
G1 X63.809 Y121.267 E24.18758
G1 X63.8 Y120.934 E24.19866
G1 X63.796 Y120.658 E24.20784
G1 X63.797 Y99.565 E24.9094
G1 X63.806 Y98.876 E24.93232
G1 X63.858 Y97.974 E24.96237
G1 X63.989 Y97.081 E24.99239
G1 X64.199 Y96.202 E25.02245
G1 X64.485 Y95.346 E25.05246
G1 X64.847 Y94.518 E25.08252
G1 X65.28 Y93.726 E25.11254
G1 X65.781 Y92.975 E25.14257
G1 X66.347 Y92.271 E25.17261
G1 X66.973 Y91.62 E25.20265
G1 X67.655 Y91.027 E25.23271
G1 X68.386 Y90.497 E25.26274
G1 F2700 E20.26274
;MESH:testMount.stl
G0 F6000 X74.416 Y98.335
G0 X74.416 Y99.42
G0 X95.214 Y99.782
G0 X95.396 Y120.4
;TYPE:WALL-INNER
G1 F2700 E25.26274
G1 F1200 X74.596 Y120.4 E25.95455
G1 X74.596 Y99.6 E26.64636
G1 X95.396 Y99.6 E27.33817
G1 X95.396 Y120.4 E28.02998
G0 F6000 X95.796 Y120.8
;TYPE:WALL-OUTER
G1 F1200 X74.196 Y120.8 E28.7484
G1 X74.196 Y99.2 E29.46682
G1 X95.796 Y99.2 E30.18524
G1 X95.796 Y120.8 E30.90366
G0 F6000 X95.526 Y120.53
G0 X95.286 Y120.01
G0 X95.006 Y120.01
;TYPE:SKIN
G1 F1200 X74.986 Y120.01 E31.56953
G1 X74.986 Y99.99 E32.2354
G1 X95.006 Y99.99 E32.90126
G1 X95.006 Y120.01 E33.56713
G0 F6000 X95.286 Y120.01
G0 X95.286 Y100.502
G0 X94.845 Y100.502
G1 F1200 X94.492 Y100.148 E33.58376
G0 F6000 X93.926 Y100.148
G1 F1200 X94.845 Y101.068 E33.62701
G0 F6000 X94.845 Y101.633
G1 F1200 X93.36 Y100.148 E33.69686
G0 F6000 X92.795 Y100.148
G1 F1200 X94.845 Y102.199 E33.79331
G0 F6000 X94.845 Y102.765
G1 F1200 X92.229 Y100.148 E33.91638
G0 F6000 X91.663 Y100.148
G1 F1200 X94.845 Y103.33 E34.06605
G0 F6000 X94.845 Y103.896
G1 F1200 X91.097 Y100.148 E34.24235
G0 F6000 X90.532 Y100.148
G1 F1200 X94.845 Y104.462 E34.44524
G0 F6000 X94.845 Y105.027
G1 F1200 X89.966 Y100.148 E34.67473
G0 F6000 X89.4 Y100.148
G1 F1200 X94.845 Y105.593 E34.93085
G0 F6000 X94.845 Y106.159
G1 F1200 X88.835 Y100.148 E35.21357
G0 F6000 X88.269 Y100.148
G1 F1200 X94.845 Y106.725 E35.5229
G0 F6000 X94.845 Y107.29
G1 F1200 X87.703 Y100.148 E35.85884
G0 F6000 X87.138 Y100.148
G1 F1200 X94.845 Y107.856 E36.22138
G0 F6000 X94.845 Y108.422
G1 F1200 X86.572 Y100.148 E36.61054
G0 F6000 X86.006 Y100.148
G1 F1200 X94.845 Y108.987 E37.0263
G0 F6000 X94.845 Y109.553
G1 F1200 X85.441 Y100.148 E37.46866
G0 F6000 X84.875 Y100.148
G1 F1200 X94.845 Y110.119 E37.93764
G0 F6000 X94.845 Y110.684
G1 F1200 X84.309 Y100.148 E38.43322
G0 F6000 X83.744 Y100.148
G1 F1200 X94.845 Y111.25 E38.9554
G0 F6000 X94.845 Y111.816
G1 F1200 X83.178 Y100.148 E39.5042
G0 F6000 X82.612 Y100.148
G1 F1200 X94.845 Y112.381 E40.07961
G0 F6000 X94.845 Y112.947
G1 F1200 X82.047 Y100.148 E40.68161
G0 F6000 X81.481 Y100.148
G1 F1200 X94.845 Y113.513 E41.31023
G0 F6000 X94.845 Y114.078
G1 F1200 X80.915 Y100.148 E41.96546
G0 F6000 X80.349 Y100.148
G1 F1200 X94.845 Y114.644 E42.64731
G0 F6000 X94.845 Y115.21
G1 F1200 X79.784 Y100.148 E43.35575
