;FLAVOR:Marlin
;TIME:16782
;Filament used: 12.2376m
;Layer height: 0.2
;MINX:25.825
;MINY:53.2
;MINZ:0.2
;MAXX:194.175
;MAXY:166.8
;MAXZ:22
;Generated with Cura_SteamEngine master
M140 S50
M105
M190 S50
M104 S200
M105
M109 S200
M82 ;absolute extrusion mode
M201 X500.00 Y500.00 Z100.00 E5000.00 ;Setup machine max acceleration
M203 X500.00 Y500.00 Z10.00 E50.00 ;Setup machine max feedrate
M204 P500.00 R1000.00 T500.00 ;Setup Print/Retract/Travel acceleration
M205 X8.00 Y8.00 Z0.40 E5.00 ;Setup Jerk
M220 S100 ;Reset Feedrate
M221 S100 ;Reset Flowrate

G28 ;Home

G92 E0 ;Reset Extruder
G1 Z2.0 F3000 ;Move Z Axis up
G1 X10.1 Y20 Z0.28 F5000.0 ;Move to start position
G1 X10.1 Y200.0 Z0.28 F1500.0 E15 ;Draw the first line
G1 X10.4 Y200.0 Z0.28 F5000.0 ;Move to side a little
G1 X10.4 Y20 Z0.28 F1500.0 E30 ;Draw the second line
G92 E0 ;Reset Extruder
G1 Z2.0 F3000 ;Move Z Axis up

G92 E0
G92 E0
G1 F2700 E-5
;LAYER_COUNT:110
;LAYER:0
M107
G0 F6000 X33.007 Y88.153 Z0.2
;TYPE:SKIRT
G1 F2700 E0
G1 F1200 X34.33 Y87.68 E0.04673
G1 X35.249 Y87.413 E0.07856
G1 X36.329 Y87.114 E0.11583
G1 X38.722 Y86.378 E0.1991
G1 X41.096 Y85.574 E0.28247
G1 X43.413 Y84.715 E0.36466
G1 X45.733 Y83.781 E0.44784
G1 X48.003 Y82.79 E0.53022
G1 X50.264 Y81.727 E0.61332
G1 X52.503 Y80.595 E0.69677
G1 X54.691 Y79.41 E0.77953
G1 X56.867 Y78.151 E0.86314
G1 X58.976 Y76.85 E0.94556
G1 X61.044 Y75.493 E1.02783
G1 X63.127 Y74.038 E1.11234
G1 X65.108 Y72.57 E1.19434
G1 X67.071 Y71.028 E1.27737
G1 X68.996 Y69.426 E1.36067
G1 X70.838 Y67.801 E1.44236
G1 X72.684 Y66.08 E1.52631
G1 X74.481 Y64.305 E1.61032
G1 X76.166 Y62.544 E1.69138
G1 X77.877 Y60.652 E1.77622
G1 X79.436 Y58.828 E1.85603
G1 X79.75 Y58.438 E1.87268
G1 X80.547 Y57.477 E1.91421
G1 X81.197 Y56.756 E1.9465
G1 X81.905 Y56.091 E1.9788
G1 X82.665 Y55.486 E2.01111
G1 X83.38 Y55.003 E2.03981
G1 X84.224 Y54.522 E2.07212
G1 X85.105 Y54.113 E2.10443
G1 X86.017 Y53.777 E2.13675
G1 X86.953 Y53.518 E2.16905
G1 X87.907 Y53.336 E2.20136
G1 X89.303 Y53.214 E2.24796
G1 X89.624 Y53.205 E2.25865
G1 X89.955 Y53.2 E2.26966
G1 X111.086 Y53.201 E2.97248
G1 X111.787 Y53.211 E2.99579
G1 X112.757 Y53.265 E3.02811
G1 X113.77 Y53.408 E3.06213
G1 X114.973 Y53.631 E3.10283
G1 X115.552 Y53.746 E3.12246
G1 X118.009 Y54.164 E3.20535
G1 X120.476 Y54.512 E3.28822
G1 X122.973 Y54.794 E3.3718
G1 X125.445 Y55.001 E3.4543
G1 X127.965 Y55.141 E3.53825
G1 X130.37 Y55.208 E3.61827
G1 X130.542 Y55.211 E3.62399
G1 X131.512 Y55.265 E3.6563
G1 X132.474 Y55.399 E3.68861
G1 X133.422 Y55.611 E3.72092
G1 X134.349 Y55.901 E3.75322
G1 X135.249 Y56.266 E3.78553
G1 X136.116 Y56.704 E3.81783
G1 X136.945 Y57.211 E3.85015
G1 X137.728 Y57.785 E3.88245
G1 X138.462 Y58.422 E3.91477
G1 X139.141 Y59.116 E3.94706
G1 X139.553 Y59.599 E3.96818
G1 X139.741 Y59.832 E3.97814
G1 X141.383 Y61.806 E4.06354
G1 X143.024 Y63.669 E4.14611
G1 X144.729 Y65.499 E4.2293
G1 X146.477 Y67.272 E4.31211
G1 X148.262 Y68.982 E4.39433
G1 X150.126 Y70.669 E4.47794
G1 X152.027 Y72.294 E4.56112
G1 X153.95 Y73.847 E4.64334
G1 X155.964 Y75.38 E4.72752
G1 X157.98 Y76.827 E4.81006
G1 X160.038 Y78.218 E4.89267
G1 X162.149 Y79.559 E4.97586
G1 X164.282 Y80.831 E5.05846
G1 X166.483 Y82.06 E5.1423
G1 X168.675 Y83.205 E5.22455
G1 X170.926 Y84.3 E5.30781
G1 X173.18 Y85.318 E5.39007
G1 X175.456 Y86.272 E5.47215
G1 X177.824 Y87.185 E5.55656
G1 X180.179 Y88.018 E5.63965
G1 X182.54 Y88.777 E5.72213
G1 X185.124 Y89.529 E5.81164
G1 X185.496 Y89.631 E5.82447
G1 X186.421 Y89.927 E5.85677
G1 X187.319 Y90.298 E5.88909
G1 X188.183 Y90.741 E5.92138
G1 X189.008 Y91.255 E5.95371
G1 X189.787 Y91.834 E5.986
G1 X190.517 Y92.476 E6.01833
G1 X191.191 Y93.175 E6.05063
G1 X191.805 Y93.927 E6.08291
G1 X192.356 Y94.728 E6.11525
G1 X192.839 Y95.571 E6.14757
G1 X193.25 Y96.45 E6.17984
G1 X193.588 Y97.361 E6.21216
G1 X193.85 Y98.297 E6.24449
G1 X194.034 Y99.25 E6.27677
G1 X194.161 Y100.678 E6.32445
G1 X194.17 Y101 E6.33516
G1 X194.175 Y101.33 E6.34614
G1 X194.174 Y118.426 E6.91476
G1 X194.164 Y119.154 E6.93897
G1 X194.111 Y120.124 E6.97128
G1 X193.978 Y121.086 E7.00358
G1 X193.766 Y122.034 E7.03589
G1 X193.477 Y122.962 E7.06822
G1 X193.113 Y123.862 E7.10051
G1 X192.676 Y124.73 E7.13283
G1 X192.169 Y125.559 E7.16515
G1 X191.596 Y126.343 E7.19745
G1 X190.96 Y127.077 E7.22975
G1 X190.266 Y127.757 E7.26207
G1 X189.518 Y128.377 E7.29438
G1 X188.722 Y128.933 E7.32668
G1 X187.883 Y129.422 E7.35898
G1 X187.006 Y129.841 E7.3913
G1 X185.67 Y130.32 E7.43851
G1 X184.751 Y130.587 E7.47034
G1 X183.671 Y130.886 E7.50761
G1 X181.278 Y131.622 E7.59088
G1 X178.904 Y132.426 E7.67425
G1 X176.587 Y133.285 E7.75644
G1 X174.267 Y134.219 E7.83962
G1 X171.997 Y135.21 E7.922
G1 X169.736 Y136.273 E8.0051
G1 X167.497 Y137.405 E8.08854
G1 X165.309 Y138.59 E8.1713
G1 X163.133 Y139.849 E8.25492
G1 X161.024 Y141.15 E8.33734
G1 X158.956 Y142.507 E8.41961
G1 X156.873 Y143.962 E8.50412
G1 X154.892 Y145.43 E8.58612
G1 X152.929 Y146.972 E8.66915
G1 X151.004 Y148.574 E8.75244
G1 X149.162 Y150.199 E8.83414
G1 X147.316 Y151.92 E8.91808
G1 X145.519 Y153.695 E9.00209
G1 X143.834 Y155.456 E9.08316
G1 X142.123 Y157.348 E9.168
G1 X140.564 Y159.172 E9.24781
G1 X140.25 Y159.562 E9.26446
G1 X139.45 Y160.527 E9.30615
G1 X138.8 Y161.248 E9.33844
G1 X138.092 Y161.914 E9.37077
G1 X137.332 Y162.519 E9.40308
G1 X136.524 Y163.059 E9.4354
G1 X135.676 Y163.531 E9.46768
G1 X134.791 Y163.932 E9.5
G1 X133.876 Y164.258 E9.5323
G1 X132.937 Y164.508 E9.56462
G1 X131.981 Y164.68 E9.59693
G1 X130.712 Y164.786 E9.63928
G1 X129.297 Y164.827 E9.68637
G1 X129.22 Y164.831 E9.68893
G1 X128.315 Y164.851 E9.71904
G1 X125.819 Y164.977 E9.80216
G1 X123.331 Y165.174 E9.88517
G1 X120.894 Y165.435 E9.96669
G1 X118.376 Y165.778 E10.05121
G1 X115.904 Y166.185 E10.13454
G1 X113.84 Y166.579 E10.20443
G1 X112.879 Y166.723 E10.23675
G1 X111.947 Y166.786 E10.26782
G1 X111.628 Y166.795 E10.27843
G1 X111.295 Y166.8 E10.28951
G1 X90.164 Y166.799 E10.99233
G1 X89.462 Y166.789 E11.01568
G1 X88.492 Y166.735 E11.04799
G1 X87.53 Y166.602 E11.08029
G1 X86.582 Y166.39 E11.1126
G1 X85.655 Y166.1 E11.14491
G1 X84.754 Y165.736 E11.17723
G1 X83.887 Y165.298 E11.20953
G1 X83.059 Y164.791 E11.24183
G1 X82.275 Y164.217 E11.27414
G1 X81.541 Y163.581 E11.30645
G1 X80.861 Y162.886 E11.33879
G1 X80.45 Y162.404 E11.35986
G1 X80.279 Y162.192 E11.36891
G1 X78.617 Y160.194 E11.45535
G1 X76.976 Y158.331 E11.53793
G1 X75.271 Y156.501 E11.62112
G1 X73.523 Y154.728 E11.70393
G1 X71.736 Y153.016 E11.78624
G1 X69.878 Y151.334 E11.8696
G1 X67.987 Y149.718 E11.95233
G1 X66.015 Y148.125 E12.03664
G1 X64.054 Y146.633 E12.1186
G1 X62.027 Y145.178 E12.20159
G1 X59.954 Y143.777 E12.28481
G1 X57.851 Y142.441 E12.36767
G1 X55.718 Y141.169 E12.45027
G1 X53.517 Y139.94 E12.53412
G1 X51.325 Y138.795 E12.61637
G1 X49.074 Y137.7 E12.69963
G1 X46.82 Y136.682 E12.78189
G1 X44.544 Y135.728 E12.86397
G1 X42.176 Y134.815 E12.94838
G1 X39.821 Y133.982 E13.03146
G1 X37.46 Y133.223 E13.11395
G1 X34.889 Y132.475 E13.20301
G1 X34.478 Y132.361 E13.21719
G1 X33.553 Y132.063 E13.24952
G1 X32.657 Y131.689 E13.28181
G1 X31.794 Y131.244 E13.3141
G1 X30.97 Y130.728 E13.34644
G1 X30.192 Y130.147 E13.37874
G1 X29.464 Y129.504 E13.41104
G1 X28.791 Y128.803 E13.44336
G1 X28.179 Y128.049 E13.47566
G1 X27.63 Y127.248 E13.50796
G1 X27.149 Y126.403 E13.5403
G1 X26.74 Y125.523 E13.57258
G1 X26.404 Y124.611 E13.6049
G1 X26.144 Y123.675 E13.63721
G1 X25.962 Y122.721 E13.66951
G1 X25.841 Y121.358 E13.71503
G1 X25.831 Y121.037 E13.72571
G1 X25.825 Y120.67 E13.73792
G1 X25.826 Y99.498 E14.4421
G1 X25.836 Y98.831 E14.46429
G1 X25.891 Y97.861 E14.4966
G1 X26.025 Y96.899 E14.52891
G1 X26.238 Y95.951 E14.56122
G1 X26.528 Y95.024 E14.59353
G1 X26.893 Y94.124 E14.62583
G1 X27.331 Y93.257 E14.65814
G1 X27.839 Y92.429 E14.69045
G1 X28.413 Y91.646 E14.72274
G1 X29.05 Y90.912 E14.75506
G1 X29.745 Y90.234 E14.78736
G1 X30.494 Y89.614 E14.8197
G1 X31.29 Y89.059 E14.85197
G1 X32.13 Y88.571 E14.88428
G1 X33.007 Y88.153 E14.91659
G0 F6000 X33.376 Y88.434
G1 F1200 X34.442 Y88.064 E14.95412
G1 X35.203 Y87.842 E14.98049
G1 X36.457 Y87.494 E15.02378
G1 X38.82 Y86.767 E15.106
G1 X41.226 Y85.953 E15.19048
G1 X43.553 Y85.09 E15.27303
G1 X45.876 Y84.155 E15.35632
G1 X48.188 Y83.145 E15.44023
G1 X50.45 Y82.081 E15.52338
G1 X52.68 Y80.954 E15.60648
G1 X54.902 Y79.751 E15.69052
G1 X57.045 Y78.51 E15.77288
G1 X59.2 Y77.182 E15.85708
G1 X61.271 Y75.823 E15.93946
G1 X63.357 Y74.365 E16.02411
G1 X65.348 Y72.89 E16.10653
G1 X67.311 Y71.348 E16.18955
G1 X69.27 Y69.717 E16.27433
G1 X71.13 Y68.077 E16.35681
G1 X72.956 Y66.375 E16.43984
G1 X74.751 Y64.601 E16.52377
G1 X76.469 Y62.805 E16.60644
G1 X78.177 Y60.917 E16.69112
G1 X79.767 Y59.056 E16.77253
G1 X80.165 Y58.563 E16.7936
G1 X80.854 Y57.733 E16.82948
G1 X81.495 Y57.024 E16.86127
G1 X82.192 Y56.372 E16.89301
G1 X82.941 Y55.78 E16.92477
G1 X83.592 Y55.342 E16.95087
G1 X84.422 Y54.87 E16.98262
G1 X85.289 Y54.47 E17.01438
G1 X86.186 Y54.143 E17.04614
G1 X87.107 Y53.893 E17.07788
G1 X88.046 Y53.72 E17.10963
G1 X89.314 Y53.613 E17.15196
G1 X89.635 Y53.604 E17.16264
G1 X89.955 Y53.6 E17.17328
G1 X111.081 Y53.601 E17.87594
G1 X111.782 Y53.611 E17.89925
G1 X112.735 Y53.665 E17.931
G1 X113.697 Y53.801 E17.96332
G1 X114.9 Y54.024 E18.00401
G1 X115.472 Y54.138 E18.02341
G1 X117.958 Y54.56 E18.10728
G1 X120.447 Y54.912 E18.19088
G1 X122.928 Y55.192 E18.27393
G1 X125.425 Y55.401 E18.35727
G1 X127.896 Y55.539 E18.43958
G1 X130.536 Y55.611 E18.52742
G1 X131.489 Y55.665 E18.55917
G1 X132.435 Y55.799 E18.59095
G1 X133.366 Y56.011 E18.6227
G1 X134.275 Y56.3 E18.65443
G1 X135.158 Y56.664 E18.68619
G1 X136.007 Y57.101 E18.71795
G1 X136.816 Y57.608 E18.74971
G1 X137.581 Y58.18 E18.78148
G1 X138.294 Y58.814 E18.81321
G1 X139.241 Y59.851 E18.85992
G1 X139.407 Y60.057 E18.86872
G1 X141.059 Y62.042 E18.95461
G1 X142.732 Y63.942 E19.03882
G1 X144.434 Y65.769 E19.12186
G1 X146.181 Y67.541 E19.20463
G1 X148.019 Y69.302 E19.28929
G1 X149.861 Y70.969 E19.37192
G1 X151.761 Y72.593 E19.45505
G1 X153.74 Y74.191 E19.53965
G1 X155.71 Y75.691 E19.62201
G1 X157.728 Y77.139 E19.70462
G1 X159.83 Y78.56 E19.78901
G1 X161.951 Y79.907 E19.87258
G1 X164.062 Y81.166 E19.95433
G1 X166.282 Y82.405 E20.03889
G1 X168.522 Y83.575 E20.12294
G1 X170.723 Y84.646 E20.20435
G1 X173.053 Y85.699 E20.28939
G1 X175.294 Y86.638 E20.37021
G1 X177.695 Y87.564 E20.4558
G1 X180.06 Y88.4 E20.53923
G1 X182.411 Y89.156 E20.62137
G1 X184.971 Y89.901 E20.71005
G1 X185.39 Y90.016 E20.7245
G1 X186.299 Y90.308 E20.75625
G1 X187.181 Y90.675 E20.78803
G1 X188.028 Y91.114 E20.81976
G1 X188.836 Y91.622 E20.8515
G1 X189.599 Y92.197 E20.88328
G1 X190.311 Y92.833 E20.91503
G1 X190.967 Y93.526 E20.94677
G1 X191.563 Y94.272 E20.97853
G1 X192.095 Y95.065 E21.01029
G1 X192.558 Y95.9 E21.04204
G1 X192.949 Y96.771 E21.0738
G1 X193.267 Y97.672 E21.10558
G1 X193.508 Y98.595 E21.13731
G1 X193.671 Y99.536 E21.16907
G1 X193.762 Y100.689 E21.20754
G1 X193.771 Y101.011 E21.21825
G1 X193.775 Y101.33 E21.22886
G1 X193.774 Y118.421 E21.79731
G1 X193.764 Y119.149 E21.82153
G1 X193.711 Y120.102 E21.85327
G1 X193.578 Y121.047 E21.88501
G1 X193.367 Y121.978 E21.91676
G1 X193.078 Y122.889 E21.94855
G1 X192.715 Y123.771 E21.98028
G1 X192.278 Y124.621 E22.01206
G1 X191.773 Y125.431 E22.04381
G1 X191.201 Y126.195 E22.07556
G1 X190.567 Y126.909 E22.10731
G1 X189.876 Y127.568 E22.13907
G1 X189.132 Y128.166 E22.17082
G1 X188.341 Y128.7 E22.20256
G1 X187.507 Y129.166 E22.23434
G1 X186.638 Y129.561 E22.26609
G1 X185.558 Y129.936 E22.30411
G1 X184.797 Y130.158 E22.33048
G1 X183.543 Y130.506 E22.37376
G1 X181.18 Y131.233 E22.45599
G1 X178.774 Y132.047 E22.54047
G1 X176.447 Y132.91 E22.62302
G1 X174.124 Y133.845 E22.70631
G1 X171.816 Y134.853 E22.79007
G1 X169.55 Y135.919 E22.87336
G1 X167.32 Y137.046 E22.95647
G1 X165.098 Y138.249 E23.04051
G1 X162.955 Y139.49 E23.12287
G1 X160.8 Y140.818 E23.20706
G1 X158.729 Y142.177 E23.28945
G1 X156.652 Y143.628 E23.37372
G1 X154.652 Y145.11 E23.45651
G1 X152.689 Y146.652 E23.53954
G1 X150.73 Y148.283 E23.62432
G1 X148.87 Y149.923 E23.7068
G1 X147.044 Y151.625 E23.78982
G1 X145.249 Y153.399 E23.87376
G1 X143.531 Y155.195 E23.95643
G1 X141.823 Y157.083 E24.0411
G1 X140.233 Y158.944 E24.12252
G1 X139.835 Y159.437 E24.14359
G1 X139.142 Y160.272 E24.17968
G1 X138.502 Y160.98 E24.21142
G1 X137.805 Y161.633 E24.24319
G1 X137.056 Y162.224 E24.27492
G1 X136.26 Y162.752 E24.30669
G1 X135.423 Y163.21 E24.33843
G1 X134.55 Y163.597 E24.37019
G1 X133.648 Y163.91 E24.40195
G1 X132.722 Y164.146 E24.43373
G1 X131.781 Y164.303 E24.46546
G1 X130.7 Y164.386 E24.50152
G1 X129.285 Y164.427 E24.5486
G1 X129.285 Y164.425 E24.54867
G1 X129.211 Y164.431 E24.55114
G1 X128.322 Y164.451 E24.58071
G1 X125.801 Y164.578 E24.66467
G1 X123.296 Y164.776 E24.74825
G1 X120.794 Y165.045 E24.83194
G1 X118.328 Y165.38 E24.91471
G1 X115.842 Y165.79 E24.99852
G1 X113.764 Y166.186 E25.06887
G1 X112.82 Y166.327 E25.10062
G1 X111.936 Y166.386 E25.13009
G1 X111.617 Y166.395 E25.1407
G1 X111.295 Y166.4 E25.15141
G1 X90.17 Y166.399 E25.85403
G1 X89.468 Y166.389 E25.87738
G1 X88.514 Y166.335 E25.90917
G1 X87.569 Y166.202 E25.94091
G1 X86.638 Y165.99 E25.97266
G1 X85.728 Y165.701 E26.00442
G1 X84.845 Y165.337 E26.03619
G1 X83.996 Y164.901 E26.06793
G1 X83.187 Y164.394 E26.09969
G1 X82.422 Y163.822 E26.13146
G1 X81.709 Y163.188 E26.16319
G1 X80.761 Y162.153 E26.20987
G1 X80.585 Y161.935 E26.21919
G1 X78.923 Y159.937 E26.30563
G1 X77.268 Y158.058 E26.38891
G1 X75.566 Y156.231 E26.47196
G1 X73.819 Y154.459 E26.55472
G1 X71.981 Y152.698 E26.63939
G1 X70.121 Y151.015 E26.72281
G1 X68.236 Y149.403 E26.80531
G1 X66.302 Y147.841 E26.88799
G1 X64.283 Y146.305 E26.97237
G1 X62.262 Y144.854 E27.05512
G1 X60.162 Y143.435 E27.13942
G1 X58.039 Y142.087 E27.22306
G1 X55.938 Y140.834 E27.30442
G1 X53.718 Y139.595 E27.38898
G1 X51.478 Y138.425 E27.47303
G1 X49.277 Y137.354 E27.55445
G1 X46.947 Y136.301 E27.63949
G1 X44.706 Y135.362 E27.7203
G1 X42.305 Y134.436 E27.80589
G1 X39.94 Y133.6 E27.88932
G1 X37.589 Y132.844 E27.97146
G1 X34.949 Y132.076 E28.06291
G1 X34.585 Y131.975 E28.07547
G1 X33.677 Y131.682 E28.10721
G1 X32.796 Y131.313 E28.13898
G1 X31.949 Y130.872 E28.17074
G1 X31.142 Y130.361 E28.20251
G1 X30.381 Y129.785 E28.23425
G1 X29.67 Y129.147 E28.26602
G1 X29.016 Y128.452 E28.29776
G1 X28.422 Y127.705 E28.32951
G1 X27.892 Y126.91 E28.36129
G1 X27.431 Y126.074 E28.39304
G1 X27.042 Y125.203 E28.42477
G1 X26.726 Y124.301 E28.45655
G1 X26.487 Y123.377 E28.4883
G1 X26.327 Y122.436 E28.52005
G1 X26.241 Y121.346 E28.55641
G1 X26.231 Y121.025 E28.56709
G1 X26.225 Y120.67 E28.5789
G1 X26.226 Y99.504 E29.28289
G1 X26.236 Y98.837 E29.30507
G1 X26.291 Y97.884 E29.33682
G1 X26.424 Y96.939 E29.36856
G1 X26.637 Y96.008 E29.40033
G1 X26.927 Y95.098 E29.4321
G1 X27.291 Y94.216 E29.46383
G1 X27.729 Y93.367 E29.49561
G1 X28.235 Y92.558 E29.52734
G1 X28.808 Y91.794 E29.55911
G1 X29.443 Y91.08 E29.59089
G1 X30.135 Y90.423 E29.62262
G1 X30.88 Y89.825 E29.6544
G1 X31.672 Y89.292 E29.68615
G1 X32.506 Y88.827 E29.71791
G1 X33.376 Y88.434 E29.74966
G0 F6000 X33.742 Y88.72
G1 F1200 X34.554 Y88.448 E29.77814
G1 X35.462 Y88.184 E29.80959
G1 X36.567 Y87.878 E29.84773
G1 X38.972 Y87.139 E29.93141
G1 X41.346 Y86.335 E30.01478
G1 X43.706 Y85.46 E30.09849
G1 X46.037 Y84.521 E30.18207
G1 X48.349 Y83.512 E30.26598
G1 X50.608 Y82.449 E30.34901
G1 X52.887 Y81.297 E30.43395
G1 X55.072 Y80.114 E30.51659
G1 X57.276 Y78.839 E30.60128
G1 X59.383 Y77.539 E30.68362
G1 X61.513 Y76.141 E30.76836
G1 X63.569 Y74.705 E30.85177
G1 X65.609 Y73.193 E30.93623
G1 X67.568 Y71.655 E31.01906
G1 X69.524 Y70.026 E31.10373
G1 X71.384 Y68.386 E31.18621
G1 X73.245 Y66.652 E31.27081
G1 X75.038 Y64.879 E31.35468
G1 X76.756 Y63.085 E31.43729
G1 X78.461 Y61.199 E31.52185
G1 X80.081 Y59.304 E31.60477
G1 X80.473 Y58.818 E31.62554
G1 X81.162 Y57.988 E31.66142
G1 X81.791 Y57.293 E31.6926
G1 X82.478 Y56.653 E31.72382
G1 X83.216 Y56.075 E31.755
G1 X83.804 Y55.681 E31.77854
G1 X84.62 Y55.218 E31.80975
G1 X85.472 Y54.827 E31.84093
G1 X86.355 Y54.509 E31.87214
G1 X87.261 Y54.268 E31.90333
G1 X88.184 Y54.105 E31.9345
