;FLAVOR:Marlin
;TIME:2444
;Filament used: 1.36987m
;Layer height: 0.2
;MINX:91.7
;MINY:90.2
;MINZ:0.2
;MAXX:128.3
;MAXY:129.8
;MAXZ:20.5
;Generated with Cura_SteamEngine master
M140 S70
M105
M190 S70
M104 S200
M105
M109 S200
M82 ;absolute extrusion mode
M201 X500.00 Y500.00 Z100.00 E5000.00 ;Setup machine max acceleration
M203 X500.00 Y500.00 Z10.00 E50.00 ;Setup machine max feedrate
M204 P500.00 R1000.00 T500.00 ;Setup Print/Retract/Travel acceleration
M205 X8.00 Y8.00 Z0.40 E5.00 ;Setup Jerk
M220 S100 ;Reset Feedrate
M221 S100 ;Reset Flowrate

G28 ;Home

G92 E0 ;Reset Extruder
G1 Z2.0 F3000 ;Move Z Axis up
G1 X10.1 Y20 Z0.28 F5000.0 ;Move to start position
G1 X10.1 Y200.0 Z0.28 F1500.0 E15 ;Draw the first line
G1 X10.4 Y200.0 Z0.28 F5000.0 ;Move to side a little
G1 X10.4 Y20 Z0.28 F1500.0 E30 ;Draw the second line
G92 E0 ;Reset Extruder
G1 Z2.0 F3000 ;Move Z Axis up

G92 E0
G92 E0
G1 F2700 E-5
;LAYER_COUNT:100
;LAYER:0
M107
G1 F300 Z0.7
G0 F6000 X93.982 Y95.552 Z0.7
;TYPE:SKIRT
G1 F300 Z0.2
G1 F2700 E0
G1 F600 X94.56 Y95.013 E0.02629
G1 X95.189 Y94.536 E0.05254
G1 X95.862 Y94.124 E0.07879
G1 X96.575 Y93.783 E0.10507
G1 X97.694 Y93.411 E0.1443
G1 X109.594 Y90.436 E0.55227
G1 X110.655 Y90.247 E0.58812
G1 X110.683 Y90.244 E0.58905
G1 X111.514 Y90.2 E0.61673
G1 X113.383 Y90.2 E0.67889
G1 X114.172 Y90.24 E0.70517
G1 X114.952 Y90.359 E0.73141
G1 X115.717 Y90.557 E0.7577
G1 X116.457 Y90.831 E0.78394
G1 X117.166 Y91.179 E0.81021
G1 X117.837 Y91.597 E0.8365
G1 X118.461 Y92.08 E0.86275
G1 X118.898 Y92.485 E0.88257
G1 X119.015 Y92.602 E0.88807
G1 X119.545 Y93.188 E0.91435
G1 X119.554 Y93.2 E0.91485
G1 X120.383 Y93.2 E0.94242
G1 X121.172 Y93.24 E0.9687
G1 X121.952 Y93.359 E0.99494
G1 X122.717 Y93.557 E1.02122
G1 X123.457 Y93.831 E1.04747
G1 X124.166 Y94.179 E1.07374
G1 X124.837 Y94.597 E1.10003
G1 X125.461 Y95.08 E1.12628
G1 X125.898 Y95.485 E1.14609
G1 X126.015 Y95.602 E1.1516
G1 X126.545 Y96.188 E1.17788
G1 X127.012 Y96.824 E1.20412
G1 X127.413 Y97.504 E1.23038
G1 X127.743 Y98.222 E1.25666
G1 X127.998 Y98.969 E1.28291
G1 X128.177 Y99.738 E1.30917
G1 X128.277 Y100.522 E1.33546
G1 X128.3 Y101.117 E1.35526
G1 X128.3 Y118.883 E1.94616
G1 X128.26 Y119.672 E1.97244
G1 X128.141 Y120.452 E1.99868
G1 X127.943 Y121.217 E2.02496
G1 X127.669 Y121.957 E2.05121
G1 X127.321 Y122.666 E2.07748
G1 X126.903 Y123.337 E2.10377
G1 X126.42 Y123.961 E2.13002
G1 X126.015 Y124.398 E2.14983
G1 X125.898 Y124.515 E2.15534
G1 X125.312 Y125.045 E2.18162
G1 X124.676 Y125.512 E2.20786
G1 X123.996 Y125.913 E2.23412
G1 X123.278 Y126.243 E2.2604
G1 X122.531 Y126.498 E2.28665
G1 X121.762 Y126.677 E2.31291
G1 X120.978 Y126.777 E2.3392
G1 X120.383 Y126.8 E2.35901
G1 X119.545 Y126.8 E2.38688
G1 X119.42 Y126.961 E2.39366
G1 X119.015 Y127.398 E2.41347
G1 X118.898 Y127.515 E2.41898
G1 X118.312 Y128.045 E2.44526
G1 X117.676 Y128.512 E2.4715
G1 X116.996 Y128.913 E2.49776
G1 X116.278 Y129.243 E2.52404
G1 X115.531 Y129.498 E2.55029
G1 X114.762 Y129.677 E2.57655
G1 X113.978 Y129.777 E2.60284
G1 X113.383 Y129.8 E2.62264
G1 X111.514 Y129.8 E2.68481
G1 X110.683 Y129.756 E2.71249
G1 X110.655 Y129.753 E2.71342
G1 X109.594 Y129.564 E2.74927
G1 X97.694 Y126.589 E3.15724
G1 X96.939 Y126.359 E3.18349
G1 X96.21 Y126.054 E3.20978
G1 X95.517 Y125.676 E3.23603
G1 X94.865 Y125.231 E3.26229
G1 X94.261 Y124.722 E3.28856
G1 X93.462 Y123.853 E3.32782
G1 X93.376 Y123.744 E3.33244
G1 X92.919 Y123.1 E3.35871
G1 X92.53 Y122.414 E3.38493
G1 X92.211 Y121.691 E3.41122
G1 X91.968 Y120.94 E3.43747
G1 X91.802 Y120.168 E3.46374
G1 X91.714 Y119.383 E3.49001
G1 X91.7 Y118.913 E3.50565
G1 X91.7 Y101.087 E4.09854
G1 X91.74 Y100.298 E4.12482
G1 X91.859 Y99.518 E4.15106
G1 X92.057 Y98.753 E4.17734
G1 X92.331 Y98.013 E4.20359
G1 X92.679 Y97.304 E4.22986
G1 X93.097 Y96.633 E4.25615
G1 X93.376 Y96.256 E4.27175
G1 X93.462 Y96.147 E4.27637
G1 X93.982 Y95.552 E4.30265
G0 F6000 X94.284 Y95.816
G1 F600 X94.848 Y95.294 E4.32821
G1 X95.464 Y94.833 E4.3538
G1 X96.124 Y94.438 E4.37939
G1 X96.821 Y94.114 E4.40495
G1 X97.791 Y93.799 E4.43887
G1 X109.691 Y90.824 E4.84685
G1 X110.698 Y90.645 E4.88087
G1 X110.726 Y90.642 E4.8818
G1 X111.514 Y90.6 E4.90805
G1 X113.383 Y90.6 E4.97021
G1 X114.151 Y90.64 E4.99579
G1 X114.911 Y90.759 E5.02138
G1 X115.654 Y90.957 E5.04695
G1 X116.373 Y91.231 E5.07254
G1 X117.059 Y91.578 E5.09811
G1 X117.706 Y91.994 E5.12369
G1 X118.306 Y92.475 E5.14927
G1 X118.616 Y92.767 E5.16344
G1 X118.733 Y92.884 E5.16894
G1 X119.247 Y93.456 E5.19452
G1 X119.352 Y93.6 E5.20044
G1 X120.383 Y93.6 E5.23474
G1 X121.151 Y93.64 E5.26031
G1 X121.911 Y93.759 E5.2859
G1 X122.654 Y93.957 E5.31147
G1 X123.373 Y94.231 E5.33707
G1 X124.059 Y94.578 E5.36264
G1 X124.706 Y94.994 E5.38822
G1 X125.306 Y95.475 E5.4138
G1 X125.616 Y95.767 E5.42796
G1 X125.733 Y95.884 E5.43346
G1 X126.247 Y96.456 E5.45904
G1 X126.7 Y97.078 E5.48463
G1 X127.086 Y97.743 E5.51021
G1 X127.401 Y98.445 E5.5358
G1 X127.641 Y99.176 E5.56139
G1 X127.804 Y99.927 E5.58695
G1 X127.888 Y100.692 E5.61255
G1 X127.9 Y101.117 E5.62669
G1 X127.9 Y118.883 E6.21759
G1 X127.86 Y119.651 E6.24317
G1 X127.741 Y120.411 E6.26875
G1 X127.543 Y121.154 E6.29433
G1 X127.269 Y121.873 E6.31992
G1 X126.922 Y122.559 E6.34549
G1 X126.506 Y123.206 E6.37107
G1 X126.025 Y123.806 E6.39665
G1 X125.733 Y124.116 E6.41081
G1 X125.616 Y124.233 E6.41632
G1 X125.044 Y124.747 E6.44189
G1 X124.422 Y125.2 E6.46749
G1 X123.757 Y125.586 E6.49306
G1 X123.055 Y125.901 E6.51865
G1 X122.324 Y126.141 E6.54424
G1 X121.573 Y126.304 E6.5698
G1 X120.808 Y126.388 E6.5954
G1 X120.383 Y126.4 E6.60954
G1 X119.35 Y126.4 E6.6439
G1 X119.025 Y126.806 E6.66119
G1 X118.733 Y127.116 E6.67536
G1 X118.616 Y127.233 E6.68086
G1 X118.044 Y127.747 E6.70644
G1 X117.422 Y128.2 E6.73203
G1 X116.757 Y128.586 E6.75761
G1 X116.055 Y128.901 E6.7832
G1 X115.324 Y129.141 E6.80879
G1 X114.573 Y129.304 E6.83435
G1 X113.808 Y129.388 E6.85994
G1 X113.383 Y129.4 E6.87409
G1 X111.514 Y129.4 E6.93625
G1 X110.726 Y129.358 E6.9625
G1 X110.698 Y129.355 E6.96343
G1 X109.691 Y129.176 E6.99745
G1 X97.791 Y126.201 E7.40543
G1 X97.056 Y125.976 E7.43099
G1 X96.348 Y125.676 E7.45657
G1 X95.674 Y125.304 E7.48217
G1 X95.044 Y124.864 E7.50773
G1 X94.462 Y124.361 E7.53332
G1 X93.777 Y123.606 E7.56722
G1 X93.691 Y123.497 E7.57184
G1 X93.246 Y122.869 E7.59744
G1 X92.869 Y122.198 E7.62304
G1 X92.564 Y121.492 E7.64862
G1 X92.334 Y120.758 E7.6742
G1 X92.181 Y120.005 E7.69976
G1 X92.1 Y118.913 E7.73618
G1 X92.1 Y101.087 E8.32907
G1 X92.14 Y100.319 E8.35465
G1 X92.259 Y99.559 E8.38024
G1 X92.457 Y98.816 E8.40581
G1 X92.731 Y98.097 E8.4314
G1 X93.078 Y97.411 E8.45697
G1 X93.691 Y96.503 E8.49341
G1 X93.777 Y96.394 E8.49803
G1 X94.284 Y95.816 E8.5236
G0 F6000 X94.585 Y96.08
G1 F600 X95.136 Y95.575 E8.54846
G1 X95.738 Y95.131 E8.57334
G1 X96.384 Y94.753 E8.59823
G1 X97.066 Y94.447 E8.6231
G1 X97.888 Y94.187 E8.65177
G1 X109.788 Y91.212 E9.05975
G1 X110.74 Y91.043 E9.09191
G1 X110.768 Y91.04 E9.09284
G1 X111.514 Y91 E9.11769
G1 X113.383 Y91 E9.17985
G1 X114.13 Y91.04 E9.20474
G1 X114.868 Y91.159 E9.2296
G1 X115.59 Y91.357 E9.2545
G1 X116.286 Y91.63 E9.27936
G1 X116.949 Y91.977 E9.30425
G1 X117.572 Y92.392 E9.32915
G1 X118.333 Y93.05 E9.36261
G1 X118.45 Y93.167 E9.36812
G1 X118.95 Y93.724 E9.39301
G1 X119.149 Y94 E9.40433
G1 X120.383 Y94 E9.44537
G1 X121.13 Y94.04 E9.47025
G1 X121.868 Y94.159 E9.49511
G1 X122.59 Y94.357 E9.52001
G1 X123.286 Y94.63 E9.54488
G1 X123.949 Y94.977 E9.56977
G1 X124.572 Y95.392 E9.59467
G1 X125.333 Y96.05 E9.62813
G1 X125.45 Y96.167 E9.63363
G1 X125.95 Y96.724 E9.65853
G1 X126.387 Y97.33 E9.68338
G1 X126.758 Y97.98 E9.70827
G1 X127.057 Y98.666 E9.73316
G1 X127.281 Y99.38 E9.75805
G1 X127.428 Y100.113 E9.78291
G1 X127.5 Y101.117 E9.81639
G1 X127.5 Y118.883 E10.40729
G1 X127.46 Y119.63 E10.43217
G1 X127.341 Y120.368 E10.45703
G1 X127.143 Y121.09 E10.48194
G1 X126.87 Y121.786 E10.5068
G1 X126.523 Y122.449 E10.53169
G1 X126.108 Y123.072 E10.55659
G1 X125.45 Y123.833 E10.59005
G1 X125.333 Y123.95 E10.59555
G1 X124.776 Y124.45 E10.62045
G1 X124.17 Y124.887 E10.6453
G1 X123.52 Y125.258 E10.67019
G1 X122.834 Y125.557 E10.69508
G1 X122.12 Y125.781 E10.71997
G1 X121.387 Y125.928 E10.74483
G1 X120.383 Y126 E10.77831
G1 X119.156 Y126 E10.81912
G1 X119.108 Y126.072 E10.822
G1 X118.45 Y126.833 E10.85546
G1 X118.333 Y126.95 E10.86096
G1 X117.776 Y127.45 E10.88586
G1 X117.17 Y127.887 E10.91071
G1 X116.52 Y128.258 E10.9356
G1 X115.834 Y128.557 E10.96049
G1 X115.12 Y128.781 E10.98538
G1 X114.387 Y128.928 E11.01025
G1 X113.383 Y129 E11.04372
G1 X111.514 Y129 E11.10589
G1 X110.768 Y128.96 E11.13074
G1 X110.74 Y128.957 E11.13167
G1 X109.788 Y128.788 E11.16383
G1 X97.888 Y125.813 E11.57181
G1 X97.173 Y125.593 E11.59669
G1 X96.486 Y125.298 E11.62156
G1 X95.834 Y124.931 E11.64644
G1 X95.225 Y124.497 E11.67131
G1 X94.665 Y124.001 E11.69619
G1 X94.091 Y123.358 E11.72486
G1 X94.005 Y123.249 E11.72948
G1 X93.573 Y122.638 E11.75437
G1 X93.21 Y121.984 E11.77925
G1 X92.918 Y121.295 E11.80414
G1 X92.701 Y120.579 E11.82902
G1 X92.562 Y119.844 E11.8539
G1 X92.5 Y118.913 E11.88493
G1 X92.5 Y101.087 E12.47783
G1 X92.54 Y100.34 E12.50271
G1 X92.659 Y99.602 E12.52757
G1 X92.857 Y98.88 E12.55247
G1 X93.13 Y98.184 E12.57734
G1 X93.477 Y97.521 E12.60223
G1 X94.005 Y96.751 E12.63328
G1 X94.091 Y96.642 E12.6379
G1 X94.585 Y96.08 E12.66279
G0 F6000 X94.885 Y96.345
G1 F600 X95.423 Y95.857 E12.68694
G1 X96.011 Y95.43 E12.71111
G1 X96.642 Y95.071 E12.73526
G1 X97.309 Y94.783 E12.75942
G1 X97.985 Y94.575 E12.78295
G1 X109.885 Y91.6 E13.19093
G1 X110.783 Y91.441 E13.22126
G1 X110.811 Y91.438 E13.22219
G1 X111.514 Y91.4 E13.24561
G1 X113.383 Y91.4 E13.30777
G1 X114.108 Y91.44 E13.33192
G1 X114.825 Y91.559 E13.3561
G1 X115.524 Y91.757 E13.38026
G1 X116.197 Y92.03 E13.40442
G1 X116.836 Y92.375 E13.42857
G1 X117.433 Y92.789 E13.45273
G1 X118.05 Y93.333 E13.48009
G1 X118.167 Y93.45 E13.4856
G1 X118.651 Y93.991 E13.50974
G1 X118.944 Y94.4 E13.52647
G1 X120.383 Y94.4 E13.57433
G1 X121.108 Y94.44 E13.59848
G1 X121.825 Y94.559 E13.62266
G1 X122.524 Y94.757 E13.64682
G1 X123.197 Y95.03 E13.67098
G1 X123.836 Y95.375 E13.69513
G1 X124.433 Y95.789 E13.71929
G1 X125.05 Y96.333 E13.74665
G1 X125.167 Y96.45 E13.75216
G1 X125.651 Y96.991 E13.7763
G1 X126.074 Y97.582 E13.80047
G1 X126.428 Y98.216 E13.82462
G1 X126.711 Y98.885 E13.84878
G1 X126.919 Y99.581 E13.87294
G1 X127.049 Y100.296 E13.89712
G1 X127.1 Y101.117 E13.92447
G1 X127.1 Y118.883 E14.51537
G1 X127.06 Y119.608 E14.53952
G1 X126.941 Y120.325 E14.5637
G1 X126.743 Y121.024 E14.58786
G1 X126.47 Y121.697 E14.61202
G1 X126.125 Y122.336 E14.63617
G1 X125.711 Y122.933 E14.66033
G1 X125.167 Y123.55 E14.68769
G1 X125.05 Y123.667 E14.6932
G1 X124.509 Y124.151 E14.71734
G1 X123.918 Y124.574 E14.74151
G1 X123.284 Y124.928 E14.76566
G1 X122.615 Y125.211 E14.78982
G1 X121.919 Y125.419 E14.81398
G1 X121.204 Y125.549 E14.83816
G1 X120.383 Y125.6 E14.86551
G1 X118.942 Y125.6 E14.91344
G1 X118.711 Y125.933 E14.92692
G1 X118.167 Y126.55 E14.95428
G1 X118.05 Y126.667 E14.95978
G1 X117.509 Y127.151 E14.98393
G1 X116.918 Y127.574 E15.0081
G1 X116.284 Y127.928 E15.03225
G1 X115.615 Y128.211 E15.05641
G1 X114.919 Y128.419 E15.08057
G1 X114.204 Y128.549 E15.10474
G1 X113.383 Y128.6 E15.1321
G1 X111.514 Y128.6 E15.19427
G1 X110.811 Y128.562 E15.21768
G1 X110.783 Y128.559 E15.21862
G1 X109.885 Y128.4 E15.24895
G1 X97.985 Y125.425 E15.65693
G1 X97.291 Y125.21 E15.68109
G1 X96.625 Y124.921 E15.70524
G1 X95.995 Y124.56 E15.72939
G1 X95.408 Y124.131 E15.75357
G1 X94.872 Y123.641 E15.77773
G1 X94.405 Y123.11 E15.80125
G1 X94.319 Y123.001 E15.80586
G1 X93.901 Y122.407 E15.83002
G1 X93.551 Y121.771 E15.85417
G1 X93.273 Y121.099 E15.87835
G1 X93.07 Y120.402 E15.9025
G1 X92.945 Y119.686 E15.92667
G1 X92.9 Y118.913 E15.95243
G1 X92.9 Y101.087 E16.54532
G1 X92.94 Y100.362 E16.56947
G1 X93.059 Y99.645 E16.59365
G1 X93.257 Y98.946 E16.61781
G1 X93.53 Y98.273 E16.64197
G1 X93.875 Y97.634 E16.66612
G1 X94.319 Y96.999 E16.69189
G1 X94.405 Y96.89 E16.69651
G1 X94.885 Y96.345 E16.72066
G0 F6000 X95.185 Y96.611
G1 F600 X95.709 Y96.14 E16.7441
G1 X96.282 Y95.732 E16.76749
G1 X96.898 Y95.391 E16.79091
G1 X97.549 Y95.122 E16.81434
G1 X98.082 Y94.963 E16.83284
G1 X109.982 Y91.988 E17.24082
G1 X110.825 Y91.838 E17.26929
G1 X110.853 Y91.835 E17.27023
G1 X111.514 Y91.8 E17.29225
G1 X113.383 Y91.8 E17.35441
G1 X114.086 Y91.84 E17.37783
G1 X114.78 Y91.959 E17.40125
G1 X115.455 Y92.157 E17.42465
G1 X116.104 Y92.429 E17.44805
G1 X116.718 Y92.774 E17.47147
G1 X117.289 Y93.185 E17.49487
G1 X117.767 Y93.616 E17.51628
G1 X117.884 Y93.733 E17.52178
G1 X118.353 Y94.258 E17.5452
G1 X118.736 Y94.8 E17.56727
G1 X120.383 Y94.8 E17.62205
G1 X121.086 Y94.84 E17.64547
G1 X121.78 Y94.959 E17.66889
G1 X122.455 Y95.157 E17.69229
G1 X123.104 Y95.429 E17.71569
G1 X123.718 Y95.774 E17.73912
G1 X124.289 Y96.185 E17.76252
G1 X124.767 Y96.616 E17.78392
G1 X124.884 Y96.733 E17.78943
G1 X125.353 Y97.258 E17.81284
G1 X125.759 Y97.833 E17.83625
G1 X126.097 Y98.451 E17.85968
G1 X126.364 Y99.102 E17.88308
G1 X126.554 Y99.78 E17.9065
G1 X126.667 Y100.475 E17.92992
G1 X126.7 Y101.117 E17.9513
G1 X126.7 Y118.883 E18.5422
G1 X126.66 Y119.586 E18.56562
G1 X126.541 Y120.28 E18.58904
G1 X126.343 Y120.955 E18.61244
G1 X126.071 Y121.604 E18.63584
G1 X125.726 Y122.218 E18.65927
G1 X125.315 Y122.789 E18.68267
G1 X124.884 Y123.267 E18.70407
G1 X124.767 Y123.384 E18.70958
G1 X124.242 Y123.853 E18.73299
G1 X123.667 Y124.259 E18.7564
G1 X123.049 Y124.597 E18.77983
G1 X122.398 Y124.864 E18.80324
G1 X121.72 Y125.054 E18.82665
G1 X121.025 Y125.167 E18.85007
G1 X120.383 Y125.2 E18.87145
G1 X118.736 Y125.2 E18.92623
G1 X118.726 Y125.218 E18.92692
G1 X118.315 Y125.789 E18.95032
G1 X117.884 Y126.267 E18.97173
G1 X117.767 Y126.384 E18.97723
G1 X117.242 Y126.853 E19.00064
G1 X116.667 Y127.259 E19.02405
G1 X116.049 Y127.597 E19.04748
G1 X115.398 Y127.864 E19.07089
G1 X114.72 Y128.054 E19.0943
G1 X114.025 Y128.167 E19.11772
G1 X113.383 Y128.2 E19.13911
G1 X111.514 Y128.2 E19.20127
G1 X110.853 Y128.165 E19.22328
G1 X110.825 Y128.162 E19.22422
G1 X109.982 Y128.012 E19.2527
G1 X98.082 Y125.037 E19.66068
G1 X97.41 Y124.828 E19.68408
G1 X96.766 Y124.544 E19.70749
G1 X96.158 Y124.188 E19.73093
G1 X95.595 Y123.766 E19.75433
G1 X95.083 Y123.283 E19.77774
G1 X94.719 Y122.862 E19.79625
G1 X94.633 Y122.753 E19.80087
G1 X94.229 Y122.177 E19.82427
G1 X93.893 Y121.558 E19.84769
G1 X93.629 Y120.905 E19.87112
G1 X93.441 Y120.227 E19.89452
G1 X93.331 Y119.532 E19.91793
G1 X93.3 Y118.913 E19.93854
G1 X93.3 Y101.087 E20.53143
G1 X93.34 Y100.384 E20.55485
G1 X93.459 Y99.69 E20.57827
G1 X93.657 Y99.015 E20.60167
G1 X93.929 Y98.366 E20.62507
G1 X94.274 Y97.752 E20.6485
G1 X94.633 Y97.247 E20.66911
G1 X94.719 Y97.138 E20.67373
G1 X95.185 Y96.611 E20.69712
G0 F6000 X95.485 Y96.877
G1 F600 X95.994 Y96.424 E20.71979
G1 X96.552 Y96.035 E20.74241
G1 X97.153 Y95.713 E20.76509
G1 X97.786 Y95.464 E20.78771
G1 X98.179 Y95.351 E20.80131
G1 X110.079 Y92.376 E21.20929
G1 X110.868 Y92.236 E21.23594
G1 X110.896 Y92.233 E21.23688
G1 X111.514 Y92.2 E21.25746
G1 X113.383 Y92.2 E21.31963
G1 X114.063 Y92.24 E21.34228
G1 X114.733 Y92.359 E21.36491
G1 X115.385 Y92.556 E21.38757
G1 X116.009 Y92.828 E21.41021
G1 X116.597 Y93.172 E21.43287
G1 X117.141 Y93.582 E21.45552
G1 X117.484 Y93.899 E21.47106
G1 X117.601 Y94.016 E21.47656
G1 X118.054 Y94.525 E21.49922
G1 X118.443 Y95.083 E21.52185
G1 X118.506 Y95.2 E21.52627
G1 X120.383 Y95.2 E21.5887
G1 X121.063 Y95.24 E21.61135
G1 X121.733 Y95.359 E21.63399
G1 X122.385 Y95.556 E21.65664
G1 X123.009 Y95.828 E21.67928
G1 X123.597 Y96.172 E21.70194
G1 X124.141 Y96.582 E21.72459
G1 X124.484 Y96.899 E21.74013
G1 X124.601 Y97.016 E21.74563
G1 X125.054 Y97.525 E21.7683
G1 X125.443 Y98.083 E21.79092
G1 X125.765 Y98.683 E21.81357
G1 X126.014 Y99.317 E21.83622
G1 X126.187 Y99.976 E21.85888
G1 X126.281 Y100.65 E21.88152
G1 X126.3 Y101.117 E21.89706
G1 X126.3 Y118.883 E22.48796
G1 X126.26 Y119.563 E22.51062
G1 X126.141 Y120.233 E22.53325
G1 X125.944 Y120.885 E22.55591
G1 X125.672 Y121.509 E22.57855
G1 X125.328 Y122.097 E22.6012
