;FLAVOR:Marlin
;TIME:1322
;Filament used: 0.640004m
;Layer height: 0.2
;MINX:93.825
;MINY:88.95
;MINZ:0.2
;MAXX:126.175
;MAXY:130.55
;MAXZ:20
;Generated with Cura_SteamEngine master
M140 S50
M105
M190 S50
M104 S200
M105
M109 S200
M82 ;absolute extrusion mode
M201 X500.00 Y500.00 Z100.00 E5000.00 ;Setup machine max acceleration
M203 X500.00 Y500.00 Z10.00 E50.00 ;Setup machine max feedrate
M204 P500.00 R1000.00 T500.00 ;Setup Print/Retract/Travel acceleration
M205 X8.00 Y8.00 Z0.40 E5.00 ;Setup Jerk
M220 S100 ;Reset Feedrate
M221 S100 ;Reset Flowrate

G28 ;Home

G92 E0 ;Reset Extruder
G1 Z2.0 F3000 ;Move Z Axis up
G1 X10.1 Y20 Z0.28 F5000.0 ;Move to start position
G1 X10.1 Y200.0 Z0.28 F1500.0 E15 ;Draw the first line
G1 X10.4 Y200.0 Z0.28 F5000.0 ;Move to side a little
G1 X10.4 Y20 Z0.28 F1500.0 E30 ;Draw the second line
G92 E0 ;Reset Extruder
G1 Z2.0 F3000 ;Move Z Axis up

G92 E0
G92 E0
G1 F2700 E-5
;LAYER_COUNT:100
;LAYER:0
M107
G0 F6000 X97.051 Y92.663 Z0.2
;TYPE:SKIRT
G1 F2700 E0
G1 F1200 X97.746 Y91.984 E0.03232
G1 X98.494 Y91.365 E0.06461
G1 X99.291 Y90.809 E0.09693
G1 X100.131 Y90.321 E0.12924
G1 X101.008 Y89.904 E0.16154
G1 X101.916 Y89.56 E0.19384
G1 X102.85 Y89.292 E0.22615
G1 X103.803 Y89.102 E0.25847
G1 X104.768 Y88.991 E0.29078
G1 X105.303 Y88.964 E0.3086
G1 X105.623 Y88.955 E0.31925
G1 X105.955 Y88.95 E0.33029
G1 X108.106 Y88.951 E0.40183
G1 X109.25 Y88.967 E0.43989
G1 X111.862 Y88.967 E0.52676
G1 X112.58 Y88.952 E0.55065
G1 X112.851 Y88.95 E0.55966
G1 X113.837 Y88.951 E0.59246
G1 X114.535 Y88.961 E0.61567
G1 X115.505 Y89.015 E0.64799
G1 X116.467 Y89.149 E0.68029
G1 X117.415 Y89.361 E0.7126
G1 X118.342 Y89.65 E0.7449
G1 X119.243 Y90.015 E0.77723
G1 X120.11 Y90.452 E0.80952
G1 X120.938 Y90.96 E0.84183
G1 X121.722 Y91.534 E0.87415
G1 X122.456 Y92.17 E0.90645
G1 X123.135 Y92.864 E0.93874
G1 X123.755 Y93.612 E0.97106
G1 X124.311 Y94.409 E1.00338
G1 X124.8 Y95.248 E1.03568
G1 X125.218 Y96.125 E1.06799
G1 X125.562 Y97.034 E1.10032
G1 X125.831 Y97.967 E1.13261
G1 X126.022 Y98.92 E1.16494
G1 X126.133 Y99.884 E1.19721
G1 X126.161 Y100.428 E1.21533
G1 X126.17 Y100.748 E1.22598
G1 X126.175 Y101.08 E1.23702
G1 X126.174 Y118.16 E1.80511
G1 X126.165 Y118.887 E1.82929
G1 X126.113 Y119.857 E1.8616
G1 X125.981 Y120.82 E1.89393
G1 X125.771 Y121.768 E1.92622
G1 X125.484 Y122.696 E1.95853
G1 X125.121 Y123.597 E1.99084
G1 X124.685 Y124.465 E2.02314
G1 X124.179 Y125.294 E2.05545
G1 X123.607 Y126.079 E2.08775
G1 X122.972 Y126.814 E2.12006
G1 X122.279 Y127.495 E2.15237
G1 X121.532 Y128.116 E2.18468
G1 X120.736 Y128.674 E2.21702
G1 X119.898 Y129.164 E2.2493
G1 X119.022 Y129.584 E2.28161
G1 X118.114 Y129.93 E2.31393
G1 X117.181 Y130.2 E2.34624
G1 X116.229 Y130.393 E2.37855
G1 X115.264 Y130.507 E2.41086
G1 X114.697 Y130.536 E2.42975
G1 X114.376 Y130.545 E2.44043
G1 X114.045 Y130.55 E2.45144
G1 X113.347 Y130.55 E2.47465
G1 X113.061 Y130.547 E2.48417
G1 X112.954 Y130.544 E2.48773
G1 X111.11 Y130.536 E2.54906
G1 X110.743 Y130.53 E2.56127
G1 X109.562 Y130.545 E2.60055
G1 X109.466 Y130.542 E2.60375
G1 X108.398 Y130.55 E2.63927
G1 X106.163 Y130.549 E2.71361
G1 X105.465 Y130.539 E2.73682
G1 X104.495 Y130.485 E2.76914
G1 X103.533 Y130.351 E2.80144
G1 X102.585 Y130.139 E2.83375
G1 X101.658 Y129.85 E2.86605
G1 X100.757 Y129.485 E2.89838
G1 X99.89 Y129.048 E2.93067
G1 X99.062 Y128.54 E2.96298
G1 X98.278 Y127.966 E2.9953
G1 X97.544 Y127.33 E3.0276
G1 X96.865 Y126.636 E3.05989
G1 X96.245 Y125.888 E3.09221
G1 X95.689 Y125.091 E3.12453
G1 X95.2 Y124.252 E3.15683
G1 X94.782 Y123.375 E3.18914
G1 X94.438 Y122.466 E3.22147
G1 X94.169 Y121.533 E3.25376
G1 X93.978 Y120.58 E3.28609
G1 X93.867 Y119.616 E3.31836
G1 X93.838 Y119.06 E3.33688
G1 X93.829 Y118.728 E3.34793
G1 X93.825 Y118.408 E3.35857
G1 X93.826 Y101.247 E3.92935
G1 X93.836 Y100.582 E3.95147
G1 X93.891 Y99.612 E3.98378
G1 X94.025 Y98.65 E4.01609
G1 X94.238 Y97.702 E4.04841
G1 X94.528 Y96.775 E4.08071
G1 X94.893 Y95.875 E4.11301
G1 X95.331 Y95.008 E4.14532
G1 X95.839 Y94.18 E4.17763
G1 X96.414 Y93.396 E4.20997
G1 X97.051 Y92.663 E4.24227
G0 F6000 X97.443 Y92.831
G1 F1200 X98.135 Y92.173 E4.27403
G1 X98.88 Y91.576 E4.30578
G1 X99.672 Y91.043 E4.33753
G1 X100.506 Y90.578 E4.36929
G1 X101.376 Y90.184 E4.40106
G1 X102.276 Y89.865 E4.43282
G1 X103.199 Y89.622 E4.46456
G1 X104.14 Y89.458 E4.49633
G1 X105.315 Y89.364 E4.53554
G1 X105.635 Y89.355 E4.54618
G1 X105.955 Y89.35 E4.55683
G1 X108.1 Y89.351 E4.62817
G1 X109.244 Y89.367 E4.66622
G1 X111.87 Y89.367 E4.75357
G1 X112.583 Y89.352 E4.77729
G1 X112.854 Y89.35 E4.7863
G1 X113.831 Y89.351 E4.81879
G1 X114.529 Y89.361 E4.84201
G1 X115.483 Y89.415 E4.87379
G1 X116.428 Y89.548 E4.90553
G1 X117.359 Y89.76 E4.93729
G1 X118.269 Y90.049 E4.96905
G1 X119.152 Y90.413 E5.00081
G1 X120.001 Y90.85 E5.03257
G1 X120.81 Y91.356 E5.06431
G1 X121.574 Y91.928 E5.09605
G1 X122.288 Y92.562 E5.12781
G1 X122.946 Y93.254 E5.15957
G1 X123.544 Y93.998 E5.19132
G1 X124.078 Y94.79 E5.22309
G1 X124.543 Y95.624 E5.25485
G1 X124.938 Y96.493 E5.2866
G1 X125.257 Y97.393 E5.31836
G1 X125.501 Y98.316 E5.35011
G1 X125.666 Y99.257 E5.38189
G1 X125.761 Y100.44 E5.42136
G1 X125.77 Y100.76 E5.43201
G1 X125.775 Y101.08 E5.44265
G1 X125.774 Y118.155 E6.01057
G1 X125.765 Y118.882 E6.03475
G1 X125.713 Y119.835 E6.06649
G1 X125.582 Y120.781 E6.09826
G1 X125.372 Y121.713 E6.13003
G1 X125.085 Y122.623 E6.16177
G1 X124.722 Y123.506 E6.19352
G1 X124.287 Y124.356 E6.22528
G1 X123.782 Y125.167 E6.25706
G1 X123.212 Y125.932 E6.28879
G1 X122.579 Y126.647 E6.32055
G1 X121.889 Y127.307 E6.35231
G1 X121.145 Y127.906 E6.38408
G1 X120.355 Y128.441 E6.41581
G1 X119.522 Y128.908 E6.44757
G1 X118.653 Y129.304 E6.47934
G1 X117.754 Y129.626 E6.5111
G1 X116.831 Y129.871 E6.54286
G1 X115.891 Y130.038 E6.57461
G1 X114.686 Y130.137 E6.61483
G1 X114.365 Y130.146 E6.62551
G1 X114.045 Y130.15 E6.63615
G1 X113.347 Y130.15 E6.65937
G1 X113.07 Y130.147 E6.66858
G1 X112.964 Y130.144 E6.67211
G1 X111.112 Y130.136 E6.73371
G1 X110.745 Y130.13 E6.74591
G1 X109.557 Y130.145 E6.78543
G1 X109.463 Y130.142 E6.78856
G1 X108.395 Y130.15 E6.82408
G1 X106.169 Y130.149 E6.89812
G1 X105.471 Y130.139 E6.92134
G1 X104.517 Y130.085 E6.95312
G1 X103.572 Y129.952 E6.98486
G1 X102.641 Y129.74 E7.01662
G1 X101.731 Y129.451 E7.04837
G1 X100.848 Y129.087 E7.08014
G1 X99.999 Y128.65 E7.1119
G1 X99.19 Y128.144 E7.14363
G1 X98.426 Y127.572 E7.17538
G1 X97.712 Y126.938 E7.20714
G1 X97.054 Y126.246 E7.2389
G1 X96.456 Y125.502 E7.27064
G1 X95.922 Y124.71 E7.30242
G1 X95.457 Y123.876 E7.33417
G1 X95.062 Y123.007 E7.36592
G1 X94.743 Y122.107 E7.39768
G1 X94.499 Y121.184 E7.42944
G1 X94.334 Y120.243 E7.46121
G1 X94.238 Y119.049 E7.50105
G1 X94.229 Y118.717 E7.5121
G1 X94.225 Y118.408 E7.52238
G1 X94.226 Y101.253 E8.09295
G1 X94.236 Y100.588 E8.11507
G1 X94.291 Y99.634 E8.14686
G1 X94.425 Y98.689 E8.1786
G1 X94.637 Y97.758 E8.21036
G1 X94.927 Y96.848 E8.24213
G1 X95.292 Y95.966 E8.27388
G1 X95.729 Y95.117 E8.30563
G1 X96.236 Y94.308 E8.33739
G1 X96.808 Y93.544 E8.36913
G1 X97.443 Y92.831 E8.40089
G0 F6000 X97.835 Y93.002
G1 F1200 X98.524 Y92.366 E8.43208
G1 X99.265 Y91.791 E8.46327
G1 X100.052 Y91.281 E8.49446
G1 X100.88 Y90.84 E8.52566
G1 X101.742 Y90.471 E8.55685
G1 X102.633 Y90.177 E8.58806
G1 X103.545 Y89.959 E8.61924
G1 X104.472 Y89.821 E8.65042
G1 X105.326 Y89.763 E8.67889
G1 X105.646 Y89.754 E8.68953
G1 X105.955 Y89.75 E8.69981
G1 X108.095 Y89.751 E8.77099
G1 X109.239 Y89.767 E8.80904
G1 X111.879 Y89.767 E8.89685
G1 X112.586 Y89.752 E8.92037
G1 X112.857 Y89.75 E8.92938
G1 X113.826 Y89.751 E8.96161
G1 X114.524 Y89.761 E8.98483
G1 X115.46 Y89.815 E9.01601
G1 X116.388 Y89.947 E9.04719
G1 X117.302 Y90.159 E9.0784
G1 X118.194 Y90.448 E9.10958
G1 X119.059 Y90.811 E9.14078
G1 X119.889 Y91.247 E9.17197
G1 X120.68 Y91.752 E9.20318
G1 X121.424 Y92.323 E9.23437
G1 X122.117 Y92.955 E9.26557
G1 X122.754 Y93.643 E9.29675
G1 X123.329 Y94.384 E9.32795
G1 X123.84 Y95.17 E9.35913
G1 X124.282 Y95.998 E9.39035
G1 X124.651 Y96.86 E9.42153
G1 X124.946 Y97.75 E9.45272
G1 X125.164 Y98.662 E9.48391
G1 X125.304 Y99.59 E9.51512
G1 X125.362 Y100.451 E9.54382
G1 X125.371 Y100.771 E9.55447
G1 X125.375 Y101.08 E9.56475
G1 X125.374 Y118.15 E10.1325
G1 X125.365 Y118.877 E10.15668
G1 X125.314 Y119.814 E10.18789
G1 X125.182 Y120.742 E10.21907
G1 X124.973 Y121.656 E10.25025
G1 X124.686 Y122.549 E10.28145
G1 X124.324 Y123.415 E10.31267
G1 X123.89 Y124.246 E10.34385
G1 X123.386 Y125.037 E10.37505
G1 X122.817 Y125.782 E10.40623
G1 X122.186 Y126.477 E10.43745
G1 X121.499 Y127.115 E10.46863
G1 X120.76 Y127.692 E10.49981
G1 X119.974 Y128.204 E10.53101
G1 X119.148 Y128.647 E10.56219
G1 X118.286 Y129.019 E10.59341
G1 X117.397 Y129.315 E10.62458
G1 X116.485 Y129.535 E10.65578
G1 X115.558 Y129.676 E10.68697
G1 X114.674 Y129.737 E10.71644
G1 X114.353 Y129.746 E10.72712
G1 X114.045 Y129.75 E10.73737
G1 X113.347 Y129.75 E10.76058
G1 X113.08 Y129.747 E10.76946
G1 X112.976 Y129.744 E10.77292
G1 X111.114 Y129.736 E10.83485
G1 X110.747 Y129.73 E10.84706
G1 X109.552 Y129.745 E10.88681
G1 X109.46 Y129.742 E10.88987
G1 X108.392 Y129.75 E10.9254
G1 X106.174 Y129.749 E10.99917
G1 X105.476 Y129.739 E11.02238
G1 X104.54 Y129.685 E11.05357
G1 X103.612 Y129.553 E11.08474
G1 X102.698 Y129.341 E11.11595
G1 X101.806 Y129.052 E11.14714
G1 X100.941 Y128.689 E11.17834
G1 X100.111 Y128.253 E11.20952
G1 X99.32 Y127.748 E11.24073
G1 X98.576 Y127.177 E11.27193
G1 X97.883 Y126.545 E11.30312
G1 X97.246 Y125.857 E11.33431
G1 X96.671 Y125.116 E11.3655
G1 X96.16 Y124.33 E11.39668
G1 X95.718 Y123.502 E11.4279
G1 X95.349 Y122.64 E11.45909
G1 X95.054 Y121.75 E11.49027
G1 X94.836 Y120.838 E11.52146
G1 X94.696 Y119.91 E11.55268
G1 X94.638 Y119.038 E11.58174
G1 X94.629 Y118.706 E11.59279
G1 X94.625 Y118.408 E11.6027
G1 X94.626 Y101.259 E12.17308
G1 X94.636 Y100.594 E12.1952
G1 X94.69 Y99.657 E12.22642
G1 X94.824 Y98.729 E12.2576
G1 X95.036 Y97.815 E12.28881
G1 X95.325 Y96.923 E12.32
G1 X95.69 Y96.059 E12.35119
G1 X96.126 Y95.229 E12.38237
G1 X96.632 Y94.439 E12.41358
G1 X97.203 Y93.695 E12.44477
G1 X97.835 Y93.002 E12.47597
G0 F6000 X98.227 Y93.177
G1 F1200 X98.913 Y92.563 E12.50659
G1 X99.649 Y92.011 E12.53719
G1 X100.431 Y91.524 E12.56783
G1 X101.252 Y91.108 E12.59844
G1 X102.106 Y90.764 E12.62906
G1 X102.986 Y90.495 E12.65967
G1 X103.887 Y90.304 E12.6903
G1 X104.801 Y90.192 E12.72093
G1 X105.337 Y90.163 E12.73878
G1 X105.657 Y90.154 E12.74943
G1 X105.955 Y90.15 E12.75934
G1 X107.941 Y90.15 E12.8254
G1 X109.233 Y90.167 E12.86837
G1 X111.888 Y90.167 E12.95668
G1 X112.589 Y90.152 E12.98
G1 X112.86 Y90.15 E12.98901
G1 X113.82 Y90.151 E13.02094
G1 X114.518 Y90.161 E13.04416
G1 X115.437 Y90.214 E13.07478
G1 X116.348 Y90.347 E13.1054
G1 X117.244 Y90.558 E13.13601
G1 X118.118 Y90.846 E13.16662
G1 X118.965 Y91.209 E13.19727
G1 X119.776 Y91.644 E13.22788
G1 X120.546 Y92.148 E13.25849
G1 X121.27 Y92.717 E13.28911
G1 X121.942 Y93.347 E13.31975
G1 X122.557 Y94.032 E13.35037
G1 X123.11 Y94.768 E13.38099
G1 X123.597 Y95.549 E13.4116
G1 X124.014 Y96.37 E13.44223
G1 X124.359 Y97.224 E13.47286
G1 X124.628 Y98.104 E13.50347
G1 X124.82 Y99.005 E13.53411
G1 X124.933 Y99.918 E13.56471
G1 X124.962 Y100.462 E13.58283
G1 X124.971 Y100.782 E13.59347
G1 X124.975 Y101.08 E13.60339
G1 X124.974 Y118.145 E14.17097
G1 X124.965 Y118.872 E14.19515
G1 X124.914 Y119.791 E14.22577
G1 X124.783 Y120.703 E14.25641
G1 X124.573 Y121.599 E14.28702
G1 X124.287 Y122.474 E14.31764
G1 X123.926 Y123.321 E14.34826
G1 X123.492 Y124.133 E14.37888
G1 X122.99 Y124.905 E14.40951
G1 X122.422 Y125.63 E14.44014
G1 X121.794 Y126.303 E14.47076
G1 X121.11 Y126.919 E14.50138
G1 X120.375 Y127.473 E14.53199
G1 X119.595 Y127.962 E14.56261
G1 X118.775 Y128.381 E14.59324
G1 X117.922 Y128.727 E14.62385
G1 X117.042 Y128.998 E14.65448
G1 X116.142 Y129.191 E14.68509
G1 X115.228 Y129.306 E14.71573
G1 X114.663 Y129.337 E14.73455
G1 X114.342 Y129.346 E14.74523
G1 X114.045 Y129.35 E14.75511
G1 X113.347 Y129.35 E14.77833
G1 X112.988 Y129.345 E14.79027
G1 X111.116 Y129.336 E14.85253
G1 X110.749 Y129.33 E14.86474
G1 X109.547 Y129.345 E14.90472
G1 X109.457 Y129.342 E14.90772
G1 X108.389 Y129.35 E14.94324
G1 X106.18 Y129.349 E15.01671
G1 X105.482 Y129.339 E15.03993
G1 X104.563 Y129.286 E15.07055
G1 X103.652 Y129.153 E15.10117
G1 X102.756 Y128.942 E15.13178
G1 X101.882 Y128.654 E15.16239
G1 X101.035 Y128.291 E15.19304
G1 X100.224 Y127.856 E15.22365
G1 X99.454 Y127.352 E15.25426
G1 X98.73 Y126.783 E15.28488
G1 X98.058 Y126.153 E15.31552
G1 X97.443 Y125.468 E15.34614
G1 X96.89 Y124.732 E15.37676
G1 X96.403 Y123.951 E15.40737
G1 X95.986 Y123.13 E15.438
G1 X95.641 Y122.276 E15.46863
G1 X95.372 Y121.396 E15.49924
G1 X95.18 Y120.495 E15.52988
G1 X95.067 Y119.582 E15.56048
G1 X95.038 Y119.027 E15.57896
G1 X95.029 Y118.695 E15.59001
G1 X95.025 Y118.408 E15.59955
G1 X95.026 Y101.265 E16.16973
G1 X95.036 Y100.6 E16.19185
G1 X95.09 Y99.681 E16.22247
G1 X95.223 Y98.77 E16.25309
G1 X95.435 Y97.874 E16.28372
G1 X95.724 Y96.999 E16.31437
G1 X96.088 Y96.154 E16.34497
G1 X96.523 Y95.343 E16.37558
G1 X97.028 Y94.572 E16.40623
G1 X97.597 Y93.849 E16.43683
G1 X98.227 Y93.177 E16.46747
G0 F6000 X97.991 Y94.006
G1 F1200 X98.618 Y93.356 E16.49751
G1 X99.3 Y92.764 E16.52755
G1 X100.032 Y92.235 E16.55758
G1 X100.808 Y91.773 E16.58762
G1 X101.622 Y91.382 E16.61766
G1 X102.467 Y91.063 E16.6477
G1 X103.337 Y90.821 E16.67773
G1 X104.225 Y90.657 E16.70777
G1 X105.348 Y90.563 E16.74525
G1 X105.668 Y90.554 E16.7559
G1 X105.955 Y90.55 E16.76544
G1 X107.941 Y90.55 E16.8315
G1 X109.228 Y90.567 E16.87431
G1 X111.852 Y90.567 E16.96158
G1 X112.443 Y90.554 E16.98124
G1 X112.863 Y90.55 E16.99521
G1 X113.814 Y90.551 E17.02684
G1 X114.512 Y90.561 E17.05006
G1 X115.414 Y90.614 E17.08011
G1 X116.307 Y90.746 E17.11014
G1 X117.185 Y90.957 E17.14017
G1 X118.041 Y91.245 E17.17021
G1 X118.868 Y91.607 E17.20024
G1 X119.66 Y92.042 E17.23029
G1 X120.411 Y92.544 E17.26033
G1 X121.114 Y93.111 E17.29037
G1 X121.764 Y93.738 E17.32041
G1 X122.356 Y94.42 E17.35045
G1 X122.886 Y95.151 E17.38048
G1 X123.348 Y95.927 E17.41052
G1 X123.741 Y96.74 E17.44055
G1 X124.059 Y97.585 E17.47058
G1 X124.302 Y98.455 E17.50063
G1 X124.467 Y99.343 E17.53067
G1 X124.562 Y100.473 E17.56838
G1 X124.571 Y100.793 E17.57903
G1 X124.575 Y101.08 E17.58858
G1 X124.574 Y118.14 E18.15599
G1 X124.565 Y118.867 E18.18018
G1 X124.514 Y119.769 E18.21022
G1 X124.383 Y120.663 E18.24028
G1 X124.174 Y121.541 E18.2703
G1 X123.888 Y122.398 E18.30034
G1 X123.527 Y123.226 E18.33039
G1 X123.095 Y124.018 E18.36039
G1 X122.594 Y124.77 E18.39045
G1 X122.028 Y125.474 E18.42049
G1 X121.403 Y126.125 E18.45051
G1 X120.722 Y126.719 E18.48056
G1 X119.991 Y127.25 E18.51061
G1 X119.217 Y127.714 E18.54063
G1 X118.404 Y128.108 E18.57068
G1 X117.56 Y128.428 E18.6007
G1 X116.69 Y128.673 E18.63076
G1 X115.803 Y128.839 E18.66077
G1 X114.652 Y128.937 E18.6992
G1 X114.331 Y128.946 E18.70988
G1 X114.045 Y128.95 E18.71939
G1 X113.347 Y128.95 E18.74261
G1 X113 Y128.945 E18.75415
G1 X111.118 Y128.936 E18.81674
G1 X110.751 Y128.93 E18.82895
G1 X109.542 Y128.945 E18.86917
G1 X109.453 Y128.942 E18.87213
G1 X108.386 Y128.95 E18.90762
G1 X106.186 Y128.949 E18.98079
G1 X105.488 Y128.939 E19.00401
G1 X104.586 Y128.886 E19.03406
G1 X103.693 Y128.754 E19.06408
G1 X102.815 Y128.543 E19.09412
G1 X101.959 Y128.255 E19.12416
G1 X101.132 Y127.893 E19.15418
G1 X100.34 Y127.458 E19.18424
G1 X99.589 Y126.956 E19.21428
G1 X98.886 Y126.389 E19.24432
G1 X98.236 Y125.762 E19.27436
G1 X97.644 Y125.08 E19.3044
G1 X97.114 Y124.349 E19.33443
G1 X96.652 Y123.573 E19.36447
G1 X96.259 Y122.76 E19.3945
G1 X95.941 Y121.915 E19.42453
G1 X95.698 Y121.045 E19.45457
G1 X95.533 Y120.157 E19.48461
G1 X95.438 Y119.016 E19.52269
G1 X95.429 Y118.684 E19.53374
G1 X95.425 Y118.408 E19.54292
G1 X95.426 Y101.271 E20.1129
G1 X95.436 Y100.606 E20.13502
G1 X95.49 Y99.704 E20.16508
G1 X95.623 Y98.811 E20.1951
G1 X95.834 Y97.933 E20.22514
G1 X96.123 Y97.077 E20.25519
G1 X96.486 Y96.25 E20.28523
G1 X96.92 Y95.459 E20.31524
G1 X97.423 Y94.708 E20.3453
G1 X97.991 Y94.006 E20.37533
G1 F2700 E15.37533
;MESH:shelfBracket.stl
