;FLAVOR:Marlin
;TIME:4921
;Filament used: 4.67708m
;Layer height: 0.2
;MINX:77.199
;MINY:83.199
;MINZ:0.24
;MAXX:142.8
;MAXY:136.8
;MAXZ:25.79
;Generated with Cura_SteamEngine master
M140 S70
M105
M190 S70
M104 S200
M105
M109 S200
M82 ;absolute extrusion mode
M201 X500.00 Y500.00 Z100.00 E5000.00 ;Setup machine max acceleration
M203 X500.00 Y500.00 Z10.00 E50.00 ;Setup machine max feedrate
M204 P500.00 R1000.00 T500.00 ;Setup Print/Retract/Travel acceleration
M205 X8.00 Y8.00 Z0.40 E5.00 ;Setup Jerk
M220 S100 ;Reset Feedrate
M221 S100 ;Reset Flowrate

G28 ;Home

G92 E0 ;Reset Extruder
G1 Z2.0 F3000 ;Move Z Axis up
G1 X10.1 Y20 Z0.28 F5000.0 ;Move to start position
G1 X10.1 Y200.0 Z0.28 F1500.0 E15 ;Draw the first line
G1 X10.4 Y200.0 Z0.28 F5000.0 ;Move to side a little
G1 X10.4 Y20 Z0.28 F1500.0 E30 ;Draw the second line
G92 E0 ;Reset Extruder
G1 Z2.0 F3000 ;Move Z Axis up

G92 E0
G92 E0
G1 F2700 E-5
;LAYER_COUNT:121
;LAYER:-6
M107
G0 F12000 X81.812 Y87.658 Z0.24
;TYPE:SUPPORT-INTERFACE
G1 F2700 E0
G1 F1800 X82.508 Y87.012 E0.0758
G1 X82.647 Y86.893 E0.09041
G1 X83.338 Y86.339 E0.1611
G1 X83.477 Y86.235 E0.17496
G1 X84.192 Y85.743 E0.24424
G1 X84.376 Y85.626 E0.26165
G1 X85.132 Y85.183 E0.33159
G1 X85.274 Y85.106 E0.34449
G1 X86.106 Y84.697 E0.41849
G1 X86.219 Y84.647 E0.42836
G1 X87.069 Y84.304 E0.50152
G1 X87.242 Y84.242 E0.51619
G1 X88.08 Y83.973 E0.58645
G1 X88.244 Y83.927 E0.60004
G1 X89.116 Y83.715 E0.67168
G1 X89.278 Y83.682 E0.68488
G1 X90.171 Y83.534 E0.75713
G1 X90.348 Y83.511 E0.77138
G1 X91.242 Y83.428 E0.84305
G1 X91.384 Y83.421 E0.8544
G1 X92.125 Y83.4 E0.91357
G1 X127.886 Y83.401 E3.76817
G1 X128.887 Y83.437 E3.84812
G1 X129.01 Y83.446 E3.85797
G1 X129.927 Y83.548 E3.93162
G1 X130.102 Y83.573 E3.94573
G1 X130.991 Y83.737 E4.01789
G1 X131.114 Y83.765 E4.02796
G1 X132.008 Y83.999 E4.10173
G1 X132.171 Y84.048 E4.11531
G1 X133.013 Y84.334 E4.1863
G1 X133.179 Y84.398 E4.2005
G1 X133.982 Y84.739 E4.27014
G1 X134.171 Y84.827 E4.28678
G1 X134.965 Y85.235 E4.35804
G1 X135.082 Y85.302 E4.3688
G1 X135.861 Y85.776 E4.44159
G1 X136.012 Y85.876 E4.45605
G1 X136.726 Y86.387 E4.52614
G1 X136.874 Y86.5 E4.541
G1 X137.566 Y87.077 E4.61292
G1 X137.674 Y87.173 E4.62446
G1 X138.185 Y87.656 E4.68058
G1 X138.186 Y87.655 E4.6807
G1 X138.342 Y87.812 E4.69836
G1 X138.988 Y88.508 E4.77416
G1 X139.107 Y88.647 E4.78877
G1 X139.661 Y89.338 E4.85947
G1 X139.765 Y89.477 E4.87333
G1 X140.257 Y90.192 E4.94261
G1 X140.374 Y90.376 E4.96001
G1 X140.814 Y91.125 E5.02935
G1 X140.887 Y91.259 E5.04153
G1 X141.292 Y92.082 E5.11475
G1 X141.353 Y92.219 E5.12672
G1 X141.695 Y93.064 E5.19949
G1 X141.754 Y93.23 E5.21355
G1 X142.025 Y94.072 E5.28416
G1 X142.072 Y94.238 E5.29793
G1 X142.283 Y95.107 E5.36932
G1 X142.317 Y95.27 E5.38261
G1 X142.465 Y96.162 E5.45478
G1 X142.489 Y96.348 E5.46976
G1 X142.57 Y97.232 E5.54062
G1 X142.579 Y97.384 E5.55277
G1 X142.6 Y98.117 E5.61131
G1 X142.6 Y121.869 E7.50729
G1 X142.564 Y122.875 E7.58765
G1 X142.554 Y123.01 E7.59845
G1 X142.452 Y123.927 E7.6721
G1 X142.427 Y124.102 E7.68621
G1 X142.265 Y124.98 E7.75748
G1 X142.235 Y125.114 E7.76844
G1 X142.004 Y125.999 E7.84146
G1 X141.952 Y126.171 E7.8558
G1 X141.666 Y127.013 E7.92678
G1 X141.602 Y127.179 E7.94098
G1 X141.261 Y127.982 E8.01062
G1 X141.18 Y128.157 E8.02602
G1 X140.776 Y128.943 E8.09656
G1 X140.698 Y129.082 E8.10928
G1 X140.224 Y129.861 E8.18207
G1 X140.124 Y130.012 E8.19653
G1 X139.613 Y130.726 E8.26662
G1 X139.5 Y130.874 E8.28148
G1 X138.923 Y131.566 E8.3534
G1 X138.827 Y131.674 E8.36494
G1 X138.344 Y132.185 E8.42107
G1 X138.345 Y132.186 E8.42118
G1 X138.188 Y132.342 E8.43885
G1 X137.503 Y132.978 E8.51346
G1 X137.355 Y133.105 E8.52903
G1 X136.662 Y133.661 E8.59995
G1 X136.523 Y133.765 E8.61381
G1 X135.808 Y134.257 E8.68309
G1 X135.624 Y134.374 E8.70049
G1 X134.868 Y134.817 E8.77044
G1 X134.726 Y134.894 E8.78333
G1 X133.898 Y135.301 E8.85698
G1 X133.781 Y135.353 E8.8672
G1 X132.926 Y135.698 E8.9408
G1 X132.763 Y135.756 E8.95461
G1 X131.92 Y136.027 E9.02529
G1 X131.756 Y136.073 E9.03889
G1 X130.884 Y136.285 E9.11052
G1 X130.722 Y136.318 E9.12372
G1 X129.829 Y136.466 E9.19598
G1 X129.652 Y136.489 E9.21022
G1 X128.758 Y136.572 E9.28189
G1 X128.616 Y136.579 E9.29324
G1 X127.875 Y136.6 E9.35242
G1 X92.114 Y136.599 E12.20701
G1 X91.113 Y136.563 E12.28697
G1 X90.99 Y136.554 E12.29681
G1 X90.073 Y136.452 E12.37046
G1 X89.898 Y136.427 E12.38457
G1 X89.009 Y136.263 E12.45674
G1 X88.886 Y136.235 E12.46681
G1 X87.992 Y136.001 E12.54057
G1 X87.829 Y135.952 E12.55416
G1 X86.987 Y135.666 E12.62514
G1 X86.821 Y135.602 E12.63934
G1 X86.018 Y135.261 E12.70898
G1 X85.829 Y135.173 E12.72563
G1 X85.035 Y134.765 E12.79688
G1 X84.918 Y134.698 E12.80765
G1 X84.139 Y134.224 E12.88044
G1 X83.988 Y134.124 E12.89489
G1 X83.274 Y133.613 E12.96498
G1 X83.126 Y133.5 E12.97984
G1 X82.434 Y132.923 E13.05177
G1 X82.326 Y132.827 E13.0633
G1 X81.815 Y132.344 E13.11943
G1 X81.814 Y132.345 E13.11954
G1 X81.654 Y132.184 E13.13766
G1 X81.01 Y131.49 E13.21323
G1 X80.893 Y131.353 E13.22762
G1 X80.343 Y130.667 E13.2978
G1 X80.227 Y130.511 E13.31332
G1 X79.743 Y129.808 E13.38145
G1 X79.626 Y129.624 E13.39886
G1 X79.183 Y128.868 E13.4688
G1 X79.106 Y128.726 E13.4817
G1 X78.697 Y127.894 E13.5557
G1 X78.647 Y127.781 E13.56556
G1 X78.298 Y126.917 E13.63995
G1 X78.242 Y126.759 E13.65333
G1 X77.97 Y125.911 E13.72441
G1 X77.928 Y125.761 E13.73685
G1 X77.712 Y124.873 E13.8098
G1 X77.683 Y124.73 E13.82145
G1 X77.533 Y123.824 E13.89475
G1 X77.511 Y123.652 E13.90859
G1 X77.428 Y122.753 E13.98066
G1 X77.421 Y122.616 E13.99161
G1 X77.4 Y121.883 E14.05015
G1 X77.4 Y98.131 E15.94613
G1 X77.436 Y97.125 E16.02649
G1 X77.446 Y96.99 E16.03729
G1 X77.547 Y96.075 E16.11078
G1 X77.573 Y95.9 E16.1249
G1 X77.735 Y95.02 E16.19633
G1 X77.765 Y94.886 E16.20729
G1 X77.996 Y94 E16.28038
G1 X78.048 Y93.829 E16.29464
G1 X78.334 Y92.987 E16.36563
G1 X78.398 Y92.821 E16.37983
G1 X78.739 Y92.018 E16.44947
G1 X78.82 Y91.843 E16.46486
G1 X79.235 Y91.035 E16.53737
G1 X79.302 Y90.918 E16.54813
G1 X79.776 Y90.139 E16.62092
G1 X79.876 Y89.988 E16.63538
G1 X80.392 Y89.267 E16.70615
G1 X80.5 Y89.126 E16.72033
G1 X81.077 Y88.434 E16.79225
G1 X81.173 Y88.326 E16.80378
G1 X81.581 Y87.894 E16.85122
G0 F1620 X81.656 Y87.815
G0 X81.655 Y87.814
G0 X81.812 Y87.658
G0 F12000 X81.6 Y87.874
G1 F1800 X81.6 Y132.125 E20.38352
G1 F2700 E15.38352
G1 F300 Z0.74
G0 F12000 X83.2 Y133.556 Z0.74
G1 F300 Z0.24
G1 F2700 E20.38352
G1 F1800 X83.2 Y86.449 E24.14381
G1 F2700 E19.14381
G1 F300 Z0.74
G0 F12000 X84.8 Y85.377 Z0.74
G1 F300 Z0.24
G1 F2700 E24.14381
G1 F1800 X84.8 Y134.626 E28.07508
G1 F2700 E23.07508
G1 F300 Z0.74
G0 F12000 X86.4 Y135.423 Z0.74
G1 F300 Z0.24
G1 F2700 E28.07508
G1 F1800 X86.4 Y84.573 E32.13414
G1 F2700 E27.13414
G1 F300 Z0.74
G0 F12000 X88 Y83.998 Z0.74
G1 F300 Z0.24
G1 F2700 E32.13414
G1 F1800 X88 Y136.003 E36.28541
G1 F2700 E31.28541
G1 F300 Z0.74
G0 F12000 X89.6 Y136.372 Z0.74
G1 F300 Z0.24
G1 F2700 E36.28541
G1 F1800 X89.6 Y83.628 E40.49566
G1 F2700 E35.49566
G1 F300 Z0.74
G0 F12000 X91.2 Y83.431 Z0.74
G1 F300 Z0.24
G1 F2700 E40.49566
G1 F1800 X91.2 Y136.566 E44.73713
G1 F2700 E39.73713
G1 F300 Z0.74
G0 F12000 X92.8 Y136.599 Z0.74
G1 F300 Z0.24
G1 F2700 E44.73713
G1 F1800 X92.8 Y83.401 E48.98362
G1 F2700 E43.98362
G1 F300 Z0.74
G0 F12000 X94.4 Y83.401 Z0.74
G1 F300 Z0.24
G1 F2700 E48.98362
G1 F1800 X94.4 Y136.599 E53.23012
G1 F2700 E48.23012
G1 F300 Z0.74
G0 F12000 X96 Y136.599 Z0.74
G1 F300 Z0.24
G1 F2700 E53.23012
G1 F1800 X96 Y83.401 E57.47661
G1 F2700 E52.47661
G1 F300 Z0.74
G0 F12000 X97.6 Y83.401 Z0.74
G1 F300 Z0.24
G1 F2700 E57.47661
G1 F1800 X97.6 Y136.599 E61.7231
G1 F2700 E56.7231
G1 F300 Z0.74
G0 F12000 X99.2 Y136.599 Z0.74
G1 F300 Z0.24
G1 F2700 E61.7231
G1 F1800 X99.2 Y83.401 E65.9696
G1 F2700 E60.9696
G1 F300 Z0.74
G0 F12000 X100.8 Y83.401 Z0.74
G1 F300 Z0.24
G1 F2700 E65.9696
G1 F1800 X100.8 Y136.599 E70.21609
G1 F2700 E65.21609
G1 F300 Z0.74
G0 F12000 X102.4 Y136.599 Z0.74
G1 F300 Z0.24
G1 F2700 E70.21609
G1 F1800 X102.4 Y83.401 E74.46259
G1 F2700 E69.46259
G1 F300 Z0.74
G0 F12000 X104 Y83.401 Z0.74
G1 F300 Z0.24
G1 F2700 E74.46259
G1 F1800 X104 Y136.599 E78.70908
G1 F2700 E73.70908
G1 F300 Z0.74
G0 F12000 X105.6 Y136.599 Z0.74
G1 F300 Z0.24
G1 F2700 E78.70908
G1 F1800 X105.6 Y83.401 E82.95558
G1 F2700 E77.95558
G1 F300 Z0.74
G0 F12000 X107.2 Y83.401 Z0.74
G1 F300 Z0.24
G1 F2700 E82.95558
G1 F1800 X107.2 Y136.599 E87.20207
G1 F2700 E82.20207
G1 F300 Z0.74
G0 F12000 X108.8 Y136.599 Z0.74
G1 F300 Z0.24
G1 F2700 E87.20207
G1 F1800 X108.8 Y83.401 E91.44856
G1 F2700 E86.44856
G1 F300 Z0.74
G0 F12000 X110.4 Y83.401 Z0.74
G1 F300 Z0.24
G1 F2700 E91.44856
G1 F1800 X110.4 Y136.599 E95.69506
G1 F2700 E90.69506
G1 F300 Z0.74
G0 F12000 X112 Y136.599 Z0.74
G1 F300 Z0.24
G1 F2700 E95.69506
G1 F1800 X112 Y83.401 E99.94155
G1 F2700 E94.94155
G1 F300 Z0.74
G0 F12000 X113.6 Y83.401 Z0.74
G1 F300 Z0.24
G1 F2700 E99.94155
G1 F1800 X113.6 Y136.599 E104.18805
G1 F2700 E99.18805
G1 F300 Z0.74
G0 F12000 X115.2 Y136.599 Z0.74
G1 F300 Z0.24
G1 F2700 E104.18805
G1 F1800 X115.2 Y83.401 E108.43454
G1 F2700 E103.43454
G1 F300 Z0.74
G0 F12000 X116.8 Y83.401 Z0.74
G1 F300 Z0.24
G1 F2700 E108.43454
G1 F1800 X116.8 Y136.599 E112.68104
G1 F2700 E107.68104
G1 F300 Z0.74
G0 F12000 X118.4 Y136.599 Z0.74
G1 F300 Z0.24
G1 F2700 E112.68104
G1 F1800 X118.4 Y83.401 E116.92753
G1 F2700 E111.92753
G1 F300 Z0.74
G0 F12000 X120 Y83.401 Z0.74
G1 F300 Z0.24
G1 F2700 E116.92753
G1 F1800 X120 Y136.599 E121.17403
G1 F2700 E116.17403
G1 F300 Z0.74
G0 F12000 X121.6 Y136.599 Z0.74
G1 F300 Z0.24
G1 F2700 E121.17403
G1 F1800 X121.6 Y83.401 E125.42052
G1 F2700 E120.42052
G1 F300 Z0.74
G0 F12000 X123.2 Y83.401 Z0.74
G1 F300 Z0.24
G1 F2700 E125.42052
G1 F1800 X123.2 Y136.599 E129.66701
G1 F2700 E124.66701
G1 F300 Z0.74
G0 F12000 X124.8 Y136.599 Z0.74
G1 F300 Z0.24
G1 F2700 E129.66701
G1 F1800 X124.8 Y83.401 E133.91351
G1 F2700 E128.91351
G1 F300 Z0.74
G0 F12000 X126.4 Y83.401 Z0.74
G1 F300 Z0.24
G1 F2700 E133.91351
G1 F1800 X126.4 Y136.599 E138.16
G1 F2700 E133.16
G1 F300 Z0.74
G0 F12000 X128 Y136.597 Z0.74
G1 F300 Z0.24
G1 F2700 E138.16
G1 F1800 X128 Y83.406 E142.40594
G1 F2700 E137.40594
G1 F300 Z0.74
G0 F12000 X129.6 Y83.512 Z0.74
G1 F300 Z0.24
G1 F2700 E142.40594
G1 F1800 X129.6 Y136.494 E146.63519
G1 F2700 E141.63519
G1 F300 Z0.74
G0 F12000 X131.2 Y136.209 Z0.74
G1 F300 Z0.24
G1 F2700 E146.63519
G1 F1800 X131.2 Y83.788 E150.81966
G1 F2700 E145.81966
G1 F300 Z0.74
G0 F12000 X132.8 Y84.262 Z0.74
G1 F300 Z0.24
G1 F2700 E150.81966
G1 F1800 X132.8 Y135.743 E154.9291
G1 F2700 E149.9291
G1 F300 Z0.74
G0 F12000 X134.4 Y135.055 Z0.74
G1 F300 Z0.24
G1 F2700 E154.9291
G1 F1800 X134.4 Y84.945 E158.92909
G1 F2700 E153.92909
G1 F300 Z0.74
G0 F12000 X136 Y85.869 Z0.74
G1 F300 Z0.24
G1 F2700 E158.92909
G1 F1800 X136 Y134.125 E162.7811
G1 F2700 E157.7811
G1 F300 Z0.74
G0 F12000 X137.6 Y132.888 Z0.74
G1 F300 Z0.24
G1 F2700 E162.7811
G1 F1800 X137.6 Y87.108 E166.43545
G1 F2700 E161.43545
G1 F300 Z0.74
G0 F12000 X139.2 Y88.763 Z0.74
G1 F300 Z0.24
G1 F2700 E166.43545
G1 F1800 X139.2 Y131.234 E169.82567
G1 F2700 E164.82567
G1 F300 Z0.74
G0 F12000 X140.8 Y128.897 Z0.74
G1 F300 Z0.24
G1 F2700 E169.82567
G1 F1800 X140.8 Y91.102 E172.84263
G1 F2700 E167.84263
G1 F300 Z0.74
G0 F12000 X142.4 Y95.771 Z0.74
G1 F300 Z0.24
G1 F2700 E172.84263
G1 F1800 X142.4 Y124.249 E175.11587
G1 F2700 E170.11587
G1 F300 Z0.74
G0 F12000 X80 Y130.181 Z0.74
G1 F300 Z0.24
G1 F2700 E175.11587
G1 F1800 X80 Y89.814 E178.33814
G1 F2700 E173.33814
G1 F300 Z0.74
G0 F12000 X78.4 Y92.816 Z0.74
G1 F300 Z0.24
G1 F2700 E178.33814
G1 F1800 X78.4 Y127.169 E181.08034
G1 F2700 E176.08034
G0 F300 X78.4 Y127.169 Z0.54
G0 F12000 X78.988 Y128.485
;TIME_ELAPSED:105.374098
;LAYER:-5
M140 S65
;TYPE:SUPPORT
G1 F2700 E181.08034
G1 F1800 X85.511 Y135.009 E182.00088
G1 X85.035 Y134.764 E182.0543
G1 X84.917 Y134.696 E182.06789
G1 X84.138 Y134.223 E182.15882
G1 X83.988 Y134.123 E182.17681
G1 X83.273 Y133.612 E182.2645
G1 X83.126 Y133.498 E182.28306
G1 X82.433 Y132.922 E182.37298
G1 X82.326 Y132.826 E182.38732
G1 X81.815 Y132.343 E182.45748
G0 F12000 X81.814 Y132.344
G1 F1800 X81.653 Y132.183 E182.4802
G1 X81.01 Y131.489 E182.5746
G1 X80.893 Y131.352 E182.59258
G1 X80.342 Y130.666 E182.68037
G1 X80.226 Y130.51 E182.69977
G1 X79.742 Y129.807 E182.78493
G1 X79.626 Y129.623 E182.80664
G1 X79.183 Y128.867 E182.89407
G1 X79.106 Y128.725 E182.91019
G1 F2700 E177.91019
G1 F300 Z1.04
G0 F12000 X85.511 Y135.009 Z1.04
G1 F300 Z0.54
G1 F2700 E182.91019
G1 F1800 X85.829 Y135.172 E182.94584
G1 X86.017 Y135.26 E182.96655
G1 X86.82 Y135.601 E183.0536
G1 X86.986 Y135.665 E183.07135
G1 X87.829 Y135.951 E183.16018
G1 X87.884 Y135.968 E183.16592
G1 X78.037 Y126.12 E184.55551
G1 X77.969 Y125.91 E184.57754
G1 X77.927 Y125.76 E184.59308
G1 X77.712 Y124.872 E184.68424
G1 X77.682 Y124.729 E184.69882
G1 X77.607 Y124.276 E184.74464
G1 X89.724 Y136.393 E186.45448
G1 X89.898 Y136.425 E186.47213
G1 X90.073 Y136.451 E186.48978
G1 X90.989 Y136.552 E186.58174
G1 X91.112 Y136.562 E186.59405
G1 X91.315 Y136.569 E186.61432
G1 X77.423 Y122.678 E188.57456
G1 X77.421 Y122.615 E188.58085
G1 X77.399 Y121.882 E188.65402
G1 X77.399 Y121.24 E188.71808
G1 X92.757 Y136.598 E190.88526
G1 X94.171 Y136.598 E191.02635
G1 X77.399 Y119.826 E193.39306
G1 X77.399 Y118.412 E193.53415
G1 X95.585 Y136.598 E196.10039
G1 X97 Y136.598 E196.24158
G1 X77.399 Y116.997 E199.00749
G1 X77.399 Y115.583 E199.14858
G1 X98.414 Y136.598 E202.11402
G1 X99.828 Y136.598 E202.25511
G1 X77.399 Y114.169 E205.42009
G1 X77.399 Y112.755 E205.56118
G1 X101.242 Y136.598 E208.92568
G1 X102.657 Y136.598 E209.06687
G1 X77.399 Y111.341 E212.63098
G1 X77.399 Y109.926 E212.77217
G1 X104.071 Y136.598 E216.53587
G1 X105.485 Y136.598 E216.67696
G1 X77.399 Y108.512 E220.6402
G1 X77.399 Y107.098 E220.78129
G1 X106.899 Y136.598 E224.94406
G1 X108.313 Y136.598 E225.08515
G1 X77.399 Y105.684 E229.44745
G1 X77.399 Y104.269 E229.58864
G1 X109.728 Y136.598 E234.15061
G1 X111.143 Y136.598 E234.2918
G1 X77.399 Y102.855 E239.05337
G1 X77.399 Y101.441 E239.19446
G1 X112.557 Y136.598 E244.15556
G1 X113.971 Y136.598 E244.29665
G1 X77.399 Y100.027 E249.45729
G1 X77.399 Y98.613 E249.59838
G1 X115.385 Y136.598 E254.95854
G1 X116.799 Y136.598 E255.09963
G1 X77.431 Y97.23 E260.65488
G1 X77.435 Y97.124 E260.66546
G1 X77.445 Y96.988 E260.67907
G1 X77.546 Y96.074 E260.77083
G1 X77.564 Y95.949 E260.78343
G1 X118.214 Y136.598 E266.51951
G1 X119.628 Y136.598 E266.6606
G1 X77.795 Y94.765 E272.56369
G1 X77.995 Y93.999 E272.64268
G1 X78.048 Y93.828 E272.66055
G1 X78.104 Y93.661 E272.67812
G1 X121.042 Y136.598 E278.73707
G1 X122.456 Y136.598 E278.87816
G1 X78.481 Y92.623 E285.0835
G1 X78.739 Y92.017 E285.14922
G1 X78.819 Y91.841 E285.16851
G1 X78.919 Y91.647 E285.19029
G1 X123.87 Y136.598 E291.53336
G1 X125.285 Y136.598 E291.67455
G1 X79.415 Y90.729 E298.14723
G1 X79.776 Y90.138 E298.21633
G1 X79.875 Y89.987 E298.23435
G1 X79.963 Y89.863 E298.24952
G1 X126.699 Y136.598 E304.84441
G1 X127.875 Y136.599 E304.96175
G1 X128.107 Y136.592 E304.98491
G1 X80.563 Y89.048 E311.69388
G1 X81.076 Y88.433 E311.77379
G1 X81.173 Y88.324 E311.78835
G1 X81.211 Y88.282 E311.794
G1 X129.437 Y136.508 E318.59921
G1 X129.652 Y136.488 E318.62076
G1 X129.829 Y136.465 E318.63857
G1 X130.668 Y136.325 E318.72344
G1 X81.909 Y87.566 E325.60386
G1 X82.508 Y87.01 E325.68541
G1 X82.646 Y86.892 E325.70353
G0 F12000 X82.648 Y86.891
G1 F1800 X131.813 Y136.055 E332.64117
G1 X131.919 Y136.026 E332.65213
G1 X132.762 Y135.755 E332.74049
G1 X132.883 Y135.712 E332.7533
G1 X83.436 Y86.264 E339.73088
G1 X83.476 Y86.234 E339.73587
G1 X84.192 Y85.742 E339.82255
G1 X84.275 Y85.69 E339.83232
G1 X133.889 Y135.303 E346.83332
G1 X133.897 Y135.3 E346.83418
G1 X134.726 Y134.893 E346.92633
G1 X134.834 Y134.834 E346.9386
G1 X85.164 Y85.164 E353.94758
G1 X85.272 Y85.105 E353.95986
G1 X86.105 Y84.696 E354.05245
G0 F12000 X86.109 Y84.695
G1 F1800 X135.723 Y134.309 E361.05352
G1 X135.806 Y134.256 E361.06335
G1 X136.522 Y133.764 E361.15003
G1 X136.562 Y133.734 E361.15502
G1 X87.116 Y84.287 E368.13246
