;FLAVOR:Marlin
;TIME:3161
;Filament used: 2.8328m
;Layer height: 0.2
;MINX:84.199
;MINY:84.2
;MINZ:0.24
;MAXX:135.8
;MAXY:135.8
;MAXZ:25.99
;Generated with Cura_SteamEngine master
M140 S70
M105
M190 S70
M104 S200
M105
M109 S200
M82 ;absolute extrusion mode
M201 X500.00 Y500.00 Z100.00 E5000.00 ;Setup machine max acceleration
M203 X500.00 Y500.00 Z10.00 E50.00 ;Setup machine max feedrate
M204 P500.00 R1000.00 T500.00 ;Setup Print/Retract/Travel acceleration
M205 X8.00 Y8.00 Z0.40 E5.00 ;Setup Jerk
M220 S100 ;Reset Feedrate
M221 S100 ;Reset Flowrate

G28 ;Home

G92 E0 ;Reset Extruder
G1 Z2.0 F3000 ;Move Z Axis up
G1 X10.1 Y20 Z0.28 F5000.0 ;Move to start position
G1 X10.1 Y200.0 Z0.28 F1500.0 E15 ;Draw the first line
G1 X10.4 Y200.0 Z0.28 F5000.0 ;Move to side a little
G1 X10.4 Y20 Z0.28 F1500.0 E30 ;Draw the second line
G92 E0 ;Reset Extruder
G1 Z2.0 F3000 ;Move Z Axis up

G92 E0
G92 E0
G1 F2700 E-5
;LAYER_COUNT:122
;LAYER:-6
M107
G0 F12000 X88.655 Y88.814 Z0.24
;TYPE:SUPPORT-INTERFACE
G1 F2700 E0
G1 F1800 X88.812 Y88.658 E0.01767
G1 X89.508 Y88.012 E0.09347
G1 X89.647 Y87.893 E0.10807
G1 X90.338 Y87.339 E0.17877
G1 X90.477 Y87.235 E0.19263
G1 X91.192 Y86.743 E0.26191
G1 X91.376 Y86.626 E0.27932
G1 X92.132 Y86.183 E0.34926
G1 X92.274 Y86.106 E0.36216
G1 X93.106 Y85.697 E0.43616
G1 X93.219 Y85.647 E0.44602
G1 X94.069 Y85.304 E0.51919
G1 X94.242 Y85.242 E0.53386
G1 X95.08 Y84.973 E0.60411
G1 X95.244 Y84.927 E0.61771
G1 X96.116 Y84.715 E0.68935
G1 X96.278 Y84.682 E0.70254
G1 X97.171 Y84.534 E0.7748
G1 X97.348 Y84.511 E0.78905
G1 X98.242 Y84.428 E0.86072
G1 X98.384 Y84.421 E0.87206
G1 X99.125 Y84.4 E0.93124
G1 X120.886 Y84.401 E2.6683
G1 X121.887 Y84.437 E2.74825
G1 X122.01 Y84.446 E2.7581
G1 X122.927 Y84.548 E2.83175
G1 X123.102 Y84.573 E2.84586
G1 X123.991 Y84.737 E2.91802
G1 X124.114 Y84.765 E2.92809
G1 X125.008 Y84.999 E3.00185
G1 X125.171 Y85.048 E3.01544
G1 X126.013 Y85.334 E3.08642
G1 X126.179 Y85.398 E3.10063
G1 X126.982 Y85.739 E3.17027
G1 X127.171 Y85.827 E3.18691
G1 X127.965 Y86.235 E3.25817
G1 X128.082 Y86.302 E3.26893
G1 X128.861 Y86.776 E3.34172
G1 X129.012 Y86.876 E3.35618
G1 X129.726 Y87.387 E3.42626
G1 X129.874 Y87.5 E3.44113
G1 X130.566 Y88.077 E3.51305
G1 X130.674 Y88.173 E3.52458
G1 X131.185 Y88.656 E3.58071
G1 X131.186 Y88.655 E3.58082
G1 X131.342 Y88.812 E3.59849
G1 X131.988 Y89.508 E3.67429
G1 X132.107 Y89.647 E3.6889
G1 X132.661 Y90.338 E3.75959
G1 X132.765 Y90.477 E3.77345
G1 X133.257 Y91.192 E3.84273
G1 X133.374 Y91.376 E3.86014
G1 X133.814 Y92.125 E3.92948
G1 X133.887 Y92.259 E3.94166
G1 X134.292 Y93.082 E4.01488
G1 X134.353 Y93.219 E4.02685
G1 X134.695 Y94.064 E4.09962
G1 X134.754 Y94.23 E4.11368
G1 X135.025 Y95.072 E4.18429
G1 X135.072 Y95.238 E4.19806
G1 X135.283 Y96.107 E4.26944
G1 X135.317 Y96.27 E4.28273
G1 X135.465 Y97.162 E4.35491
G1 X135.489 Y97.348 E4.36988
G1 X135.57 Y98.232 E4.44074
G1 X135.579 Y98.384 E4.4529
G1 X135.6 Y99.117 E4.51143
G1 X135.6 Y120.869 E6.24777
G1 X135.564 Y121.875 E6.32813
G1 X135.554 Y122.01 E6.33893
G1 X135.452 Y122.927 E6.41258
G1 X135.427 Y123.102 E6.42669
G1 X135.265 Y123.98 E6.49796
G1 X135.235 Y124.114 E6.50892
G1 X135.004 Y124.999 E6.58193
G1 X134.952 Y125.171 E6.59628
G1 X134.666 Y126.013 E6.66726
G1 X134.602 Y126.179 E6.68146
G1 X134.261 Y126.982 E6.7511
G1 X134.18 Y127.157 E6.76649
G1 X133.776 Y127.943 E6.83704
G1 X133.698 Y128.082 E6.84976
G1 X133.224 Y128.861 E6.92255
G1 X133.124 Y129.012 E6.93701
G1 X132.613 Y129.726 E7.0071
G1 X132.5 Y129.874 E7.02196
G1 X131.923 Y130.566 E7.09388
G1 X131.827 Y130.674 E7.10542
G1 X131.344 Y131.185 E7.16154
G1 X131.345 Y131.186 E7.16166
G1 X131.188 Y131.342 E7.17932
G1 X130.503 Y131.978 E7.25394
G1 X130.355 Y132.105 E7.26951
G1 X129.662 Y132.661 E7.34043
G1 X129.523 Y132.765 E7.35429
G1 X128.808 Y133.257 E7.42357
G1 X128.624 Y133.374 E7.44097
G1 X127.868 Y133.817 E7.51092
G1 X127.726 Y133.894 E7.52381
G1 X126.898 Y134.301 E7.59746
G1 X126.781 Y134.353 E7.60768
G1 X125.926 Y134.698 E7.68128
G1 X125.763 Y134.756 E7.69509
G1 X124.92 Y135.027 E7.76577
G1 X124.756 Y135.073 E7.77937
G1 X123.884 Y135.285 E7.851
G1 X123.722 Y135.318 E7.8642
G1 X122.829 Y135.466 E7.93645
G1 X122.652 Y135.489 E7.9507
G1 X121.758 Y135.572 E8.02237
G1 X121.616 Y135.579 E8.03372
G1 X120.875 Y135.6 E8.09289
G1 X99.114 Y135.599 E9.82995
G1 X98.113 Y135.563 E9.90991
G1 X97.99 Y135.554 E9.91975
G1 X97.073 Y135.452 E9.9934
G1 X96.898 Y135.427 E10.00751
G1 X96.009 Y135.263 E10.07967
G1 X95.886 Y135.235 E10.08974
G1 X94.992 Y135.001 E10.16351
G1 X94.829 Y134.952 E10.1771
G1 X93.987 Y134.666 E10.24808
G1 X93.821 Y134.602 E10.26228
G1 X93.018 Y134.261 E10.33192
G1 X92.829 Y134.173 E10.34856
G1 X92.035 Y133.765 E10.41982
G1 X91.918 Y133.698 E10.43058
G1 X91.139 Y133.224 E10.50337
G1 X90.988 Y133.124 E10.51783
G1 X90.274 Y132.613 E10.58792
G1 X90.126 Y132.5 E10.60278
G1 X89.434 Y131.923 E10.6747
G1 X89.326 Y131.827 E10.68624
G1 X88.815 Y131.344 E10.74237
G1 X88.814 Y131.345 E10.74248
G1 X88.654 Y131.184 E10.7606
G1 X88.01 Y130.49 E10.83617
G1 X87.893 Y130.353 E10.85055
G1 X87.343 Y129.667 E10.92074
G1 X87.227 Y129.511 E10.93626
G1 X86.743 Y128.808 E11.00439
G1 X86.626 Y128.624 E11.02179
G1 X86.183 Y127.868 E11.09174
G1 X86.106 Y127.726 E11.10463
G1 X85.697 Y126.894 E11.17864
G1 X85.647 Y126.781 E11.1885
G1 X85.298 Y125.917 E11.26288
G1 X85.242 Y125.759 E11.27626
G1 X84.97 Y124.911 E11.34735
G1 X84.928 Y124.761 E11.35979
G1 X84.712 Y123.873 E11.43274
G1 X84.683 Y123.73 E11.44438
G1 X84.533 Y122.824 E11.51769
G1 X84.511 Y122.652 E11.53153
G1 X84.428 Y121.753 E11.6036
G1 X84.421 Y121.616 E11.61455
G1 X84.4 Y120.883 E11.67308
G1 X84.4 Y99.131 E13.40942
G1 X84.436 Y98.125 E13.48978
G1 X84.446 Y97.99 E13.50058
G1 X84.547 Y97.075 E13.57407
G1 X84.573 Y96.9 E13.58819
G1 X84.735 Y96.02 E13.65961
G1 X84.765 Y95.886 E13.67058
G1 X84.996 Y95 E13.74366
G1 X85.048 Y94.829 E13.75793
G1 X85.334 Y93.987 E13.82892
G1 X85.398 Y93.821 E13.84312
G1 X85.739 Y93.018 E13.91276
G1 X85.82 Y92.843 E13.92815
G1 X86.235 Y92.035 E14.00066
G1 X86.302 Y91.918 E14.01142
G1 X86.776 Y91.139 E14.08421
G1 X86.876 Y90.988 E14.09867
G1 X87.392 Y90.267 E14.16944
G1 X87.5 Y90.126 E14.18362
G1 X88.077 Y89.434 E14.25554
G1 X88.173 Y89.326 E14.26707
G1 X88.429 Y89.055 E14.29683
G0 F1620 X88.656 Y88.815
G0 X88.655 Y88.814
G0 F12000 X88 Y89.526
G1 F1800 X88 Y130.478 E17.5658
G1 F2700 E12.5658
G1 F300 Z0.74
G0 F12000 X89.6 Y132.061 Z0.74
G1 F300 Z0.24
G1 F2700 E17.5658
G1 F1800 X89.6 Y87.933 E21.08829
G1 F2700 E16.08829
G1 F300 Z0.74
G0 F12000 X91.2 Y86.737 Z0.74
G1 F300 Z0.24
G1 F2700 E21.08829
G1 F1800 X91.2 Y133.261 E24.80203
G1 F2700 E19.80203
G1 F300 Z0.74
G0 F12000 X92.8 Y134.158 Z0.74
G1 F300 Z0.24
G1 F2700 E24.80203
G1 F1800 X92.8 Y85.847 E28.65842
G1 F2700 E23.65842
G1 F300 Z0.74
G0 F12000 X94.4 Y85.191 Z0.74
G1 F300 Z0.24
G1 F2700 E28.65842
G1 F1800 X94.4 Y134.806 E32.61891
G1 F2700 E27.61891
G1 F300 Z0.74
G0 F12000 X96 Y135.26 Z0.74
G1 F300 Z0.24
G1 F2700 E32.61891
G1 F1800 X96 Y84.743 E36.65139
G1 F2700 E31.65139
G1 F300 Z0.74
G0 F12000 X97.6 Y84.487 Z0.74
G1 F300 Z0.24
G1 F2700 E36.65139
G1 F1800 X97.6 Y135.51 E40.72427
G1 F2700 E35.72427
G1 F300 Z0.74
G0 F12000 X99.2 Y135.599 Z0.74
G1 F300 Z0.24
G1 F2700 E40.72427
G1 F1800 X99.2 Y84.401 E44.81112
G1 F2700 E39.81112
G1 F300 Z0.74
G0 F12000 X100.8 Y84.401 Z0.74
G1 F300 Z0.24
G1 F2700 E44.81112
G1 F1800 X100.8 Y135.599 E48.89796
G1 F2700 E43.89796
G1 F300 Z0.74
G0 F12000 X102.4 Y135.599 Z0.74
G1 F300 Z0.24
G1 F2700 E48.89796
G1 F1800 X102.4 Y84.401 E52.98481
G1 F2700 E47.98481
G1 F300 Z0.74
G0 F12000 X104 Y84.401 Z0.74
G1 F300 Z0.24
G1 F2700 E52.98481
G1 F1800 X104 Y135.599 E57.07165
G1 F2700 E52.07165
G1 F300 Z0.74
G0 F12000 X105.6 Y135.599 Z0.74
G1 F300 Z0.24
G1 F2700 E57.07165
G1 F1800 X105.6 Y84.401 E61.1585
G1 F2700 E56.1585
G1 F300 Z0.74
G0 F12000 X107.2 Y84.401 Z0.74
G1 F300 Z0.24
G1 F2700 E61.1585
G1 F1800 X107.2 Y135.599 E65.24535
G1 F2700 E60.24535
G1 F300 Z0.74
G0 F12000 X108.8 Y135.599 Z0.74
G1 F300 Z0.24
G1 F2700 E65.24535
G1 F1800 X108.8 Y84.401 E69.33219
G1 F2700 E64.33219
G1 F300 Z0.74
G0 F12000 X110.4 Y84.401 Z0.74
G1 F300 Z0.24
G1 F2700 E69.33219
G1 F1800 X110.4 Y135.599 E73.41904
G1 F2700 E68.41904
G1 F300 Z0.74
G0 F12000 X112 Y135.599 Z0.74
G1 F300 Z0.24
G1 F2700 E73.41904
G1 F1800 X112 Y84.401 E77.50588
G1 F2700 E72.50588
G1 F300 Z0.74
G0 F12000 X113.6 Y84.401 Z0.74
G1 F300 Z0.24
G1 F2700 E77.50588
G1 F1800 X113.6 Y135.599 E81.59273
G1 F2700 E76.59273
G1 F300 Z0.74
G0 F12000 X115.2 Y135.599 Z0.74
G1 F300 Z0.24
G1 F2700 E81.59273
G1 F1800 X115.2 Y84.401 E85.67957
G1 F2700 E80.67957
G1 F300 Z0.74
G0 F12000 X116.8 Y84.401 Z0.74
G1 F300 Z0.24
G1 F2700 E85.67957
G1 F1800 X116.8 Y135.599 E89.76642
G1 F2700 E84.76642
G1 F300 Z0.74
G0 F12000 X118.4 Y135.599 Z0.74
G1 F300 Z0.24
G1 F2700 E89.76642
G1 F1800 X118.4 Y84.401 E93.85327
G1 F2700 E88.85327
G1 F300 Z0.74
G0 F12000 X120 Y84.401 Z0.74
G1 F300 Z0.24
G1 F2700 E93.85327
G1 F1800 X120 Y135.599 E97.94011
G1 F2700 E92.94011
G1 F300 Z0.74
G0 F12000 X121.6 Y135.58 Z0.74
G1 F300 Z0.24
G1 F2700 E97.94011
G1 F1800 X121.6 Y84.427 E102.02336
G1 F2700 E97.02336
G1 F300 Z0.74
G0 F12000 X123.2 Y84.592 Z0.74
G1 F300 Z0.24
G1 F2700 E102.02336
G1 F1800 X123.2 Y135.405 E106.07948
G1 F2700 E101.07948
G1 F300 Z0.74
G0 F12000 X124.8 Y135.061 Z0.74
G1 F300 Z0.24
G1 F2700 E106.07948
G1 F1800 X124.8 Y84.945 E110.07995
G1 F2700 E105.07995
G1 F300 Z0.74
G0 F12000 X126.4 Y85.492 Z0.74
G1 F300 Z0.24
G1 F2700 E110.07995
G1 F1800 X126.4 Y134.507 E113.99254
G1 F2700 E108.99254
G1 F300 Z0.74
G0 F12000 X128 Y133.74 Z0.74
G1 F300 Z0.24
G1 F2700 E113.99254
G1 F1800 X128 Y86.256 E117.78292
G1 F2700 E112.78292
G1 F300 Z0.74
G0 F12000 X129.6 Y87.297 Z0.74
G1 F300 Z0.24
G1 F2700 E117.78292
G1 F1800 X129.6 Y132.708 E121.40782
G1 F2700 E116.40782
G1 F300 Z0.74
G0 F12000 X131.2 Y131.331 Z0.74
G1 F300 Z0.24
G1 F2700 E121.40782
G1 F1800 X131.2 Y88.67 E124.81321
G1 F2700 E119.81321
G1 F300 Z0.74
G0 F12000 X132.8 Y90.528 Z0.74
G1 F300 Z0.24
G1 F2700 E124.81321
G1 F1800 X132.8 Y129.465 E127.92133
G1 F2700 E122.92133
G1 F300 Z0.74
G0 F12000 X134.4 Y126.655 Z0.74
G1 F300 Z0.24
G1 F2700 E127.92133
G1 F1800 X134.4 Y93.336 E130.581
G1 F2700 E125.581
G1 F300 Z0.74
G0 F12000 X86.4 Y91.756 Z0.74
G1 F300 Z0.24
G1 F2700 E130.581
G1 F1800 X86.4 Y128.238 E133.49315
G1 F2700 E128.49315
G1 F300 Z0.74
G0 F12000 X84.8 Y124.234 Z0.74
G1 F300 Z0.24
G1 F2700 E133.49315
G1 F1800 X84.8 Y95.751 E135.76678
G1 F2700 E130.76678
G1 F300 Z0.74
G0 F12000 X87.893 Y130.352 Z0.74
;TIME_ELAPSED:81.177096
;LAYER:-5
M140 S65
G0 X87.893 Y130.352 Z1.04
;TYPE:SUPPORT
G1 F300 Z0.54
G1 F2700 E135.76678
G1 F1800 X88.01 Y130.488 E135.78468
G1 X88.653 Y131.183 E135.87916
G1 X88.814 Y131.343 E135.90181
G0 F12000 X88.814 Y131.342
G1 F1800 X89.325 Y131.825 E135.97197
G1 X89.434 Y131.922 E135.98653
G1 X89.805 Y132.231 E136.0347
G1 X87.761 Y130.187 E136.32313
G1 X87.343 Y129.666 E136.38978
G1 X87.226 Y129.51 E136.40924
G1 X86.742 Y128.807 E136.4944
G1 X86.625 Y128.623 E136.51616
G1 X86.182 Y127.866 E136.60368
G1 X86.106 Y127.725 E136.61966
G1 X85.697 Y126.893 E136.71216
G1 X85.646 Y126.78 E136.72453
G1 X85.564 Y126.576 E136.74647
G1 X93.417 Y134.43 E137.85469
G1 X93.821 Y134.601 E137.89846
G1 X93.987 Y134.665 E137.91621
G1 X94.828 Y134.951 E138.00485
G1 X94.992 Y135 E138.02193
G1 X95.547 Y135.145 E138.07916
G1 X84.852 Y124.45 E139.58834
G1 X84.711 Y123.872 E139.64771
G1 X84.683 Y123.729 E139.66225
G1 X84.533 Y122.823 E139.75388
G1 X84.517 Y122.701 E139.76616
G1 X97.292 Y135.476 E141.56885
G1 X97.99 Y135.553 E141.63891
G1 X98.112 Y135.562 E141.65112
G1 X98.817 Y135.587 E141.72151
G1 X84.408 Y121.178 E143.75478
G1 X84.4 Y120.882 E143.78432
G1 X84.4 Y119.755 E143.89677
G1 X100.242 Y135.598 E146.13232
G1 X101.657 Y135.598 E146.27351
G1 X84.4 Y118.341 E148.70866
G1 X84.4 Y116.927 E148.84975
G1 X103.071 Y135.598 E151.48443
G1 X104.485 Y135.598 E151.62552
G1 X84.4 Y115.512 E154.4598
G1 X84.4 Y114.098 E154.60089
G1 X105.899 Y135.598 E157.6347
G1 X107.314 Y135.598 E157.77589
G1 X84.4 Y112.684 E161.0093
G1 X84.4 Y111.27 E161.15039
G1 X108.728 Y135.598 E164.58334
G1 X110.143 Y135.599 E164.72453
G1 X84.4 Y109.856 E168.35714
G1 X84.4 Y108.441 E168.49833
G1 X111.557 Y135.599 E172.33055
G1 X112.971 Y135.599 E172.47164
G1 X84.4 Y107.027 E176.50338
G1 X84.4 Y105.613 E176.64447
G1 X114.385 Y135.599 E180.87575
G1 X115.8 Y135.599 E181.01694
G1 X84.4 Y104.199 E185.44782
G1 X84.4 Y102.785 E185.58891
G1 X117.214 Y135.599 E190.21932
G1 X118.628 Y135.599 E190.36041
G1 X84.4 Y101.37 E195.19042
G1 X84.4 Y99.956 E195.33151
G1 X120.042 Y135.599 E200.36105
G1 X120.874 Y135.599 E200.44407
G1 X121.441 Y135.583 E200.50067
G1 X84.42 Y98.562 E205.72473
G1 X84.436 Y98.124 E205.76846
G1 X84.445 Y97.989 E205.78196
G1 X84.526 Y97.254 E205.85575
G1 X122.748 Y135.476 E211.24928
G1 X122.829 Y135.465 E211.25744
G1 X123.721 Y135.316 E211.34768
G1 X123.884 Y135.284 E211.36425
G1 X123.953 Y135.267 E211.37134
G1 X84.73 Y96.044 E216.90613
G1 X84.735 Y96.019 E216.90867
G1 X84.765 Y95.885 E216.92238
G1 X84.996 Y94.999 E217.01374
G1 X85.019 Y94.919 E217.02204
G1 X125.075 Y134.975 E222.67438
G1 X125.762 Y134.755 E222.74636
G1 X125.925 Y134.696 E222.76365
G1 X126.128 Y134.614 E222.7855
G1 X85.38 Y93.865 E228.53555
G1 X85.397 Y93.819 E228.54044
G1 X85.738 Y93.017 E228.6274
G1 X85.803 Y92.874 E228.64307
G1 X127.119 Y134.19 E234.47321
G1 X127.726 Y133.893 E234.54064
G1 X127.868 Y133.816 E234.55675
G1 X128.051 Y133.708 E234.57796
G1 X86.286 Y91.942 E240.47152
G1 X86.301 Y91.917 E240.47443
G1 X86.775 Y91.138 E240.56542
G1 X86.822 Y91.065 E240.57408
G1 X128.928 Y133.171 E246.51569
G1 X129.522 Y132.764 E246.58754
G1 X129.662 Y132.66 E246.60494
G1 X129.756 Y132.584 E246.617
G1 X87.411 Y90.239 E252.59234
G1 X87.5 Y90.125 E252.60677
G1 X88.05 Y89.464 E252.69257
G1 X130.534 Y131.948 E258.68752
G1 X131.188 Y131.34 E258.77662
G1 X131.264 Y131.264 E258.78735
G1 X88.734 Y88.734 E264.78879
G1 X88.811 Y88.658 E264.79958
G1 X89.465 Y88.051 E264.88862
G1 X131.948 Y130.534 E270.88343
G1 X132.499 Y129.874 E270.96921
G1 X132.587 Y129.759 E270.98366
G1 X90.243 Y87.414 E276.95893
G1 X90.337 Y87.339 E276.97093
G1 X90.476 Y87.235 E276.98825
G1 X91.07 Y86.827 E277.06016
G1 X133.176 Y128.933 E283.00177
G1 X133.223 Y128.861 E283.01035
G1 X133.697 Y128.081 E283.10142
G1 X133.712 Y128.055 E283.10441
G1 X91.947 Y86.291 E288.99784
G1 X92.131 Y86.182 E289.01918
G1 X92.273 Y86.105 E289.03529
G1 X92.879 Y85.808 E289.10263
G1 X134.195 Y127.124 E294.93277
G1 X134.26 Y126.981 E294.94844
G1 X134.601 Y126.179 E295.0354
G1 X134.618 Y126.133 E295.04029
G1 X93.869 Y85.384 E300.79041
G1 X94.067 Y85.303 E300.81176
G1 X94.241 Y85.242 E300.83016
G1 X94.923 Y85.023 E300.90163
G1 X134.978 Y125.079 E306.55389
G1 X135.002 Y124.998 E306.56232
G1 X135.234 Y124.114 E306.65352
G1 X135.263 Y123.979 E306.66729
G1 X135.268 Y123.955 E306.66974
G1 X96.045 Y84.731 E312.2046
G1 X96.114 Y84.714 E312.21169
G1 X96.277 Y84.682 E312.22826
G1 X97.169 Y84.533 E312.3185
G1 X97.251 Y84.523 E312.32674
G1 X135.471 Y122.743 E317.72
G1 X135.553 Y122.009 E317.79369
G1 X135.562 Y121.874 E317.80719
G1 X135.579 Y121.437 E317.85083
G1 X98.557 Y84.415 E323.07504
G1 X99.124 Y84.399 E323.13163
G1 X99.956 Y84.4 E323.21465
G1 X135.599 Y120.042 E328.24419
G1 X135.599 Y118.628 E328.38528
G1 X101.37 Y84.4 E333.21529
G1 X102.785 Y84.4 E333.35648
G1 X135.599 Y117.214 E337.98689
G1 X135.599 Y115.8 E338.12798
G1 X104.199 Y84.4 E342.55886
G1 X105.613 Y84.4 E342.69995
G1 X135.599 Y114.385 E346.93123
G1 X135.599 Y112.971 E347.07232
G1 X107.027 Y84.4 E351.10406
G1 X108.441 Y84.4 E351.24515
G1 X135.599 Y111.557 E355.07737
G1 X135.599 Y110.143 E355.21846
G1 X109.856 Y84.4 E358.85108
G1 X111.271 Y84.4 E358.99227
G1 X135.599 Y108.728 E362.42521
G1 X135.599 Y107.314 E362.5663
G1 X112.685 Y84.4 E365.79971
G1 X114.099 Y84.4 E365.9408
G1 X135.599 Y105.9 E368.97468
G1 X135.599 Y104.486 E369.11577
G1 X115.513 Y84.4 E371.95012
G1 X116.927 Y84.4 E372.09121
G1 X135.599 Y103.072 E374.72603
G1 X135.599 Y101.657 E374.86722
G1 X118.342 Y84.4 E377.30237
G1 X119.756 Y84.4 E377.44346
