;FLAVOR:Marlin
;TIME:4265
;Filament used: 4.03855m
;Layer height: 0.2
;MINX:77.199
;MINY:84.199
;MINZ:0.24
;MAXX:142.8
;MAXY:135.8
;MAXZ:25.79
;Generated with Cura_SteamEngine master
M140 S70
M105
M190 S70
M104 S200
M105
M109 S200
M82 ;absolute extrusion mode
M201 X500.00 Y500.00 Z100.00 E5000.00 ;Setup machine max acceleration
M203 X500.00 Y500.00 Z10.00 E50.00 ;Setup machine max feedrate
M204 P500.00 R1000.00 T500.00 ;Setup Print/Retract/Travel acceleration
M205 X8.00 Y8.00 Z0.40 E5.00 ;Setup Jerk
M220 S100 ;Reset Feedrate
M221 S100 ;Reset Flowrate

G28 ;Home

G92 E0 ;Reset Extruder
G1 Z2.0 F3000 ;Move Z Axis up
G1 X10.1 Y20 Z0.28 F5000.0 ;Move to start position
G1 X10.1 Y200.0 Z0.28 F1500.0 E15 ;Draw the first line
G1 X10.4 Y200.0 Z0.28 F5000.0 ;Move to side a little
G1 X10.4 Y20 Z0.28 F1500.0 E30 ;Draw the second line
G92 E0 ;Reset Extruder
G1 Z2.0 F3000 ;Move Z Axis up

G92 E0
G92 E0
G1 F2700 E-5
;LAYER_COUNT:121
;LAYER:-6
M107
G0 F12000 X81.812 Y88.658 Z0.24
;TYPE:SUPPORT-INTERFACE
G1 F2700 E0
G1 F1800 X82.508 Y88.012 E0.0758
G1 X82.647 Y87.893 E0.09041
G1 X83.338 Y87.339 E0.1611
G1 X83.477 Y87.235 E0.17496
G1 X84.192 Y86.743 E0.24424
G1 X84.376 Y86.626 E0.26165
G1 X85.132 Y86.183 E0.33159
G1 X85.274 Y86.106 E0.34449
G1 X86.106 Y85.697 E0.41849
G1 X86.219 Y85.647 E0.42836
G1 X87.069 Y85.304 E0.50152
G1 X87.242 Y85.242 E0.51619
G1 X88.08 Y84.973 E0.58645
G1 X88.244 Y84.927 E0.60004
G1 X89.116 Y84.715 E0.67168
G1 X89.278 Y84.682 E0.68488
G1 X90.171 Y84.534 E0.75713
G1 X90.348 Y84.511 E0.77138
G1 X91.242 Y84.428 E0.84305
G1 X91.384 Y84.421 E0.8544
G1 X92.125 Y84.4 E0.91357
G1 X127.886 Y84.401 E3.76817
G1 X128.887 Y84.437 E3.84812
G1 X129.01 Y84.446 E3.85797
G1 X129.927 Y84.548 E3.93162
G1 X130.102 Y84.573 E3.94573
G1 X130.991 Y84.737 E4.01789
G1 X131.114 Y84.765 E4.02796
G1 X132.008 Y84.999 E4.10173
G1 X132.171 Y85.048 E4.11531
G1 X133.013 Y85.334 E4.1863
G1 X133.179 Y85.398 E4.2005
G1 X133.982 Y85.739 E4.27014
G1 X134.171 Y85.827 E4.28678
G1 X134.965 Y86.235 E4.35804
G1 X135.082 Y86.302 E4.3688
G1 X135.861 Y86.776 E4.44159
G1 X136.012 Y86.876 E4.45605
G1 X136.726 Y87.387 E4.52614
G1 X136.874 Y87.5 E4.541
G1 X137.566 Y88.077 E4.61292
G1 X137.674 Y88.173 E4.62446
G1 X138.185 Y88.656 E4.68058
G1 X138.186 Y88.655 E4.6807
G1 X138.342 Y88.812 E4.69836
G1 X138.988 Y89.508 E4.77416
G1 X139.107 Y89.647 E4.78877
G1 X139.661 Y90.338 E4.85947
G1 X139.765 Y90.477 E4.87333
G1 X140.257 Y91.192 E4.94261
G1 X140.374 Y91.376 E4.96001
G1 X140.814 Y92.125 E5.02935
G1 X140.887 Y92.259 E5.04153
G1 X141.292 Y93.082 E5.11475
G1 X141.353 Y93.219 E5.12672
G1 X141.695 Y94.064 E5.19949
G1 X141.754 Y94.23 E5.21355
G1 X142.025 Y95.072 E5.28416
G1 X142.072 Y95.238 E5.29793
G1 X142.283 Y96.107 E5.36932
G1 X142.317 Y96.27 E5.38261
G1 X142.465 Y97.162 E5.45478
G1 X142.489 Y97.348 E5.46976
G1 X142.57 Y98.232 E5.54062
G1 X142.579 Y98.384 E5.55277
G1 X142.6 Y99.117 E5.61131
G1 X142.6 Y120.869 E7.34764
G1 X142.564 Y121.875 E7.428
G1 X142.554 Y122.01 E7.4388
G1 X142.452 Y122.927 E7.51245
G1 X142.427 Y123.102 E7.52657
G1 X142.265 Y123.98 E7.59783
G1 X142.235 Y124.114 E7.6088
G1 X142.004 Y124.999 E7.68181
G1 X141.952 Y125.171 E7.69615
G1 X141.666 Y126.013 E7.76713
G1 X141.602 Y126.179 E7.78134
G1 X141.261 Y126.982 E7.85098
G1 X141.18 Y127.157 E7.86637
G1 X140.776 Y127.943 E7.93691
G1 X140.698 Y128.082 E7.94964
G1 X140.224 Y128.861 E8.02243
G1 X140.124 Y129.012 E8.03688
G1 X139.613 Y129.726 E8.10697
G1 X139.5 Y129.874 E8.12183
G1 X138.923 Y130.566 E8.19376
G1 X138.827 Y130.674 E8.20529
G1 X138.344 Y131.185 E8.26142
G1 X138.345 Y131.186 E8.26153
G1 X138.188 Y131.342 E8.2792
G1 X137.503 Y131.978 E8.35381
G1 X137.355 Y132.105 E8.36938
G1 X136.662 Y132.661 E8.4403
G1 X136.523 Y132.765 E8.45416
G1 X135.808 Y133.257 E8.52344
G1 X135.624 Y133.374 E8.54085
G1 X134.868 Y133.817 E8.61079
G1 X134.726 Y133.894 E8.62368
G1 X133.898 Y134.301 E8.69733
G1 X133.781 Y134.353 E8.70755
G1 X132.926 Y134.698 E8.78115
G1 X132.763 Y134.756 E8.79496
G1 X131.92 Y135.027 E8.86564
G1 X131.756 Y135.073 E8.87924
G1 X130.884 Y135.285 E8.95087
G1 X130.722 Y135.318 E8.96407
G1 X129.829 Y135.466 E9.03633
G1 X129.652 Y135.489 E9.05057
G1 X128.758 Y135.572 E9.12224
G1 X128.616 Y135.579 E9.13359
G1 X127.875 Y135.6 E9.19277
G1 X92.114 Y135.599 E12.04736
G1 X91.113 Y135.563 E12.12732
G1 X90.99 Y135.554 E12.13716
G1 X90.073 Y135.452 E12.21082
G1 X89.898 Y135.427 E12.22493
G1 X89.009 Y135.263 E12.29709
G1 X88.886 Y135.235 E12.30716
G1 X87.992 Y135.001 E12.38092
G1 X87.829 Y134.952 E12.39451
G1 X86.987 Y134.666 E12.46549
G1 X86.821 Y134.602 E12.4797
G1 X86.018 Y134.261 E12.54933
G1 X85.829 Y134.173 E12.56598
G1 X85.035 Y133.765 E12.63724
G1 X84.918 Y133.698 E12.648
G1 X84.139 Y133.224 E12.72079
G1 X83.988 Y133.124 E12.73524
G1 X83.274 Y132.613 E12.80533
G1 X83.126 Y132.5 E12.8202
G1 X82.434 Y131.923 E12.89212
G1 X82.326 Y131.827 E12.90365
G1 X81.815 Y131.344 E12.95978
G1 X81.814 Y131.345 E12.95989
G1 X81.654 Y131.184 E12.97801
G1 X81.01 Y130.49 E13.05359
G1 X80.893 Y130.353 E13.06797
G1 X80.343 Y129.667 E13.13815
G1 X80.227 Y129.511 E13.15367
G1 X79.743 Y128.808 E13.2218
G1 X79.626 Y128.624 E13.23921
G1 X79.183 Y127.868 E13.30915
G1 X79.106 Y127.726 E13.32205
G1 X78.697 Y126.894 E13.39605
G1 X78.647 Y126.781 E13.40591
G1 X78.298 Y125.917 E13.4803
G1 X78.242 Y125.759 E13.49368
G1 X77.97 Y124.911 E13.56477
G1 X77.928 Y124.761 E13.5772
G1 X77.712 Y123.873 E13.65015
G1 X77.683 Y123.73 E13.6618
G1 X77.533 Y122.824 E13.7351
G1 X77.511 Y122.652 E13.74895
G1 X77.428 Y121.753 E13.82101
G1 X77.421 Y121.616 E13.83196
G1 X77.4 Y120.883 E13.8905
G1 X77.4 Y99.131 E15.62684
G1 X77.436 Y98.125 E15.70719
G1 X77.446 Y97.99 E15.718
G1 X77.547 Y97.075 E15.79148
G1 X77.573 Y96.9 E15.8056
G1 X77.735 Y96.02 E15.87703
G1 X77.765 Y95.886 E15.88799
G1 X77.996 Y95 E15.96108
G1 X78.048 Y94.829 E15.97535
G1 X78.334 Y93.987 E16.04633
G1 X78.398 Y93.821 E16.06053
G1 X78.739 Y93.018 E16.13017
G1 X78.82 Y92.843 E16.14556
G1 X79.235 Y92.035 E16.21807
G1 X79.302 Y91.918 E16.22883
G1 X79.776 Y91.139 E16.30162
G1 X79.876 Y90.988 E16.31608
G1 X80.392 Y90.267 E16.38685
G1 X80.5 Y90.126 E16.40103
G1 X81.077 Y89.434 E16.47295
G1 X81.173 Y89.326 E16.48449
G1 X81.581 Y88.894 E16.53192
G0 F1620 X81.656 Y88.815
G0 X81.655 Y88.814
G0 X81.812 Y88.658
G0 F12000 X81.6 Y88.874
G1 F1800 X81.6 Y131.125 E19.90458
G1 F2700 E14.90458
G1 F300 Z0.74
G0 F12000 X83.2 Y132.556 Z0.74
G1 F300 Z0.24
G1 F2700 E19.90458
G1 F1800 X83.2 Y87.449 E23.50521
G1 F2700 E18.50521
G1 F300 Z0.74
G0 F12000 X84.8 Y86.377 Z0.74
G1 F300 Z0.24
G1 F2700 E23.50521
G1 F1800 X84.8 Y133.626 E27.27683
G1 F2700 E22.27683
G1 F300 Z0.74
G0 F12000 X86.4 Y134.423 Z0.74
G1 F300 Z0.24
G1 F2700 E27.27683
G1 F1800 X86.4 Y85.573 E31.17625
G1 F2700 E26.17625
G1 F300 Z0.74
G0 F12000 X88 Y84.998 Z0.74
G1 F300 Z0.24
G1 F2700 E31.17625
G1 F1800 X88 Y135.003 E35.16787
G1 F2700 E30.16787
G1 F300 Z0.74
G0 F12000 X89.6 Y135.372 Z0.74
G1 F300 Z0.24
G1 F2700 E35.16787
G1 F1800 X89.6 Y84.628 E39.21847
G1 F2700 E34.21847
G1 F300 Z0.74
G0 F12000 X91.2 Y84.431 Z0.74
G1 F300 Z0.24
G1 F2700 E39.21847
G1 F1800 X91.2 Y135.566 E43.30029
G1 F2700 E38.30029
G1 F300 Z0.74
G0 F12000 X92.8 Y135.599 Z0.74
G1 F300 Z0.24
G1 F2700 E43.30029
G1 F1800 X92.8 Y84.401 E47.38713
G1 F2700 E42.38713
G1 F300 Z0.74
G0 F12000 X94.4 Y84.401 Z0.74
G1 F300 Z0.24
G1 F2700 E47.38713
G1 F1800 X94.4 Y135.599 E51.47398
G1 F2700 E46.47398
G1 F300 Z0.74
G0 F12000 X96 Y135.599 Z0.74
G1 F300 Z0.24
G1 F2700 E51.47398
G1 F1800 X96 Y84.401 E55.56083
G1 F2700 E50.56083
G1 F300 Z0.74
G0 F12000 X97.6 Y84.401 Z0.74
G1 F300 Z0.24
G1 F2700 E55.56083
G1 F1800 X97.6 Y135.599 E59.64767
G1 F2700 E54.64767
G1 F300 Z0.74
G0 F12000 X99.2 Y135.599 Z0.74
G1 F300 Z0.24
G1 F2700 E59.64767
G1 F1800 X99.2 Y84.401 E63.73452
G1 F2700 E58.73452
G1 F300 Z0.74
G0 F12000 X100.8 Y84.401 Z0.74
G1 F300 Z0.24
G1 F2700 E63.73452
G1 F1800 X100.8 Y135.599 E67.82136
G1 F2700 E62.82136
G1 F300 Z0.74
G0 F12000 X102.4 Y135.599 Z0.74
G1 F300 Z0.24
G1 F2700 E67.82136
G1 F1800 X102.4 Y84.401 E71.90821
G1 F2700 E66.90821
G1 F300 Z0.74
G0 F12000 X104 Y84.401 Z0.74
G1 F300 Z0.24
G1 F2700 E71.90821
G1 F1800 X104 Y135.599 E75.99505
G1 F2700 E70.99505
G1 F300 Z0.74
G0 F12000 X105.6 Y135.599 Z0.74
G1 F300 Z0.24
G1 F2700 E75.99505
G1 F1800 X105.6 Y84.401 E80.0819
G1 F2700 E75.0819
G1 F300 Z0.74
G0 F12000 X107.2 Y84.401 Z0.74
G1 F300 Z0.24
G1 F2700 E80.0819
G1 F1800 X107.2 Y135.599 E84.16875
G1 F2700 E79.16875
G1 F300 Z0.74
G0 F12000 X108.8 Y135.599 Z0.74
G1 F300 Z0.24
G1 F2700 E84.16875
G1 F1800 X108.8 Y84.401 E88.25559
G1 F2700 E83.25559
G1 F300 Z0.74
G0 F12000 X110.4 Y84.401 Z0.74
G1 F300 Z0.24
G1 F2700 E88.25559
G1 F1800 X110.4 Y135.599 E92.34244
G1 F2700 E87.34244
G1 F300 Z0.74
G0 F12000 X112 Y135.599 Z0.74
G1 F300 Z0.24
G1 F2700 E92.34244
G1 F1800 X112 Y84.401 E96.42928
G1 F2700 E91.42928
G1 F300 Z0.74
G0 F12000 X113.6 Y84.401 Z0.74
G1 F300 Z0.24
G1 F2700 E96.42928
G1 F1800 X113.6 Y135.599 E100.51613
G1 F2700 E95.51613
G1 F300 Z0.74
G0 F12000 X115.2 Y135.599 Z0.74
G1 F300 Z0.24
G1 F2700 E100.51613
G1 F1800 X115.2 Y84.401 E104.60297
G1 F2700 E99.60297
G1 F300 Z0.74
G0 F12000 X116.8 Y84.401 Z0.74
G1 F300 Z0.24
G1 F2700 E104.60297
G1 F1800 X116.8 Y135.599 E108.68982
G1 F2700 E103.68982
G1 F300 Z0.74
G0 F12000 X118.4 Y135.599 Z0.74
G1 F300 Z0.24
G1 F2700 E108.68982
G1 F1800 X118.4 Y84.401 E112.77667
G1 F2700 E107.77667
G1 F300 Z0.74
G0 F12000 X120 Y84.401 Z0.74
G1 F300 Z0.24
G1 F2700 E112.77667
G1 F1800 X120 Y135.599 E116.86351
G1 F2700 E111.86351
G1 F300 Z0.74
G0 F12000 X121.6 Y135.599 Z0.74
G1 F300 Z0.24
G1 F2700 E116.86351
G1 F1800 X121.6 Y84.401 E120.95036
G1 F2700 E115.95036
G1 F300 Z0.74
G0 F12000 X123.2 Y84.401 Z0.74
G1 F300 Z0.24
G1 F2700 E120.95036
G1 F1800 X123.2 Y135.599 E125.0372
G1 F2700 E120.0372
G1 F300 Z0.74
G0 F12000 X124.8 Y135.599 Z0.74
G1 F300 Z0.24
G1 F2700 E125.0372
G1 F1800 X124.8 Y84.401 E129.12405
G1 F2700 E124.12405
G1 F300 Z0.74
G0 F12000 X126.4 Y84.401 Z0.74
G1 F300 Z0.24
G1 F2700 E129.12405
G1 F1800 X126.4 Y135.599 E133.21089
G1 F2700 E128.21089
G1 F300 Z0.74
G0 F12000 X128 Y135.597 Z0.74
G1 F300 Z0.24
G1 F2700 E133.21089
G1 F1800 X128 Y84.406 E137.29718
G1 F2700 E132.29718
G1 F300 Z0.74
G0 F12000 X129.6 Y84.512 Z0.74
G1 F300 Z0.24
G1 F2700 E137.29718
G1 F1800 X129.6 Y135.494 E141.36679
G1 F2700 E136.36679
G1 F300 Z0.74
G0 F12000 X131.2 Y135.209 Z0.74
G1 F300 Z0.24
G1 F2700 E141.36679
G1 F1800 X131.2 Y84.788 E145.39161
G1 F2700 E140.39161
G1 F300 Z0.74
G0 F12000 X132.8 Y85.262 Z0.74
G1 F300 Z0.24
G1 F2700 E145.39161
G1 F1800 X132.8 Y134.743 E149.3414
G1 F2700 E144.3414
G1 F300 Z0.74
G0 F12000 X134.4 Y134.055 Z0.74
G1 F300 Z0.24
G1 F2700 E149.3414
G1 F1800 X134.4 Y85.945 E153.18174
G1 F2700 E148.18174
G1 F300 Z0.74
G0 F12000 X136 Y86.869 Z0.74
G1 F300 Z0.24
G1 F2700 E153.18174
G1 F1800 X136 Y133.125 E156.8741
G1 F2700 E151.8741
G1 F300 Z0.74
G0 F12000 X137.6 Y131.888 Z0.74
G1 F300 Z0.24
G1 F2700 E156.8741
G1 F1800 X137.6 Y88.108 E160.36881
G1 F2700 E155.36881
G1 F300 Z0.74
G0 F12000 X139.2 Y89.763 Z0.74
G1 F300 Z0.24
G1 F2700 E160.36881
G1 F1800 X139.2 Y130.234 E163.59938
G1 F2700 E158.59938
G1 F300 Z0.74
G0 F12000 X140.8 Y127.897 Z0.74
G1 F300 Z0.24
G1 F2700 E163.59938
G1 F1800 X140.8 Y92.102 E166.45669
G1 F2700 E161.45669
G1 F300 Z0.74
G0 F12000 X142.4 Y96.771 Z0.74
G1 F300 Z0.24
G1 F2700 E166.45669
G1 F1800 X142.4 Y123.249 E168.57028
G1 F2700 E163.57028
G1 F300 Z0.74
G0 F12000 X80 Y129.181 Z0.74
G1 F300 Z0.24
G1 F2700 E168.57028
G1 F1800 X80 Y90.814 E171.6329
G1 F2700 E166.6329
G1 F300 Z0.74
G0 F12000 X78.4 Y93.816 Z0.74
G1 F300 Z0.24
G1 F2700 E171.6329
G1 F1800 X78.4 Y126.169 E174.21545
G1 F2700 E169.21545
G1 F300 Z0.74
G0 F12000 X81.249 Y130.746 Z0.74
;TIME_ELAPSED:102.520943
;LAYER:-5
M140 S65
G0 X81.249 Y130.746 Z1.04
;TYPE:SUPPORT
G1 F300 Z0.54
G1 F2700 E174.21545
G1 F1800 X82.353 Y131.85 E174.37124
G1 X82.326 Y131.826 E174.37484
G1 X81.815 Y131.343 E174.445
G0 F12000 X81.814 Y131.344
G1 F1800 X81.654 Y131.183 E174.46765
G0 F12000 X82.353 Y131.85
G1 F1800 X82.433 Y131.922 E174.47839
G1 X83.126 Y132.499 E174.56837
G1 X83.274 Y132.612 E174.58695
G1 X83.988 Y133.123 E174.67456
G1 X84.138 Y133.223 E174.69255
G1 X84.917 Y133.696 E174.78348
G1 X85.034 Y133.764 E174.79698
G1 X85.828 Y134.172 E174.88606
G1 X86.018 Y134.259 E174.90691
G1 X86.293 Y134.376 E174.93673
G1 X78.613 Y126.696 E176.02046
G1 X78.297 Y125.915 E176.10453
G1 X78.242 Y125.758 E176.12112
G1 X77.969 Y124.91 E176.21002
G1 X77.928 Y124.759 E176.22563
G1 X77.875 Y124.544 E176.24772
G1 X88.451 Y135.12 E177.74011
G1 X88.886 Y135.234 E177.78498
G1 X89.009 Y135.262 E177.79757
G1 X89.898 Y135.425 E177.88775
G1 X90.073 Y135.451 E177.9054
G1 X90.211 Y135.466 E177.91926
G1 X77.527 Y122.782 E179.7091
G1 X77.51 Y122.651 E179.72229
G1 X77.428 Y121.752 E179.81236
G1 X77.421 Y121.615 E179.82605
G1 X77.41 Y121.251 E179.86238
G1 X91.744 Y135.584 E181.885
G1 X92.114 Y135.598 E181.92194
G1 X93.171 Y135.598 E182.02741
G1 X77.399 Y119.826 E184.25301
G1 X77.399 Y118.412 E184.3941
G1 X94.586 Y135.598 E186.8193
G1 X96 Y135.598 E186.96039
G1 X77.399 Y116.997 E189.58519
G1 X77.399 Y115.583 E189.72628
G1 X97.414 Y135.598 E192.55061
G1 X98.828 Y135.598 E192.6917
G1 X77.399 Y114.169 E195.71557
G1 X77.399 Y112.755 E195.85666
G1 X100.242 Y135.598 E199.08005
G1 X101.657 Y135.598 E199.22124
G1 X77.399 Y111.341 E202.64423
G1 X77.399 Y109.926 E202.78542
G1 X103.071 Y135.598 E206.40802
G1 X104.485 Y135.598 E206.54911
G1 X77.399 Y108.512 E210.37124
G1 X77.399 Y107.098 E210.51233
G1 X105.899 Y135.598 E214.53398
G1 X107.314 Y135.598 E214.67517
G1 X77.399 Y105.684 E218.89643
G1 X77.399 Y104.269 E219.03762
G1 X108.728 Y135.598 E223.45848
G1 X110.142 Y135.598 E223.59957
G1 X77.399 Y102.855 E228.21996
G1 X77.399 Y101.441 E228.36105
G1 X111.556 Y135.598 E233.18097
G1 X112.97 Y135.598 E233.32206
G1 X77.399 Y100.027 E238.34152
G1 X77.399 Y99.13 E238.43102
G1 X77.417 Y98.63 E238.48094
G1 X114.385 Y135.598 E243.69753
G1 X115.799 Y135.598 E243.83861
G1 X77.519 Y97.318 E249.24034
G1 X77.546 Y97.074 E249.26483
G1 X77.573 Y96.899 E249.2825
G1 X77.718 Y96.103 E249.36323
G1 X117.213 Y135.598 E254.9364
G1 X118.627 Y135.598 E255.07749
G1 X78.003 Y94.973 E260.81005
G1 X78.048 Y94.827 E260.82529
G1 X78.333 Y93.986 E260.9139
G1 X78.36 Y93.916 E260.92138
G1 X120.041 Y135.598 E266.80309
G1 X121.456 Y135.598 E266.94428
G1 X78.781 Y92.923 E272.96618
G1 X78.82 Y92.842 E272.97515
G1 X79.235 Y92.034 E273.06579
G1 X79.261 Y91.988 E273.07106
G1 X122.87 Y135.598 E279.22483
G1 X124.284 Y135.598 E279.36592
G1 X79.795 Y91.109 E285.6438
G1 X79.876 Y90.987 E285.65841
G1 X80.381 Y90.28 E285.74511
G1 X125.698 Y135.598 E292.13989
G1 X127.113 Y135.598 E292.28108
G1 X81.018 Y89.503 E298.78559
G1 X81.076 Y89.433 E298.79466
G1 X81.172 Y89.325 E298.80907
G1 X81.655 Y88.814 E298.87923
G0 F12000 X81.654 Y88.813
G1 F1800 X81.699 Y88.77 E298.88545
G1 X128.51 Y135.581 E305.49098
G1 X128.616 Y135.578 E305.50156
G1 X128.757 Y135.571 E305.51565
G1 X129.651 Y135.488 E305.60524
G1 X129.809 Y135.466 E305.62116
G1 X82.428 Y88.084 E312.3072
G1 X82.508 Y88.01 E312.31807
G1 X82.646 Y87.891 E312.33625
G1 X83.203 Y87.446 E312.40739
G1 X131.009 Y135.252 E319.15333
G1 X131.755 Y135.072 E319.2299
G1 X131.92 Y135.026 E319.247
G1 X132.129 Y134.958 E319.26893
G1 X84.027 Y86.856 E326.05664
G1 X84.192 Y86.742 E326.07665
G1 X84.376 Y86.624 E326.09846
G1 X84.902 Y86.316 E326.15928
G1 X133.18 Y134.594 E332.97183
G1 X133.781 Y134.352 E333.03647
G1 X133.898 Y134.3 E333.04925
G1 X134.167 Y134.167 E333.07919
G1 X85.832 Y85.832 E339.89978
G1 X86.105 Y85.697 E339.93017
G1 X86.218 Y85.646 E339.94254
G1 X86.819 Y85.405 E340.00715
G1 X135.096 Y133.682 E346.81956
G1 X135.623 Y133.374 E346.88046
G1 X135.806 Y133.257 E346.90214
G1 X135.971 Y133.143 E346.92215
G1 X87.869 Y85.04 E353.70993
G1 X88.078 Y84.973 E353.73183
G1 X88.243 Y84.927 E353.74892
G1 X88.989 Y84.746 E353.82552
G1 X136.795 Y132.552 E360.57146
G1 X137.354 Y132.104 E360.64294
G1 X137.501 Y131.977 E360.66232
G1 X137.57 Y131.913 E360.67171
G1 X90.189 Y84.532 E367.35769
G1 X90.347 Y84.51 E367.3736
G1 X91.241 Y84.427 E367.46319
