;FLAVOR:Marlin
;TIME:1514
;Filament used: 1.3007m
;Layer height: 0.2
;MINX:96.2
;MINY:96.2
;MINZ:0.2
;MAXX:123.8
;MAXY:123.8
;MAXZ:20
;Generated with Cura_SteamEngine master
M140 S50
M105
M190 S50
M104 S200
M105
M109 S200
M82 ;absolute extrusion mode
M201 X500.00 Y500.00 Z100.00 E5000.00 ;Setup machine max acceleration
M203 X500.00 Y500.00 Z10.00 E50.00 ;Setup machine max feedrate
M204 P500.00 R1000.00 T500.00 ;Setup Print/Retract/Travel acceleration
M205 X8.00 Y8.00 Z0.40 E5.00 ;Setup Jerk
M220 S100 ;Reset Feedrate
M221 S100 ;Reset Flowrate

G28 ;Home

G92 E0 ;Reset Extruder
G1 Z2.0 F3000 ;Move Z Axis up
G1 X10.1 Y20 Z0.28 F5000.0 ;Move to start position
G1 X10.1 Y200.0 Z0.28 F1500.0 E15 ;Draw the first line
G1 X10.4 Y200.0 Z0.28 F5000.0 ;Move to side a little
G1 X10.4 Y20 Z0.28 F1500.0 E30 ;Draw the second line
G92 E0 ;Reset Extruder
G1 Z2.0 F3000 ;Move Z Axis up

G92 E0
G92 E0
G1 F2700 E-5
;LAYER_COUNT:100
;LAYER:0
M107
G0 F6000 X97.313 Y97.43 Z0.2
;TYPE:SKIRT
G1 F2700 E0
G1 F1200 X97.43 Y97.313 E0.0055
G1 X97.847 Y96.953 E0.02383
G1 X98.311 Y96.656 E0.04215
G1 X98.814 Y96.43 E0.06049
G1 X99.344 Y96.279 E0.07882
G1 X100.117 Y96.2 E0.10466
G1 X119.883 Y96.2 E0.76208
G1 X120.433 Y96.24 E0.78043
G1 X120.971 Y96.359 E0.79875
G1 X121.486 Y96.555 E0.81708
G1 X121.967 Y96.823 E0.83539
G1 X122.57 Y97.313 E0.86124
G1 X122.687 Y97.43 E0.86674
G1 X123.047 Y97.847 E0.88506
G1 X123.344 Y98.311 E0.90339
G1 X123.57 Y98.814 E0.92173
G1 X123.721 Y99.344 E0.94006
G1 X123.8 Y100.117 E0.9659
G1 X123.8 Y119.883 E1.62332
G1 X123.76 Y120.433 E1.64166
G1 X123.641 Y120.971 E1.65999
G1 X123.445 Y121.486 E1.67831
G1 X123.177 Y121.967 E1.69663
G1 X122.687 Y122.57 E1.72247
G1 X122.57 Y122.687 E1.72797
G1 X122.153 Y123.047 E1.7463
G1 X121.689 Y123.344 E1.76462
G1 X121.186 Y123.57 E1.78296
G1 X120.656 Y123.721 E1.80129
G1 X119.883 Y123.8 E1.82714
G1 X100.117 Y123.8 E2.48456
G1 X99.567 Y123.76 E2.5029
G1 X99.029 Y123.641 E2.52122
G1 X98.514 Y123.445 E2.53955
G1 X98.033 Y123.177 E2.55786
G1 X97.43 Y122.687 E2.58371
G1 X97.313 Y122.57 E2.58921
G1 X96.953 Y122.153 E2.60753
G1 X96.656 Y121.689 E2.62586
G1 X96.43 Y121.186 E2.6442
G1 X96.279 Y120.656 E2.66253
G1 X96.2 Y119.883 E2.68837
G1 X96.2 Y100.117 E3.34579
G1 X96.24 Y99.567 E3.36413
G1 X96.359 Y99.029 E3.38246
G1 X96.555 Y98.514 E3.40079
G1 X96.823 Y98.033 E3.4191
G1 X97.313 Y97.43 E3.44494
G0 F6000 X97.596 Y97.713
G1 F1200 X97.713 Y97.596 E3.45045
G1 X98.109 Y97.257 E3.46778
G1 X98.551 Y96.982 E3.4851
G1 X99.031 Y96.778 E3.50245
G1 X99.536 Y96.65 E3.51977
G1 X100.117 Y96.6 E3.53917
G1 X119.883 Y96.6 E4.19659
G1 X120.403 Y96.64 E4.21393
G1 X120.91 Y96.759 E4.23126
G1 X121.393 Y96.954 E4.24858
G1 X121.841 Y97.22 E4.26591
G1 X122.287 Y97.596 E4.28531
G1 X122.404 Y97.713 E4.29081
G1 X122.743 Y98.109 E4.30815
G1 X123.018 Y98.551 E4.32547
G1 X123.222 Y99.031 E4.34281
G1 X123.35 Y99.536 E4.36014
G1 X123.4 Y100.117 E4.37954
G1 X123.4 Y119.883 E5.03696
G1 X123.36 Y120.403 E5.0543
G1 X123.241 Y120.91 E5.07162
G1 X123.046 Y121.393 E5.08895
G1 X122.78 Y121.841 E5.10628
G1 X122.404 Y122.287 E5.12568
G1 X122.287 Y122.404 E5.13118
G1 X121.891 Y122.743 E5.14852
G1 X121.449 Y123.018 E5.16584
G1 X120.969 Y123.222 E5.18318
G1 X120.464 Y123.35 E5.20051
G1 X119.883 Y123.4 E5.21991
G1 X100.117 Y123.4 E5.87732
G1 X99.597 Y123.36 E5.89467
G1 X99.09 Y123.241 E5.91199
G1 X98.607 Y123.046 E5.92932
G1 X98.159 Y122.78 E5.94665
G1 X97.713 Y122.404 E5.96605
G1 X97.596 Y122.287 E5.97155
G1 X97.257 Y121.891 E5.98889
G1 X96.982 Y121.449 E6.0062
G1 X96.778 Y120.969 E6.02355
G1 X96.65 Y120.464 E6.04088
G1 X96.6 Y119.883 E6.06027
G1 X96.6 Y100.117 E6.71769
G1 X96.64 Y99.597 E6.73504
G1 X96.759 Y99.09 E6.75236
G1 X96.954 Y98.607 E6.76969
G1 X97.22 Y98.159 E6.78701
G1 X97.596 Y97.713 E6.80642
G0 F6000 X97.879 Y97.996
G1 F1200 X97.996 Y97.879 E6.81192
G1 X98.369 Y97.562 E6.8282
G1 X98.789 Y97.31 E6.84449
G1 X99.244 Y97.13 E6.86077
G1 X99.722 Y97.026 E6.87704
G1 X100.117 Y97 E6.8902
G1 X119.883 Y97 E7.54762
G1 X120.371 Y97.04 E7.56391
G1 X120.846 Y97.159 E7.58019
G1 X121.295 Y97.353 E7.59646
G1 X121.707 Y97.618 E7.61276
G1 X122.004 Y97.879 E7.62591
G1 X122.121 Y97.996 E7.63141
G1 X122.438 Y98.369 E7.64769
G1 X122.69 Y98.789 E7.66398
G1 X122.87 Y99.244 E7.68026
G1 X122.974 Y99.722 E7.69653
G1 X123 Y100.117 E7.70969
G1 X123 Y119.883 E8.36711
G1 X122.96 Y120.371 E8.3834
G1 X122.841 Y120.846 E8.39968
G1 X122.647 Y121.295 E8.41595
G1 X122.382 Y121.707 E8.43225
G1 X122.121 Y122.004 E8.4454
G1 X122.004 Y122.121 E8.4509
G1 X121.631 Y122.438 E8.46718
G1 X121.211 Y122.69 E8.48347
G1 X120.756 Y122.87 E8.49975
G1 X120.278 Y122.974 E8.51602
G1 X119.883 Y123 E8.52918
G1 X100.117 Y123 E9.1866
G1 X99.629 Y122.96 E9.20289
G1 X99.154 Y122.841 E9.21917
G1 X98.705 Y122.647 E9.23544
G1 X98.293 Y122.382 E9.25174
G1 X97.996 Y122.121 E9.26489
G1 X97.879 Y122.004 E9.27039
G1 X97.562 Y121.631 E9.28667
G1 X97.31 Y121.211 E9.30296
G1 X97.13 Y120.756 E9.31924
G1 X97.026 Y120.278 E9.33551
G1 X97 Y119.883 E9.34867
G1 X97 Y100.117 E10.00609
G1 X97.04 Y99.629 E10.02238
G1 X97.159 Y99.154 E10.03866
G1 X97.353 Y98.705 E10.05493
G1 X97.618 Y98.293 E10.07123
G1 X97.879 Y97.996 E10.08438
G0 F6000 X98.162 Y98.279
G1 F1200 X98.279 Y98.162 E10.08988
G1 X98.628 Y97.869 E10.10504
G1 X99.023 Y97.642 E10.12019
G1 X99.451 Y97.487 E10.13533
G1 X100.117 Y97.4 E10.15767
G1 X119.883 Y97.4 E10.81509
G1 X120.337 Y97.44 E10.83025
G1 X120.777 Y97.558 E10.8454
G1 X121.189 Y97.752 E10.86054
G1 X121.721 Y98.162 E10.88288
G1 X121.838 Y98.279 E10.88839
G1 X122.131 Y98.628 E10.90354
G1 X122.358 Y99.023 E10.9187
G1 X122.513 Y99.451 E10.93384
G1 X122.6 Y100.117 E10.95618
G1 X122.6 Y119.883 E11.6136
G1 X122.56 Y120.337 E11.62875
G1 X122.442 Y120.777 E11.64391
G1 X122.248 Y121.189 E11.65905
G1 X121.838 Y121.721 E11.68139
G1 X121.721 Y121.838 E11.68689
G1 X121.372 Y122.131 E11.70205
G1 X120.977 Y122.358 E11.7172
G1 X120.549 Y122.513 E11.73234
G1 X119.883 Y122.6 E11.75468
G1 X100.117 Y122.6 E12.4121
G1 X99.663 Y122.56 E12.42726
G1 X99.223 Y122.442 E12.44241
G1 X98.811 Y122.248 E12.45756
G1 X98.279 Y121.838 E12.4799
G1 X98.162 Y121.721 E12.4854
G1 X97.869 Y121.372 E12.50056
G1 X97.642 Y120.977 E12.51571
G1 X97.487 Y120.549 E12.53085
G1 X97.4 Y119.883 E12.55319
G1 X97.4 Y100.117 E13.21061
G1 X97.44 Y99.663 E13.22577
G1 X97.558 Y99.223 E13.24092
G1 X97.752 Y98.811 E13.25607
G1 X98.162 Y98.279 E13.27841
G0 F6000 X98.444 Y98.561
G1 F1200 X98.561 Y98.444 E13.28391
G1 X98.885 Y98.178 E13.29785
G1 X99.252 Y97.977 E13.31177
G1 X99.652 Y97.85 E13.32573
G1 X100.117 Y97.8 E13.34128
G1 X119.883 Y97.8 E13.9987
G1 X120.3 Y97.84 E14.01264
G1 X120.702 Y97.958 E14.02657
G1 X121.074 Y98.151 E14.04051
G1 X121.439 Y98.444 E14.05608
G1 X121.556 Y98.561 E14.06158
G1 X121.822 Y98.885 E14.07552
G1 X122.023 Y99.252 E14.08944
G1 X122.15 Y99.652 E14.1034
G1 X122.2 Y100.117 E14.11895
G1 X122.2 Y119.883 E14.77637
G1 X122.16 Y120.3 E14.79031
G1 X122.042 Y120.702 E14.80424
G1 X121.849 Y121.074 E14.81818
G1 X121.556 Y121.439 E14.83375
G1 X121.439 Y121.556 E14.83925
G1 X121.115 Y121.822 E14.85319
G1 X120.748 Y122.023 E14.86711
G1 X120.348 Y122.15 E14.88107
G1 X119.883 Y122.2 E14.89663
G1 X100.117 Y122.2 E15.55405
G1 X99.7 Y122.16 E15.56798
G1 X99.298 Y122.042 E15.58191
G1 X98.926 Y121.849 E15.59585
G1 X98.561 Y121.556 E15.61142
G1 X98.444 Y121.439 E15.61692
G1 X98.178 Y121.115 E15.63087
G1 X97.977 Y120.748 E15.64478
G1 X97.85 Y120.348 E15.65874
G1 X97.8 Y119.883 E15.6743
G1 X97.8 Y100.117 E16.33172
G1 X97.84 Y99.7 E16.34565
G1 X97.958 Y99.298 E16.35958
G1 X98.151 Y98.926 E16.37352
G1 X98.444 Y98.561 E16.38909
G0 F6000 X98.727 Y98.844
G1 F1200 X98.844 Y98.727 E16.39459
G1 X99.139 Y98.489 E16.4072
G1 X99.477 Y98.318 E16.4198
G1 X99.843 Y98.221 E16.43239
G1 X100.117 Y98.2 E16.44153
G1 X119.883 Y98.2 E17.09895
G1 X120.26 Y98.24 E17.11156
G1 X120.62 Y98.358 E17.12416
G1 X120.947 Y98.548 E17.13674
G1 X121.156 Y98.727 E17.14589
G1 X121.273 Y98.844 E17.1514
G1 X121.511 Y99.139 E17.164
G1 X121.682 Y99.477 E17.1766
G1 X121.779 Y99.843 E17.1892
G1 X121.8 Y100.117 E17.19834
G1 X121.8 Y119.883 E17.85576
G1 X121.76 Y120.26 E17.86837
G1 X121.642 Y120.62 E17.88097
G1 X121.452 Y120.947 E17.89354
G1 X121.273 Y121.156 E17.9027
G1 X121.156 Y121.273 E17.9082
G1 X120.861 Y121.511 E17.92081
G1 X120.523 Y121.682 E17.93341
G1 X120.157 Y121.779 E17.946
G1 X119.883 Y121.8 E17.95514
G1 X100.117 Y121.8 E18.61256
G1 X99.74 Y121.76 E18.62517
G1 X99.38 Y121.642 E18.63777
G1 X99.053 Y121.452 E18.65035
G1 X98.844 Y121.273 E18.6595
G1 X98.727 Y121.156 E18.665
G1 X98.489 Y120.861 E18.67761
G1 X98.318 Y120.523 E18.69021
G1 X98.221 Y120.157 E18.7028
G1 X98.2 Y119.883 E18.71194
G1 X98.2 Y100.117 E19.36936
G1 X98.24 Y99.74 E19.38197
G1 X98.358 Y99.38 E19.39457
G1 X98.548 Y99.053 E19.40715
G1 X98.727 Y98.844 E19.4163
G0 F6000 X99.01 Y99.127
G1 F1200 X99.127 Y99.01 E19.42181
G1 X99.39 Y98.804 E19.43292
G1 X99.694 Y98.665 E19.44404
G1 X100.117 Y98.6 E19.45827
G1 X119.883 Y98.6 E20.11569
G1 X120.215 Y98.64 E20.12681
G1 X120.527 Y98.757 E20.1379
G1 X120.873 Y99.01 E20.15215
G1 X120.99 Y99.127 E20.15765
G1 X121.196 Y99.39 E20.16877
G1 X121.335 Y99.694 E20.17988
G1 X121.4 Y100.117 E20.19412
G1 X121.4 Y119.883 E20.85154
G1 X121.36 Y120.215 E20.86266
G1 X121.243 Y120.527 E20.87374
G1 X120.99 Y120.873 E20.888
G1 X120.873 Y120.99 E20.8935
G1 X120.61 Y121.196 E20.90461
G1 X120.306 Y121.335 E20.91573
G1 X119.883 Y121.4 E20.92997
G1 X100.117 Y121.4 E21.58739
G1 X99.785 Y121.36 E21.59851
G1 X99.473 Y121.243 E21.60959
G1 X99.127 Y120.99 E21.62385
G1 X99.01 Y120.873 E21.62935
G1 X98.804 Y120.61 E21.64046
G1 X98.665 Y120.306 E21.65158
G1 X98.6 Y119.883 E21.66581
G1 X98.6 Y100.117 E22.32323
G1 X98.64 Y99.785 E22.33436
G1 X98.757 Y99.473 E22.34544
G1 X99.01 Y99.127 E22.3597
G0 F6000 X99.293 Y99.41
G1 F1200 X99.41 Y99.293 E22.3652
G1 X99.636 Y99.124 E22.37458
G1 X99.9 Y99.024 E22.38397
G1 X100.117 Y99 E22.39124
G1 X119.883 Y99 E23.04866
G1 X120.162 Y99.04 E23.05803
G1 X120.419 Y99.156 E23.06741
G1 X120.59 Y99.293 E23.0747
G1 X120.707 Y99.41 E23.0802
G1 X120.876 Y99.636 E23.08959
G1 X120.976 Y99.9 E23.09897
G1 X121 Y100.117 E23.10624
G1 X121 Y119.883 E23.76366
G1 X120.96 Y120.162 E23.77303
G1 X120.844 Y120.419 E23.78241
G1 X120.707 Y120.59 E23.7897
G1 X120.59 Y120.707 E23.7952
G1 X120.364 Y120.876 E23.80459
G1 X120.1 Y120.976 E23.81398
G1 X119.883 Y121 E23.82124
G1 X100.117 Y121 E24.47866
G1 X99.838 Y120.96 E24.48803
G1 X99.581 Y120.844 E24.49741
G1 X99.41 Y120.707 E24.5047
G1 X99.293 Y120.59 E24.5102
G1 X99.124 Y120.364 E24.51959
G1 X99.024 Y120.1 E24.52898
G1 X99 Y119.883 E24.53624
G1 X99 Y100.117 E25.19366
G1 X99.04 Y99.838 E25.20303
G1 X99.156 Y99.581 E25.21241
G1 X99.293 Y99.41 E25.2197
G0 F6000 X99.576 Y99.693
G1 F1200 X99.693 Y99.576 E25.2252
G1 X99.872 Y99.452 E25.23244
G1 X100.117 Y99.4 E25.24077
G1 X119.883 Y99.4 E25.89819
G1 X120.098 Y99.44 E25.90547
G1 X120.307 Y99.576 E25.91376
G1 X120.424 Y99.693 E25.91926
G1 X120.548 Y99.872 E25.92651
G1 X120.6 Y100.117 E25.93484
G1 X120.6 Y119.883 E26.59226
G1 X120.56 Y120.098 E26.59953
G1 X120.424 Y120.307 E26.60782
G1 X120.307 Y120.424 E26.61333
G1 X120.128 Y120.548 E26.62057
G1 X119.883 Y120.6 E26.6289
G1 X100.117 Y120.6 E27.28632
G1 X99.902 Y120.56 E27.29359
G1 X99.693 Y120.424 E27.30189
G1 X99.576 Y120.307 E27.30739
G1 X99.452 Y120.128 E27.31463
G1 X99.4 Y119.883 E27.32296
G1 X99.4 Y100.117 E27.98038
G1 X99.44 Y99.902 E27.98766
G1 X99.576 Y99.693 E27.99595
G0 F6000 X99.859 Y99.976
G1 F1200 X99.976 Y99.859 E28.00145
G1 X100.117 Y99.8 E28.00654
G1 X119.883 Y99.8 E28.66396
G1 X120.024 Y99.859 E28.66904
G1 X120.141 Y99.976 E28.67454
G1 X120.2 Y100.117 E28.67963
G1 X120.2 Y119.883 E29.33705
G1 X120.141 Y120.024 E29.34213
G1 X120.024 Y120.141 E29.34763
G1 X119.883 Y120.2 E29.35272
G1 X100.117 Y120.2 E30.01014
G1 X99.976 Y120.141 E30.01522
G1 X99.859 Y120.024 E30.02072
G1 X99.8 Y119.883 E30.02581
G1 X99.8 Y100.117 E30.68323
G1 X99.859 Y99.976 E30.68831
G1 F2700 E25.68831
;MESH:testPrint.stl
G0 F6000 X100.81 Y100.81
G0 X100.782 Y119.218
G0 X119.5 Y119.53
G0 X119.8 Y119.8
;TYPE:WALL-OUTER
G1 F2700 E30.68831
G1 F1200 X100.2 Y119.8 E31.34021
G1 X100.2 Y100.2 E31.99211
G1 X119.8 Y100.2 E32.64401
G1 X119.8 Y119.8 E33.29591
G0 F6000 X119.4 Y119.4
;TYPE:WALL-INNER
G1 F1200 X100.6 Y119.4 E33.9212
G1 X100.6 Y100.6 E34.54649
G1 X119.4 Y100.6 E35.17178
G1 X119.4 Y119.4 E35.79707
G0 F6000 X119.01 Y119.01
;TYPE:SKIN
G1 F1200 X100.99 Y119.01 E36.39642
G1 X100.99 Y100.99 E36.99576
G1 X119.01 Y100.99 E37.59511
G1 X119.01 Y119.01 E38.19446
G0 F6000 X119.29 Y119.01
G0 X119.29 Y101.313
G0 X118.849 Y101.313
G1 F1200 X118.686 Y101.15 E38.20213
G0 F6000 X118.12 Y101.15
G1 F1200 X118.849 Y101.879 E38.23642
G0 F6000 X118.849 Y102.444
G1 F1200 X117.555 Y101.15 E38.29728
G0 F6000 X116.989 Y101.15
G1 F1200 X118.849 Y103.01 E38.38477
G0 F6000 X118.849 Y103.576
G1 F1200 X116.423 Y101.15 E38.49888
G0 F6000 X115.858 Y101.15
G1 F1200 X118.849 Y104.141 E38.63957
G0 F6000 X118.849 Y104.707
G1 F1200 X115.292 Y101.15 E38.80688
G0 F6000 X114.726 Y101.15
G1 F1200 X118.849 Y105.273 E39.00081
G0 F6000 X118.849 Y105.839
G1 F1200 X114.16 Y101.15 E39.22137
G0 F6000 X113.595 Y101.15
G1 F1200 X118.849 Y106.404 E39.4685
G0 F6000 X118.849 Y106.97
G1 F1200 X113.029 Y101.15 E39.74226
G0 F6000 X112.463 Y101.15
G1 F1200 X118.849 Y107.536 E40.04263
G0 F6000 X118.849 Y108.101
G1 F1200 X111.898 Y101.15 E40.36959
G0 F6000 X111.332 Y101.15
G1 F1200 X118.849 Y108.667 E40.72316
G0 F6000 X118.849 Y109.233
G1 F1200 X110.766 Y101.15 E41.10336
G0 F6000 X110.201 Y101.15
G1 F1200 X118.849 Y109.798 E41.51014
G0 F6000 X118.849 Y110.364
G1 F1200 X109.635 Y101.15 E41.94354
G0 F6000 X109.069 Y101.15
G1 F1200 X118.849 Y110.93 E42.40356
G0 F6000 X118.849 Y111.495
G1 F1200 X108.504 Y101.15 E42.89016
G0 F6000 X107.938 Y101.15
G1 F1200 X118.849 Y112.061 E43.40338
G0 F6000 X118.849 Y112.627
G1 F1200 X107.372 Y101.15 E43.94322
G0 F6000 X106.807 Y101.15
G1 F1200 X118.849 Y113.192 E44.50964
G0 F6000 X118.849 Y113.758
G1 F1200 X106.241 Y101.15 E45.10268
G0 F6000 X105.675 Y101.15
G1 F1200 X118.849 Y114.324 E45.72234
G0 F6000 X118.849 Y114.89
G1 F1200 X105.11 Y101.15 E46.36861
G0 F6000 X104.544 Y101.15
G1 F1200 X118.849 Y115.455 E47.04147
G0 F6000 X118.849 Y116.021
G1 F1200 X103.978 Y101.15 E47.74096
G0 F6000 X103.412 Y101.15
G1 F1200 X118.849 Y116.587 E48.46707
G0 F6000 X118.849 Y117.152
G1 F1200 X102.847 Y101.15 E49.21975
G0 F6000 X102.281 Y101.15
G1 F1200 X118.849 Y117.718 E49.99906
G0 F6000 X118.849 Y118.284
G1 F1200 X101.715 Y101.15 E50.80499
G0 F6000 X101.149 Y101.149
G1 F1200 X118.849 Y118.849 E51.63754
G0 F6000 X118.283 Y118.849
G1 F1200 X101.149 Y101.715 E52.44348
G0 F6000 X101.149 Y102.28
G1 F1200 X117.717 Y118.849 E53.22281
G0 F6000 X117.152 Y118.849
G1 F1200 X101.149 Y102.846 E53.97554
G0 F6000 X101.149 Y103.412
G1 F1200 X116.586 Y118.849 E54.70165
G0 F6000 X116.02 Y118.849
G1 F1200 X101.149 Y103.977 E55.40116
G0 F6000 X101.149 Y104.543
G1 F1200 X115.454 Y118.849 E56.07404
G0 F6000 X114.889 Y118.849
G1 F1200 X101.149 Y105.109 E56.72033
G0 F6000 X101.149 Y105.674
G1 F1200 X114.323 Y118.849 E57.34002
G0 F6000 X113.757 Y118.849
G1 F1200 X101.149 Y106.24 E57.93309
G0 F6000 X101.149 Y106.806
G1 F1200 X113.192 Y118.849 E58.49955
G0 F6000 X112.626 Y118.849
G1 F1200 X101.149 Y107.372 E59.03939
G0 F6000 X101.149 Y107.937
G1 F1200 X112.06 Y118.849 E59.55264
G0 F6000 X111.495 Y118.849
G1 F1200 X101.149 Y108.503 E60.03928
G0 F6000 X101.149 Y109.069
G1 F1200 X110.929 Y118.849 E60.4993
G0 F6000 X110.363 Y118.849
G1 F1200 X101.149 Y109.634 E60.93272
G0 F6000 X101.149 Y110.2
G1 F1200 X109.798 Y118.849 E61.33955
G0 F6000 X109.232 Y118.849
G1 F1200 X101.149 Y110.766 E61.71975
G0 F6000 X101.149 Y111.331
G1 F1200 X108.666 Y118.849 E62.07335
G0 F6000 X108.101 Y118.849
G1 F1200 X101.149 Y111.897 E62.40035
G0 F6000 X101.149 Y112.463
G1 F1200 X107.535 Y118.849 E62.70073
G0 F6000 X106.969 Y118.849
G1 F1200 X101.149 Y113.028 E62.9745
G0 F6000 X101.149 Y113.594
G1 F1200 X106.404 Y118.849 E63.22168
G0 F6000 X105.838 Y118.849
G1 F1200 X101.149 Y114.16 E63.44224
G0 F6000 X101.149 Y114.725
