;FLAVOR:Marlin
;TIME:10142
;Filament used: 14.3854m
;Layer height: 0.2
;MINX:74
;MINY:74
;MINZ:0.2
;MAXX:146
;MAXY:146
;MAXZ:50
;Generated with Cura_SteamEngine master
M140 S50
M105
M190 S50
M104 S200
M105
M109 S200
M82 ;absolute extrusion mode
M201 X500.00 Y500.00 Z100.00 E5000.00 ;Setup machine max acceleration
M203 X500.00 Y500.00 Z10.00 E50.00 ;Setup machine max feedrate
M204 P500.00 R1000.00 T500.00 ;Setup Print/Retract/Travel acceleration
M205 X8.00 Y8.00 Z0.40 E5.00 ;Setup Jerk
M220 S100 ;Reset Feedrate
M221 S100 ;Reset Flowrate

G28 ;Home

G92 E0 ;Reset Extruder
G1 Z2.0 F3000 ;Move Z Axis up
G1 X10.1 Y20 Z0.28 F5000.0 ;Move to start position
G1 X10.1 Y200.0 Z0.28 F1500.0 E15 ;Draw the first line
G1 X10.4 Y200.0 Z0.28 F5000.0 ;Move to side a little
G1 X10.4 Y20 Z0.28 F1500.0 E30 ;Draw the second line
G92 E0 ;Reset Extruder
G1 Z2.0 F3000 ;Move Z Axis up

G92 E0
G92 E0
G1 F2700 E-5
;LAYER_COUNT:250
;LAYER:0
M107
G0 F6000 X77.198 Y77.264 Z0.2
;TYPE:SKIRT
G1 F2700 E0
G1 F1200 X77.886 Y76.627 E0.03119
G1 X78.626 Y76.051 E0.06237
G1 X79.412 Y75.539 E0.09357
G1 X80.239 Y75.097 E0.12476
G1 X81.101 Y74.727 E0.15596
G1 X81.991 Y74.431 E0.18716
G1 X82.903 Y74.213 E0.21835
G1 X83.83 Y74.072 E0.24953
G1 X84.701 Y74.013 E0.27857
G1 X85.022 Y74.004 E0.28925
G1 X85.33 Y74 E0.29949
G1 X134.451 Y74.001 E1.93327
G1 X135.149 Y74.011 E1.95648
G1 X136.085 Y74.065 E1.98767
G1 X137.013 Y74.197 E2.01884
G1 X137.927 Y74.409 E2.05005
G1 X138.819 Y74.698 E2.08124
G1 X139.684 Y75.061 E2.11244
G1 X140.514 Y75.497 E2.14362
G1 X141.305 Y76.002 E2.17483
G1 X142.049 Y76.573 E2.20603
G1 X142.742 Y77.205 E2.23722
G1 X143.379 Y77.893 E2.26841
G1 X143.954 Y78.634 E2.2996
G1 X144.465 Y79.42 E2.33078
G1 X144.907 Y80.248 E2.362
G1 X145.276 Y81.11 E2.39319
G1 X145.571 Y82 E2.42437
G1 X145.789 Y82.912 E2.45556
G1 X145.929 Y83.84 E2.48678
G1 X145.987 Y84.701 E2.51548
G1 X145.996 Y85.021 E2.52612
G1 X146 Y85.33 E2.5364
G1 X145.999 Y134.4 E4.16848
G1 X145.99 Y135.127 E4.19266
G1 X145.939 Y136.064 E4.22387
G1 X145.807 Y136.992 E4.25505
G1 X145.598 Y137.906 E4.28623
G1 X145.311 Y138.799 E4.31743
G1 X144.949 Y139.665 E4.34865
G1 X144.515 Y140.496 E4.37983
G1 X144.011 Y141.287 E4.41102
G1 X143.442 Y142.032 E4.4422
G1 X142.811 Y142.727 E4.47343
G1 X142.124 Y143.365 E4.50461
G1 X141.385 Y143.942 E4.53579
G1 X140.599 Y144.454 E4.56699
G1 X139.773 Y144.897 E4.59817
G1 X138.911 Y145.269 E4.62939
G1 X138.022 Y145.565 E4.66056
G1 X137.11 Y145.785 E4.69176
G1 X136.183 Y145.926 E4.72295
G1 X135.299 Y145.987 E4.75242
G1 X134.978 Y145.996 E4.7631
G1 X134.67 Y146 E4.77334
G1 X85.565 Y145.999 E6.40658
G1 X84.867 Y145.99 E6.4298
G1 X83.931 Y145.938 E6.46098
G1 X83.002 Y145.806 E6.49219
G1 X82.088 Y145.596 E6.52338
G1 X81.195 Y145.309 E6.55458
G1 X80.33 Y144.946 E6.58578
G1 X79.499 Y144.512 E6.61696
G1 X78.708 Y144.008 E6.64816
G1 X77.963 Y143.438 E6.67936
G1 X77.269 Y142.807 E6.71055
G1 X76.632 Y142.12 E6.74171
G1 X76.055 Y141.38 E6.77292
G1 X75.543 Y140.594 E6.80412
G1 X75.1 Y139.767 E6.83533
G1 X74.729 Y138.906 E6.86651
G1 X74.433 Y138.016 E6.89771
G1 X74.214 Y137.104 E6.9289
G1 X74.073 Y136.177 E6.96009
G1 X74.013 Y135.288 E6.98972
G1 X74.004 Y134.955 E7.0008
G1 X74 Y134.658 E7.01068
G1 X74.001 Y85.525 E8.64485
G1 X74.01 Y84.86 E8.66697
G1 X74.063 Y83.924 E8.69815
G1 X74.195 Y82.995 E8.72936
G1 X74.406 Y82.081 E8.76056
G1 X74.694 Y81.189 E8.79174
G1 X75.057 Y80.324 E8.82294
G1 X75.492 Y79.493 E8.85414
G1 X75.996 Y78.703 E8.8853
G1 X76.566 Y77.958 E8.9165
G1 X77.198 Y77.264 E8.94772
G0 F6000 X77.589 Y77.439
G1 F1200 X78.274 Y76.823 E8.97836
G1 X79.01 Y76.27 E9.00898
G1 X79.791 Y75.782 E9.03961
G1 X80.611 Y75.364 E9.07022
G1 X81.465 Y75.019 E9.10086
G1 X82.345 Y74.749 E9.13147
G1 X83.245 Y74.557 E9.16208
G1 X84.159 Y74.443 E9.19272
G1 X84.712 Y74.413 E9.21114
G1 X85.033 Y74.404 E9.22182
G1 X85.33 Y74.4 E9.2317
G1 X134.293 Y74.4 E10.86021
G1 X135.143 Y74.411 E10.88849
G1 X136.062 Y74.464 E10.9191
G1 X136.973 Y74.597 E10.94972
G1 X137.869 Y74.808 E10.98034
G1 X138.743 Y75.096 E11.01095
G1 X139.59 Y75.459 E11.0416
G1 X140.401 Y75.894 E11.07221
G1 X141.171 Y76.398 E11.10282
G1 X141.895 Y76.967 E11.13344
G1 X142.567 Y77.597 E11.16408
G1 X143.182 Y78.282 E11.1947
G1 X143.735 Y79.018 E11.22532
G1 X144.222 Y79.799 E11.25593
G1 X144.639 Y80.62 E11.28656
G1 X144.984 Y81.474 E11.31719
G1 X145.253 Y82.354 E11.3478
G1 X145.445 Y83.255 E11.37844
G1 X145.558 Y84.168 E11.40904
G1 X145.587 Y84.712 E11.42715
G1 X145.596 Y85.032 E11.4378
G1 X145.6 Y85.33 E11.44771
G1 X145.599 Y134.395 E13.07962
G1 X145.59 Y135.122 E13.1038
G1 X145.539 Y136.041 E13.13442
G1 X145.408 Y136.953 E13.16506
G1 X145.198 Y137.849 E13.19567
G1 X144.912 Y138.724 E13.22629
G1 X144.551 Y139.571 E13.25691
G1 X144.117 Y140.383 E13.28753
G1 X143.615 Y141.155 E13.31816
G1 X143.047 Y141.88 E13.3488
G1 X142.419 Y142.553 E13.37941
G1 X141.735 Y143.169 E13.41003
G1 X141 Y143.723 E13.44064
G1 X140.22 Y144.212 E13.47126
G1 X139.4 Y144.631 E13.50189
G1 X138.547 Y144.977 E13.5325
G1 X137.667 Y145.248 E13.56313
G1 X136.767 Y145.441 E13.59374
G1 X135.853 Y145.556 E13.62438
G1 X135.288 Y145.587 E13.6432
G1 X134.967 Y145.596 E13.65388
G1 X134.67 Y145.6 E13.66376
G1 X85.57 Y145.599 E15.29684
G1 X84.872 Y145.59 E15.32005
G1 X83.953 Y145.538 E15.35067
G1 X83.042 Y145.407 E15.38128
G1 X82.146 Y145.197 E15.41189
G1 X81.271 Y144.91 E15.44252
G1 X80.424 Y144.548 E15.47315
G1 X79.612 Y144.114 E15.50378
G1 X78.841 Y143.612 E15.53438
G1 X78.116 Y143.044 E15.56501
G1 X77.443 Y142.415 E15.59565
G1 X76.828 Y141.731 E15.62624
G1 X76.274 Y140.996 E15.65685
G1 X75.786 Y140.215 E15.68748
G1 X75.367 Y139.395 E15.71811
G1 X75.021 Y138.542 E15.74873
G1 X74.751 Y137.662 E15.77934
G1 X74.558 Y136.761 E15.80999
G1 X74.444 Y135.848 E15.84059
G1 X74.413 Y135.277 E15.85961
G1 X74.404 Y134.944 E15.87069
G1 X74.4 Y134.658 E15.8802
G1 X74.401 Y85.531 E17.51418
G1 X74.41 Y84.866 E17.5363
G1 X74.462 Y83.946 E17.56694
G1 X74.594 Y83.035 E17.59756
G1 X74.805 Y82.139 E17.62818
G1 X75.092 Y81.264 E17.6588
G1 X75.455 Y80.418 E17.68942
G1 X75.889 Y79.606 E17.72005
G1 X76.392 Y78.835 E17.75066
G1 X76.961 Y78.111 E17.78129
G1 X77.589 Y77.439 E17.81188
G0 F6000 X77.981 Y77.617
G1 F1200 X78.662 Y77.024 E17.84192
G1 X79.394 Y76.494 E17.87197
G1 X80.169 Y76.031 E17.902
G1 X80.982 Y75.638 E17.93204
G1 X81.827 Y75.318 E17.96209
G1 X82.696 Y75.075 E17.9921
G1 X83.584 Y74.909 E18.02215
G1 X84.723 Y74.813 E18.06016
G1 X85.044 Y74.804 E18.07084
G1 X85.33 Y74.8 E18.08036
G1 X134.293 Y74.8 E19.70887
G1 X135.137 Y74.811 E19.73695
G1 X136.039 Y74.864 E19.767
G1 X136.932 Y74.996 E19.79702
G1 X137.81 Y75.207 E19.82706
G1 X138.666 Y75.495 E19.8571
G1 X139.493 Y75.857 E19.88712
G1 X140.285 Y76.292 E19.91718
G1 X141.036 Y76.794 E19.94722
G1 X141.739 Y77.361 E19.97726
G1 X142.389 Y77.988 E20.0073
G1 X142.981 Y78.67 E20.03734
G1 X143.511 Y79.401 E20.06737
G1 X143.973 Y80.177 E20.0974
G1 X144.366 Y80.99 E20.12744
G1 X144.684 Y81.835 E20.15747
G1 X144.927 Y82.705 E20.18751
G1 X145.092 Y83.593 E20.21755
G1 X145.187 Y84.723 E20.25527
G1 X145.196 Y85.043 E20.26592
G1 X145.2 Y85.33 E20.27546
G1 X145.199 Y134.39 E21.90721
G1 X145.19 Y135.117 E21.93139
G1 X145.139 Y136.019 E21.96144
G1 X145.008 Y136.913 E21.99149
G1 X144.799 Y137.791 E22.02151
G1 X144.513 Y138.648 E22.05156
G1 X144.152 Y139.476 E22.0816
G1 X143.72 Y140.268 E22.1116
G1 X143.219 Y141.02 E22.14166
G1 X142.653 Y141.724 E22.1717
G1 X142.028 Y142.375 E22.20172
G1 X141.347 Y142.969 E22.23177
G1 X140.616 Y143.5 E22.26182
G1 X139.842 Y143.964 E22.29184
G1 X139.029 Y144.358 E22.32189
G1 X138.185 Y144.678 E22.35191
G1 X137.315 Y144.923 E22.38197
G1 X136.428 Y145.089 E22.41199
G1 X135.277 Y145.187 E22.45041
G1 X134.956 Y145.196 E22.46109
G1 X134.67 Y145.2 E22.4706
G1 X85.575 Y145.199 E24.10351
G1 X84.877 Y145.19 E24.12672
G1 X83.976 Y145.139 E24.15674
G1 X83.082 Y145.007 E24.1868
G1 X82.204 Y144.798 E24.21681
G1 X81.347 Y144.511 E24.24687
G1 X80.52 Y144.15 E24.27689
G1 X79.727 Y143.717 E24.30694
G1 X78.976 Y143.216 E24.33696
G1 X78.272 Y142.65 E24.36701
G1 X77.621 Y142.024 E24.39705
G1 X77.028 Y141.343 E24.42708
G1 X76.498 Y140.612 E24.45711
G1 X76.034 Y139.837 E24.48716
G1 X75.64 Y139.024 E24.5172
G1 X75.32 Y138.18 E24.54723
G1 X75.076 Y137.31 E24.57728
G1 X74.91 Y136.422 E24.60733
G1 X74.813 Y135.267 E24.64588
G1 X74.804 Y134.934 E24.65696
G1 X74.8 Y134.658 E24.66614
G1 X74.801 Y85.536 E26.29994
G1 X74.81 Y84.871 E26.32206
G1 X74.862 Y83.969 E26.35211
G1 X74.994 Y83.076 E26.38214
G1 X75.204 Y82.198 E26.41216
G1 X75.491 Y81.341 E26.44222
G1 X75.853 Y80.514 E26.47225
G1 X76.286 Y79.722 E26.50227
G1 X76.788 Y78.971 E26.53231
G1 X77.355 Y78.267 E26.56238
G1 X77.981 Y77.617 E26.59239
G1 F2700 E21.59239
;MESH:testPrint.stl
G0 F6000 X85.42 Y84.335
G0 X85.42 Y85.42
G0 X134.218 Y85.782
G0 X134.4 Y134.4
;TYPE:WALL-INNER
G1 F2700 E26.59239
G1 F1200 X85.6 Y134.4 E28.21549
G1 X85.6 Y85.6 E29.83858
G1 X134.4 Y85.6 E31.46168
G1 X134.4 Y134.4 E33.08477
G0 F6000 X134.8 Y134.8
;TYPE:WALL-OUTER
G1 F1200 X85.2 Y134.8 E34.73448
G1 X85.2 Y85.2 E36.38418
G1 X134.8 Y85.2 E38.03388
G1 X134.8 Y134.8 E39.68358
G0 F6000 X134.53 Y134.53
G0 X134.29 Y134.01
G0 X134.01 Y134.01
;TYPE:SKIN
G1 F1200 X85.99 Y134.01 E41.28074
G1 X85.99 Y85.99 E42.87789
G1 X134.01 Y85.99 E44.47504
G1 X134.01 Y134.01 E46.07219
G1 F2700 E41.07219
G0 F6000 X134.29 Y134.01
G0 X134.29 Y86.332
G0 X133.849 Y86.332
G1 F2700 E46.07219
G1 F1200 X133.667 Y86.15 E46.08075
G0 F6000 X133.102 Y86.15
G1 F1200 X133.849 Y86.897 E46.11589
G0 F6000 X133.849 Y87.463
G1 F1200 X132.536 Y86.15 E46.17765
G0 F6000 X131.97 Y86.15
G1 F1200 X133.849 Y88.029 E46.26603
G0 F6000 X133.849 Y88.594
G1 F1200 X131.405 Y86.15 E46.38099
G0 F6000 X130.839 Y86.15
G1 F1200 X133.849 Y89.16 E46.52257
G0 F6000 X133.849 Y89.726
G1 F1200 X130.273 Y86.15 E46.69077
G0 F6000 X129.708 Y86.15
G1 F1200 X133.849 Y90.291 E46.88555
G0 F6000 X133.849 Y90.857
G1 F1200 X129.142 Y86.15 E47.10696
G0 F6000 X128.576 Y86.15
G1 F1200 X133.849 Y91.423 E47.35498
G0 F6000 X133.849 Y91.988
G1 F1200 X128.011 Y86.15 E47.62958
G0 F6000 X127.445 Y86.15
G1 F1200 X133.849 Y92.554 E47.93081
G0 F6000 X133.849 Y93.12
G1 F1200 X126.879 Y86.15 E48.25865
G0 F6000 X126.314 Y86.15
G1 F1200 X133.849 Y93.685 E48.61308
G0 F6000 X133.849 Y94.251
G1 F1200 X125.748 Y86.15 E48.99412
G0 F6000 X125.182 Y86.15
G1 F1200 X133.849 Y94.817 E49.40179
G0 F6000 X133.849 Y95.383
G1 F1200 X124.616 Y86.15 E49.83609
G0 F6000 X124.051 Y86.15
G1 F1200 X133.849 Y95.948 E50.29695
G0 F6000 X133.849 Y96.514
G1 F1200 X123.485 Y86.15 E50.78444
G0 F6000 X122.919 Y86.15
G1 F1200 X133.849 Y97.08 E51.29856
G0 F6000 X133.849 Y97.645
G1 F1200 X122.354 Y86.15 E51.83925
G0 F6000 X121.788 Y86.15
G1 F1200 X133.849 Y98.211 E52.40656
G0 F6000 X133.849 Y98.777
G1 F1200 X121.222 Y86.15 E53.0005
G0 F6000 X120.657 Y86.15
G1 F1200 X133.849 Y99.342 E53.62101
G0 F6000 X133.849 Y99.908
G1 F1200 X120.091 Y86.15 E54.26814
G0 F6000 X119.525 Y86.15
G1 F1200 X133.849 Y100.474 E54.9419
G0 F6000 X133.849 Y101.039
G1 F1200 X118.96 Y86.15 E55.64223
G0 F6000 X118.394 Y86.15
G1 F1200 X133.849 Y101.605 E56.36919
G0 F6000 X133.849 Y102.171
G1 F1200 X117.828 Y86.15 E57.12277
G0 F6000 X117.263 Y86.15
G1 F1200 X133.849 Y102.736 E57.90292
G0 F6000 X133.849 Y103.302
G1 F1200 X116.697 Y86.15 E58.7097
G0 F6000 X116.131 Y86.15
G1 F1200 X133.849 Y103.868 E59.5431
G0 F6000 X133.849 Y104.434
G1 F1200 X115.565 Y86.15 E60.40312
G0 F6000 X115 Y86.15
G1 F1200 X133.849 Y104.999 E61.28972
G0 F6000 X133.849 Y105.565
G1 F1200 X114.434 Y86.15 E62.20294
G0 F6000 X113.868 Y86.15
G1 F1200 X133.849 Y106.131 E63.14279
G0 F6000 X133.849 Y106.696
G1 F1200 X113.303 Y86.15 E64.10921
G0 F6000 X112.737 Y86.15
G1 F1200 X133.849 Y107.262 E65.10225
G0 F6000 X133.849 Y107.828
G1 F1200 X112.171 Y86.15 E66.12192
G0 F6000 X111.606 Y86.15
G1 F1200 X133.849 Y108.393 E67.16816
G0 F6000 X133.849 Y108.959
G1 F1200 X111.04 Y86.15 E68.24103
G0 F6000 X110.474 Y86.15
G1 F1200 X133.849 Y109.525 E69.34051
G0 F6000 X133.849 Y110.09
G1 F1200 X109.909 Y86.15 E70.46658
G0 F6000 X109.343 Y86.15
G1 F1200 X133.849 Y110.656 E71.61927
G0 F6000 X133.849 Y111.222
G1 F1200 X108.777 Y86.15 E72.79858
G0 F6000 X108.212 Y86.15
G1 F1200 X133.849 Y111.787 E74.00446
G0 F6000 X133.849 Y112.353
G1 F1200 X107.646 Y86.15 E75.23697
G0 F6000 X107.08 Y86.15
G1 F1200 X133.849 Y112.919 E76.4961
G0 F6000 X133.849 Y113.484
G1 F1200 X106.515 Y86.15 E77.78181
G0 F6000 X105.949 Y86.15
G1 F1200 X133.849 Y114.05 E79.09414
G0 F6000 X133.849 Y114.616
G1 F1200 X105.383 Y86.15 E80.43309
G0 F6000 X104.817 Y86.15
G1 F1200 X133.849 Y115.182 E81.79867
G0 F6000 X133.849 Y115.747
G1 F1200 X104.252 Y86.15 E83.19082
G0 F6000 X103.686 Y86.15
G1 F1200 X133.849 Y116.313 E84.6096
G0 F6000 X133.849 Y116.879
G1 F1200 X103.12 Y86.15 E86.055
G0 F6000 X102.555 Y86.15
G1 F1200 X133.849 Y117.444 E87.52697
G0 F6000 X133.849 Y118.01
G1 F1200 X101.989 Y86.15 E89.02557
G0 F6000 X101.423 Y86.15
G1 F1200 X133.849 Y118.576 E90.55079
G0 F6000 X133.849 Y119.141
G1 F1200 X100.858 Y86.15 E92.10258
G0 F6000 X100.292 Y86.15
G1 F1200 X133.849 Y119.707 E93.681
G0 F6000 X133.849 Y120.273
G1 F1200 X99.726 Y86.15 E95.28604
G0 F6000 X99.161 Y86.15
G1 F1200 X133.849 Y120.838 E96.91766
G0 F6000 X133.849 Y121.404
G1 F1200 X98.595 Y86.15 E98.5759
G0 F6000 X98.029 Y86.15
G1 F1200 X133.849 Y121.97 E100.26076
G0 F6000 X133.849 Y122.535
G1 F1200 X97.464 Y86.15 E101.9722
G0 F6000 X96.898 Y86.15
G1 F1200 X133.849 Y123.101 E103.71026
G0 F6000 X133.849 Y123.667
G1 F1200 X96.332 Y86.15 E105.47495
G0 F6000 X95.767 Y86.15
G1 F1200 X133.849 Y124.233 E107.26623
G0 F6000 X133.849 Y124.798
G1 F1200 X95.201 Y86.15 E109.08411
G0 F6000 X94.635 Y86.15
G1 F1200 X133.849 Y125.364 E110.92862
G0 F6000 X133.849 Y125.93
G1 F1200 X94.069 Y86.15 E112.79975
G0 F6000 X93.504 Y86.15
G1 F1200 X133.849 Y126.495 E114.69745
G0 F6000 X133.849 Y127.061
G1 F1200 X92.938 Y86.15 E116.62178
G0 F6000 X92.372 Y86.15
G1 F1200 X133.849 Y127.627 E118.57273
G0 F6000 X133.849 Y128.192
G1 F1200 X91.807 Y86.15 E120.55026
G0 F6000 X91.241 Y86.15
G1 F1200 X133.849 Y128.758 E122.55441
G0 F6000 X133.849 Y129.324
G1 F1200 X90.675 Y86.15 E124.58518
G0 F6000 X90.11 Y86.15
G1 F1200 X133.849 Y129.889 E126.64253
G0 F6000 X133.849 Y130.455
G1 F1200 X89.544 Y86.15 E128.7265
G0 F6000 X88.978 Y86.15
G1 F1200 X133.849 Y131.021 E130.8371
G0 F6000 X133.849 Y131.586
G1 F1200 X88.413 Y86.15 E132.97427
G0 F6000 X87.847 Y86.15
G1 F1200 X133.849 Y132.152 E135.13806
G0 F6000 X133.849 Y132.718
G1 F1200 X87.281 Y86.15 E137.32848
G0 F6000 X86.716 Y86.15
G1 F1200 X133.849 Y133.283 E139.54547
G0 F6000 X133.849 Y133.849
G1 F1200 X86.149 Y86.149 E141.78913
G0 F6000 X86.149 Y86.715
G1 F1200 X133.283 Y133.848 E144.00614
G0 F6000 X132.717 Y133.848
G1 F1200 X86.149 Y87.281 E146.19654
G0 F6000 X86.149 Y87.846
G1 F1200 X132.151 Y133.848 E148.36033
G0 F6000 X131.586 Y133.848
G1 F1200 X86.149 Y88.412 E150.49752
G0 F6000 X86.149 Y88.978
G1 F1200 X131.02 Y133.848 E152.60809
G0 F6000 X130.454 Y133.848
G1 F1200 X86.149 Y89.543 E154.69207
G0 F6000 X86.149 Y90.109
G1 F1200 X129.889 Y133.848 E156.74944
G0 F6000 X129.323 Y133.848
G1 F1200 X86.149 Y90.675 E158.78019
G0 F6000 X86.149 Y91.24
G1 F1200 X128.757 Y133.848 E160.78434
G0 F6000 X128.192 Y133.848
G1 F1200 X86.149 Y91.806 E162.76189
G0 F6000 X86.149 Y92.372
G1 F1200 X127.626 Y133.848 E164.71281
G0 F6000 X127.06 Y133.848
G1 F1200 X86.149 Y92.937 E166.63714
G0 F6000 X86.149 Y93.503
G1 F1200 X126.495 Y133.848 E168.53487
G0 F6000 X125.929 Y133.848
G1 F1200 X86.149 Y94.069 E170.40598
G0 F6000 X86.149 Y94.634
G1 F1200 X125.363 Y133.848 E172.25048
G0 F6000 X124.797 Y133.848
G1 F1200 X86.149 Y95.2 E174.06837
G0 F6000 X86.149 Y95.766
G1 F1200 X124.232 Y133.848 E175.85965
G0 F6000 X123.666 Y133.848
G1 F1200 X86.149 Y96.331 E177.62433
G0 F6000 X86.149 Y96.897
G1 F1200 X123.1 Y133.848 E179.3624
G0 F6000 X122.535 Y133.848
G1 F1200 X86.149 Y97.463 E181.07386
G0 F6000 X86.149 Y98.029
G1 F1200 X121.969 Y133.848 E182.7587
G0 F6000 X121.403 Y133.848
G1 F1200 X86.149 Y98.594 E184.41694
G0 F6000 X86.149 Y99.16
G1 F1200 X120.838 Y133.848 E186.04858
G0 F6000 X120.272 Y133.848
