;FLAVOR:Marlin
;TIME:2660
;Filament used: 1.94331m
;Layer height: 0.2
;MINX:91.2
;MINY:91.2
;MINZ:0.2
;MAXX:128.8
;MAXY:128.8
;MAXZ:22.5
;Generated with Cura_SteamEngine master
M140 S70
M105
M190 S70
M104 S200
M105
M109 S200
M82 ;absolute extrusion mode
M201 X500.00 Y500.00 Z100.00 E5000.00 ;Setup machine max acceleration
M203 X500.00 Y500.00 Z10.00 E50.00 ;Setup machine max feedrate
M204 P500.00 R1000.00 T500.00 ;Setup Print/Retract/Travel acceleration
M205 X8.00 Y8.00 Z0.40 E5.00 ;Setup Jerk
M220 S100 ;Reset Feedrate
M221 S100 ;Reset Flowrate

G28 ;Home

G92 E0 ;Reset Extruder
G1 Z2.0 F3000 ;Move Z Axis up
G1 X10.1 Y20 Z0.28 F5000.0 ;Move to start position
G1 X10.1 Y200.0 Z0.28 F1500.0 E15 ;Draw the first line
G1 X10.4 Y200.0 Z0.28 F5000.0 ;Move to side a little
G1 X10.4 Y20 Z0.28 F1500.0 E30 ;Draw the second line
G92 E0 ;Reset Extruder
G1 Z2.0 F3000 ;Move Z Axis up

G92 E0
G92 E0
G1 F2700 E-5
;LAYER_COUNT:110
;LAYER:0
M107
G1 F300 Z0.7
G0 F6000 X93.485 Y93.602 Z0.7
;TYPE:SKIRT
G1 F300 Z0.2
G1 F2700 E0
G1 F600 X93.602 Y93.485 E0.0055
G1 X94.188 Y92.955 E0.03178
G1 X94.824 Y92.488 E0.05803
G1 X95.504 Y92.087 E0.08428
G1 X96.222 Y91.757 E0.11057
G1 X96.969 Y91.502 E0.13682
G1 X97.738 Y91.323 E0.16308
G1 X98.522 Y91.223 E0.18937
G1 X99.117 Y91.2 E0.20917
G1 X120.883 Y91.2 E0.93311
G1 X121.672 Y91.24 E0.95939
G1 X122.452 Y91.359 E0.98563
G1 X123.217 Y91.557 E1.01191
G1 X123.957 Y91.831 E1.03816
G1 X124.666 Y92.179 E1.06443
G1 X125.337 Y92.597 E1.09072
G1 X125.961 Y93.08 E1.11697
G1 X126.398 Y93.485 E1.13678
G1 X126.515 Y93.602 E1.14229
G1 X127.045 Y94.188 E1.16857
G1 X127.512 Y94.824 E1.19481
G1 X127.913 Y95.504 E1.22107
G1 X128.243 Y96.222 E1.24735
G1 X128.498 Y96.969 E1.2736
G1 X128.677 Y97.738 E1.29986
G1 X128.777 Y98.522 E1.32615
G1 X128.8 Y99.117 E1.34595
G1 X128.8 Y120.883 E2.06989
G1 X128.76 Y121.672 E2.09617
G1 X128.641 Y122.452 E2.12241
G1 X128.443 Y123.217 E2.1487
G1 X128.169 Y123.957 E2.17494
G1 X127.821 Y124.666 E2.20121
G1 X127.403 Y125.337 E2.2275
G1 X126.92 Y125.961 E2.25375
G1 X126.515 Y126.398 E2.27357
G1 X126.398 Y126.515 E2.27907
G1 X125.812 Y127.045 E2.30535
G1 X125.176 Y127.512 E2.33159
G1 X124.496 Y127.913 E2.35785
G1 X123.778 Y128.243 E2.38413
G1 X123.031 Y128.498 E2.41038
G1 X122.262 Y128.677 E2.43665
G1 X121.478 Y128.777 E2.46293
G1 X120.883 Y128.8 E2.48274
G1 X99.117 Y128.8 E3.20668
G1 X98.328 Y128.76 E3.23295
G1 X97.548 Y128.641 E3.2592
G1 X96.783 Y128.443 E3.28548
G1 X96.043 Y128.169 E3.31172
G1 X95.334 Y127.821 E3.33799
G1 X94.663 Y127.403 E3.36429
G1 X94.039 Y126.92 E3.39053
G1 X93.602 Y126.515 E3.41035
G1 X93.485 Y126.398 E3.41585
G1 X92.955 Y125.812 E3.44213
G1 X92.488 Y125.176 E3.46838
G1 X92.087 Y124.496 E3.49463
G1 X91.757 Y123.778 E3.52091
G1 X91.502 Y123.031 E3.54717
G1 X91.323 Y122.262 E3.57343
G1 X91.223 Y121.478 E3.59972
G1 X91.2 Y120.883 E3.61952
G1 X91.2 Y99.117 E4.34346
G1 X91.24 Y98.328 E4.36974
G1 X91.359 Y97.548 E4.39598
G1 X91.557 Y96.783 E4.42226
G1 X91.831 Y96.043 E4.44851
G1 X92.179 Y95.334 E4.47478
G1 X92.597 Y94.663 E4.50107
G1 X93.08 Y94.039 E4.52731
G1 X93.485 Y93.602 E4.54713
G0 F6000 X93.767 Y93.884
G1 F600 X93.884 Y93.767 E4.55263
G1 X94.456 Y93.253 E4.57821
G1 X95.078 Y92.8 E4.60381
G1 X95.743 Y92.414 E4.62938
G1 X96.445 Y92.099 E4.65497
G1 X97.176 Y91.859 E4.68056
G1 X97.927 Y91.696 E4.70612
G1 X98.692 Y91.612 E4.73172
G1 X99.117 Y91.6 E4.74586
G1 X120.883 Y91.6 E5.4698
G1 X121.651 Y91.64 E5.49538
G1 X122.411 Y91.759 E5.52096
G1 X123.154 Y91.957 E5.54654
G1 X123.873 Y92.231 E5.57213
G1 X124.559 Y92.578 E5.5977
G1 X125.206 Y92.994 E5.62328
G1 X125.806 Y93.475 E5.64886
G1 X126.116 Y93.767 E5.66302
G1 X126.233 Y93.884 E5.66853
G1 X126.747 Y94.456 E5.6941
G1 X127.2 Y95.078 E5.7197
G1 X127.586 Y95.743 E5.74527
G1 X127.901 Y96.445 E5.77086
G1 X128.141 Y97.176 E5.79645
G1 X128.304 Y97.927 E5.82201
G1 X128.388 Y98.692 E5.84761
G1 X128.4 Y99.117 E5.86175
G1 X128.4 Y120.883 E6.58569
G1 X128.36 Y121.651 E6.61127
G1 X128.241 Y122.411 E6.63686
G1 X128.043 Y123.154 E6.66243
G1 X127.769 Y123.873 E6.68802
G1 X127.422 Y124.559 E6.71359
G1 X127.006 Y125.206 E6.73917
G1 X126.525 Y125.806 E6.76475
G1 X126.233 Y126.116 E6.77892
G1 X126.116 Y126.233 E6.78442
G1 X125.544 Y126.747 E6.81
G1 X124.922 Y127.2 E6.83559
G1 X124.257 Y127.586 E6.86116
G1 X123.555 Y127.901 E6.88676
G1 X122.824 Y128.141 E6.91235
G1 X122.073 Y128.304 E6.93791
G1 X121.308 Y128.388 E6.9635
G1 X120.883 Y128.4 E6.97764
G1 X99.117 Y128.4 E7.70158
G1 X98.349 Y128.36 E7.72716
G1 X97.589 Y128.241 E7.75275
G1 X96.846 Y128.043 E7.77832
G1 X96.127 Y127.769 E7.80391
G1 X95.441 Y127.422 E7.82948
G1 X94.794 Y127.006 E7.85507
G1 X94.194 Y126.525 E7.88064
G1 X93.884 Y126.233 E7.89481
G1 X93.767 Y126.116 E7.90031
G1 X93.253 Y125.544 E7.92589
G1 X92.8 Y124.922 E7.95148
G1 X92.414 Y124.257 E7.97706
G1 X92.099 Y123.555 E8.00265
G1 X91.859 Y122.824 E8.02824
G1 X91.696 Y122.073 E8.0538
G1 X91.612 Y121.308 E8.07939
G1 X91.6 Y120.883 E8.09354
G1 X91.6 Y99.117 E8.81748
G1 X91.64 Y98.349 E8.84305
G1 X91.759 Y97.589 E8.86864
G1 X91.957 Y96.846 E8.89421
G1 X92.231 Y96.127 E8.91981
G1 X92.578 Y95.441 E8.94538
G1 X92.994 Y94.794 E8.97096
G1 X93.475 Y94.194 E8.99654
G1 X93.767 Y93.884 E9.0107
G0 F6000 X94.05 Y94.167
G1 F600 X94.167 Y94.05 E9.0162
G1 X94.724 Y93.55 E9.0411
G1 X95.33 Y93.113 E9.06595
G1 X95.98 Y92.742 E9.09084
G1 X96.666 Y92.443 E9.11573
G1 X97.38 Y92.219 E9.14062
G1 X98.113 Y92.072 E9.16548
G1 X99.117 Y92 E9.19896
G1 X120.883 Y92 E9.9229
G1 X121.63 Y92.04 E9.94778
G1 X122.368 Y92.159 E9.97265
G1 X123.09 Y92.357 E9.99755
G1 X123.786 Y92.63 E10.02241
G1 X124.449 Y92.977 E10.0473
G1 X125.072 Y93.392 E10.0722
G1 X125.833 Y94.05 E10.10566
G1 X125.95 Y94.167 E10.11116
G1 X126.45 Y94.724 E10.13606
G1 X126.887 Y95.33 E10.16091
G1 X127.258 Y95.98 E10.1858
G1 X127.557 Y96.666 E10.21069
G1 X127.781 Y97.38 E10.23558
G1 X127.928 Y98.113 E10.26045
G1 X128 Y99.117 E10.29393
G1 X128 Y120.883 E11.01787
G1 X127.96 Y121.63 E11.04275
G1 X127.841 Y122.368 E11.06761
G1 X127.643 Y123.09 E11.09251
G1 X127.37 Y123.786 E11.11738
G1 X127.023 Y124.449 E11.14226
G1 X126.608 Y125.072 E11.16716
G1 X125.95 Y125.833 E11.20062
G1 X125.833 Y125.95 E11.20613
G1 X125.276 Y126.45 E11.23102
G1 X124.67 Y126.887 E11.25587
G1 X124.02 Y127.258 E11.28076
G1 X123.334 Y127.557 E11.30565
G1 X122.62 Y127.781 E11.33054
G1 X121.887 Y127.928 E11.35541
G1 X120.883 Y128 E11.38889
G1 X99.117 Y128 E12.11283
G1 X98.37 Y127.96 E12.13771
G1 X97.632 Y127.841 E12.16257
G1 X96.91 Y127.643 E12.18747
G1 X96.214 Y127.37 E12.21234
G1 X95.551 Y127.023 E12.23723
G1 X94.928 Y126.608 E12.26212
G1 X94.167 Y125.95 E12.29558
G1 X94.05 Y125.833 E12.30109
G1 X93.55 Y125.276 E12.32598
G1 X93.113 Y124.67 E12.35083
G1 X92.742 Y124.02 E12.37572
G1 X92.443 Y123.334 E12.40061
G1 X92.219 Y122.62 E12.4255
G1 X92.072 Y121.887 E12.45037
G1 X92 Y120.883 E12.48385
G1 X92 Y99.117 E13.20779
G1 X92.04 Y98.37 E13.23267
G1 X92.159 Y97.632 E13.25753
G1 X92.357 Y96.91 E13.28243
G1 X92.63 Y96.214 E13.3073
G1 X92.977 Y95.551 E13.33219
G1 X93.392 Y94.928 E13.35708
G1 X94.05 Y94.167 E13.39055
G0 F6000 X94.333 Y94.45
G1 F600 X94.45 Y94.333 E13.39605
G1 X94.991 Y93.849 E13.42019
G1 X95.582 Y93.426 E13.44437
G1 X96.216 Y93.072 E13.46852
G1 X96.885 Y92.789 E13.49268
G1 X97.581 Y92.581 E13.51684
G1 X98.296 Y92.451 E13.54101
G1 X99.117 Y92.4 E13.56837
G1 X120.883 Y92.4 E14.29231
G1 X121.608 Y92.44 E14.31646
G1 X122.325 Y92.559 E14.34063
G1 X123.024 Y92.757 E14.36479
G1 X123.697 Y93.03 E14.38895
G1 X124.336 Y93.375 E14.4131
G1 X124.933 Y93.789 E14.43727
G1 X125.55 Y94.333 E14.46463
G1 X125.667 Y94.45 E14.47013
G1 X126.151 Y94.991 E14.49427
G1 X126.574 Y95.582 E14.51845
G1 X126.928 Y96.216 E14.5426
G1 X127.211 Y96.885 E14.56676
G1 X127.419 Y97.581 E14.59092
G1 X127.549 Y98.296 E14.61509
G1 X127.6 Y99.117 E14.64245
G1 X127.6 Y120.883 E15.36639
G1 X127.56 Y121.608 E15.39054
G1 X127.441 Y122.325 E15.41471
G1 X127.243 Y123.024 E15.43888
G1 X126.97 Y123.697 E15.46303
G1 X126.625 Y124.336 E15.48718
G1 X126.211 Y124.933 E15.51135
G1 X125.667 Y125.55 E15.53871
G1 X125.55 Y125.667 E15.54421
G1 X125.009 Y126.151 E15.56835
G1 X124.418 Y126.574 E15.59253
G1 X123.784 Y126.928 E15.61668
G1 X123.115 Y127.211 E15.64084
G1 X122.419 Y127.419 E15.665
G1 X121.704 Y127.549 E15.68917
G1 X120.883 Y127.6 E15.71653
G1 X99.117 Y127.6 E16.44047
G1 X98.392 Y127.56 E16.46462
G1 X97.675 Y127.441 E16.48879
G1 X96.976 Y127.243 E16.51296
G1 X96.303 Y126.97 E16.53711
G1 X95.664 Y126.625 E16.56126
G1 X95.067 Y126.211 E16.58543
G1 X94.45 Y125.667 E16.61279
G1 X94.333 Y125.55 E16.61829
G1 X93.849 Y125.009 E16.64243
G1 X93.426 Y124.418 E16.66661
G1 X93.072 Y123.784 E16.69076
G1 X92.789 Y123.115 E16.71492
G1 X92.581 Y122.419 E16.73908
G1 X92.451 Y121.704 E16.76325
G1 X92.4 Y120.883 E16.79061
G1 X92.4 Y99.117 E17.51455
G1 X92.44 Y98.392 E17.5387
G1 X92.559 Y97.675 E17.56287
G1 X92.757 Y96.976 E17.58704
G1 X93.03 Y96.303 E17.61119
G1 X93.375 Y95.664 E17.63535
G1 X93.789 Y95.067 E17.65951
G1 X94.333 Y94.45 E17.68687
G0 F6000 X94.616 Y94.733
G1 F600 X94.733 Y94.616 E17.69237
G1 X95.258 Y94.147 E17.71579
G1 X95.833 Y93.741 E17.7392
G1 X96.451 Y93.403 E17.76263
G1 X97.102 Y93.136 E17.78603
G1 X97.78 Y92.946 E17.80945
G1 X98.475 Y92.833 E17.83287
G1 X99.117 Y92.8 E17.85425
G1 X120.883 Y92.8 E18.57819
G1 X121.586 Y92.84 E18.60161
G1 X122.28 Y92.959 E18.62503
G1 X122.955 Y93.157 E18.64842
G1 X123.604 Y93.429 E18.67183
G1 X124.218 Y93.774 E18.69525
G1 X124.789 Y94.185 E18.71865
G1 X125.267 Y94.616 E18.74006
G1 X125.384 Y94.733 E18.74556
G1 X125.853 Y95.258 E18.76898
G1 X126.259 Y95.833 E18.79239
G1 X126.597 Y96.451 E18.81582
G1 X126.864 Y97.102 E18.83922
G1 X127.054 Y97.78 E18.86264
G1 X127.167 Y98.475 E18.88606
G1 X127.2 Y99.117 E18.90744
G1 X127.2 Y120.883 E19.63138
G1 X127.16 Y121.586 E19.6548
G1 X127.041 Y122.28 E19.67822
G1 X126.843 Y122.955 E19.70161
G1 X126.571 Y123.604 E19.72502
G1 X126.226 Y124.218 E19.74844
G1 X125.815 Y124.789 E19.77184
G1 X125.384 Y125.267 E19.79325
G1 X125.267 Y125.384 E19.79875
G1 X124.742 Y125.853 E19.82217
G1 X124.167 Y126.259 E19.84558
G1 X123.549 Y126.597 E19.86901
G1 X122.898 Y126.864 E19.89241
G1 X122.22 Y127.054 E19.91583
G1 X121.525 Y127.167 E19.93925
G1 X120.883 Y127.2 E19.96063
G1 X99.117 Y127.2 E20.68457
G1 X98.414 Y127.16 E20.70799
G1 X97.72 Y127.041 E20.73141
G1 X97.045 Y126.843 E20.75481
G1 X96.396 Y126.571 E20.77821
G1 X95.782 Y126.226 E20.80164
G1 X95.211 Y125.815 E20.82504
G1 X94.733 Y125.384 E20.84644
G1 X94.616 Y125.267 E20.85195
G1 X94.147 Y124.742 E20.87536
G1 X93.741 Y124.167 E20.89877
G1 X93.403 Y123.549 E20.9222
G1 X93.136 Y122.898 E20.9456
G1 X92.946 Y122.22 E20.96902
G1 X92.833 Y121.525 E20.99244
G1 X92.8 Y120.883 E21.01382
G1 X92.8 Y99.117 E21.73776
G1 X92.84 Y98.414 E21.76118
G1 X92.959 Y97.72 E21.7846
G1 X93.157 Y97.045 E21.808
G1 X93.429 Y96.396 E21.8314
G1 X93.774 Y95.782 E21.85483
G1 X94.185 Y95.211 E21.87823
G1 X94.616 Y94.733 E21.89963
G0 F6000 X94.899 Y95.016
G1 F600 X95.016 Y94.899 E21.90514
G1 X95.525 Y94.446 E21.9278
G1 X96.083 Y94.057 E21.95042
G1 X96.683 Y93.735 E21.97307
G1 X97.317 Y93.486 E21.99573
G1 X97.976 Y93.313 E22.01839
G1 X98.65 Y93.219 E22.04102
G1 X99.117 Y93.2 E22.05657
G1 X120.883 Y93.2 E22.78051
G1 X121.563 Y93.24 E22.80316
G1 X122.233 Y93.359 E22.8258
G1 X122.885 Y93.556 E22.84845
G1 X123.509 Y93.828 E22.87109
G1 X124.097 Y94.172 E22.89375
G1 X124.641 Y94.582 E22.91641
G1 X124.984 Y94.899 E22.93194
G1 X125.101 Y95.016 E22.93744
G1 X125.554 Y95.525 E22.96011
G1 X125.943 Y96.083 E22.98273
G1 X126.265 Y96.683 E23.00538
G1 X126.514 Y97.317 E23.02803
G1 X126.687 Y97.976 E23.0507
G1 X126.781 Y98.65 E23.07333
G1 X126.8 Y99.117 E23.08888
G1 X126.8 Y120.883 E23.81282
G1 X126.76 Y121.563 E23.83547
G1 X126.641 Y122.233 E23.8581
G1 X126.444 Y122.885 E23.88076
G1 X126.172 Y123.509 E23.9034
G1 X125.828 Y124.097 E23.92606
G1 X125.418 Y124.641 E23.94871
G1 X125.101 Y124.984 E23.96425
G1 X124.984 Y125.101 E23.96975
G1 X124.475 Y125.554 E23.99241
G1 X123.917 Y125.943 E24.01504
G1 X123.317 Y126.265 E24.03769
G1 X122.683 Y126.514 E24.06034
G1 X122.024 Y126.687 E24.083
G1 X121.35 Y126.781 E24.10564
G1 X120.883 Y126.8 E24.12118
G1 X99.117 Y126.8 E24.84512
G1 X98.437 Y126.76 E24.86778
G1 X97.767 Y126.641 E24.89041
G1 X97.115 Y126.444 E24.91306
G1 X96.491 Y126.172 E24.93571
G1 X95.903 Y125.828 E24.95836
G1 X95.359 Y125.418 E24.98102
G1 X95.016 Y125.101 E24.99655
G1 X94.899 Y124.984 E25.00206
G1 X94.446 Y124.475 E25.02472
G1 X94.057 Y123.917 E25.04734
G1 X93.735 Y123.317 E25.06999
G1 X93.486 Y122.683 E25.09265
G1 X93.313 Y122.024 E25.11531
G1 X93.219 Y121.35 E25.13794
G1 X93.2 Y120.883 E25.15349
G1 X93.2 Y99.117 E25.87743
G1 X93.24 Y98.437 E25.90008
G1 X93.359 Y97.767 E25.92272
G1 X93.556 Y97.115 E25.94537
G1 X93.828 Y96.491 E25.96801
G1 X94.172 Y95.903 E25.99067
G1 X94.582 Y95.359 E26.01333
G1 X94.899 Y95.016 E26.02886
G0 F6000 X95.182 Y95.299
G1 F600 X95.299 Y95.182 E26.03436
G1 X95.791 Y94.746 E26.05623
G1 X96.332 Y94.374 E26.07807
G1 X96.914 Y94.07 E26.09991
G1 X97.529 Y93.839 E26.12176
G1 X98.168 Y93.684 E26.14362
G1 X99.117 Y93.6 E26.17531
G1 X120.883 Y93.6 E26.89925
G1 X121.539 Y93.64 E26.92111
G1 X122.185 Y93.759 E26.94296
G1 X122.812 Y93.956 E26.96482
G1 X123.41 Y94.228 E26.98667
G1 X123.971 Y94.57 E27.00852
G1 X124.701 Y95.182 E27.04021
G1 X124.818 Y95.299 E27.04571
G1 X125.254 Y95.791 E27.06757
G1 X125.626 Y96.332 E27.08941
G1 X125.93 Y96.914 E27.11125
G1 X126.161 Y97.529 E27.1331
G1 X126.316 Y98.168 E27.15497
G1 X126.4 Y99.117 E27.18666
G1 X126.4 Y120.883 E27.9106
G1 X126.36 Y121.539 E27.93246
G1 X126.241 Y122.185 E27.9543
G1 X126.044 Y122.812 E27.97616
G1 X125.772 Y123.41 E27.99801
G1 X125.43 Y123.971 E28.01987
G1 X124.818 Y124.701 E28.05155
G1 X124.701 Y124.818 E28.05705
G1 X124.209 Y125.254 E28.07892
G1 X123.668 Y125.626 E28.10075
G1 X123.086 Y125.93 E28.12259
G1 X122.471 Y126.161 E28.14444
G1 X121.832 Y126.316 E28.16631
G1 X120.883 Y126.4 E28.198
G1 X99.117 Y126.4 E28.92194
G1 X98.461 Y126.36 E28.9438
G1 X97.815 Y126.241 E28.96565
G1 X97.188 Y126.044 E28.98751
G1 X96.59 Y125.772 E29.00936
G1 X96.029 Y125.43 E29.03121
G1 X95.299 Y124.818 E29.06289
G1 X95.182 Y124.701 E29.0684
G1 X94.746 Y124.209 E29.09026
G1 X94.374 Y123.668 E29.1121
G1 X94.07 Y123.086 E29.13394
G1 X93.839 Y122.471 E29.15579
G1 X93.684 Y121.832 E29.17766
G1 X93.6 Y120.883 E29.20934
G1 X93.6 Y99.117 E29.93329
G1 X93.64 Y98.461 E29.95514
G1 X93.759 Y97.815 E29.97699
G1 X93.956 Y97.188 E29.99885
G1 X94.228 Y96.59 E30.0207
G1 X94.57 Y96.029 E30.04255
G1 X95.182 Y95.299 E30.07424
G0 F6000 X95.464 Y95.581
G1 F600 X95.581 Y95.464 E30.07974
G1 X96.056 Y95.047 E30.10076
G1 X96.579 Y94.692 E30.12179
G1 X97.143 Y94.406 E30.14282
G1 X97.738 Y94.194 E30.16383
G1 X98.356 Y94.058 E30.18488
G1 X99.117 Y94 E30.21026
G1 X120.883 Y94 E30.9342
G1 X121.514 Y94.04 E30.95523
G1 X122.135 Y94.159 E30.97626
G1 X122.735 Y94.356 E30.99726
G1 X123.307 Y94.627 E31.01832
G1 X123.839 Y94.967 E31.03932
G1 X124.419 Y95.464 E31.06472
G1 X124.536 Y95.581 E31.07022
G1 X124.953 Y96.056 E31.09125
G1 X125.308 Y96.579 E31.11227
G1 X125.594 Y97.143 E31.1333
G1 X125.806 Y97.738 E31.15431
G1 X125.942 Y98.356 E31.17536
G1 X126 Y99.117 E31.20074
G1 X126 Y120.883 E31.92468
G1 X125.96 Y121.514 E31.94571
G1 X125.841 Y122.135 E31.96674
G1 X125.644 Y122.735 E31.98775
G1 X125.373 Y123.307 E32.0088
G1 X125.033 Y123.839 E32.0298
G1 X124.536 Y124.419 E32.0552
G1 X124.419 Y124.536 E32.0607
G1 X123.944 Y124.953 E32.08173
G1 X123.421 Y125.308 E32.10275
G1 X122.857 Y125.594 E32.12378
G1 X122.262 Y125.806 E32.14479
G1 X121.644 Y125.942 E32.16584
G1 X120.883 Y126 E32.19122
G1 X99.117 Y126 E32.91516
G1 X98.486 Y125.96 E32.93619
G1 X97.865 Y125.841 E32.95722
G1 X97.265 Y125.644 E32.97823
G1 X96.693 Y125.373 E32.99928
G1 X96.161 Y125.033 E33.02028
G1 X95.581 Y124.536 E33.04568
G1 X95.464 Y124.419 E33.05119
G1 X95.047 Y123.944 E33.07221
G1 X94.692 Y123.421 E33.09323
G1 X94.406 Y122.857 E33.11427
G1 X94.194 Y122.262 E33.13527
G1 X94.058 Y121.644 E33.15632
G1 X94 Y120.883 E33.18171
G1 X94 Y99.117 E33.90565
G1 X94.04 Y98.486 E33.92667
G1 X94.159 Y97.865 E33.9477
