;FLAVOR:Marlin
;TIME:4209
;Filament used: 3.46159m
;Layer height: 0.2
;MINX:84.2
;MINY:90.2
;MINZ:0.2
;MAXX:135.8
;MAXY:129.8
;MAXZ:22.5
;Generated with Cura_SteamEngine master
M140 S70
M105
M190 S70
M104 S200
M105
M109 S200
M82 ;absolute extrusion mode
M201 X500.00 Y500.00 Z100.00 E5000.00 ;Setup machine max acceleration
M203 X500.00 Y500.00 Z10.00 E50.00 ;Setup machine max feedrate
M204 P500.00 R1000.00 T500.00 ;Setup Print/Retract/Travel acceleration
M205 X8.00 Y8.00 Z0.40 E5.00 ;Setup Jerk
M220 S100 ;Reset Feedrate
M221 S100 ;Reset Flowrate

G28 ;Home

G92 E0 ;Reset Extruder
G1 Z2.0 F3000 ;Move Z Axis up
G1 X10.1 Y20 Z0.28 F5000.0 ;Move to start position
G1 X10.1 Y200.0 Z0.28 F1500.0 E15 ;Draw the first line
G1 X10.4 Y200.0 Z0.28 F5000.0 ;Move to side a little
G1 X10.4 Y20 Z0.28 F1500.0 E30 ;Draw the second line
G92 E0 ;Reset Extruder
G1 Z2.0 F3000 ;Move Z Axis up

G92 E0
G92 E0
G1 F2700 E-5
;LAYER_COUNT:110
;LAYER:0
M107
G1 F300 Z0.7
G0 F6000 X86.602 Y92.485 Z0.7
;TYPE:SKIRT
G1 F300 Z0.2
G1 F2700 E0
G1 F600 X87.188 Y91.955 E0.02628
G1 X87.824 Y91.488 E0.05252
G1 X88.504 Y91.087 E0.07878
G1 X89.222 Y90.757 E0.10506
G1 X89.969 Y90.502 E0.13132
G1 X90.738 Y90.323 E0.15758
G1 X91.522 Y90.223 E0.18386
G1 X92.117 Y90.2 E0.20367
G1 X127.883 Y90.2 E1.39325
G1 X128.672 Y90.24 E1.41953
G1 X129.452 Y90.359 E1.44577
G1 X130.217 Y90.557 E1.47205
G1 X130.957 Y90.831 E1.4983
G1 X131.666 Y91.179 E1.52457
G1 X132.337 Y91.597 E1.55086
G1 X132.961 Y92.08 E1.5771
G1 X133.398 Y92.485 E1.59692
G1 X133.515 Y92.602 E1.60242
G1 X134.045 Y93.188 E1.6287
G1 X134.512 Y93.824 E1.65495
G1 X134.913 Y94.504 E1.6812
G1 X135.243 Y95.222 E1.70749
G1 X135.498 Y95.969 E1.73374
G1 X135.677 Y96.738 E1.76
G1 X135.777 Y97.522 E1.78629
G1 X135.8 Y98.117 E1.80609
G1 X135.8 Y121.883 E2.59655
G1 X135.76 Y122.672 E2.62283
G1 X135.641 Y123.452 E2.64907
G1 X135.443 Y124.217 E2.67535
G1 X135.169 Y124.957 E2.7016
G1 X134.821 Y125.666 E2.72787
G1 X134.403 Y126.337 E2.75416
G1 X133.92 Y126.961 E2.78041
G1 X133.515 Y127.398 E2.80022
G1 X133.398 Y127.515 E2.80573
G1 X132.812 Y128.045 E2.83201
G1 X132.176 Y128.512 E2.85825
G1 X131.496 Y128.913 E2.88451
G1 X130.778 Y129.243 E2.91079
G1 X130.031 Y129.498 E2.93704
G1 X129.262 Y129.677 E2.9633
G1 X128.478 Y129.777 E2.98959
G1 X127.883 Y129.8 E3.0094
G1 X92.117 Y129.8 E4.19898
G1 X91.328 Y129.76 E4.22525
G1 X90.548 Y129.641 E4.2515
G1 X89.783 Y129.443 E4.27778
G1 X89.043 Y129.169 E4.30402
G1 X88.334 Y128.821 E4.33029
G1 X87.663 Y128.403 E4.35659
G1 X87.039 Y127.92 E4.38283
G1 X86.602 Y127.515 E4.40265
G1 X86.485 Y127.398 E4.40815
G1 X85.955 Y126.812 E4.43443
G1 X85.488 Y126.176 E4.46068
G1 X85.087 Y125.496 E4.48693
G1 X84.757 Y124.778 E4.51321
G1 X84.502 Y124.031 E4.53947
G1 X84.323 Y123.262 E4.56573
G1 X84.223 Y122.478 E4.59202
G1 X84.2 Y121.883 E4.61182
G1 X84.2 Y98.117 E5.40228
G1 X84.24 Y97.328 E5.42856
G1 X84.359 Y96.548 E5.4548
G1 X84.557 Y95.783 E5.48108
G1 X84.831 Y95.043 E5.50733
G1 X85.179 Y94.334 E5.5336
G1 X85.597 Y93.663 E5.55989
G1 X86.08 Y93.039 E5.58614
G1 X86.485 Y92.602 E5.60595
G1 X86.602 Y92.485 E5.61146
G0 F6000 X86.884 Y92.767
G1 F600 X87.456 Y92.253 E5.63703
G1 X88.078 Y91.8 E5.66263
G1 X88.743 Y91.414 E5.6882
G1 X89.445 Y91.099 E5.71379
G1 X90.176 Y90.859 E5.73938
G1 X90.927 Y90.696 E5.76494
G1 X91.692 Y90.612 E5.79054
G1 X92.117 Y90.6 E5.80468
G1 X127.883 Y90.6 E6.99426
G1 X128.651 Y90.64 E7.01984
G1 X129.411 Y90.759 E7.04543
G1 X130.154 Y90.957 E7.071
G1 X130.873 Y91.231 E7.09659
G1 X131.559 Y91.578 E7.12216
G1 X132.206 Y91.994 E7.14775
G1 X132.806 Y92.475 E7.17332
G1 X133.116 Y92.767 E7.18749
G1 X133.233 Y92.884 E7.19299
G1 X133.747 Y93.456 E7.21857
G1 X134.2 Y94.078 E7.24416
G1 X134.586 Y94.743 E7.26973
G1 X134.901 Y95.445 E7.29533
G1 X135.141 Y96.176 E7.32092
G1 X135.304 Y96.927 E7.34648
G1 X135.388 Y97.692 E7.37207
G1 X135.4 Y98.117 E7.38621
G1 X135.4 Y121.883 E8.17667
G1 X135.36 Y122.651 E8.20225
G1 X135.241 Y123.411 E8.22784
G1 X135.043 Y124.154 E8.25341
G1 X134.769 Y124.873 E8.279
G1 X134.422 Y125.559 E8.30457
G1 X134.006 Y126.206 E8.33016
G1 X133.525 Y126.806 E8.35573
G1 X133.233 Y127.116 E8.3699
G1 X133.116 Y127.233 E8.3754
G1 X132.544 Y127.747 E8.40098
G1 X131.922 Y128.2 E8.42657
G1 X131.257 Y128.586 E8.45215
G1 X130.555 Y128.901 E8.47774
G1 X129.824 Y129.141 E8.50333
G1 X129.073 Y129.304 E8.52889
G1 X128.308 Y129.388 E8.55449
G1 X127.883 Y129.4 E8.56863
G1 X92.117 Y129.4 E9.75821
G1 X91.349 Y129.36 E9.78379
G1 X90.589 Y129.241 E9.80937
G1 X89.846 Y129.043 E9.83495
G1 X89.127 Y128.769 E9.86054
G1 X88.441 Y128.422 E9.88611
G1 X87.794 Y128.006 E9.91169
G1 X87.194 Y127.525 E9.93727
G1 X86.884 Y127.233 E9.95143
G1 X86.767 Y127.116 E9.95694
G1 X86.253 Y126.544 E9.98251
G1 X85.8 Y125.922 E10.00811
G1 X85.414 Y125.257 E10.03368
G1 X85.099 Y124.555 E10.05927
G1 X84.859 Y123.824 E10.08486
G1 X84.696 Y123.073 E10.11042
G1 X84.612 Y122.308 E10.13602
G1 X84.6 Y121.883 E10.15016
G1 X84.6 Y98.117 E10.94062
G1 X84.64 Y97.349 E10.9662
G1 X84.759 Y96.589 E10.99178
G1 X84.957 Y95.846 E11.01736
G1 X85.231 Y95.127 E11.04295
G1 X85.578 Y94.441 E11.06852
G1 X85.994 Y93.794 E11.0941
G1 X86.475 Y93.194 E11.11968
G1 X86.767 Y92.884 E11.13385
G1 X86.884 Y92.767 E11.13935
G0 F6000 X87.167 Y93.05
G1 F600 X87.724 Y92.55 E11.16424
G1 X88.33 Y92.113 E11.18909
G1 X88.98 Y91.742 E11.21399
G1 X89.666 Y91.443 E11.23888
G1 X90.38 Y91.219 E11.26377
G1 X91.113 Y91.072 E11.28863
G1 X92.117 Y91 E11.32211
G1 X127.883 Y91 E12.51169
G1 X128.63 Y91.04 E12.53657
G1 X129.368 Y91.159 E12.56144
G1 X130.09 Y91.357 E12.58634
G1 X130.786 Y91.63 E12.6112
G1 X131.449 Y91.977 E12.63609
G1 X132.072 Y92.392 E12.66099
G1 X132.833 Y93.05 E12.69445
G1 X132.95 Y93.167 E12.69995
G1 X133.45 Y93.724 E12.72485
G1 X133.887 Y94.33 E12.7497
G1 X134.258 Y94.98 E12.77459
G1 X134.557 Y95.666 E12.79948
G1 X134.781 Y96.38 E12.82437
G1 X134.928 Y97.113 E12.84923
G1 X135 Y98.117 E12.88271
G1 X135 Y121.883 E13.67317
G1 X134.96 Y122.63 E13.69805
G1 X134.841 Y123.368 E13.72292
G1 X134.643 Y124.09 E13.74782
G1 X134.37 Y124.786 E13.77268
G1 X134.023 Y125.449 E13.79757
G1 X133.608 Y126.072 E13.82247
G1 X132.95 Y126.833 E13.85593
G1 X132.833 Y126.95 E13.86143
G1 X132.276 Y127.45 E13.88633
G1 X131.67 Y127.887 E13.91118
G1 X131.02 Y128.258 E13.93607
G1 X130.334 Y128.557 E13.96096
G1 X129.62 Y128.781 E13.98585
G1 X128.887 Y128.928 E14.01071
G1 X127.883 Y129 E14.04419
G1 X92.117 Y129 E15.23378
G1 X91.37 Y128.96 E15.25866
G1 X90.632 Y128.841 E15.28352
G1 X89.91 Y128.643 E15.30842
G1 X89.214 Y128.37 E15.33329
G1 X88.551 Y128.023 E15.35818
G1 X87.928 Y127.608 E15.38307
G1 X87.167 Y126.95 E15.41653
G1 X87.05 Y126.833 E15.42204
G1 X86.55 Y126.276 E15.44693
G1 X86.113 Y125.67 E15.47178
G1 X85.742 Y125.02 E15.49667
G1 X85.443 Y124.334 E15.52156
G1 X85.219 Y123.62 E15.54645
G1 X85.072 Y122.887 E15.57132
G1 X85 Y121.883 E15.6048
G1 X85 Y98.117 E16.39526
G1 X85.04 Y97.37 E16.42014
G1 X85.159 Y96.632 E16.445
G1 X85.357 Y95.91 E16.4699
G1 X85.63 Y95.214 E16.49477
G1 X85.977 Y94.551 E16.51966
G1 X86.392 Y93.928 E16.54455
G1 X87.05 Y93.167 E16.57801
G1 X87.167 Y93.05 E16.58352
G0 F6000 X87.45 Y93.333
G1 F600 X87.991 Y92.849 E16.60766
G1 X88.582 Y92.426 E16.63183
G1 X89.216 Y92.072 E16.65599
G1 X89.885 Y91.789 E16.68015
G1 X90.581 Y91.581 E16.70431
G1 X91.296 Y91.451 E16.72848
G1 X92.117 Y91.4 E16.75584
G1 X127.883 Y91.4 E17.94542
G1 X128.608 Y91.44 E17.96957
G1 X129.325 Y91.559 E17.99374
G1 X130.024 Y91.757 E18.01791
G1 X130.697 Y92.03 E18.04206
G1 X131.336 Y92.375 E18.06621
G1 X131.933 Y92.789 E18.09038
G1 X132.55 Y93.333 E18.11774
G1 X132.667 Y93.45 E18.12324
G1 X133.151 Y93.991 E18.14738
G1 X133.574 Y94.582 E18.17156
G1 X133.928 Y95.216 E18.19571
G1 X134.211 Y95.885 E18.21987
G1 X134.419 Y96.581 E18.24403
G1 X134.549 Y97.296 E18.2682
G1 X134.6 Y98.117 E18.29556
G1 X134.6 Y121.883 E19.08602
G1 X134.56 Y122.608 E19.11017
G1 X134.441 Y123.325 E19.13434
G1 X134.243 Y124.024 E19.15851
G1 X133.97 Y124.697 E19.18266
G1 X133.625 Y125.336 E19.20682
G1 X133.211 Y125.933 E19.23098
G1 X132.667 Y126.55 E19.25834
G1 X132.55 Y126.667 E19.26384
G1 X132.009 Y127.151 E19.28799
G1 X131.418 Y127.574 E19.31216
G1 X130.784 Y127.928 E19.33631
G1 X130.115 Y128.211 E19.36047
G1 X129.419 Y128.419 E19.38463
G1 X128.704 Y128.549 E19.4088
G1 X127.883 Y128.6 E19.43616
G1 X92.117 Y128.6 E20.62574
G1 X91.392 Y128.56 E20.64989
G1 X90.675 Y128.441 E20.67407
G1 X89.976 Y128.243 E20.69823
G1 X89.303 Y127.97 E20.72239
G1 X88.664 Y127.625 E20.74654
G1 X88.067 Y127.211 E20.7707
G1 X87.45 Y126.667 E20.79806
G1 X87.333 Y126.55 E20.80356
G1 X86.849 Y126.009 E20.82771
G1 X86.426 Y125.418 E20.85188
G1 X86.072 Y124.784 E20.87603
G1 X85.789 Y124.115 E20.90019
G1 X85.581 Y123.419 E20.92435
G1 X85.451 Y122.704 E20.94852
G1 X85.4 Y121.883 E20.97588
G1 X85.4 Y98.117 E21.76634
G1 X85.44 Y97.392 E21.79049
G1 X85.559 Y96.675 E21.81467
G1 X85.757 Y95.976 E21.83883
G1 X86.03 Y95.303 E21.86299
G1 X86.375 Y94.664 E21.88714
G1 X86.789 Y94.067 E21.9113
G1 X87.333 Y93.45 E21.93866
G1 X87.45 Y93.333 E21.94417
G0 F6000 X87.733 Y93.616
G1 F600 X88.258 Y93.147 E21.96758
G1 X88.833 Y92.741 E21.99099
G1 X89.451 Y92.403 E22.01442
G1 X90.102 Y92.136 E22.03782
G1 X90.78 Y91.946 E22.06124
G1 X91.475 Y91.833 E22.08466
G1 X92.117 Y91.8 E22.10604
G1 X127.883 Y91.8 E23.29562
G1 X128.586 Y91.84 E23.31904
G1 X129.28 Y91.959 E23.34246
G1 X129.955 Y92.157 E23.36586
G1 X130.604 Y92.429 E23.38926
G1 X131.218 Y92.774 E23.41269
G1 X131.789 Y93.185 E23.43609
G1 X132.267 Y93.616 E23.4575
G1 X132.384 Y93.733 E23.463
G1 X132.853 Y94.258 E23.48641
G1 X133.259 Y94.833 E23.50982
G1 X133.597 Y95.451 E23.53325
G1 X133.864 Y96.102 E23.55666
G1 X134.054 Y96.78 E23.58007
G1 X134.167 Y97.475 E23.60349
G1 X134.2 Y98.117 E23.62488
G1 X134.2 Y121.883 E24.41534
G1 X134.16 Y122.586 E24.43876
G1 X134.041 Y123.28 E24.46217
G1 X133.843 Y123.955 E24.48557
G1 X133.571 Y124.604 E24.50898
G1 X133.226 Y125.218 E24.5324
G1 X132.815 Y125.789 E24.5558
G1 X132.384 Y126.267 E24.57721
G1 X132.267 Y126.384 E24.58271
G1 X131.742 Y126.853 E24.60612
G1 X131.167 Y127.259 E24.62954
G1 X130.549 Y127.597 E24.65296
G1 X129.898 Y127.864 E24.67637
G1 X129.22 Y128.054 E24.69979
G1 X128.525 Y128.167 E24.72321
G1 X127.883 Y128.2 E24.74459
G1 X92.117 Y128.2 E25.93417
G1 X91.414 Y128.16 E25.95759
G1 X90.72 Y128.041 E25.98101
G1 X90.045 Y127.843 E26.0044
G1 X89.396 Y127.571 E26.02781
G1 X88.782 Y127.226 E26.05123
G1 X88.211 Y126.815 E26.07463
G1 X87.733 Y126.384 E26.09604
G1 X87.616 Y126.267 E26.10154
G1 X87.147 Y125.742 E26.12496
G1 X86.741 Y125.167 E26.14837
G1 X86.403 Y124.549 E26.1718
G1 X86.136 Y123.898 E26.1952
G1 X85.946 Y123.22 E26.21862
G1 X85.833 Y122.525 E26.24204
G1 X85.8 Y121.883 E26.26342
G1 X85.8 Y98.117 E27.05388
G1 X85.84 Y97.414 E27.0773
G1 X85.959 Y96.72 E27.10072
G1 X86.157 Y96.045 E27.12412
G1 X86.429 Y95.396 E27.14752
G1 X86.774 Y94.782 E27.17095
G1 X87.185 Y94.211 E27.19435
G1 X87.616 Y93.733 E27.21575
G1 X87.733 Y93.616 E27.22126
G0 F6000 X88.016 Y93.899
G1 F600 X88.525 Y93.446 E27.24392
G1 X89.083 Y93.057 E27.26654
G1 X89.683 Y92.735 E27.28919
G1 X90.317 Y92.486 E27.31185
G1 X90.976 Y92.313 E27.33451
G1 X91.65 Y92.219 E27.35714
G1 X92.117 Y92.2 E27.37269
G1 X127.883 Y92.2 E28.56227
G1 X128.563 Y92.24 E28.58492
G1 X129.233 Y92.359 E28.60756
G1 X129.885 Y92.556 E28.63021
G1 X130.509 Y92.828 E28.65285
G1 X131.097 Y93.172 E28.67551
G1 X131.641 Y93.582 E28.69817
G1 X131.984 Y93.899 E28.7137
G1 X132.101 Y94.016 E28.7192
G1 X132.554 Y94.525 E28.74187
G1 X132.943 Y95.083 E28.76449
G1 X133.265 Y95.683 E28.78714
G1 X133.514 Y96.317 E28.80979
G1 X133.687 Y96.976 E28.83246
G1 X133.781 Y97.65 E28.85509
G1 X133.8 Y98.117 E28.87064
G1 X133.8 Y121.883 E29.6611
G1 X133.76 Y122.563 E29.68375
G1 X133.641 Y123.233 E29.70638
G1 X133.444 Y123.885 E29.72904
G1 X133.172 Y124.509 E29.75168
G1 X132.828 Y125.097 E29.77434
G1 X132.418 Y125.641 E29.79699
G1 X132.101 Y125.984 E29.81253
G1 X131.984 Y126.101 E29.81803
G1 X131.475 Y126.554 E29.84069
G1 X130.917 Y126.943 E29.86332
G1 X130.317 Y127.265 E29.88597
G1 X129.683 Y127.514 E29.90862
G1 X129.024 Y127.687 E29.93128
G1 X128.35 Y127.781 E29.95392
G1 X127.883 Y127.8 E29.96946
G1 X92.117 Y127.8 E31.15904
G1 X91.437 Y127.76 E31.1817
G1 X90.767 Y127.641 E31.20433
G1 X90.115 Y127.444 E31.22699
G1 X89.491 Y127.172 E31.24963
G1 X88.903 Y126.828 E31.27229
G1 X88.359 Y126.418 E31.29494
G1 X88.016 Y126.101 E31.31048
G1 X87.899 Y125.984 E31.31598
G1 X87.446 Y125.475 E31.33864
G1 X87.057 Y124.917 E31.36127
G1 X86.735 Y124.317 E31.38392
G1 X86.486 Y123.683 E31.40657
G1 X86.313 Y123.024 E31.42923
G1 X86.219 Y122.35 E31.45187
G1 X86.2 Y121.883 E31.46741
G1 X86.2 Y98.117 E32.25787
G1 X86.24 Y97.437 E32.28053
G1 X86.359 Y96.767 E32.30316
G1 X86.556 Y96.115 E32.32581
G1 X86.828 Y95.491 E32.34845
G1 X87.172 Y94.903 E32.37111
G1 X87.582 Y94.359 E32.39377
G1 X87.899 Y94.016 E32.4093
G1 X88.016 Y93.899 E32.41481
G0 F6000 X88.299 Y94.182
G1 F600 X88.791 Y93.746 E32.43667
G1 X89.332 Y93.374 E32.45851
G1 X89.914 Y93.07 E32.48035
G1 X90.529 Y92.839 E32.5022
G1 X91.168 Y92.684 E32.52407
G1 X92.117 Y92.6 E32.55575
G1 X127.883 Y92.6 E33.74534
G1 X128.539 Y92.64 E33.7672
G1 X129.185 Y92.759 E33.78904
G1 X129.812 Y92.956 E33.8109
G1 X130.41 Y93.228 E33.83275
G1 X130.971 Y93.57 E33.85461
G1 X131.701 Y94.182 E33.88629
G1 X131.818 Y94.299 E33.89179
G1 X132.254 Y94.791 E33.91366
G1 X132.626 Y95.332 E33.93549
G1 X132.93 Y95.914 E33.95733
G1 X133.161 Y96.529 E33.97918
G1 X133.316 Y97.168 E34.00105
G1 X133.4 Y98.117 E34.03274
G1 X133.4 Y121.883 E34.8232
G1 X133.36 Y122.539 E34.84506
G1 X133.241 Y123.185 E34.86691
G1 X133.044 Y123.812 E34.88877
G1 X132.772 Y124.41 E34.91062
G1 X132.43 Y124.971 E34.93247
G1 X131.818 Y125.701 E34.96415
G1 X131.701 Y125.818 E34.96966
G1 X131.209 Y126.254 E34.99152
G1 X130.668 Y126.626 E35.01336
G1 X130.086 Y126.93 E35.0352
G1 X129.471 Y127.161 E35.05705
G1 X128.832 Y127.316 E35.07892
G1 X127.883 Y127.4 E35.11061
G1 X92.117 Y127.4 E36.30019
G1 X91.461 Y127.36 E36.32205
G1 X90.815 Y127.241 E36.34389
G1 X90.188 Y127.044 E36.36575
G1 X89.59 Y126.772 E36.3876
G1 X89.029 Y126.43 E36.40946
G1 X88.299 Y125.818 E36.44114
G1 X88.182 Y125.701 E36.44664
G1 X87.746 Y125.209 E36.46851
G1 X87.374 Y124.668 E36.49035
G1 X87.07 Y124.086 E36.51218
G1 X86.839 Y123.471 E36.53403
G1 X86.684 Y122.832 E36.5559
G1 X86.6 Y121.883 E36.58759
G1 X86.6 Y98.117 E37.37805
G1 X86.64 Y97.461 E37.39991
G1 X86.759 Y96.815 E37.42176
G1 X86.956 Y96.188 E37.44362
G1 X87.228 Y95.59 E37.46547
G1 X87.57 Y95.029 E37.48732
G1 X88.182 Y94.299 E37.519
G1 X88.299 Y94.182 E37.52451
G0 F6000 X88.581 Y94.464
G1 F600 X89.056 Y94.047 E37.54553
G1 X89.579 Y93.692 E37.56655
G1 X90.143 Y93.406 E37.58759
G1 X90.738 Y93.194 E37.6086
G1 X91.356 Y93.058 E37.62964
G1 X92.117 Y93 E37.65503
G1 X127.883 Y93 E38.84461
G1 X128.514 Y93.04 E38.86564
G1 X129.135 Y93.159 E38.88667
G1 X129.735 Y93.356 E38.90767
G1 X130.307 Y93.627 E38.92872
G1 X130.839 Y93.967 E38.94972
G1 X131.419 Y94.464 E38.97513
G1 X131.536 Y94.581 E38.98063
G1 X131.953 Y95.056 E39.00165
G1 X132.308 Y95.579 E39.02268
G1 X132.594 Y96.143 E39.04371
G1 X132.806 Y96.738 E39.06472
G1 X132.942 Y97.356 E39.08577
G1 X133 Y98.117 E39.11115
G1 X133 Y121.883 E39.90161
G1 X132.96 Y122.514 E39.92264
G1 X132.841 Y123.135 E39.94367
G1 X132.644 Y123.735 E39.96467
G1 X132.373 Y124.307 E39.98573
G1 X132.033 Y124.839 E40.00673
G1 X131.536 Y125.419 E40.03213
G1 X131.419 Y125.536 E40.03763
G1 X130.944 Y125.953 E40.05866
G1 X130.421 Y126.308 E40.07968
G1 X129.857 Y126.594 E40.10071
G1 X129.262 Y126.806 E40.12172
G1 X128.644 Y126.942 E40.14277
G1 X127.883 Y127 E40.16815
G1 X92.117 Y127 E41.35773
G1 X91.486 Y126.96 E41.37876
G1 X90.865 Y126.841 E41.39979
G1 X90.265 Y126.644 E41.4208
G1 X89.693 Y126.373 E41.44185
G1 X89.161 Y126.033 E41.46285
G1 X88.581 Y125.536 E41.48825
G1 X88.464 Y125.419 E41.49376
G1 X88.047 Y124.944 E41.51478
G1 X87.692 Y124.421 E41.5358
G1 X87.406 Y123.857 E41.55684
G1 X87.194 Y123.262 E41.57785
G1 X87.058 Y122.644 E41.59889
G1 X87 Y121.883 E41.62428
G1 X87 Y98.117 E42.41474
G1 X87.04 Y97.486 E42.43577
G1 X87.159 Y96.865 E42.4568
