;FLAVOR:Marlin
;TIME:3641
;Filament used: 2.8965m
;Layer height: 0.2
;MINX:84.2
;MINY:91.2
;MINZ:0.2
;MAXX:135.8
;MAXY:128.8
;MAXZ:22.5
;Generated with Cura_SteamEngine master
M140 S70
M105
M190 S70
M104 S200
M105
M109 S200
M82 ;absolute extrusion mode
M201 X500.00 Y500.00 Z100.00 E5000.00 ;Setup machine max acceleration
M203 X500.00 Y500.00 Z10.00 E50.00 ;Setup machine max feedrate
M204 P500.00 R1000.00 T500.00 ;Setup Print/Retract/Travel acceleration
M205 X8.00 Y8.00 Z0.40 E5.00 ;Setup Jerk
M220 S100 ;Reset Feedrate
M221 S100 ;Reset Flowrate

G28 ;Home

G92 E0 ;Reset Extruder
G1 Z2.0 F3000 ;Move Z Axis up
G1 X10.1 Y20 Z0.28 F5000.0 ;Move to start position
G1 X10.1 Y200.0 Z0.28 F1500.0 E15 ;Draw the first line
G1 X10.4 Y200.0 Z0.28 F5000.0 ;Move to side a little
G1 X10.4 Y20 Z0.28 F1500.0 E30 ;Draw the second line
G92 E0 ;Reset Extruder
G1 Z2.0 F3000 ;Move Z Axis up

G92 E0
G92 E0
G1 F2700 E-5
;LAYER_COUNT:110
;LAYER:0
M107
G1 F300 Z0.7
G0 F6000 X86.602 Y93.485 Z0.7
;TYPE:SKIRT
G1 F300 Z0.2
G1 F2700 E0
G1 F600 X87.188 Y92.955 E0.02628
G1 X87.824 Y92.488 E0.05252
G1 X88.504 Y92.087 E0.07878
G1 X89.222 Y91.757 E0.10506
G1 X89.969 Y91.502 E0.13132
G1 X90.738 Y91.323 E0.15758
G1 X91.522 Y91.223 E0.18386
G1 X92.117 Y91.2 E0.20367
G1 X127.883 Y91.2 E1.39325
G1 X128.672 Y91.24 E1.41953
G1 X129.452 Y91.359 E1.44577
G1 X130.217 Y91.557 E1.47205
G1 X130.957 Y91.831 E1.4983
G1 X131.666 Y92.179 E1.52457
G1 X132.337 Y92.597 E1.55086
G1 X132.961 Y93.08 E1.5771
G1 X133.398 Y93.485 E1.59692
G1 X133.515 Y93.602 E1.60242
G1 X134.045 Y94.188 E1.6287
G1 X134.512 Y94.824 E1.65495
G1 X134.913 Y95.504 E1.6812
G1 X135.243 Y96.222 E1.70749
G1 X135.498 Y96.969 E1.73374
G1 X135.677 Y97.738 E1.76
G1 X135.777 Y98.522 E1.78629
G1 X135.8 Y99.117 E1.80609
G1 X135.8 Y120.883 E2.53003
G1 X135.76 Y121.672 E2.55631
G1 X135.641 Y122.452 E2.58255
G1 X135.443 Y123.217 E2.60883
G1 X135.169 Y123.957 E2.63508
G1 X134.821 Y124.666 E2.66135
G1 X134.403 Y125.337 E2.68764
G1 X133.92 Y125.961 E2.71389
G1 X133.515 Y126.398 E2.7337
G1 X133.398 Y126.515 E2.73921
G1 X132.812 Y127.045 E2.76549
G1 X132.176 Y127.512 E2.79173
G1 X131.496 Y127.913 E2.81799
G1 X130.778 Y128.243 E2.84427
G1 X130.031 Y128.498 E2.87052
G1 X129.262 Y128.677 E2.89678
G1 X128.478 Y128.777 E2.92307
G1 X127.883 Y128.8 E2.94288
G1 X92.117 Y128.8 E4.13246
G1 X91.328 Y128.76 E4.15873
G1 X90.548 Y128.641 E4.18498
G1 X89.783 Y128.443 E4.21126
G1 X89.043 Y128.169 E4.2375
G1 X88.334 Y127.821 E4.26377
G1 X87.663 Y127.403 E4.29007
G1 X87.039 Y126.92 E4.31631
G1 X86.602 Y126.515 E4.33613
G1 X86.485 Y126.398 E4.34163
G1 X85.955 Y125.812 E4.36791
G1 X85.488 Y125.176 E4.39416
G1 X85.087 Y124.496 E4.42041
G1 X84.757 Y123.778 E4.44669
G1 X84.502 Y123.031 E4.47295
G1 X84.323 Y122.262 E4.49921
G1 X84.223 Y121.478 E4.5255
G1 X84.2 Y120.883 E4.5453
G1 X84.2 Y99.117 E5.26924
G1 X84.24 Y98.328 E5.29552
G1 X84.359 Y97.548 E5.32176
G1 X84.557 Y96.783 E5.34804
G1 X84.831 Y96.043 E5.37429
G1 X85.179 Y95.334 E5.40056
G1 X85.597 Y94.663 E5.42685
G1 X86.08 Y94.039 E5.4531
G1 X86.485 Y93.602 E5.47291
G1 X86.602 Y93.485 E5.47842
G0 F6000 X86.884 Y93.767
G1 F600 X87.456 Y93.253 E5.50399
G1 X88.078 Y92.8 E5.52959
G1 X88.743 Y92.414 E5.55516
G1 X89.445 Y92.099 E5.58075
G1 X90.176 Y91.859 E5.60634
G1 X90.927 Y91.696 E5.6319
G1 X91.692 Y91.612 E5.6575
G1 X92.117 Y91.6 E5.67164
G1 X127.883 Y91.6 E6.86122
G1 X128.651 Y91.64 E6.8868
G1 X129.411 Y91.759 E6.91239
G1 X130.154 Y91.957 E6.93796
G1 X130.873 Y92.231 E6.96355
G1 X131.559 Y92.578 E6.98912
G1 X132.206 Y92.994 E7.0147
G1 X132.806 Y93.475 E7.04028
G1 X133.116 Y93.767 E7.05445
G1 X133.233 Y93.884 E7.05995
G1 X133.747 Y94.456 E7.08553
G1 X134.2 Y95.078 E7.11112
G1 X134.586 Y95.743 E7.13669
G1 X134.901 Y96.445 E7.16229
G1 X135.141 Y97.176 E7.18788
G1 X135.304 Y97.927 E7.21344
G1 X135.388 Y98.692 E7.23903
G1 X135.4 Y99.117 E7.25317
G1 X135.4 Y120.883 E7.97711
G1 X135.36 Y121.651 E8.00269
G1 X135.241 Y122.411 E8.02828
G1 X135.043 Y123.154 E8.05385
G1 X134.769 Y123.873 E8.07944
G1 X134.422 Y124.559 E8.10501
G1 X134.006 Y125.206 E8.1306
G1 X133.525 Y125.806 E8.15617
G1 X133.233 Y126.116 E8.17034
G1 X133.116 Y126.233 E8.17584
G1 X132.544 Y126.747 E8.20142
G1 X131.922 Y127.2 E8.22701
G1 X131.257 Y127.586 E8.25259
G1 X130.555 Y127.901 E8.27818
G1 X129.824 Y128.141 E8.30377
G1 X129.073 Y128.304 E8.32933
G1 X128.308 Y128.388 E8.35492
G1 X127.883 Y128.4 E8.36907
G1 X92.117 Y128.4 E9.55865
G1 X91.349 Y128.36 E9.58423
G1 X90.589 Y128.241 E9.60981
G1 X89.846 Y128.043 E9.63539
G1 X89.127 Y127.769 E9.66098
G1 X88.441 Y127.422 E9.68655
G1 X87.794 Y127.006 E9.71213
G1 X87.194 Y126.525 E9.73771
G1 X86.884 Y126.233 E9.75187
G1 X86.767 Y126.116 E9.75738
G1 X86.253 Y125.544 E9.78295
G1 X85.8 Y124.922 E9.80855
G1 X85.414 Y124.257 E9.83412
G1 X85.099 Y123.555 E9.85971
G1 X84.859 Y122.824 E9.8853
G1 X84.696 Y122.073 E9.91086
G1 X84.612 Y121.308 E9.93646
G1 X84.6 Y120.883 E9.9506
G1 X84.6 Y99.117 E10.67454
G1 X84.64 Y98.349 E10.70012
G1 X84.759 Y97.589 E10.7257
G1 X84.957 Y96.846 E10.75128
G1 X85.231 Y96.127 E10.77687
G1 X85.578 Y95.441 E10.80244
G1 X85.994 Y94.794 E10.82802
G1 X86.475 Y94.194 E10.8536
G1 X86.767 Y93.884 E10.86776
G1 X86.884 Y93.767 E10.87327
G0 F6000 X87.167 Y94.05
G1 F600 X87.724 Y93.55 E10.89816
G1 X88.33 Y93.113 E10.92301
G1 X88.98 Y92.742 E10.94791
G1 X89.666 Y92.443 E10.9728
G1 X90.38 Y92.219 E10.99768
G1 X91.113 Y92.072 E11.02255
G1 X92.117 Y92 E11.05603
G1 X127.883 Y92 E12.24561
G1 X128.63 Y92.04 E12.27049
G1 X129.368 Y92.159 E12.29535
G1 X130.09 Y92.357 E12.32025
G1 X130.786 Y92.63 E12.34512
G1 X131.449 Y92.977 E12.37001
G1 X132.072 Y93.392 E12.39491
G1 X132.833 Y94.05 E12.42837
G1 X132.95 Y94.167 E12.43387
G1 X133.45 Y94.724 E12.45877
G1 X133.887 Y95.33 E12.48362
G1 X134.258 Y95.98 E12.50851
G1 X134.557 Y96.666 E12.5334
G1 X134.781 Y97.38 E12.55829
G1 X134.928 Y98.113 E12.58315
G1 X135 Y99.117 E12.61663
G1 X135 Y120.883 E13.34057
G1 X134.96 Y121.63 E13.36545
G1 X134.841 Y122.368 E13.39032
G1 X134.643 Y123.09 E13.41522
G1 X134.37 Y123.786 E13.44008
G1 X134.023 Y124.449 E13.46497
G1 X133.608 Y125.072 E13.48987
G1 X132.95 Y125.833 E13.52333
G1 X132.833 Y125.95 E13.52883
G1 X132.276 Y126.45 E13.55373
G1 X131.67 Y126.887 E13.57858
G1 X131.02 Y127.258 E13.60347
G1 X130.334 Y127.557 E13.62836
G1 X129.62 Y127.781 E13.65325
G1 X128.887 Y127.928 E13.67811
G1 X127.883 Y128 E13.71159
G1 X92.117 Y128 E14.90117
G1 X91.37 Y127.96 E14.92606
G1 X90.632 Y127.841 E14.95092
G1 X89.91 Y127.643 E14.97582
G1 X89.214 Y127.37 E15.00068
G1 X88.551 Y127.023 E15.02557
G1 X87.928 Y126.608 E15.05047
G1 X87.167 Y125.95 E15.08393
G1 X87.05 Y125.833 E15.08944
G1 X86.55 Y125.276 E15.11433
G1 X86.113 Y124.67 E15.13918
G1 X85.742 Y124.02 E15.16407
G1 X85.443 Y123.334 E15.18896
G1 X85.219 Y122.62 E15.21385
G1 X85.072 Y121.887 E15.23872
G1 X85 Y120.883 E15.2722
G1 X85 Y99.117 E15.99614
G1 X85.04 Y98.37 E16.02102
G1 X85.159 Y97.632 E16.04588
G1 X85.357 Y96.91 E16.07078
G1 X85.63 Y96.214 E16.09565
G1 X85.977 Y95.551 E16.12054
G1 X86.392 Y94.928 E16.14543
G1 X87.05 Y94.167 E16.17889
G1 X87.167 Y94.05 E16.1844
G0 F6000 X87.45 Y94.333
G1 F600 X87.991 Y93.849 E16.20854
G1 X88.582 Y93.426 E16.23271
G1 X89.216 Y93.072 E16.25686
G1 X89.885 Y92.789 E16.28102
G1 X90.581 Y92.581 E16.30519
G1 X91.296 Y92.451 E16.32936
G1 X92.117 Y92.4 E16.35672
G1 X127.883 Y92.4 E17.5463
G1 X128.608 Y92.44 E17.57045
G1 X129.325 Y92.559 E17.59462
G1 X130.024 Y92.757 E17.61878
G1 X130.697 Y93.03 E17.64294
G1 X131.336 Y93.375 E17.66709
G1 X131.933 Y93.789 E17.69126
G1 X132.55 Y94.333 E17.71862
G1 X132.667 Y94.45 E17.72412
G1 X133.151 Y94.991 E17.74826
G1 X133.574 Y95.582 E17.77244
G1 X133.928 Y96.216 E17.79659
G1 X134.211 Y96.885 E17.82075
G1 X134.419 Y97.581 E17.84491
G1 X134.549 Y98.296 E17.86908
G1 X134.6 Y99.117 E17.89644
G1 X134.6 Y120.883 E18.62038
G1 X134.56 Y121.608 E18.64453
G1 X134.441 Y122.325 E18.6687
G1 X134.243 Y123.024 E18.69287
G1 X133.97 Y123.697 E18.71702
G1 X133.625 Y124.336 E18.74117
G1 X133.211 Y124.933 E18.76534
G1 X132.667 Y125.55 E18.7927
G1 X132.55 Y125.667 E18.7982
G1 X132.009 Y126.151 E18.82234
G1 X131.418 Y126.574 E18.84652
G1 X130.784 Y126.928 E18.87067
G1 X130.115 Y127.211 E18.89483
G1 X129.419 Y127.419 E18.91899
G1 X128.704 Y127.549 E18.94316
G1 X127.883 Y127.6 E18.97052
G1 X92.117 Y127.6 E20.1601
G1 X91.392 Y127.56 E20.18425
G1 X90.675 Y127.441 E20.20842
G1 X89.976 Y127.243 E20.23259
G1 X89.303 Y126.97 E20.25674
G1 X88.664 Y126.625 E20.2809
G1 X88.067 Y126.211 E20.30506
G1 X87.45 Y125.667 E20.33242
G1 X87.333 Y125.55 E20.33792
G1 X86.849 Y125.009 E20.36207
G1 X86.426 Y124.418 E20.38624
G1 X86.072 Y123.784 E20.41039
G1 X85.789 Y123.115 E20.43455
G1 X85.581 Y122.419 E20.45871
G1 X85.451 Y121.704 E20.48288
G1 X85.4 Y120.883 E20.51024
G1 X85.4 Y99.117 E21.23418
G1 X85.44 Y98.392 E21.25833
G1 X85.559 Y97.675 E21.2825
G1 X85.757 Y96.976 E21.30667
G1 X86.03 Y96.303 E21.33082
G1 X86.375 Y95.664 E21.35498
G1 X86.789 Y95.067 E21.37914
G1 X87.333 Y94.45 E21.4065
G1 X87.45 Y94.333 E21.412
G0 F6000 X87.733 Y94.616
G1 F600 X88.258 Y94.147 E21.43542
G1 X88.833 Y93.741 E21.45883
G1 X89.451 Y93.403 E21.48226
G1 X90.102 Y93.136 E21.50566
G1 X90.78 Y92.946 E21.52908
G1 X91.475 Y92.833 E21.5525
G1 X92.117 Y92.8 E21.57388
G1 X127.883 Y92.8 E22.76346
G1 X128.586 Y92.84 E22.78688
G1 X129.28 Y92.959 E22.8103
G1 X129.955 Y93.157 E22.8337
G1 X130.604 Y93.429 E22.8571
G1 X131.218 Y93.774 E22.88053
G1 X131.789 Y94.185 E22.90393
G1 X132.267 Y94.616 E22.92533
G1 X132.384 Y94.733 E22.93084
G1 X132.853 Y95.258 E22.95425
G1 X133.259 Y95.833 E22.97766
G1 X133.597 Y96.451 E23.00109
G1 X133.864 Y97.102 E23.02449
G1 X134.054 Y97.78 E23.04791
G1 X134.167 Y98.475 E23.07133
G1 X134.2 Y99.117 E23.09271
G1 X134.2 Y120.883 E23.81665
G1 X134.16 Y121.586 E23.84007
G1 X134.041 Y122.28 E23.86349
G1 X133.843 Y122.955 E23.88689
G1 X133.571 Y123.604 E23.91029
G1 X133.226 Y124.218 E23.93372
G1 X132.815 Y124.789 E23.95712
G1 X132.384 Y125.267 E23.97852
G1 X132.267 Y125.384 E23.98403
G1 X131.742 Y125.853 E24.00744
G1 X131.167 Y126.259 E24.03085
G1 X130.549 Y126.597 E24.05428
G1 X129.898 Y126.864 E24.07768
G1 X129.22 Y127.054 E24.1011
G1 X128.525 Y127.167 E24.12452
G1 X127.883 Y127.2 E24.1459
G1 X92.117 Y127.2 E25.33549
G1 X91.414 Y127.16 E25.35891
G1 X90.72 Y127.041 E25.38233
G1 X90.045 Y126.843 E25.40572
G1 X89.396 Y126.571 E25.42913
G1 X88.782 Y126.226 E25.45255
G1 X88.211 Y125.815 E25.47595
G1 X87.733 Y125.384 E25.49736
G1 X87.616 Y125.267 E25.50286
G1 X87.147 Y124.742 E25.52628
G1 X86.741 Y124.167 E25.54969
G1 X86.403 Y123.549 E25.57312
G1 X86.136 Y122.898 E25.59652
G1 X85.946 Y122.22 E25.61994
G1 X85.833 Y121.525 E25.64336
G1 X85.8 Y120.883 E25.66474
G1 X85.8 Y99.117 E26.38868
G1 X85.84 Y98.414 E26.4121
G1 X85.959 Y97.72 E26.43552
G1 X86.157 Y97.045 E26.45891
G1 X86.429 Y96.396 E26.48232
G1 X86.774 Y95.782 E26.50574
G1 X87.185 Y95.211 E26.52914
G1 X87.616 Y94.733 E26.55055
G1 X87.733 Y94.616 E26.55605
G0 F6000 X88.016 Y94.899
G1 F600 X88.525 Y94.446 E26.57872
G1 X89.083 Y94.057 E26.60134
G1 X89.683 Y93.735 E26.62399
G1 X90.317 Y93.486 E26.64664
G1 X90.976 Y93.313 E26.6693
G1 X91.65 Y93.219 E26.69194
G1 X92.117 Y93.2 E26.70748
G1 X127.883 Y93.2 E27.89707
G1 X128.563 Y93.24 E27.91972
G1 X129.233 Y93.359 E27.94236
G1 X129.885 Y93.556 E27.96501
G1 X130.509 Y93.828 E27.98765
G1 X131.097 Y94.172 E28.01031
G1 X131.641 Y94.582 E28.03296
G1 X131.984 Y94.899 E28.0485
G1 X132.101 Y95.016 E28.054
G1 X132.554 Y95.525 E28.07666
G1 X132.943 Y96.083 E28.09929
G1 X133.265 Y96.683 E28.12194
G1 X133.514 Y97.317 E28.14459
G1 X133.687 Y97.976 E28.16725
G1 X133.781 Y98.65 E28.18989
G1 X133.8 Y99.117 E28.20543
G1 X133.8 Y120.883 E28.92937
G1 X133.76 Y121.563 E28.95203
G1 X133.641 Y122.233 E28.97466
G1 X133.444 Y122.885 E28.99732
G1 X133.172 Y123.509 E29.01996
G1 X132.828 Y124.097 E29.04261
G1 X132.418 Y124.641 E29.06527
G1 X132.101 Y124.984 E29.08081
G1 X131.984 Y125.101 E29.08631
G1 X131.475 Y125.554 E29.10897
G1 X130.917 Y125.943 E29.1316
G1 X130.317 Y126.265 E29.15424
G1 X129.683 Y126.514 E29.1769
G1 X129.024 Y126.687 E29.19956
G1 X128.35 Y126.781 E29.22219
G1 X127.883 Y126.8 E29.23774
G1 X92.117 Y126.8 E30.42732
G1 X91.437 Y126.76 E30.44998
G1 X90.767 Y126.641 E30.47261
G1 X90.115 Y126.444 E30.49526
G1 X89.491 Y126.172 E30.5179
G1 X88.903 Y125.828 E30.54056
G1 X88.359 Y125.418 E30.56322
G1 X88.016 Y125.101 E30.57875
G1 X87.899 Y124.984 E30.58426
G1 X87.446 Y124.475 E30.60692
G1 X87.057 Y123.917 E30.62954
G1 X86.735 Y123.317 E30.65219
G1 X86.486 Y122.683 E30.67485
G1 X86.313 Y122.024 E30.69751
G1 X86.219 Y121.35 E30.72014
G1 X86.2 Y120.883 E30.73569
G1 X86.2 Y99.117 E31.45963
G1 X86.24 Y98.437 E31.48228
G1 X86.359 Y97.767 E31.50492
G1 X86.556 Y97.115 E31.52757
G1 X86.828 Y96.491 E31.55021
G1 X87.172 Y95.903 E31.57287
G1 X87.582 Y95.359 E31.59553
G1 X87.899 Y95.016 E31.61106
G1 X88.016 Y94.899 E31.61656
G0 F6000 X88.299 Y95.182
G1 F600 X88.791 Y94.746 E31.63843
G1 X89.332 Y94.374 E31.66027
G1 X89.914 Y94.07 E31.6821
G1 X90.529 Y93.839 E31.70395
G1 X91.168 Y93.684 E31.72582
G1 X92.117 Y93.6 E31.75751
G1 X127.883 Y93.6 E32.94709
G1 X128.539 Y93.64 E32.96895
G1 X129.185 Y93.759 E32.9908
G1 X129.812 Y93.956 E33.01266
G1 X130.41 Y94.228 E33.03451
G1 X130.971 Y94.57 E33.05636
G1 X131.701 Y95.182 E33.08805
G1 X131.818 Y95.299 E33.09355
G1 X132.254 Y95.791 E33.11541
G1 X132.626 Y96.332 E33.13725
G1 X132.93 Y96.914 E33.15909
G1 X133.161 Y97.529 E33.18094
G1 X133.316 Y98.168 E33.20281
G1 X133.4 Y99.117 E33.2345
G1 X133.4 Y120.883 E33.95844
G1 X133.36 Y121.539 E33.9803
G1 X133.241 Y122.185 E34.00214
G1 X133.044 Y122.812 E34.024
G1 X132.772 Y123.41 E34.04585
G1 X132.43 Y123.971 E34.06771
G1 X131.818 Y124.701 E34.09939
G1 X131.701 Y124.818 E34.10489
G1 X131.209 Y125.254 E34.12676
G1 X130.668 Y125.626 E34.1486
G1 X130.086 Y125.93 E34.17043
G1 X129.471 Y126.161 E34.19229
G1 X128.832 Y126.316 E34.21415
G1 X127.883 Y126.4 E34.24584
G1 X92.117 Y126.4 E35.43542
G1 X91.461 Y126.36 E35.45728
G1 X90.815 Y126.241 E35.47913
G1 X90.188 Y126.044 E35.50099
G1 X89.59 Y125.772 E35.52284
G1 X89.029 Y125.43 E35.54469
G1 X88.299 Y124.818 E35.57638
G1 X88.182 Y124.701 E35.58188
G1 X87.746 Y124.209 E35.60374
G1 X87.374 Y123.668 E35.62558
G1 X87.07 Y123.086 E35.64742
G1 X86.839 Y122.471 E35.66927
G1 X86.684 Y121.832 E35.69114
G1 X86.6 Y120.883 E35.72283
G1 X86.6 Y99.117 E36.44677
G1 X86.64 Y98.461 E36.46863
G1 X86.759 Y97.815 E36.49047
G1 X86.956 Y97.188 E36.51233
G1 X87.228 Y96.59 E36.53418
G1 X87.57 Y96.029 E36.55604
G1 X88.182 Y95.299 E36.58772
G1 X88.299 Y95.182 E36.59322
G0 F6000 X88.581 Y95.464
G1 F600 X89.056 Y95.047 E36.61425
G1 X89.579 Y94.692 E36.63527
G1 X90.143 Y94.406 E36.6563
G1 X90.738 Y94.194 E36.67731
G1 X91.356 Y94.058 E36.69836
G1 X92.117 Y94 E36.72374
G1 X127.883 Y94 E37.91332
G1 X128.514 Y94.04 E37.93435
G1 X129.135 Y94.159 E37.95538
G1 X129.735 Y94.356 E37.97639
G1 X130.307 Y94.627 E37.99744
G1 X130.839 Y94.967 E38.01844
G1 X131.419 Y95.464 E38.04384
G1 X131.536 Y95.581 E38.04935
G1 X131.953 Y96.056 E38.07037
G1 X132.308 Y96.579 E38.09139
G1 X132.594 Y97.143 E38.11243
G1 X132.806 Y97.738 E38.13344
G1 X132.942 Y98.356 E38.15448
G1 X133 Y99.117 E38.17987
G1 X133 Y120.883 E38.90381
G1 X132.96 Y121.514 E38.92484
G1 X132.841 Y122.135 E38.94587
G1 X132.644 Y122.735 E38.96687
G1 X132.373 Y123.307 E38.98792
G1 X132.033 Y123.839 E39.00892
G1 X131.536 Y124.419 E39.03433
G1 X131.419 Y124.536 E39.03983
G1 X130.944 Y124.953 E39.06085
G1 X130.421 Y125.308 E39.08188
G1 X129.857 Y125.594 E39.10291
G1 X129.262 Y125.806 E39.12392
G1 X128.644 Y125.942 E39.14496
G1 X127.883 Y126 E39.17035
G1 X92.117 Y126 E40.35993
G1 X91.486 Y125.96 E40.38096
G1 X90.865 Y125.841 E40.40199
G1 X90.265 Y125.644 E40.42299
G1 X89.693 Y125.373 E40.44405
G1 X89.161 Y125.033 E40.46505
G1 X88.581 Y124.536 E40.49045
G1 X88.464 Y124.419 E40.49595
G1 X88.047 Y123.944 E40.51698
G1 X87.692 Y123.421 E40.538
G1 X87.406 Y122.857 E40.55903
G1 X87.194 Y122.262 E40.58004
G1 X87.058 Y121.644 E40.60109
G1 X87 Y120.883 E40.62647
G1 X87 Y99.117 E41.35041
G1 X87.04 Y98.486 E41.37144
G1 X87.159 Y97.865 E41.39247
