;FLAVOR:Marlin
;TIME:13801
;Filament used: 10.6362m
;Layer height: 0.2
;MINX:50.199
;MINY:75.199
;MINZ:0.24
;MAXX:169.8
;MAXY:144.8
;MAXZ:41.39
;Generated with Cura_SteamEngine master
M140 S70
M105
M190 S70
M104 S200
M105
M109 S200
M82 ;absolute extrusion mode
M201 X500.00 Y500.00 Z100.00 E5000.00 ;Setup machine max acceleration
M203 X500.00 Y500.00 Z10.00 E50.00 ;Setup machine max feedrate
M204 P500.00 R1000.00 T500.00 ;Setup Print/Retract/Travel acceleration
M205 X8.00 Y8.00 Z0.40 E5.00 ;Setup Jerk
M220 S100 ;Reset Feedrate
M221 S100 ;Reset Flowrate

G28 ;Home

G92 E0 ;Reset Extruder
G1 Z2.0 F3000 ;Move Z Axis up
G1 X10.1 Y20 Z0.28 F5000.0 ;Move to start position
G1 X10.1 Y200.0 Z0.28 F1500.0 E15 ;Draw the first line
G1 X10.4 Y200.0 Z0.28 F5000.0 ;Move to side a little
G1 X10.4 Y20 Z0.28 F1500.0 E30 ;Draw the second line
G92 E0 ;Reset Extruder
G1 Z2.0 F3000 ;Move Z Axis up

G92 E0
G92 E0
G1 F2700 E-5
;LAYER_COUNT:200
;LAYER:-6
M107
G0 F12000 X56.477 Y78.235 Z0.24
;TYPE:SUPPORT-INTERFACE
G1 F2700 E0
G1 F1800 X57.192 Y77.743 E0.06928
G1 X57.376 Y77.626 E0.08669
G1 X58.132 Y77.183 E0.15663
G1 X58.274 Y77.106 E0.16953
G1 X59.106 Y76.697 E0.24353
G1 X59.219 Y76.647 E0.25339
G1 X60.069 Y76.304 E0.32656
G1 X60.242 Y76.242 E0.34123
G1 X61.08 Y75.973 E0.41149
G1 X61.244 Y75.927 E0.42508
G1 X62.116 Y75.715 E0.49672
G1 X62.278 Y75.682 E0.50991
G1 X63.171 Y75.534 E0.58217
G1 X63.348 Y75.511 E0.59642
G1 X64.242 Y75.428 E0.66809
G1 X64.384 Y75.421 E0.67944
G1 X65.125 Y75.4 E0.73861
G1 X104.886 Y75.401 E3.9125
G1 X105.887 Y75.437 E3.99246
G1 X106.01 Y75.446 E4.0023
G1 X106.927 Y75.548 E4.07595
G1 X107.102 Y75.573 E4.09007
G1 X107.991 Y75.737 E4.16223
G1 X108.118 Y75.766 E4.17263
G1 X108.635 Y75.901 E4.21528
G1 X109.292 Y76.029 E4.26871
G1 X109.974 Y76.075 E4.32327
G1 X110.654 Y76.034 E4.37765
G1 X111.254 Y75.924 E4.42634
G1 X112.13 Y75.712 E4.49829
G1 X112.277 Y75.682 E4.51027
G1 X113.171 Y75.534 E4.5826
G1 X113.348 Y75.511 E4.59685
G1 X114.242 Y75.428 E4.66852
G1 X114.384 Y75.421 E4.67987
G1 X115.125 Y75.4 E4.73904
G1 X154.886 Y75.401 E7.91293
G1 X155.887 Y75.437 E7.99289
G1 X156.01 Y75.446 E8.00274
G1 X156.927 Y75.548 E8.07639
G1 X157.102 Y75.573 E8.0905
G1 X157.991 Y75.737 E8.16266
G1 X158.114 Y75.765 E8.17273
G1 X159.008 Y75.999 E8.24649
G1 X159.171 Y76.048 E8.26008
G1 X160.013 Y76.334 E8.33106
G1 X160.179 Y76.398 E8.34527
G1 X160.982 Y76.739 E8.41491
G1 X161.171 Y76.827 E8.43155
G1 X161.965 Y77.235 E8.50281
G1 X162.082 Y77.302 E8.51357
G1 X162.861 Y77.776 E8.58636
G1 X163.012 Y77.876 E8.60081
G1 X163.726 Y78.387 E8.6709
G1 X163.874 Y78.5 E8.68577
G1 X164.566 Y79.077 E8.75769
G1 X164.674 Y79.173 E8.76922
G1 X165.186 Y79.655 E8.82535
G1 X165.306 Y79.775 E8.8389
G1 X165.988 Y80.508 E8.91882
G1 X166.107 Y80.647 E8.93343
G1 X166.661 Y81.338 E9.00412
G1 X166.765 Y81.477 E9.01798
G1 X167.257 Y82.192 E9.08726
G1 X167.374 Y82.376 E9.10467
G1 X167.814 Y83.125 E9.17401
G1 X167.887 Y83.259 E9.18619
G1 X168.292 Y84.082 E9.25941
G1 X168.353 Y84.219 E9.27138
G1 X168.695 Y85.064 E9.34415
G1 X168.754 Y85.23 E9.35821
G1 X169.025 Y86.072 E9.42882
G1 X169.072 Y86.238 E9.44259
G1 X169.283 Y87.107 E9.51397
G1 X169.317 Y87.27 E9.52726
G1 X169.465 Y88.162 E9.59944
G1 X169.489 Y88.348 E9.61441
G1 X169.57 Y89.232 E9.68527
G1 X169.579 Y89.384 E9.69743
G1 X169.6 Y90.117 E9.75596
G1 X169.6 Y129.869 E12.92914
G1 X169.564 Y130.875 E13.00949
G1 X169.554 Y131.01 E13.0203
G1 X169.452 Y131.927 E13.09395
G1 X169.427 Y132.102 E13.10806
G1 X169.265 Y132.98 E13.17933
G1 X169.235 Y133.114 E13.19029
G1 X169.004 Y133.999 E13.2633
G1 X168.952 Y134.171 E13.27764
G1 X168.666 Y135.013 E13.34863
G1 X168.602 Y135.179 E13.36283
G1 X168.261 Y135.982 E13.43247
G1 X168.18 Y136.157 E13.44786
G1 X167.776 Y136.943 E13.51841
G1 X167.698 Y137.082 E13.53113
G1 X167.224 Y137.861 E13.60392
G1 X167.124 Y138.012 E13.61838
G1 X166.613 Y138.726 E13.68846
G1 X166.5 Y138.874 E13.70333
G1 X165.923 Y139.566 E13.77525
G1 X165.827 Y139.674 E13.78678
G1 X165.345 Y140.186 E13.84291
G1 X165.188 Y140.342 E13.86058
G1 X164.503 Y140.978 E13.9352
G1 X164.355 Y141.105 E13.95076
G1 X163.662 Y141.661 E14.02169
G1 X163.523 Y141.765 E14.03554
G1 X162.808 Y142.257 E14.10482
G1 X162.624 Y142.374 E14.12223
G1 X161.868 Y142.817 E14.19217
G1 X161.726 Y142.894 E14.20507
G1 X160.898 Y143.301 E14.27872
G1 X160.781 Y143.353 E14.28894
G1 X159.926 Y143.698 E14.36253
G1 X159.763 Y143.756 E14.37634
G1 X158.92 Y144.027 E14.44703
G1 X158.756 Y144.073 E14.46062
G1 X157.884 Y144.285 E14.53226
G1 X157.722 Y144.318 E14.54546
G1 X156.829 Y144.466 E14.61771
G1 X156.652 Y144.489 E14.63196
G1 X155.758 Y144.572 E14.70363
G1 X155.616 Y144.579 E14.71498
G1 X154.875 Y144.6 E14.77415
G1 X115.114 Y144.599 E17.94805
G1 X114.113 Y144.563 E18.028
G1 X113.99 Y144.554 E18.03785
G1 X113.073 Y144.452 E18.1115
G1 X112.898 Y144.427 E18.12561
G1 X112.009 Y144.263 E18.19777
G1 X111.882 Y144.234 E18.20817
G1 X111.365 Y144.099 E18.25082
G1 X110.708 Y143.971 E18.30425
G1 X110.026 Y143.925 E18.35881
G1 X109.346 Y143.966 E18.41319
G1 X108.746 Y144.076 E18.46189
G1 X107.87 Y144.288 E18.53383
G1 X107.723 Y144.318 E18.54581
G1 X106.829 Y144.466 E18.61814
G1 X106.652 Y144.489 E18.63239
G1 X105.758 Y144.572 E18.70406
G1 X105.616 Y144.579 E18.71541
G1 X104.875 Y144.6 E18.77458
G1 X65.114 Y144.599 E21.94848
G1 X64.113 Y144.563 E22.02843
G1 X63.99 Y144.554 E22.03828
G1 X63.073 Y144.452 E22.11193
G1 X62.898 Y144.427 E22.12604
G1 X62.009 Y144.263 E22.1982
G1 X61.886 Y144.235 E22.20827
G1 X60.992 Y144.001 E22.28204
G1 X60.829 Y143.952 E22.29562
G1 X59.987 Y143.666 E22.36661
G1 X59.821 Y143.602 E22.38081
G1 X59.018 Y143.261 E22.45045
G1 X58.829 Y143.173 E22.46709
G1 X58.035 Y142.765 E22.53835
G1 X57.918 Y142.698 E22.54911
G1 X57.139 Y142.224 E22.6219
G1 X56.988 Y142.124 E22.63636
G1 X56.274 Y141.613 E22.70644
G1 X56.126 Y141.5 E22.72131
G1 X55.434 Y140.923 E22.79323
G1 X55.326 Y140.827 E22.80476
G1 X54.814 Y140.345 E22.8609
G1 X54.654 Y140.184 E22.87901
G1 X54.01 Y139.49 E22.95459
G1 X53.893 Y139.353 E22.96897
G1 X53.343 Y138.667 E23.03916
G1 X53.227 Y138.511 E23.05467
G1 X52.743 Y137.808 E23.1228
G1 X52.626 Y137.624 E23.14021
G1 X52.183 Y136.868 E23.21015
G1 X52.106 Y136.726 E23.22305
G1 X51.697 Y135.894 E23.29705
G1 X51.647 Y135.781 E23.30692
G1 X51.298 Y134.917 E23.3813
G1 X51.242 Y134.759 E23.39468
G1 X50.97 Y133.911 E23.46577
G1 X50.928 Y133.761 E23.4782
G1 X50.712 Y132.873 E23.55115
G1 X50.683 Y132.73 E23.5628
G1 X50.533 Y131.824 E23.63611
G1 X50.511 Y131.652 E23.64995
G1 X50.428 Y130.753 E23.72202
G1 X50.421 Y130.616 E23.73297
G1 X50.4 Y129.883 E23.7915
G1 X50.4 Y90.131 E26.96468
G1 X50.436 Y89.125 E27.04503
G1 X50.446 Y88.99 E27.05584
G1 X50.547 Y88.075 E27.12932
G1 X50.573 Y87.9 E27.14344
G1 X50.735 Y87.02 E27.21487
G1 X50.765 Y86.886 E27.22583
G1 X50.996 Y86 E27.29892
G1 X51.048 Y85.829 E27.31319
G1 X51.334 Y84.987 E27.38417
G1 X51.398 Y84.821 E27.39837
G1 X51.739 Y84.018 E27.46801
G1 X51.82 Y83.843 E27.4834
G1 X52.235 Y83.035 E27.55591
G1 X52.302 Y82.918 E27.56667
G1 X52.776 Y82.139 E27.63946
G1 X52.876 Y81.988 E27.65392
G1 X53.392 Y81.267 E27.72469
G1 X53.5 Y81.126 E27.73887
G1 X54.077 Y80.434 E27.81079
G1 X54.173 Y80.326 E27.82233
G1 X54.655 Y79.814 E27.87846
G1 X54.812 Y79.658 E27.89613
G1 X55.508 Y79.012 E27.97193
G1 X55.647 Y78.893 E27.98653
G1 X56.214 Y78.438 E28.04456
G0 F1620 X56.338 Y78.339
G0 X56.477 Y78.235
G0 F12000 X56 Y78.609
G1 F1800 X56 Y141.394 E33.05634
G1 F2700 E28.05634
G1 F300 Z0.74
G0 F12000 X57.6 Y142.504 Z0.74
G1 F300 Z0.24
G1 F2700 E33.05634
G1 F1800 X57.6 Y77.494 E38.24571
G1 F2700 E33.24571
G1 F300 Z0.74
G0 F12000 X59.2 Y76.655 Z0.74
G1 F300 Z0.24
G1 F2700 E38.24571
G1 F1800 X59.2 Y143.338 E43.56864
G1 F2700 E38.56864
G1 F300 Z0.74
G0 F12000 X60.8 Y143.942 Z0.74
G1 F300 Z0.24
G1 F2700 E43.56864
G1 F1800 X60.8 Y76.062 E48.98711
G1 F2700 E43.98711
G1 F300 Z0.74
G0 F12000 X62.4 Y75.661 Z0.74
G1 F300 Z0.24
G1 F2700 E48.98711
G1 F1800 X62.4 Y144.335 E54.46897
G1 F2700 E49.46897
G1 F300 Z0.74
G0 F12000 X64 Y144.554 Z0.74
G1 F300 Z0.24
G1 F2700 E54.46897
G1 F1800 X64 Y75.45 E59.98515
G1 F2700 E54.98515
G1 F300 Z0.74
G0 F12000 X65.6 Y75.401 Z0.74
G1 F300 Z0.24
G1 F2700 E59.98515
G1 F1800 X65.6 Y144.599 E65.50883
G1 F2700 E60.50883
G1 F300 Z0.74
G0 F12000 X67.2 Y144.599 Z0.74
G1 F300 Z0.24
G1 F2700 E65.50883
G1 F1800 X67.2 Y75.401 E71.03252
G1 F2700 E66.03252
G1 F300 Z0.74
G0 F12000 X68.8 Y75.401 Z0.74
G1 F300 Z0.24
G1 F2700 E71.03252
G1 F1800 X68.8 Y144.599 E76.5562
G1 F2700 E71.5562
G1 F300 Z0.74
G0 F12000 X70.4 Y144.599 Z0.74
G1 F300 Z0.24
G1 F2700 E76.5562
G1 F1800 X70.4 Y75.401 E82.07988
G1 F2700 E77.07988
G1 F300 Z0.74
G0 F12000 X72 Y75.401 Z0.74
G1 F300 Z0.24
G1 F2700 E82.07988
G1 F1800 X72 Y144.599 E87.60357
G1 F2700 E82.60357
G1 F300 Z0.74
G0 F12000 X73.6 Y144.599 Z0.74
G1 F300 Z0.24
G1 F2700 E87.60357
G1 F1800 X73.6 Y75.401 E93.12725
G1 F2700 E88.12725
G1 F300 Z0.74
G0 F12000 X75.2 Y75.401 Z0.74
G1 F300 Z0.24
G1 F2700 E93.12725
G1 F1800 X75.2 Y144.599 E98.65094
G1 F2700 E93.65094
G1 F300 Z0.74
G0 F12000 X76.8 Y144.599 Z0.74
G1 F300 Z0.24
G1 F2700 E98.65094
G1 F1800 X76.8 Y75.401 E104.17462
G1 F2700 E99.17462
G1 F300 Z0.74
G0 F12000 X78.4 Y75.401 Z0.74
G1 F300 Z0.24
G1 F2700 E104.17462
G1 F1800 X78.4 Y144.599 E109.6983
G1 F2700 E104.6983
G1 F300 Z0.74
G0 F12000 X80 Y144.599 Z0.74
G1 F300 Z0.24
G1 F2700 E109.6983
G1 F1800 X80 Y75.401 E115.22199
G1 F2700 E110.22199
G1 F300 Z0.74
G0 F12000 X81.6 Y75.401 Z0.74
G1 F300 Z0.24
G1 F2700 E115.22199
G1 F1800 X81.6 Y144.599 E120.74567
G1 F2700 E115.74567
G1 F300 Z0.74
G0 F12000 X83.2 Y144.599 Z0.74
G1 F300 Z0.24
G1 F2700 E120.74567
G1 F1800 X83.2 Y75.401 E126.26935
G1 F2700 E121.26935
G1 F300 Z0.74
G0 F12000 X84.8 Y75.401 Z0.74
G1 F300 Z0.24
G1 F2700 E126.26935
G1 F1800 X84.8 Y144.599 E131.79304
G1 F2700 E126.79304
G1 F300 Z0.74
G0 F12000 X86.4 Y144.599 Z0.74
G1 F300 Z0.24
G1 F2700 E131.79304
G1 F1800 X86.4 Y75.401 E137.31672
G1 F2700 E132.31672
G1 F300 Z0.74
G0 F12000 X88 Y75.401 Z0.74
G1 F300 Z0.24
G1 F2700 E137.31672
G1 F1800 X88 Y144.599 E142.8404
G1 F2700 E137.8404
G1 F300 Z0.74
G0 F12000 X89.6 Y144.599 Z0.74
G1 F300 Z0.24
G1 F2700 E142.8404
G1 F1800 X89.6 Y75.401 E148.36409
G1 F2700 E143.36409
G1 F300 Z0.74
G0 F12000 X91.2 Y75.401 Z0.74
G1 F300 Z0.24
G1 F2700 E148.36409
G1 F1800 X91.2 Y144.599 E153.88777
G1 F2700 E148.88777
G1 F300 Z0.74
G0 F12000 X92.8 Y144.599 Z0.74
G1 F300 Z0.24
G1 F2700 E153.88777
G1 F1800 X92.8 Y75.401 E159.41146
G1 F2700 E154.41146
G1 F300 Z0.74
G0 F12000 X94.4 Y75.401 Z0.74
G1 F300 Z0.24
G1 F2700 E159.41146
G1 F1800 X94.4 Y144.599 E164.93514
G1 F2700 E159.93514
G1 F300 Z0.74
G0 F12000 X96 Y144.599 Z0.74
G1 F300 Z0.24
G1 F2700 E164.93514
G1 F1800 X96 Y75.401 E170.45882
G1 F2700 E165.45882
G1 F300 Z0.74
G0 F12000 X97.6 Y75.401 Z0.74
G1 F300 Z0.24
G1 F2700 E170.45882
G1 F1800 X97.6 Y144.599 E175.98251
G1 F2700 E170.98251
G1 F300 Z0.74
G0 F12000 X99.2 Y144.599 Z0.74
G1 F300 Z0.24
G1 F2700 E175.98251
G1 F1800 X99.2 Y75.401 E181.50619
G1 F2700 E176.50619
G1 F300 Z0.74
G0 F12000 X100.8 Y75.401 Z0.74
G1 F300 Z0.24
G1 F2700 E181.50619
G1 F1800 X100.8 Y144.599 E187.02987
G1 F2700 E182.02987
G1 F300 Z0.74
G0 F12000 X102.4 Y144.599 Z0.74
G1 F300 Z0.24
G1 F2700 E187.02987
G1 F1800 X102.4 Y75.401 E192.55356
G1 F2700 E187.55356
G1 F300 Z0.74
G0 F12000 X104 Y75.401 Z0.74
G1 F300 Z0.24
G1 F2700 E192.55356
G1 F1800 X104 Y144.599 E198.07724
G1 F2700 E193.07724
G1 F300 Z0.74
G0 F12000 X105.6 Y144.58 Z0.74
G1 F300 Z0.24
G1 F2700 E198.07724
G1 F1800 X105.6 Y75.427 E203.59733
G1 F2700 E198.59733
G1 F300 Z0.74
G0 F12000 X107.2 Y75.592 Z0.74
G1 F300 Z0.24
G1 F2700 E203.59733
G1 F1800 X107.2 Y144.405 E209.09028
G1 F2700 E204.09028
G1 F300 Z0.74
G0 F12000 X108.8 Y144.067 Z0.74
G1 F300 Z0.24
G1 F2700 E209.09028
G1 F1800 X108.8 Y75.934 E214.52895
G1 F2700 E209.52895
G1 F300 Z0.74
G0 F12000 X110.4 Y76.049 Z0.74
G1 F300 Z0.24
G1 F2700 E214.52895
G1 F1800 X110.4 Y143.95 E219.9491
G1 F2700 E214.9491
G1 F300 Z0.74
G0 F12000 X112 Y144.26 Z0.74
G1 F300 Z0.24
G1 F2700 E219.9491
G1 F1800 X112 Y75.743 E225.41843
G1 F2700 E220.41843
G1 F300 Z0.74
G0 F12000 X113.6 Y75.487 Z0.74
G1 F300 Z0.24
G1 F2700 E225.41843
G1 F1800 X113.6 Y144.51 E230.92814
G1 F2700 E225.92814
G1 F300 Z0.74
G0 F12000 X115.2 Y144.599 Z0.74
G1 F300 Z0.24
G1 F2700 E230.92814
G1 F1800 X115.2 Y75.401 E236.45183
G1 F2700 E231.45183
G1 F300 Z0.74
G0 F12000 X116.8 Y75.401 Z0.74
G1 F300 Z0.24
G1 F2700 E236.45183
G1 F1800 X116.8 Y144.599 E241.97551
G1 F2700 E236.97551
G1 F300 Z0.74
G0 F12000 X118.4 Y144.599 Z0.74
G1 F300 Z0.24
G1 F2700 E241.97551
G1 F1800 X118.4 Y75.401 E247.49919
G1 F2700 E242.49919
G1 F300 Z0.74
G0 F12000 X120 Y75.401 Z0.74
G1 F300 Z0.24
G1 F2700 E247.49919
G1 F1800 X120 Y144.599 E253.02288
G1 F2700 E248.02288
G1 F300 Z0.74
G0 F12000 X121.6 Y144.599 Z0.74
G1 F300 Z0.24
G1 F2700 E253.02288
G1 F1800 X121.6 Y75.401 E258.54656
G1 F2700 E253.54656
G1 F300 Z0.74
G0 F12000 X123.2 Y75.401 Z0.74
G1 F300 Z0.24
G1 F2700 E258.54656
G1 F1800 X123.2 Y144.599 E264.07024
G1 F2700 E259.07024
G1 F300 Z0.74
G0 F12000 X124.8 Y144.599 Z0.74
G1 F300 Z0.24
G1 F2700 E264.07024
G1 F1800 X124.8 Y75.401 E269.59393
G1 F2700 E264.59393
G1 F300 Z0.74
G0 F12000 X126.4 Y75.401 Z0.74
G1 F300 Z0.24
G1 F2700 E269.59393
G1 F1800 X126.4 Y144.599 E275.11761
G1 F2700 E270.11761
G1 F300 Z0.74
G0 F12000 X128 Y144.599 Z0.74
G1 F300 Z0.24
G1 F2700 E275.11761
G1 F1800 X128 Y75.401 E280.64129
G1 F2700 E275.64129
G1 F300 Z0.74
G0 F12000 X129.6 Y75.401 Z0.74
G1 F300 Z0.24
G1 F2700 E280.64129
G1 F1800 X129.6 Y144.599 E286.16498
G1 F2700 E281.16498
G1 F300 Z0.74
G0 F12000 X131.2 Y144.599 Z0.74
G1 F300 Z0.24
G1 F2700 E286.16498
G1 F1800 X131.2 Y75.401 E291.68866
G1 F2700 E286.68866
G1 F300 Z0.74
G0 F12000 X132.8 Y75.401 Z0.74
G1 F300 Z0.24
G1 F2700 E291.68866
G1 F1800 X132.8 Y144.599 E297.21235
G1 F2700 E292.21235
G1 F300 Z0.74
G0 F12000 X134.4 Y144.599 Z0.74
G1 F300 Z0.24
G1 F2700 E297.21235
G1 F1800 X134.4 Y75.401 E302.73603
G1 F2700 E297.73603
G1 F300 Z0.74
G0 F12000 X136 Y75.401 Z0.74
G1 F300 Z0.24
G1 F2700 E302.73603
G1 F1800 X136 Y144.599 E308.25971
G1 F2700 E303.25971
G1 F300 Z0.74
G0 F12000 X137.6 Y144.599 Z0.74
G1 F300 Z0.24
G1 F2700 E308.25971
G1 F1800 X137.6 Y75.401 E313.7834
G1 F2700 E308.7834
G1 F300 Z0.74
G0 F12000 X139.2 Y75.401 Z0.74
G1 F300 Z0.24
G1 F2700 E313.7834
G1 F1800 X139.2 Y144.599 E319.30708
G1 F2700 E314.30708
G1 F300 Z0.74
G0 F12000 X140.8 Y144.599 Z0.74
G1 F300 Z0.24
G1 F2700 E319.30708
G1 F1800 X140.8 Y75.401 E324.83076
G1 F2700 E319.83076
G1 F300 Z0.74
G0 F12000 X142.4 Y75.401 Z0.74
G1 F300 Z0.24
G1 F2700 E324.83076
G1 F1800 X142.4 Y144.599 E330.35445
G1 F2700 E325.35445
G1 F300 Z0.74
G0 F12000 X144 Y144.599 Z0.74
G1 F300 Z0.24
G1 F2700 E330.35445
G1 F1800 X144 Y75.401 E335.87813
G1 F2700 E330.87813
G1 F300 Z0.74
G0 F12000 X145.6 Y75.401 Z0.74
G1 F300 Z0.24
G1 F2700 E335.87813
G1 F1800 X145.6 Y144.599 E341.40181
G1 F2700 E336.40181
G1 F300 Z0.74
G0 F12000 X147.2 Y144.599 Z0.74
G1 F300 Z0.24
G1 F2700 E341.40181
G1 F1800 X147.2 Y75.401 E346.9255
G1 F2700 E341.9255
G1 F300 Z0.74
G0 F12000 X148.8 Y75.401 Z0.74
G1 F300 Z0.24
G1 F2700 E346.9255
G1 F1800 X148.8 Y144.599 E352.44918
G1 F2700 E347.44918
G1 F300 Z0.74
G0 F12000 X150.4 Y144.599 Z0.74
G1 F300 Z0.24
G1 F2700 E352.44918
G1 F1800 X150.4 Y75.401 E357.97286
G1 F2700 E352.97286
G1 F300 Z0.74
G0 F12000 X152 Y75.401 Z0.74
G1 F300 Z0.24
G1 F2700 E357.97286
G1 F1800 X152 Y144.599 E363.49655
G1 F2700 E358.49655
G1 F300 Z0.74
G0 F12000 X153.6 Y144.599 Z0.74
G1 F300 Z0.24
G1 F2700 E363.49655
G1 F1800 X153.6 Y75.401 E369.02023
G1 F2700 E364.02023
G1 F300 Z0.74
G0 F12000 X155.2 Y75.413 Z0.74
G1 F300 Z0.24
G1 F2700 E369.02023
G1 F1800 X155.2 Y144.591 E374.54232
G1 F2700 E369.54232
G1 F300 Z0.74
G0 F12000 X156.8 Y144.47 Z0.74
G1 F300 Z0.24
G1 F2700 E374.54232
G1 F1800 X156.8 Y75.534 E380.04509
G1 F2700 E375.04509
G1 F300 Z0.74
G0 F12000 X158.4 Y75.84 Z0.74
G1 F300 Z0.24
G1 F2700 E380.04509
G1 F1800 X158.4 Y144.16 E385.49869
G1 F2700 E380.49869
G1 F300 Z0.74
G0 F12000 X160 Y143.669 Z0.74
G1 F300 Z0.24
G1 F2700 E385.49869
G1 F1800 X160 Y76.33 E390.87398
