;FLAVOR:Marlin
;TIME:3876
;Filament used: 3.03028m
;Layer height: 0.2
;MINX:79.199
;MINY:88.2
;MINZ:0.24
;MAXX:140.8
;MAXY:131.8
;MAXZ:57.09
;Generated with Cura_SteamEngine master
M140 S70
M105
M190 S70
M104 S200
M105
M109 S200
M82 ;absolute extrusion mode
M201 X500.00 Y500.00 Z100.00 E5000.00 ;Setup machine max acceleration
M203 X500.00 Y500.00 Z10.00 E50.00 ;Setup machine max feedrate
M204 P500.00 R1000.00 T500.00 ;Setup Print/Retract/Travel acceleration
M205 X8.00 Y8.00 Z0.40 E5.00 ;Setup Jerk
M220 S100 ;Reset Feedrate
M221 S100 ;Reset Flowrate

G28 ;Home

G92 E0 ;Reset Extruder
G1 Z2.0 F3000 ;Move Z Axis up
G1 X10.1 Y20 Z0.28 F5000.0 ;Move to start position
G1 X10.1 Y200.0 Z0.28 F1500.0 E15 ;Draw the first line
G1 X10.4 Y200.0 Z0.28 F5000.0 ;Move to side a little
G1 X10.4 Y20 Z0.28 F1500.0 E30 ;Draw the second line
G92 E0 ;Reset Extruder
G1 Z2.0 F3000 ;Move Z Axis up

G92 E0
G92 E0
G1 F2700 E-5
;LAYER_COUNT:280
;LAYER:-6
M107
G0 F12000 X84.508 Y92.012 Z0.24
;TYPE:SUPPORT-INTERFACE
G1 F2700 E0
G1 F1800 X84.647 Y91.893 E0.01461
G1 X85.338 Y91.339 E0.0853
G1 X85.477 Y91.235 E0.09916
G1 X86.192 Y90.743 E0.16844
G1 X86.376 Y90.626 E0.18585
G1 X87.132 Y90.183 E0.25579
G1 X87.274 Y90.106 E0.26869
G1 X88.106 Y89.697 E0.34269
G1 X88.219 Y89.647 E0.35256
G1 X89.069 Y89.304 E0.42572
G1 X89.242 Y89.242 E0.44039
G1 X90.08 Y88.973 E0.51065
G1 X90.244 Y88.927 E0.52424
G1 X91.116 Y88.715 E0.59588
G1 X91.278 Y88.682 E0.60907
G1 X92.171 Y88.534 E0.68133
G1 X92.348 Y88.511 E0.69558
G1 X93.242 Y88.428 E0.76725
G1 X93.384 Y88.421 E0.7786
G1 X94.125 Y88.4 E0.83777
G1 X125.886 Y88.401 E3.37307
G1 X126.887 Y88.437 E3.45303
G1 X127.01 Y88.446 E3.46287
G1 X127.927 Y88.548 E3.53652
G1 X128.102 Y88.573 E3.55063
G1 X128.991 Y88.737 E3.62279
G1 X129.114 Y88.765 E3.63286
G1 X130.008 Y88.999 E3.70663
G1 X130.171 Y89.048 E3.72022
G1 X131.013 Y89.334 E3.7912
G1 X131.179 Y89.398 E3.8054
G1 X131.982 Y89.739 E3.87504
G1 X132.171 Y89.827 E3.89168
G1 X132.965 Y90.235 E3.96294
G1 X133.082 Y90.302 E3.9737
G1 X133.861 Y90.776 E4.04649
G1 X134.012 Y90.876 E4.06095
G1 X134.726 Y91.387 E4.13104
G1 X134.874 Y91.5 E4.1459
G1 X135.566 Y92.077 E4.21782
G1 X135.674 Y92.173 E4.22936
G1 X136.185 Y92.656 E4.28549
G1 X136.186 Y92.655 E4.2856
G1 X136.342 Y92.812 E4.30327
G1 X136.988 Y93.508 E4.37907
G1 X137.107 Y93.647 E4.39367
G1 X137.661 Y94.338 E4.46437
G1 X137.765 Y94.477 E4.47823
G1 X138.257 Y95.192 E4.54751
G1 X138.374 Y95.376 E4.56491
G1 X138.814 Y96.125 E4.63426
G1 X138.887 Y96.259 E4.64644
G1 X139.292 Y97.082 E4.71966
G1 X139.353 Y97.219 E4.73163
G1 X139.695 Y98.064 E4.80439
G1 X139.754 Y98.23 E4.81846
G1 X140.025 Y99.072 E4.88906
G1 X140.072 Y99.238 E4.90284
G1 X140.283 Y100.107 E4.97422
G1 X140.317 Y100.27 E4.98751
G1 X140.465 Y101.162 E5.05969
G1 X140.489 Y101.348 E5.07466
G1 X140.57 Y102.232 E5.14552
G1 X140.579 Y102.384 E5.15767
G1 X140.6 Y103.117 E5.21621
G1 X140.6 Y116.869 E6.31395
G1 X140.564 Y117.875 E6.39431
G1 X140.554 Y118.01 E6.40511
G1 X140.452 Y118.927 E6.47876
G1 X140.427 Y119.102 E6.49287
G1 X140.265 Y119.98 E6.56414
G1 X140.235 Y120.114 E6.5751
G1 X140.004 Y120.999 E6.64811
G1 X139.952 Y121.171 E6.66246
G1 X139.666 Y122.013 E6.73344
G1 X139.602 Y122.179 E6.74764
G1 X139.261 Y122.982 E6.81728
G1 X139.18 Y123.157 E6.83268
G1 X138.776 Y123.943 E6.90322
G1 X138.698 Y124.082 E6.91594
G1 X138.224 Y124.861 E6.98873
G1 X138.124 Y125.012 E7.00319
G1 X137.613 Y125.726 E7.07328
G1 X137.5 Y125.874 E7.08814
G1 X136.923 Y126.566 E7.16006
G1 X136.827 Y126.674 E7.1716
G1 X136.344 Y127.185 E7.22773
G1 X136.345 Y127.186 E7.22784
G1 X136.188 Y127.342 E7.24551
G1 X135.503 Y127.978 E7.32012
G1 X135.355 Y128.105 E7.33569
G1 X134.662 Y128.661 E7.40661
G1 X134.523 Y128.765 E7.42047
G1 X133.808 Y129.257 E7.48975
G1 X133.624 Y129.374 E7.50715
G1 X132.868 Y129.817 E7.5771
G1 X132.726 Y129.894 E7.58999
G1 X131.898 Y130.301 E7.66364
G1 X131.781 Y130.353 E7.67386
G1 X130.926 Y130.698 E7.74746
G1 X130.763 Y130.756 E7.76127
G1 X129.92 Y131.027 E7.83195
G1 X129.756 Y131.073 E7.84555
G1 X128.884 Y131.285 E7.91718
G1 X128.722 Y131.318 E7.93038
G1 X127.829 Y131.466 E8.00263
G1 X127.652 Y131.489 E8.01688
G1 X126.758 Y131.572 E8.08855
G1 X126.616 Y131.579 E8.0999
G1 X125.875 Y131.6 E8.15907
G1 X94.114 Y131.599 E10.69437
G1 X93.113 Y131.563 E10.77433
G1 X92.99 Y131.554 E10.78417
G1 X92.073 Y131.452 E10.85783
G1 X91.898 Y131.427 E10.87194
G1 X91.009 Y131.263 E10.9441
G1 X90.886 Y131.235 E10.95417
G1 X89.992 Y131.001 E11.02793
G1 X89.829 Y130.952 E11.04152
G1 X88.987 Y130.666 E11.1125
G1 X88.821 Y130.602 E11.12671
G1 X88.018 Y130.261 E11.19634
G1 X87.829 Y130.173 E11.21299
G1 X87.035 Y129.765 E11.28425
G1 X86.918 Y129.698 E11.29501
G1 X86.139 Y129.224 E11.3678
G1 X85.988 Y129.124 E11.38225
G1 X85.274 Y128.613 E11.45234
G1 X85.126 Y128.5 E11.46721
G1 X84.434 Y127.923 E11.53913
G1 X84.326 Y127.827 E11.55066
G1 X83.815 Y127.344 E11.60679
G1 X83.814 Y127.345 E11.6069
G1 X83.654 Y127.184 E11.62502
G1 X83.01 Y126.49 E11.7006
G1 X82.893 Y126.353 E11.71498
G1 X82.343 Y125.667 E11.78516
G1 X82.227 Y125.511 E11.80068
G1 X81.743 Y124.808 E11.86881
G1 X81.626 Y124.624 E11.88622
G1 X81.183 Y123.868 E11.95616
G1 X81.106 Y123.726 E11.96906
G1 X80.697 Y122.894 E12.04306
G1 X80.647 Y122.781 E12.05292
G1 X80.298 Y121.917 E12.12731
G1 X80.242 Y121.759 E12.14069
G1 X79.97 Y120.911 E12.21178
G1 X79.928 Y120.761 E12.22421
G1 X79.712 Y119.873 E12.29716
G1 X79.683 Y119.73 E12.30881
G1 X79.533 Y118.824 E12.38211
G1 X79.511 Y118.652 E12.39596
G1 X79.428 Y117.753 E12.46802
G1 X79.421 Y117.616 E12.47897
G1 X79.4 Y116.883 E12.53751
G1 X79.4 Y103.131 E13.63525
G1 X79.436 Y102.125 E13.71561
G1 X79.446 Y101.99 E13.72641
G1 X79.547 Y101.075 E13.7999
G1 X79.573 Y100.9 E13.81402
G1 X79.735 Y100.02 E13.88544
G1 X79.765 Y99.886 E13.89641
G1 X79.996 Y99 E13.96949
G1 X80.048 Y98.829 E13.98376
G1 X80.334 Y97.987 E14.05474
G1 X80.398 Y97.821 E14.06895
G1 X80.739 Y97.018 E14.13859
G1 X80.82 Y96.843 E14.15398
G1 X81.235 Y96.035 E14.22649
G1 X81.302 Y95.918 E14.23725
G1 X81.776 Y95.139 E14.31004
G1 X81.876 Y94.988 E14.3245
G1 X82.392 Y94.267 E14.39527
G1 X82.5 Y94.126 E14.40945
G1 X83.077 Y93.434 E14.48137
G1 X83.173 Y93.326 E14.4929
G1 X83.656 Y92.815 E14.54903
G1 X83.655 Y92.814 E14.54914
G1 X83.812 Y92.658 E14.56681
G1 X84.265 Y92.237 E14.61618
G0 F1620 X84.508 Y92.012
G0 F12000 X84.8 Y91.77
G1 F1800 X84.8 Y128.228 E17.52641
G1 F2700 E12.52641
G1 F300 Z0.74
G0 F12000 X86.4 Y129.382 Z0.74
G1 F300 Z0.24
G1 F2700 E17.52641
G1 F1800 X86.4 Y90.611 E20.62128
G1 F2700 E15.62128
G1 F300 Z0.74
G0 F12000 X88 Y89.749 Z0.74
G1 F300 Z0.24
G1 F2700 E20.62128
G1 F1800 X88 Y130.252 E23.8544
G1 F2700 E18.8544
G1 F300 Z0.74
G0 F12000 X89.6 Y130.874 Z0.74
G1 F300 Z0.24
G1 F2700 E23.8544
G1 F1800 X89.6 Y89.127 E27.18683
G1 F2700 E22.18683
G1 F300 Z0.74
G0 F12000 X91.2 Y88.697 Z0.74
G1 F300 Z0.24
G1 F2700 E27.18683
G1 F1800 X91.2 Y131.298 E30.58743
G1 F2700 E25.58743
G1 F300 Z0.74
G0 F12000 X92.8 Y131.532 Z0.74
G1 F300 Z0.24
G1 F2700 E30.58743
G1 F1800 X92.8 Y88.469 E34.0249
G1 F2700 E29.0249
G1 F300 Z0.74
G0 F12000 X94.4 Y88.401 Z0.74
G1 F300 Z0.24
G1 F2700 E34.0249
G1 F1800 X94.4 Y131.599 E37.47315
G1 F2700 E32.47315
G1 F300 Z0.74
G0 F12000 X96 Y131.599 Z0.74
G1 F300 Z0.24
G1 F2700 E37.47315
G1 F1800 X96 Y88.401 E40.9214
G1 F2700 E35.9214
G1 F300 Z0.74
G0 F12000 X97.6 Y88.401 Z0.74
G1 F300 Z0.24
G1 F2700 E40.9214
G1 F1800 X97.6 Y131.599 E44.36966
G1 F2700 E39.36966
G1 F300 Z0.74
G0 F12000 X99.2 Y131.599 Z0.74
G1 F300 Z0.24
G1 F2700 E44.36966
G1 F1800 X99.2 Y88.401 E47.81791
G1 F2700 E42.81791
G1 F300 Z0.74
G0 F12000 X100.8 Y88.401 Z0.74
G1 F300 Z0.24
G1 F2700 E47.81791
G1 F1800 X100.8 Y131.599 E51.26616
G1 F2700 E46.26616
G1 F300 Z0.74
G0 F12000 X102.4 Y131.599 Z0.74
G1 F300 Z0.24
G1 F2700 E51.26616
G1 F1800 X102.4 Y88.401 E54.71441
G1 F2700 E49.71441
G1 F300 Z0.74
G0 F12000 X104 Y88.401 Z0.74
G1 F300 Z0.24
G1 F2700 E54.71441
G1 F1800 X104 Y131.599 E58.16266
G1 F2700 E53.16266
G1 F300 Z0.74
G0 F12000 X105.6 Y131.599 Z0.74
G1 F300 Z0.24
G1 F2700 E58.16266
G1 F1800 X105.6 Y88.401 E61.61091
G1 F2700 E56.61091
G1 F300 Z0.74
G0 F12000 X107.2 Y88.401 Z0.74
G1 F300 Z0.24
G1 F2700 E61.61091
G1 F1800 X107.2 Y131.599 E65.05916
G1 F2700 E60.05916
G1 F300 Z0.74
G0 F12000 X108.8 Y131.599 Z0.74
G1 F300 Z0.24
G1 F2700 E65.05916
G1 F1800 X108.8 Y88.401 E68.50741
G1 F2700 E63.50741
G1 F300 Z0.74
G0 F12000 X110.4 Y88.401 Z0.74
G1 F300 Z0.24
G1 F2700 E68.50741
G1 F1800 X110.4 Y131.599 E71.95566
G1 F2700 E66.95566
G1 F300 Z0.74
G0 F12000 X112 Y131.599 Z0.74
G1 F300 Z0.24
G1 F2700 E71.95566
G1 F1800 X112 Y88.401 E75.40392
G1 F2700 E70.40392
G1 F300 Z0.74
G0 F12000 X113.6 Y88.401 Z0.74
G1 F300 Z0.24
G1 F2700 E75.40392
G1 F1800 X113.6 Y131.599 E78.85217
G1 F2700 E73.85217
G1 F300 Z0.74
G0 F12000 X115.2 Y131.599 Z0.74
G1 F300 Z0.24
G1 F2700 E78.85217
G1 F1800 X115.2 Y88.401 E82.30042
G1 F2700 E77.30042
G1 F300 Z0.74
G0 F12000 X116.8 Y88.401 Z0.74
G1 F300 Z0.24
G1 F2700 E82.30042
G1 F1800 X116.8 Y131.599 E85.74867
G1 F2700 E80.74867
G1 F300 Z0.74
G0 F12000 X118.4 Y131.599 Z0.74
G1 F300 Z0.24
G1 F2700 E85.74867
G1 F1800 X118.4 Y88.401 E89.19692
G1 F2700 E84.19692
G1 F300 Z0.74
G0 F12000 X120 Y88.401 Z0.74
G1 F300 Z0.24
G1 F2700 E89.19692
G1 F1800 X120 Y131.599 E92.64517
G1 F2700 E87.64517
G1 F300 Z0.74
G0 F12000 X121.6 Y131.599 Z0.74
G1 F300 Z0.24
G1 F2700 E92.64517
G1 F1800 X121.6 Y88.401 E96.09342
G1 F2700 E91.09342
G1 F300 Z0.74
G0 F12000 X123.2 Y88.401 Z0.74
G1 F300 Z0.24
G1 F2700 E96.09342
G1 F1800 X123.2 Y131.599 E99.54167
G1 F2700 E94.54167
G1 F300 Z0.74
G0 F12000 X124.8 Y131.599 Z0.74
G1 F300 Z0.24
G1 F2700 E99.54167
G1 F1800 X124.8 Y88.401 E102.98992
G1 F2700 E97.98992
G1 F300 Z0.74
G0 F12000 X126.4 Y88.42 Z0.74
G1 F300 Z0.24
G1 F2700 E102.98992
G1 F1800 X126.4 Y131.586 E106.43562
G1 F2700 E101.43562
G1 F300 Z0.74
G0 F12000 X128 Y131.438 Z0.74
G1 F300 Z0.24
G1 F2700 E106.43562
G1 F1800 X128 Y88.559 E109.85841
G1 F2700 E104.85841
G1 F300 Z0.74
G0 F12000 X129.6 Y88.893 Z0.74
G1 F300 Z0.24
G1 F2700 E109.85841
G1 F1800 X129.6 Y131.111 E113.22843
G1 F2700 E108.22843
G1 F300 Z0.74
G0 F12000 X131.2 Y130.588 Z0.74
G1 F300 Z0.24
G1 F2700 E113.22843
G1 F1800 X131.2 Y89.407 E116.51568
G1 F2700 E111.51568
G1 F300 Z0.74
G0 F12000 X132.8 Y90.151 Z0.74
G1 F300 Z0.24
G1 F2700 E116.51568
G1 F1800 X132.8 Y129.854 E119.68494
G1 F2700 E114.68494
G1 F300 Z0.74
G0 F12000 X134.4 Y128.85 Z0.74
G1 F300 Z0.24
G1 F2700 E119.68494
G1 F1800 X134.4 Y91.154 E122.694
G1 F2700 E117.694
G1 F300 Z0.74
G0 F12000 X136 Y92.482 Z0.74
G1 F300 Z0.24
G1 F2700 E122.694
G1 F1800 X136 Y127.517 E125.49065
G1 F2700 E120.49065
G1 F300 Z0.74
G0 F12000 X137.6 Y125.744 Z0.74
G1 F300 Z0.24
G1 F2700 E125.49065
G1 F1800 X137.6 Y94.262 E128.00367
G1 F2700 E123.00367
G1 F300 Z0.74
G0 F12000 X139.2 Y96.896 Z0.74
G1 F300 Z0.24
G1 F2700 E128.00367
G1 F1800 X139.2 Y123.114 E130.09651
G1 F2700 E125.09651
G1 F300 Z0.74
G0 F12000 X83.2 Y126.694 Z0.74
G1 F300 Z0.24
G1 F2700 E130.09651
G1 F1800 X83.2 Y93.297 E132.7624
G1 F2700 E127.7624
G1 F300 Z0.74
G0 F12000 X81.6 Y95.428 Z0.74
G1 F300 Z0.24
G1 F2700 E132.7624
G1 F1800 X81.6 Y124.579 E135.08936
G1 F2700 E130.08936
G1 F300 Z0.74
G0 F12000 X80 Y121.004 Z0.74
G1 F300 Z0.24
G1 F2700 E135.08936
G1 F1800 X80 Y98.986 E136.84693
G1 F2700 E131.84693
G1 F300 Z0.74
G0 F12000 X89.241 Y89.241 Z0.74
;TIME_ELAPSED:85.127979
;LAYER:-5
M140 S65
G0 X89.241 Y89.241 Z1.04
;TYPE:SUPPORT
G1 F300 Z0.54
G1 F2700 E136.84693
G1 F1800 X90.079 Y88.973 E136.93472
G1 X90.243 Y88.927 E136.95172
G1 X90.322 Y88.908 E136.95982
G1 X131.77 Y130.356 E142.80858
G1 X131.779 Y130.353 E142.80953
G1 X131.897 Y130.3 E142.82244
G1 X132.723 Y129.894 E142.91427
G1 X91.477 Y88.649 E148.73446
G1 X92.169 Y88.534 E148.80446
G1 X92.347 Y88.51 E148.82238
G1 X92.719 Y88.476 E148.85965
G1 X133.618 Y129.375 E154.63094
G1 X133.623 Y129.373 E154.63148
G1 X133.807 Y129.256 E154.65323
G1 X134.462 Y128.805 E154.73259
G1 X94.058 Y88.401 E160.43403
G1 X94.124 Y88.399 E160.44061
G1 X95.471 Y88.4 E160.57502
G1 X135.255 Y128.184 E166.18897
G1 X135.354 Y128.105 E166.20161
G1 X135.502 Y127.978 E166.22107
G1 X135.999 Y127.514 E166.28891
G1 X96.885 Y88.4 E171.80832
G1 X98.299 Y88.4 E171.94941
G1 X136.704 Y126.804 E177.3687
G1 X136.826 Y126.673 E177.38656
G1 X136.922 Y126.565 E177.40098
G1 X137.357 Y126.043 E177.46878
G1 X99.714 Y88.4 E182.78061
G1 X101.128 Y88.4 E182.9217
G1 X137.963 Y125.235 E188.11952
G1 X138.123 Y125.012 E188.1469
G1 X138.223 Y124.86 E188.16506
G1 X138.518 Y124.376 E188.22162
G1 X102.542 Y88.4 E193.29822
G1 X103.956 Y88.4 E193.43931
G1 X139.021 Y123.465 E198.38736
G1 X139.179 Y123.157 E198.4219
G1 X139.259 Y122.982 E198.4411
G1 X139.466 Y122.496 E198.49381
G1 X105.37 Y88.4 E203.30512
G1 X106.785 Y88.4 E203.44631
G1 X139.85 Y121.466 E208.11221
G1 X139.951 Y121.17 E208.14342
G1 X140.002 Y120.998 E208.16132
G1 X140.167 Y120.368 E208.2263
G1 X108.199 Y88.4 E212.73733
G1 X109.613 Y88.4 E212.87842
G1 X140.409 Y119.196 E217.22407
G1 X140.426 Y119.101 E217.2337
G1 X140.451 Y118.926 E217.25134
G1 X140.553 Y118.009 E217.3434
G1 X140.559 Y117.931 E217.3512
G1 X111.028 Y88.401 E221.51828
G1 X112.442 Y88.401 E221.65937
G1 X140.599 Y116.558 E225.63262
G1 X140.599 Y115.143 E225.77381
G1 X113.856 Y88.401 E229.54747
G1 X115.271 Y88.401 E229.68866
G1 X140.599 Y113.729 E233.26271
G1 X140.599 Y112.315 E233.4038
G1 X116.685 Y88.401 E236.77833
G1 X118.099 Y88.401 E236.91941
G1 X140.599 Y110.901 E240.09441
G1 X140.599 Y109.486 E240.2356
G1 X119.513 Y88.401 E243.21099
G1 X120.927 Y88.401 E243.35208
G1 X140.599 Y108.072 E246.12794
G1 X140.599 Y106.658 E246.26903
G1 X122.342 Y88.401 E248.84529
G1 X123.756 Y88.401 E248.98638
G1 X140.599 Y105.244 E251.36311
G1 X140.599 Y103.83 E251.5042
G1 X125.17 Y88.401 E253.6814
G1 X125.884 Y88.401 E253.75264
G1 X126.611 Y88.427 E253.82523
G1 X140.578 Y102.394 E255.79612
G1 X140.577 Y102.384 E255.79712
G1 X140.569 Y102.231 E255.81241
G1 X140.487 Y101.348 E255.9009
G1 X140.464 Y101.162 E255.9196
G1 X140.405 Y100.807 E255.9555
G1 X128.187 Y88.589 E257.6796
G1 X128.989 Y88.736 E257.76095
G1 X129.113 Y88.764 E257.77364
G1 X130.007 Y88.999 E257.86587
G1 X130.013 Y89.001 E257.8665
G1 X139.996 Y98.984 E259.27521
G1 X139.753 Y98.23 E259.35426
G1 X139.694 Y98.064 E259.37183
G1 X139.352 Y97.218 E259.46289
G1 X139.29 Y97.082 E259.4778
G1 X139.08 Y96.654 E259.52537
G1 X132.342 Y89.915 E260.47624
G1 X132.964 Y90.235 E260.54604
G1 X133.081 Y90.301 E260.55944
G1 X133.86 Y90.776 E260.65048
G1 X134.01 Y90.875 E260.66842
G1 X134.725 Y91.387 E260.75616
G1 X134.873 Y91.499 E260.77468
G1 X135.565 Y92.076 E260.86458
G1 X135.673 Y92.173 E260.87907
G1 X136.184 Y92.656 E260.94923
G0 F12000 X136.185 Y92.655
G1 F1800 X136.341 Y92.812 E260.97131
G1 X136.987 Y93.507 E261.06599
G1 X137.105 Y93.647 E261.08426
G1 X137.66 Y94.338 E261.17269
G1 X137.764 Y94.476 E261.18994
G1 X138.256 Y95.192 E261.27662
G1 X138.373 Y95.375 E261.29829
G1 X138.812 Y96.124 E261.38492
G1 X138.886 Y96.259 E261.40028
G1 F2700 E256.40028
G1 F300 Z1.04
G0 F12000 X89.241 Y89.241 Z1.04
G1 F300 Z0.54
G1 F2700 E261.40028
G1 F1800 X130.756 Y130.756 E267.2585
G1 X129.92 Y131.026 E267.34616
G1 X129.755 Y131.072 E267.36325
G1 X129.677 Y131.091 E267.37126
G1 X88.228 Y89.642 E273.22016
G1 X88.219 Y89.646 E273.22114
G1 X88.105 Y89.696 E273.23356
G1 X87.276 Y90.104 E273.32576
G1 X128.521 Y131.35 E279.14594
G1 X127.829 Y131.465 E279.21594
G1 X127.651 Y131.488 E279.23385
G1 X127.279 Y131.522 E279.27112
G1 X86.38 Y90.623 E285.04241
G1 X86.375 Y90.625 E285.04295
G1 X86.191 Y90.742 E285.0647
G1 X85.537 Y91.194 E285.14403
G1 X125.94 Y131.597 E290.84533
G1 X125.874 Y131.599 E290.85192
G1 X124.527 Y131.598 E290.98632
G1 X84.743 Y91.814 E296.60027
G1 X84.647 Y91.892 E296.61261
G1 X84.507 Y92.011 E296.63095
G1 X83.999 Y92.484 E296.70021
G1 X123.113 Y131.598 E302.21962
G1 X121.699 Y131.598 E302.36071
G1 X83.295 Y93.194 E307.77992
G1 X83.172 Y93.325 E307.79785
G1 X83.077 Y93.433 E307.81221
G1 X82.641 Y93.955 E307.88007
G1 X120.285 Y131.598 E313.19197
G1 X118.871 Y131.598 E313.33306
G1 X82.035 Y94.763 E318.53095
G1 X81.875 Y94.987 E318.55842
