;FLAVOR:Marlin
;TIME:14833
;Filament used: 12.8229m
;Layer height: 0.2
;MINX:27.641
;MINY:86.2
;MINZ:0.2
;MAXX:192.359
;MAXY:133.8
;MAXZ:18
;Generated with Cura_SteamEngine master
M140 S50
M105
M190 S50
M104 S200
M105
M109 S200
M82 ;absolute extrusion mode
M201 X500.00 Y500.00 Z100.00 E5000.00 ;Setup machine max acceleration
M203 X500.00 Y500.00 Z10.00 E50.00 ;Setup machine max feedrate
M204 P500.00 R1000.00 T500.00 ;Setup Print/Retract/Travel acceleration
M205 X8.00 Y8.00 Z0.40 E5.00 ;Setup Jerk
M220 S100 ;Reset Feedrate
M221 S100 ;Reset Flowrate

G28 ;Home

G92 E0 ;Reset Extruder
G1 Z2.0 F3000 ;Move Z Axis up
G1 X10.1 Y20 Z0.28 F5000.0 ;Move to start position
G1 X10.1 Y200.0 Z0.28 F1500.0 E15 ;Draw the first line
G1 X10.4 Y200.0 Z0.28 F5000.0 ;Move to side a little
G1 X10.4 Y20 Z0.28 F1500.0 E30 ;Draw the second line
G92 E0 ;Reset Extruder
G1 Z2.0 F3000 ;Move Z Axis up

G92 E0
G92 E0
G1 F2700 E-5
;LAYER_COUNT:90
;LAYER:0
M107
G0 F6000 X32.663 Y86.757 Z0.2
;TYPE:SKIRT
G1 F2700 E0
G1 F1200 X33.41 Y86.502 E0.02625
G1 X34.179 Y86.323 E0.05251
G1 X34.963 Y86.223 E0.0788
G1 X35.558 Y86.2 E0.09861
G1 X184.442 Y86.2 E5.05051
G1 X185.231 Y86.24 E5.07678
G1 X186.011 Y86.359 E5.10303
G1 X186.776 Y86.557 E5.12931
G1 X187.516 Y86.831 E5.15555
G1 X188.225 Y87.179 E5.18182
G1 X188.896 Y87.597 E5.20812
G1 X189.52 Y88.08 E5.23436
G1 X189.957 Y88.485 E5.25418
G1 X190.074 Y88.602 E5.25968
G1 X190.604 Y89.188 E5.28596
G1 X191.071 Y89.824 E5.31221
G1 X191.472 Y90.504 E5.33846
G1 X191.802 Y91.222 E5.36474
G1 X192.057 Y91.969 E5.391
G1 X192.236 Y92.738 E5.41726
G1 X192.336 Y93.522 E5.44355
G1 X192.359 Y94.117 E5.46335
G1 X192.359 Y125.883 E6.51989
G1 X192.319 Y126.672 E6.54617
G1 X192.2 Y127.452 E6.57241
G1 X192.002 Y128.217 E6.59869
G1 X191.728 Y128.957 E6.62494
G1 X191.38 Y129.666 E6.65121
G1 X190.962 Y130.337 E6.6775
G1 X190.479 Y130.961 E6.70375
G1 X190.074 Y131.398 E6.72356
G1 X189.957 Y131.515 E6.72907
G1 X189.371 Y132.045 E6.75535
G1 X188.735 Y132.512 E6.78159
G1 X188.055 Y132.913 E6.80785
G1 X187.337 Y133.243 E6.83413
G1 X186.59 Y133.498 E6.86038
G1 X185.821 Y133.677 E6.88664
G1 X185.037 Y133.777 E6.91293
G1 X184.442 Y133.8 E6.93273
G1 X35.558 Y133.8 E11.88464
G1 X34.769 Y133.76 E11.91091
G1 X33.989 Y133.641 E11.93716
G1 X33.224 Y133.443 E11.96344
G1 X32.484 Y133.169 E11.98968
G1 X31.775 Y132.821 E12.01595
G1 X31.104 Y132.403 E12.04225
G1 X30.48 Y131.92 E12.06849
G1 X30.043 Y131.515 E12.08831
G1 X29.926 Y131.398 E12.09381
G1 X29.396 Y130.812 E12.12009
G1 X28.929 Y130.176 E12.14633
G1 X28.528 Y129.496 E12.17259
G1 X28.198 Y128.778 E12.19887
G1 X27.943 Y128.031 E12.22513
G1 X27.764 Y127.262 E12.25139
G1 X27.664 Y126.478 E12.27767
G1 X27.641 Y125.883 E12.29748
G1 X27.641 Y94.117 E13.35402
G1 X27.681 Y93.328 E13.3803
G1 X27.8 Y92.548 E13.40654
G1 X27.998 Y91.783 E13.43282
G1 X28.272 Y91.043 E13.45907
G1 X28.62 Y90.334 E13.48534
G1 X29.038 Y89.663 E13.51163
G1 X29.521 Y89.039 E13.53788
G1 X29.926 Y88.602 E13.55769
G1 X30.043 Y88.485 E13.5632
G1 X30.629 Y87.955 E13.58948
G1 X31.265 Y87.488 E13.61572
G1 X31.945 Y87.087 E13.64198
G1 X32.663 Y86.757 E13.66826
G0 F6000 X32.886 Y87.099
G1 F1200 X33.617 Y86.859 E13.69385
G1 X34.368 Y86.696 E13.71941
G1 X35.133 Y86.612 E13.745
G1 X35.558 Y86.6 E13.75915
G1 X184.442 Y86.6 E18.71105
G1 X185.21 Y86.64 E18.73663
G1 X185.97 Y86.759 E18.76221
G1 X186.713 Y86.957 E18.78779
G1 X187.432 Y87.231 E18.81338
G1 X188.118 Y87.578 E18.83895
G1 X188.765 Y87.994 E18.86453
G1 X189.365 Y88.475 E18.89011
G1 X189.675 Y88.767 E18.90427
G1 X189.792 Y88.884 E18.90978
G1 X190.306 Y89.456 E18.93535
G1 X190.759 Y90.078 E18.96095
G1 X191.145 Y90.743 E18.98652
G1 X191.46 Y91.445 E19.01211
G1 X191.7 Y92.176 E19.0377
G1 X191.863 Y92.927 E19.06326
G1 X191.947 Y93.692 E19.08886
G1 X191.959 Y94.117 E19.103
G1 X191.959 Y125.883 E20.15954
G1 X191.919 Y126.651 E20.18512
G1 X191.8 Y127.411 E20.21071
G1 X191.602 Y128.154 E20.23628
G1 X191.328 Y128.873 E20.26187
G1 X190.981 Y129.559 E20.28744
G1 X190.565 Y130.206 E20.31302
G1 X190.084 Y130.806 E20.3386
G1 X189.792 Y131.116 E20.35277
G1 X189.675 Y131.233 E20.35827
G1 X189.103 Y131.747 E20.38385
G1 X188.481 Y132.2 E20.40944
G1 X187.816 Y132.586 E20.43501
G1 X187.114 Y132.901 E20.46061
G1 X186.383 Y133.141 E20.4862
G1 X185.632 Y133.304 E20.51176
G1 X184.867 Y133.388 E20.53735
G1 X184.442 Y133.4 E20.55149
G1 X35.558 Y133.4 E25.5034
G1 X34.79 Y133.36 E25.52897
G1 X34.03 Y133.241 E25.55456
G1 X33.287 Y133.043 E25.58013
G1 X32.568 Y132.769 E25.60573
G1 X31.882 Y132.422 E25.6313
G1 X31.235 Y132.006 E25.65688
G1 X30.635 Y131.525 E25.68246
G1 X30.325 Y131.233 E25.69662
G1 X30.208 Y131.116 E25.70212
G1 X29.694 Y130.544 E25.7277
G1 X29.241 Y129.922 E25.75329
G1 X28.855 Y129.257 E25.77887
G1 X28.54 Y128.555 E25.80446
G1 X28.3 Y127.824 E25.83005
G1 X28.137 Y127.073 E25.85561
G1 X28.053 Y126.308 E25.88121
G1 X28.041 Y125.883 E25.89535
G1 X28.041 Y94.117 E26.95189
G1 X28.081 Y93.349 E26.97747
G1 X28.2 Y92.589 E27.00305
G1 X28.398 Y91.846 E27.02863
G1 X28.672 Y91.127 E27.05422
G1 X29.019 Y90.441 E27.07979
G1 X29.435 Y89.794 E27.10537
G1 X29.916 Y89.194 E27.13095
G1 X30.208 Y88.884 E27.14511
G1 X30.325 Y88.767 E27.15062
G1 X30.897 Y88.253 E27.17619
G1 X31.519 Y87.8 E27.20179
G1 X32.184 Y87.414 E27.22736
G1 X32.886 Y87.099 E27.25295
G0 F6000 X33.107 Y87.443
G1 F1200 X33.821 Y87.219 E27.27784
G1 X34.554 Y87.072 E27.30271
G1 X35.558 Y87 E27.33619
G1 X184.442 Y87 E32.28809
G1 X185.189 Y87.04 E32.31297
G1 X185.927 Y87.159 E32.33783
G1 X186.649 Y87.357 E32.36273
G1 X187.345 Y87.63 E32.3876
G1 X188.008 Y87.977 E32.41249
G1 X188.631 Y88.392 E32.43739
G1 X189.392 Y89.05 E32.47085
G1 X189.509 Y89.167 E32.47635
G1 X190.009 Y89.724 E32.50124
G1 X190.446 Y90.33 E32.52609
G1 X190.817 Y90.98 E32.55099
G1 X191.116 Y91.666 E32.57588
G1 X191.34 Y92.38 E32.60077
G1 X191.487 Y93.113 E32.62563
G1 X191.559 Y94.117 E32.65911
G1 X191.559 Y125.883 E33.71565
G1 X191.519 Y126.63 E33.74053
G1 X191.4 Y127.368 E33.76539
G1 X191.202 Y128.09 E33.7903
G1 X190.929 Y128.786 E33.81516
G1 X190.582 Y129.449 E33.84005
G1 X190.167 Y130.072 E33.86495
G1 X189.509 Y130.833 E33.89841
G1 X189.392 Y130.95 E33.90391
G1 X188.835 Y131.45 E33.92881
G1 X188.229 Y131.887 E33.95366
G1 X187.579 Y132.258 E33.97855
G1 X186.893 Y132.557 E34.00344
G1 X186.179 Y132.781 E34.02833
G1 X185.446 Y132.928 E34.05319
G1 X184.442 Y133 E34.08667
G1 X35.558 Y133 E39.03857
G1 X34.811 Y132.96 E39.06345
G1 X34.073 Y132.841 E39.08832
G1 X33.351 Y132.643 E39.11322
G1 X32.655 Y132.37 E39.13808
G1 X31.992 Y132.023 E39.16297
G1 X31.369 Y131.608 E39.18787
G1 X30.608 Y130.95 E39.22133
G1 X30.491 Y130.833 E39.22683
G1 X29.991 Y130.276 E39.25173
G1 X29.554 Y129.67 E39.27658
G1 X29.183 Y129.02 E39.30147
G1 X28.884 Y128.334 E39.32636
G1 X28.66 Y127.62 E39.35125
G1 X28.513 Y126.887 E39.37612
G1 X28.441 Y125.883 E39.40959
G1 X28.441 Y94.117 E40.46614
G1 X28.481 Y93.37 E40.49102
G1 X28.6 Y92.632 E40.51588
G1 X28.798 Y91.91 E40.54078
G1 X29.071 Y91.214 E40.56565
G1 X29.418 Y90.551 E40.59054
G1 X29.833 Y89.928 E40.61543
G1 X30.491 Y89.167 E40.64889
G1 X30.608 Y89.05 E40.6544
G1 X31.165 Y88.55 E40.67929
G1 X31.771 Y88.113 E40.70414
G1 X32.421 Y87.742 E40.72903
G1 X33.107 Y87.443 E40.75392
G0 F6000 X33.326 Y87.789
G1 F1200 X34.022 Y87.581 E40.77809
G1 X34.737 Y87.451 E40.80226
G1 X35.558 Y87.4 E40.82962
G1 X184.442 Y87.4 E45.78152
G1 X185.167 Y87.44 E45.80567
G1 X185.884 Y87.559 E45.82984
G1 X186.583 Y87.757 E45.854
G1 X187.256 Y88.03 E45.87816
G1 X187.895 Y88.375 E45.90231
G1 X188.492 Y88.789 E45.92648
G1 X189.109 Y89.333 E45.95384
G1 X189.226 Y89.45 E45.95934
G1 X189.71 Y89.991 E45.98348
G1 X190.133 Y90.582 E46.00766
G1 X190.487 Y91.216 E46.03181
G1 X190.77 Y91.885 E46.05597
G1 X190.978 Y92.581 E46.08013
G1 X191.108 Y93.296 E46.1043
G1 X191.159 Y94.117 E46.13166
G1 X191.159 Y125.883 E47.1882
G1 X191.119 Y126.608 E47.21235
G1 X191 Y127.325 E47.23652
G1 X190.802 Y128.024 E47.26069
G1 X190.529 Y128.697 E47.28484
G1 X190.184 Y129.336 E47.309
G1 X189.77 Y129.933 E47.33316
G1 X189.226 Y130.55 E47.36052
G1 X189.109 Y130.667 E47.36602
G1 X188.568 Y131.151 E47.39016
G1 X187.977 Y131.574 E47.41434
G1 X187.343 Y131.928 E47.43849
G1 X186.674 Y132.211 E47.46265
G1 X185.978 Y132.419 E47.48681
G1 X185.263 Y132.549 E47.51098
G1 X184.442 Y132.6 E47.53834
G1 X35.558 Y132.6 E52.49024
G1 X34.833 Y132.56 E52.51439
G1 X34.116 Y132.441 E52.53857
G1 X33.417 Y132.243 E52.56273
G1 X32.744 Y131.97 E52.58688
G1 X32.105 Y131.625 E52.61104
G1 X31.508 Y131.211 E52.6352
G1 X30.891 Y130.667 E52.66256
G1 X30.774 Y130.55 E52.66806
G1 X30.29 Y130.009 E52.69221
G1 X29.867 Y129.418 E52.71638
G1 X29.513 Y128.784 E52.74053
G1 X29.23 Y128.115 E52.76469
G1 X29.022 Y127.419 E52.78885
G1 X28.892 Y126.704 E52.81302
G1 X28.841 Y125.883 E52.84038
G1 X28.841 Y94.117 E53.89692
G1 X28.881 Y93.392 E53.92107
G1 X29 Y92.675 E53.94525
G1 X29.198 Y91.976 E53.96941
G1 X29.471 Y91.303 E53.99357
G1 X29.816 Y90.664 E54.01772
G1 X30.23 Y90.067 E54.04188
G1 X30.774 Y89.45 E54.06924
G1 X30.891 Y89.333 E54.07475
G1 X31.432 Y88.849 E54.09889
G1 X32.023 Y88.426 E54.12306
G1 X32.657 Y88.072 E54.14721
G1 X33.326 Y87.789 E54.17137
G0 F6000 X33.543 Y88.136
G1 F1200 X34.221 Y87.946 E54.19479
G1 X34.916 Y87.833 E54.21821
G1 X35.558 Y87.8 E54.23959
G1 X184.442 Y87.8 E59.19149
G1 X185.145 Y87.84 E59.21491
G1 X185.839 Y87.959 E59.23833
G1 X186.514 Y88.157 E59.26173
G1 X187.163 Y88.429 E59.28514
G1 X187.777 Y88.774 E59.30856
G1 X188.348 Y89.185 E59.33196
G1 X188.826 Y89.616 E59.35337
G1 X188.943 Y89.733 E59.35887
G1 X189.412 Y90.258 E59.38228
G1 X189.818 Y90.833 E59.4057
G1 X190.156 Y91.451 E59.42912
G1 X190.423 Y92.102 E59.45253
G1 X190.613 Y92.78 E59.47595
G1 X190.726 Y93.475 E59.49937
G1 X190.759 Y94.117 E59.52075
G1 X190.759 Y125.883 E60.57729
G1 X190.719 Y126.586 E60.60071
G1 X190.6 Y127.28 E60.62413
G1 X190.402 Y127.955 E60.64752
G1 X190.13 Y128.604 E60.67093
G1 X189.785 Y129.218 E60.69435
G1 X189.374 Y129.789 E60.71775
G1 X188.943 Y130.267 E60.73916
G1 X188.826 Y130.384 E60.74466
G1 X188.301 Y130.853 E60.76808
G1 X187.726 Y131.259 E60.79149
G1 X187.108 Y131.597 E60.81492
G1 X186.457 Y131.864 E60.83832
G1 X185.779 Y132.054 E60.86174
G1 X185.084 Y132.167 E60.88516
G1 X184.442 Y132.2 E60.90654
G1 X35.558 Y132.2 E65.85844
G1 X34.855 Y132.16 E65.88186
G1 X34.161 Y132.041 E65.90528
G1 X33.486 Y131.843 E65.92868
G1 X32.837 Y131.571 E65.95208
G1 X32.223 Y131.226 E65.97551
G1 X31.652 Y130.815 E65.99891
G1 X31.174 Y130.384 E66.02031
G1 X31.057 Y130.267 E66.02582
G1 X30.588 Y129.742 E66.04923
G1 X30.182 Y129.167 E66.07264
G1 X29.844 Y128.549 E66.09607
G1 X29.577 Y127.898 E66.11947
G1 X29.387 Y127.22 E66.14289
G1 X29.274 Y126.525 E66.16631
G1 X29.241 Y125.883 E66.18769
G1 X29.241 Y94.117 E67.24423
G1 X29.281 Y93.414 E67.26765
G1 X29.4 Y92.72 E67.29107
G1 X29.598 Y92.045 E67.31447
G1 X29.87 Y91.396 E67.33788
G1 X30.215 Y90.782 E67.3613
G1 X30.626 Y90.211 E67.3847
G1 X31.057 Y89.733 E67.40611
G1 X31.174 Y89.616 E67.41161
G1 X31.699 Y89.147 E67.43502
G1 X32.274 Y88.741 E67.45844
G1 X32.892 Y88.403 E67.48186
G1 X33.543 Y88.136 E67.50527
G0 F6000 X33.124 Y88.735
G1 F1200 X33.758 Y88.486 E67.52792
G1 X34.417 Y88.313 E67.55058
G1 X35.091 Y88.219 E67.57322
G1 X35.558 Y88.2 E67.58876
G1 X184.442 Y88.2 E72.54066
G1 X185.122 Y88.24 E72.56332
G1 X185.792 Y88.359 E72.58595
G1 X186.444 Y88.556 E72.60861
G1 X187.068 Y88.828 E72.63125
G1 X187.656 Y89.172 E72.65391
G1 X188.2 Y89.582 E72.67656
G1 X188.543 Y89.899 E72.6921
G1 X188.66 Y90.016 E72.6976
G1 X189.113 Y90.525 E72.72026
G1 X189.502 Y91.083 E72.74289
G1 X189.824 Y91.683 E72.76553
G1 X190.073 Y92.317 E72.78819
G1 X190.246 Y92.976 E72.81085
G1 X190.34 Y93.65 E72.83349
G1 X190.359 Y94.117 E72.84903
G1 X190.359 Y125.883 E73.90557
G1 X190.319 Y126.563 E73.92823
G1 X190.2 Y127.233 E73.95086
G1 X190.003 Y127.885 E73.97351
G1 X189.731 Y128.509 E73.99616
G1 X189.387 Y129.097 E74.01881
G1 X188.977 Y129.641 E74.04147
G1 X188.66 Y129.984 E74.057
G1 X188.543 Y130.101 E74.06251
G1 X188.034 Y130.554 E74.08517
G1 X187.476 Y130.943 E74.10779
G1 X186.876 Y131.265 E74.13044
G1 X186.242 Y131.514 E74.1531
G1 X185.583 Y131.687 E74.17576
G1 X184.909 Y131.781 E74.19839
G1 X184.442 Y131.8 E74.21394
G1 X35.558 Y131.8 E79.16584
G1 X34.878 Y131.76 E79.1885
G1 X34.208 Y131.641 E79.21113
G1 X33.556 Y131.444 E79.23378
G1 X32.932 Y131.172 E79.25642
G1 X32.344 Y130.828 E79.27908
G1 X31.8 Y130.418 E79.30174
G1 X31.457 Y130.101 E79.31727
G1 X31.34 Y129.984 E79.32278
G1 X30.887 Y129.475 E79.34544
G1 X30.498 Y128.917 E79.36806
G1 X30.176 Y128.317 E79.39071
G1 X29.927 Y127.683 E79.41337
G1 X29.754 Y127.024 E79.43603
G1 X29.66 Y126.35 E79.45866
G1 X29.641 Y125.883 E79.47421
G1 X29.641 Y94.117 E80.53075
G1 X29.681 Y93.437 E80.5534
G1 X29.8 Y92.767 E80.57604
G1 X29.997 Y92.115 E80.59869
G1 X30.269 Y91.491 E80.62133
G1 X30.613 Y90.903 E80.64399
G1 X31.023 Y90.359 E80.66665
G1 X31.34 Y90.016 E80.68218
G1 X31.457 Y89.899 E80.68768
G1 X31.966 Y89.446 E80.71035
G1 X32.524 Y89.057 E80.73297
G1 X33.124 Y88.735 E80.75562
G0 F6000 X33.355 Y89.07
G1 F1200 X33.97 Y88.839 E80.77747
G1 X34.609 Y88.684 E80.79934
G1 X35.558 Y88.6 E80.83103
G1 X184.442 Y88.6 E85.78293
G1 X185.098 Y88.64 E85.80479
G1 X185.744 Y88.759 E85.82663
G1 X186.371 Y88.956 E85.84849
G1 X186.969 Y89.228 E85.87034
G1 X187.53 Y89.57 E85.8922
G1 X188.26 Y90.182 E85.92388
G1 X188.377 Y90.299 E85.92938
G1 X188.813 Y90.791 E85.95125
G1 X189.185 Y91.332 E85.97309
G1 X189.489 Y91.914 E85.99493
G1 X189.72 Y92.529 E86.01678
G1 X189.875 Y93.168 E86.03865
G1 X189.959 Y94.117 E86.07033
G1 X189.959 Y125.883 E87.12687
G1 X189.919 Y126.539 E87.14873
G1 X189.8 Y127.185 E87.17058
G1 X189.603 Y127.812 E87.19244
G1 X189.331 Y128.41 E87.21429
G1 X188.989 Y128.971 E87.23614
G1 X188.377 Y129.701 E87.26783
G1 X188.26 Y129.818 E87.27333
G1 X187.768 Y130.254 E87.29519
G1 X187.227 Y130.626 E87.31703
G1 X186.645 Y130.93 E87.33887
G1 X186.03 Y131.161 E87.36072
G1 X185.391 Y131.316 E87.38259
G1 X184.442 Y131.4 E87.41428
G1 X35.558 Y131.4 E92.36618
G1 X34.902 Y131.36 E92.38804
G1 X34.256 Y131.241 E92.40989
G1 X33.629 Y131.044 E92.43175
G1 X33.031 Y130.772 E92.4536
G1 X32.47 Y130.43 E92.47545
G1 X31.74 Y129.818 E92.50713
G1 X31.623 Y129.701 E92.51264
G1 X31.187 Y129.209 E92.5345
G1 X30.815 Y128.668 E92.55634
G1 X30.511 Y128.086 E92.57818
G1 X30.28 Y127.471 E92.60003
G1 X30.125 Y126.832 E92.6219
G1 X30.041 Y125.883 E92.65358
G1 X30.041 Y94.117 E93.71013
G1 X30.081 Y93.461 E93.73198
G1 X30.2 Y92.815 E93.75383
G1 X30.397 Y92.188 E93.77569
G1 X30.669 Y91.59 E93.79754
G1 X31.011 Y91.029 E93.81939
G1 X31.623 Y90.299 E93.85108
G1 X31.74 Y90.182 E93.85658
G1 X32.232 Y89.746 E93.87845
G1 X32.773 Y89.374 E93.90028
G1 X33.355 Y89.07 E93.92212
G0 F6000 X33.584 Y89.406
G1 F1200 X34.179 Y89.194 E93.94313
G1 X34.797 Y89.058 E93.96418
G1 X35.558 Y89 E93.98956
G1 X184.442 Y89 E98.94146
G1 X185.073 Y89.04 E98.96249
G1 X185.694 Y89.159 E98.98352
G1 X186.294 Y89.356 E99.00453
G1 X186.866 Y89.627 E99.02558
G1 X187.398 Y89.967 E99.04658
G1 X187.978 Y90.464 E99.07198
G1 X188.095 Y90.581 E99.07749
G1 X188.512 Y91.056 E99.09851
G1 X188.867 Y91.579 E99.11953
G1 X189.153 Y92.143 E99.14057
G1 X189.365 Y92.738 E99.16157
G1 X189.501 Y93.356 E99.18262
G1 X189.559 Y94.117 E99.20801
G1 X189.559 Y125.883 E100.26455
G1 X189.519 Y126.514 E100.28558
G1 X189.4 Y127.135 E100.30661
G1 X189.203 Y127.735 E100.32761
G1 X188.932 Y128.307 E100.34866
G1 X188.592 Y128.839 E100.36966
G1 X188.095 Y129.419 E100.39507
G1 X187.978 Y129.536 E100.40057
G1 X187.503 Y129.953 E100.42159
G1 X186.98 Y130.308 E100.44262
G1 X186.416 Y130.594 E100.46365
G1 X185.821 Y130.806 E100.48466
G1 X185.203 Y130.942 E100.5057
G1 X184.442 Y131 E100.53109
G1 X35.558 Y131 E105.48299
G1 X34.927 Y130.96 E105.50402
G1 X34.306 Y130.841 E105.52505
G1 X33.706 Y130.644 E105.54605
G1 X33.134 Y130.373 E105.56711
G1 X32.602 Y130.033 E105.58811
G1 X32.022 Y129.536 E105.61351
G1 X31.905 Y129.419 E105.61901
G1 X31.488 Y128.944 E105.64004
G1 X31.133 Y128.421 E105.66106
G1 X30.847 Y127.857 E105.68209
G1 X30.635 Y127.262 E105.7031
G1 X30.499 Y126.644 E105.72415
G1 X30.441 Y125.883 E105.74953
